P3
400 225
255
180 203 0
178 202 0
178 202 0
181 204 0
180 203 0
182 205 0
180 203 0
179 203 0
176 200 0
179 203 0
180 204 0
181 205 0
181 205 0
178 201 0
180 204 0
177 201 0
177 202 0
179 203 0
177 201 0
181 205 0
178 201 0
178 202 0
179 203 0
182 205 0
181 205 0
178 202 0
179 203 0
181 205 0
178 202 0
179 203 0
180 204 0
176 202 0
179 203 0
182 205 0
174 199 0
179 203 0
176 201 0
176 202 0
178 201 0
178 202 0
178 202 0
178 202 0
173 199 0
178 203 0
176 200 0
178 203 0
179 203 0
177 202 0
181 204 0
179 203 0
181 205 0
178 203 0
182 205 0
177 201 0
177 202 0
184 208 0
185 208 0
179 203 0
180 204 0
181 205 0
177 202 0
180 205 0
177 202 0
178 202 0
178 201 0
178 201 0
178 202 0
178 202 0
178 203 0
178 202 0
178 203 0
177 202 0
175 199 0
180 204 0
178 202 0
178 203 0
178 202 0
177 201 0
180 204 0
179 203 0
177 201 0
180 203 0
180 204 0
181 205 0
177 201 0
178 202 0
178 202 0
179 204 0
179 203 0
177 202 0
175 201 0
175 199 0
182 205 0
183 205 0
178 202 0
178 202 0
176 200 0
178 202 0
177 201 0
181 204 0
179 202 0
178 202 0
178 204 0
177 201 0
176 199 0
177 201 0
179 203 0
178 202 0
180 203 0
177 201 0
182 206 0
173 198 0
179 203 0
179 203 0
181 205 0
178 203 0
178 202 0
178 202 0
181 204 0
177 201 0
179 203 0
176 201 0
177 201 0
179 202 0
178 202 0
182 206 0
179 202 0
179 204 0
179 203 0
179 201 0
180 203 0
177 201 0
178 202 0
182 205 0
179 202 0
175 199 0
179 202 0
178 202 0
177 201 0
179 203 0
178 202 0
177 201 0
178 201 0
182 204 0
180 203 0
179 202 0
177 201 0
180 205 0
181 204 0
180 204 0
182 205 0
184 206 0
177 199 0
178 203 0
180 204 0
177 202 0
177 202 0
176 198 0
177 201 0
179 202 0
178 202 0
180 204 0
178 203 0
178 201 0
176 201 0
174 200 0
179 202 0
180 203 0
180 203 0
179 203 0
175 198 0
183 205 0
177 202 0
179 201 0
179 201 0
177 200 0
177 201 0
179 203 0
181 204 0
177 201 0
173 198 0
179 202 0
178 203 0
180 203 0
178 201 0
180 203 0
176 200 0
179 203 0
182 206 0
179 204 0
180 204 0
181 203 0
181 204 0
177 202 0
181 204 0
175 199 0
177 202 0
177 202 0
181 205 0
178 201 0
177 202 0
179 204 0
176 201 0
182 205 0
177 201 0
176 200 0
177 202 0
178 203 0
177 202 0
178 200 0
178 202 0
171 195 0
172 196 0
179 202 0
179 203 0
180 202 0
179 203 0
180 203 0
178 202 0
177 200 0
178 201 0
177 201 0
178 201 0
176 200 0
183 206 0
175 199 0
179 202 0
180 202 0
179 203 0
180 203 0
179 203 0
180 204 0
175 198 0
176 200 0
173 199 0
179 203 0
180 203 0
177 201 0
178 203 0
178 202 0
178 202 0
179 203 0
182 204 0
179 203 0
177 201 0
176 199 0
178 202 0
179 203 0
157 171 39
134 128 74
142 135 75
140 135 74
141 136 79
143 136 77
140 135 77
148 143 91
149 143 85
161 154 91
155 150 93
151 145 88
166 160 93
155 150 93
154 148 91
141 137 86
154 147 90
149 144 88
163 157 93
148 144 88
155 150 95
151 146 91
160 155 101
161 157 101
160 156 102
151 146 91
165 160 101
162 157 101
156 153 101
165 160 104
160 155 101
157 154 99
155 152 97
165 160 106
169 166 110
162 158 104
165 161 104
163 159 103
160 158 106
169 164 107
164 162 108
163 159 103
168 165 108
161 158 104
170 166 110
165 162 106
162 160 107
162 160 107
169 165 109
165 162 108
166 164 109
158 155 103
165 162 108
168 165 110
157 156 104
164 162 108
165 163 109
167 165 110
163 161 108
164 161 107
161 158 106
166 165 110
167 163 108
161 158 106
163 161 109
162 160 107
165 162 108
163 160 107
159 157 106
166 164 109
171 169 113
167 164 109
166 164 109
157 156 104
157 155 104
161 158 106
169 167 112
162 161 108
168 166 110
161 159 107
167 165 110
161 159 107
160 158 106
165 162 108
162 160 107
164 162 108
162 159 106
161 159 106
165 160 106
165 162 108
162 160 107
161 159 106
168 164 109
155 153 101
162 160 107
155 152 101
163 160 107
157 154 102
161 159 106
155 152 101
164 160 104
164 160 106
153 148 97
168 163 107
171 167 109
162 157 101
162 159 104
162 157 102
163 160 101
159 155 101
158 153 99
162 158 102
168 162 102
161 155 101
147 145 94
146 143 91
159 152 97
151 147 94
142 137 84
151 145 91
157 151 85
149 143 87
149 144 87
148 141 88
161 154 91
154 148 93
152 147 85
142 136 77
140 135 79
140 135 75
145 139 80
133 132 66
177 198 22
181 203 0
182 204 0
176 201 0
177 202 0
183 206 0
177 202 0
178 203 0
177 202 0
182 205 0
184 207 0
181 204 0
180 202 0
183 205 0
179 203 0
180 203 0
179 202 0
176 199 0
179 202 0
181 204 0
179 203 0
178 202 0
182 205 0
180 204 0
180 204 0
179 203 0
180 204 0
178 202 0
177 203 0
181 204 0
179 203 0
182 206 0
178 202 0
178 203 0
177 201 0
176 200 0
182 205 0
175 200 0
176 201 0
181 205 0
180 204 0
180 204 0
179 202 0
177 202 0
178 202 0
182 205 0
179 204 0
182 206 0
178 202 0
182 205 0
178 202 0
180 204 0
179 204 0
182 206 0
183 206 0
179 203 0
176 200 0
176 201 0
179 204 0
176 200 0
179 204 0
179 202 0
177 201 0
176 200 0
179 204 0
178 202 0
179 203 0
182 205 0
177 202 0
180 205 0
176 201 0
178 203 0
179 203 0
178 202 0
177 200 0
179 203 0
179 202 0
180 204 0
177 202 0
181 204 0
181 205 0
178 202 0
182 205 0
178 202 0
180 203 0
180 204 0
180 204 0
182 205 0
175 199 0
179 203 0
178 202 0
177 202 0
177 200 0
176 201 0
181 204 0
175 200 0
176 200 0
180 204 0
178 202 0
179 203 0
178 202 0
175 200 0
176 201 0
177 202 0
182 204 0
181 204 0
181 204 0
178 202 0
182 206 0
176 201 0
180 204 0
176 200 0
180 204 0
181 204 0
181 205 0
177 201 0
177 201 0
175 200 0
179 203 0
178 201 0
180 204 0
177 201 0
178 202 0
180 205 0
179 204 0
175 200 0
176 200 0
176 199 0
178 202 0
181 204 0
181 204 0
178 202 0
173 197 0
179 203 0
177 201 0
176 200 0
179 204 0
176 198 0
179 203 0
175 199 0
178 202 0
177 199 0
175 199 0
178 202 0
178 201 0
181 204 0
178 201 0
177 201 0
174 198 0
178 202 0
177 201 0
177 202 0
180 204 0
174 199 0
176 201 0
175 199 0
179 203 0
176 199 0
178 202 0
177 202 0
174 199 0
175 200 0
176 200 0
179 203 0
176 199 0
180 204 0
181 204 0
181 204 0
178 202 0
181 204 0
178 202 0
177 201 0
178 202 0
179 203 0
178 202 0
181 205 0
177 201 0
176 200 0
179 203 0
174 198 0
175 200 0
179 201 0
180 203 0
180 203 0
177 201 0
173 197 0
176 200 0
181 204 0
174 200 0
181 204 0
182 205 0
181 204 0
178 202 0
176 200 0
176 199 0
175 200 0
176 201 0
176 199 0
177 201 0
178 202 0
177 201 0
177 201 0
181 204 0
178 202 0
177 200 0
178 202 0
177 201 0
177 201 0
177 201 0
180 204 0
177 200 0
176 200 0
179 203 0
180 204 0
179 202 0
182 205 0
176 200 0
178 200 0
178 202 0
177 201 0
179 204 0
179 202 0
176 200 0
175 199 0
178 203 0
178 202 0
177 202 0
178 203 0
178 202 0
176 201 0
180 204 0
177 201 0
177 201 0
177 200 0
180 203 0
177 202 0
178 201 0
178 203 0
179 203 0
174 198 0
183 205 0
175 198 0
179 203 0
179 202 0
180 204 0
176 200 0
178 200 0
178 201 0
178 202 0
179 202 0
180 204 0
179 203 0
176 201 0
182 205 0
171 196 0
179 203 0
180 203 0
179 203 0
177 200 0
180 203 0
177 200 0
177 201 0
178 202 0
176 200 0
180 203 0
181 203 0
179 202 0
172 193 28
138 132 72
139 133 70
156 148 84
133 127 66
149 141 80
150 144 84
147 142 80
147 142 77
158 151 88
159 153 87
140 135 85
146 141 88
163 156 98
141 139 85
156 150 94
147 141 87
146 141 90
164 158 99
170 162 102
162 157 101
173 166 103
156 150 88
163 158 98
164 158 104
152 149 97
159 154 102
162 159 106
159 155 97
168 165 107
157 153 99
169 165 109
166 160 103
160 158 105
161 156 102
159 157 104
159 155 102
166 163 107
162 157 103
160 157 104
166 162 107
162 159 106
159 157 105
170 165 109
155 153 103
167 163 107
161 158 103
164 162 108
166 164 108
163 160 106
168 166 111
164 162 107
165 163 109
161 158 106
163 161 107
166 164 109
166 164 109
167 165 110
165 163 109
161 159 107
166 162 107
162 160 107
165 162 108
164 162 108
164 162 108
166 164 109
163 160 107
160 159 107
166 164 109
162 160 107
161 159 106
163 161 108
170 168 113
155 153 102
162 160 107
162 162 109
158 156 104
164 162 108
154 151 101
167 164 109
170 167 112
166 163 108
162 160 107
172 167 110
163 159 106
162 159 106
162 160 107
161 157 104
160 157 104
169 167 112
163 161 107
166 164 109
164 161 107
166 163 106
165 163 109
160 157 104
164 160 106
160 157 103
159 156 103
154 151 99
162 159 104
170 166 108
160 156 102
156 151 99
161 158 103
164 160 106
162 160 104
148 144 93
159 155 102
165 161 104
160 154 101
170 163 103
146 141 91
160 157 104
164 157 98
148 144 95
147 142 91
149 144 85
166 159 99
144 139 90
151 146 95
159 154 97
161 156 93
157 151 90
147 141 85
153 147 91
160 153 95
142 136 79
159 153 93
154 146 88
135 130 75
137 130 74
127 122 66
151 157 58
184 208 0
176 200 0
180 204 0
179 203 0
179 204 0
179 203 0
181 204 0
178 203 0
179 204 0
178 202 0
179 203 0
179 204 0
178 203 0
183 205 0
179 203 0
182 204 0
180 204 0
181 204 0
181 205 0
178 202 0
179 202 0
180 204 0
179 203 0
181 205 0
182 206 0
175 200 0
181 205 0
179 203 0
177 201 0
179 203 0
178 203 0
178 202 0
176 201 0
188 210 0
179 203 0
178 202 0
179 203 0
181 205 0
182 206 0
181 204 0
176 200 0
179 203 0
179 203 0
177 202 0
176 200 0
178 203 0
179 203 0
179 203 0
179 202 0
177 202 0
179 203 0
178 202 0
178 202 0
180 203 0
174 198 0
179 203 0
182 205 0
178 201 0
180 203 0
179 203 0
180 203 0
181 205 0
180 204 0
177 202 0
176 200 0
178 203 0
178 203 0
177 203 0
181 204 0
178 202 0
177 202 0
178 203 0
178 202 0
178 203 0
182 205 0
181 205 0
175 201 0
176 200 0
177 202 0
177 201 0
177 201 0
179 203 0
179 203 0
181 205 0
183 207 0
179 203 0
176 200 0
180 203 0
182 205 0
179 203 0
181 205 0
182 206 0
180 204 0
180 204 0
178 203 0
177 201 0
180 203 0
176 200 0
178 203 0
179 203 0
179 203 0
181 205 0
178 201 0
180 203 0
178 201 0
179 203 0
177 201 0
180 204 0
178 202 0
179 202 0
179 203 0
180 205 0
179 203 0
185 208 0
175 199 0
176 201 0
177 201 0
181 205 0
178 202 0
178 202 0
175 200 0
179 202 0
176 200 0
183 206 0
176 201 0
181 204 0
177 201 0
178 202 0
180 203 0
179 202 0
179 202 0
176 201 0
177 201 0
178 202 0
177 202 0
180 204 0
181 204 0
175 199 0
180 201 0
177 200 0
177 202 0
174 198 0
182 205 0
176 200 0
183 206 0
178 202 0
178 202 0
179 203 0
180 203 0
184 208 0
181 204 0
180 203 0
175 199 0
176 201 0
179 202 0
174 199 0
184 206 0
177 202 0
178 202 0
178 200 0
179 202 0
176 200 0
177 201 0
177 201 0
177 202 0
175 199 0
181 204 0
179 203 0
179 203 0
179 203 0
177 202 0
176 200 0
179 202 0
179 203 0
180 204 0
177 202 0
175 200 0
182 205 0
176 200 0
179 203 0
178 202 0
178 202 0
176 199 0
175 199 0
178 202 0
180 203 0
178 202 0
175 201 0
177 200 0
180 203 0
177 199 0
176 200 0
182 205 0
177 202 0
179 203 0
176 199 0
179 203 0
179 203 0
179 202 0
180 204 0
174 198 0
178 202 0
177 202 0
178 201 0
180 203 0
177 201 0
177 200 0
178 201 0
176 200 0
179 203 0
180 205 0
178 201 0
179 203 0
178 202 0
174 199 0
178 201 0
178 202 0
182 205 0
176 200 0
176 199 0
177 201 0
179 203 0
174 199 0
179 202 0
178 201 0
173 197 0
180 203 0
175 198 0
177 200 0
176 200 0
184 206 0
173 197 0
180 204 0
179 202 0
177 201 0
176 200 0
177 202 0
182 205 0
176 200 0
178 202 0
180 203 0
178 202 0
181 205 0
180 203 0
178 202 0
174 199 0
178 202 0
181 204 0
178 201 0
179 204 0
179 202 0
178 201 0
177 201 0
173 196 0
177 200 0
179 203 0
172 197 0
177 200 0
181 203 0
178 201 0
177 201 0
175 197 0
176 199 0
180 203 0
182 206 0
175 196 0
150 150 62
143 137 74
133 127 72
140 134 79
153 147 87
142 136 79
152 147 85
162 154 97
155 148 84
151 146 88
151 146 82
159 152 88
145 139 84
152 147 90
155 149 93
159 152 93
161 155 94
158 153 91
162 157 98
156 151 97
165 158 97
148 144 92
154 150 91
162 157 97
157 152 94
166 161 102
156 152 97
154 150 97
162 157 101
159 155 101
165 161 107
162 158 103
151 148 98
173 168 108
163 159 102
160 156 101
166 162 106
154 150 99
156 152 101
163 160 106
167 164 108
173 170 113
162 158 103
168 166 112
161 158 105
160 157 104
171 169 113
164 161 107
168 165 109
164 162 108
161 159 107
162 159 106
168 164 109
168 165 109
162 158 104
164 162 109
164 161 107
170 167 112
169 167 112
158 156 105
162 160 107
172 168 112
168 166 110
161 158 106
159 158 106
163 161 108
166 163 108
169 167 112
166 164 109
171 169 113
166 164 109
160 158 106
167 165 110
162 160 107
158 156 104
159 159 107
152 150 101
166 163 108
165 163 109
165 162 108
165 163 109
161 160 107
165 163 109
167 164 109
167 165 110
164 161 107
150 148 99
165 162 108
151 150 101
171 168 112
159 155 103
165 161 106
162 159 104
170 166 110
161 158 104
162 159 106
167 163 108
158 154 102
162 159 104
170 166 108
160 157 104
168 165 109
170 167 107
168 166 109
160 156 103
168 164 108
162 159 102
161 157 103
157 152 97
172 166 106
159 154 99
150 146 93
156 152 99
162 156 94
161 156 99
161 155 98
163 157 102
159 154 98
171 163 106
148 144 88
157 153 87
151 145 93
151 146 93
158 152 94
151 147 90
154 148 82
142 136 82
136 132 79
156 149 91
143 136 77
141 136 82
150 144 72
128 124 66
142 135 79
169 186 32
179 203 0
181 205 0
181 205 0
179 203 0
179 203 0
179 203 0
174 199 0
181 205 0
178 202 0
177 200 0
182 204 0
179 202 0
179 202 0
178 201 0
181 205 0
177 202 0
180 203 0
180 204 0
181 205 0
179 203 0
177 202 0
180 203 0
179 203 0
181 205 0
176 201 0
180 202 0
179 203 0
182 206 0
182 206 0
180 203 0
180 204 0
182 205 0
180 204 0
175 200 0
179 203 0
182 205 0
176 201 0
180 204 0
177 201 0
179 203 0
178 203 0
182 206 0
179 203 0
175 200 0
180 205 0
174 200 0
178 203 0
180 204 0
177 201 0
179 202 0
177 202 0
179 203 0
178 203 0
178 203 0
182 206 0
178 202 0
178 202 0
178 203 0
184 206 0
178 203 0
178 202 0
177 202 0
179 202 0
182 206 0
179 203 0
180 204 0
179 203 0
178 203 0
176 201 0
179 203 0
180 203 0
176 200 0
179 203 0
180 204 0
178 202 0
180 203 0
183 206 0
181 204 0
176 201 0
180 202 0
178 203 0
179 204 0
182 205 0
178 202 0
177 202 0
178 202 0
182 204 0
178 203 0
182 204 0
182 205 0
183 206 0
179 203 0
178 201 0
179 203 0
178 202 0
179 203 0
180 204 0
179 203 0
181 203 0
178 202 0
177 201 0
175 198 0
178 203 0
178 203 0
178 202 0
179 203 0
179 204 0
177 201 0
181 205 0
179 202 0
178 202 0
178 201 0
177 201 0
180 204 0
179 202 0
176 200 0
181 204 0
180 203 0
176 201 0
176 201 0
177 201 0
182 206 0
179 202 0
179 203 0
177 200 0
179 203 0
178 202 0
181 204 0
176 200 0
175 199 0
176 200 0
180 204 0
178 201 0
181 204 0
176 201 0
176 201 0
180 203 0
179 202 0
179 203 0
178 202 0
176 200 0
176 199 0
177 201 0
180 204 0
182 205 0
177 201 0
174 197 0
180 205 0
178 201 0
179 203 0
176 199 0
178 201 0
181 203 0
180 204 0
178 202 0
177 203 0
177 201 0
180 202 0
175 199 0
176 201 0
180 203 0
180 203 0
176 201 0
179 202 0
181 204 0
176 201 0
177 202 0
174 198 0
178 203 0
178 201 0
179 203 0
176 201 0
177 202 0
182 203 0
178 202 0
187 209 0
177 200 0
176 201 0
177 200 0
178 202 0
177 199 0
178 202 0
179 203 0
180 204 0
177 200 0
177 202 0
173 197 0
175 201 0
176 200 0
178 202 0
176 200 0
180 204 0
179 203 0
179 203 0
176 200 0
177 201 0
177 200 0
180 204 0
178 201 0
176 200 0
178 202 0
177 201 0
175 198 0
179 201 0
176 200 0
178 201 0
177 201 0
179 202 0
177 200 0
178 202 0
179 202 0
177 200 0
179 203 0
175 200 0
178 201 0
177 201 0
180 204 0
180 202 0
184 207 0
176 200 0
178 202 0
180 203 0
179 203 0
181 205 0
177 201 0
180 204 0
178 202 0
178 201 0
175 200 0
180 203 0
177 201 0
179 201 0
175 200 0
176 200 0
180 203 0
176 200 0
180 204 0
177 201 0
179 203 0
177 201 0
174 198 0
180 204 0
180 204 0
177 201 0
179 202 0
174 197 0
178 203 0
176 200 0
177 201 0
175 199 0
177 201 0
179 203 0
177 202 0
180 204 0
174 198 0
177 200 0
179 202 0
172 195 0
176 201 0
171 195 0
177 202 0
176 201 0
176 201 0
181 203 0
156 166 42
122 117 62
141 136 72
153 147 84
146 140 82
145 140 79
140 134 68
152 146 79
149 143 79
151 144 88
156 149 84
141 138 84
168 160 91
166 160 98
148 143 87
147 144 90
163 157 102
168 161 95
142 138 84
146 142 90
159 152 97
162 156 95
153 147 91
153 148 95
151 146 87
162 157 102
159 154 97
168 163 106
155 151 99
161 156 103
157 154 99
156 153 99
162 158 104
155 150 98
169 165 107
164 161 104
154 151 100
158 154 99
165 163 106
162 160 105
170 167 111
170 166 108
163 160 107
170 166 110
159 154 101
158 155 101
161 158 104
163 161 107
171 167 110
166 163 108
160 157 104
168 164 109
168 165 110
164 160 107
169 167 112
161 158 105
163 161 108
168 165 110
169 165 109
173 170 113
161 159 106
168 165 109
173 170 113
165 163 109
164 162 108
169 166 110
163 160 107
160 158 106
166 165 110
165 162 108
165 163 109
169 167 112
162 160 107
161 158 106
159 157 106
167 164 109
163 162 108
166 162 108
169 167 112
167 164 109
169 165 109
167 164 109
170 167 112
165 162 108
167 163 108
167 164 109
170 167 110
162 158 104
169 166 110
155 154 103
163 160 107
166 162 107
172 167 110
166 162 107
167 164 109
165 162 108
169 166 110
164 161 107
165 160 106
159 155 102
166 163 107
160 158 106
159 156 102
168 164 108
163 159 104
158 154 101
166 162 106
166 163 108
160 155 101
156 151 94
157 152 97
165 161 103
165 160 103
163 158 102
160 154 94
157 152 97
158 153 98
165 161 103
156 152 99
153 148 87
148 144 91
155 150 93
159 153 97
136 132 82
152 147 91
152 147 91
154 146 91
149 142 90
143 137 80
161 155 94
150 146 79
142 135 80
124 118 70
136 130 80
145 138 80
141 140 70
176 198 22
179 203 0
177 202 0
175 200 0
178 202 0
178 201 0
181 205 0
179 204 0
179 204 0
176 200 0
181 204 0
181 204 0
178 202 0
182 206 0
177 200 0
179 202 0
177 200 0
178 202 0
178 202 0
181 205 0
175 201 0
179 203 0
180 203 0
178 202 0
182 205 0
180 203 0
181 204 0
182 205 0
181 205 0
178 202 0
179 203 0
181 205 0
178 203 0
181 204 0
182 204 0
176 199 0
183 206 0
180 204 0
178 203 0
179 203 0
179 204 0
178 202 0
178 203 0
175 200 0
179 204 0
177 201 0
177 201 0
180 204 0
179 203 0
178 202 0
176 201 0
179 203 0
178 202 0
176 200 0
178 203 0
172 197 0
176 201 0
177 201 0
178 202 0
179 202 0
177 202 0
181 205 0
181 205 0
179 203 0
178 202 0
183 205 0
180 203 0
182 205 0
176 201 0
177 202 0
178 202 0
177 201 0
178 202 0
178 202 0
179 203 0
178 202 0
177 202 0
179 202 0
178 202 0
178 202 0
181 205 0
183 206 0
177 200 0
179 204 0
181 204 0
182 206 0
175 200 0
179 202 0
175 199 0
179 202 0
177 200 0
174 198 0
180 204 0
179 204 0
176 200 0
179 203 0
177 201 0
179 202 0
179 202 0
179 202 0
181 205 0
182 205 0
177 202 0
180 204 0
175 199 0
178 201 0
176 201 0
176 200 0
178 202 0
179 203 0
176 201 0
180 203 0
180 203 0
179 203 0
176 199 0
178 201 0
181 205 0
178 201 0
178 202 0
178 201 0
176 201 0
177 202 0
177 201 0
178 202 0
178 202 0
176 201 0
180 204 0
181 204 0
176 200 0
176 201 0
179 203 0
180 204 0
178 202 0
176 200 0
179 203 0
177 202 0
178 202 0
178 201 0
177 201 0
172 197 0
178 202 0
178 202 0
179 203 0
180 203 0
178 202 0
175 199 0
179 202 0
179 203 0
179 204 0
178 203 0
179 203 0
176 201 0
180 203 0
179 201 0
178 202 0
175 200 0
177 200 0
176 201 0
178 202 0
176 200 0
177 201 0
181 204 0
178 201 0
176 201 0
181 204 0
177 201 0
179 203 0
175 200 0
178 202 0
180 203 0
178 202 0
178 201 0
180 203 0
173 197 0
178 203 0
178 201 0
179 202 0
176 200 0
177 201 0
178 201 0
177 202 0
179 203 0
178 202 0
179 203 0
181 204 0
178 202 0
175 198 0
178 202 0
183 206 0
178 203 0
176 201 0
175 200 0
175 200 0
174 197 0
180 203 0
176 201 0
180 203 0
177 201 0
180 202 0
175 199 0
177 200 0
178 202 0
177 201 0
179 202 0
178 202 0
177 202 0
171 195 0
176 201 0
176 200 0
180 204 0
182 205 0
179 201 0
176 200 0
178 202 0
176 201 0
176 200 0
180 202 0
175 199 0
175 199 0
176 201 0
172 197 0
177 201 0
176 201 0
177 202 0
179 201 0
175 198 0
177 200 0
183 205 0
180 203 0
177 200 0
176 199 0
177 201 0
182 204 0
181 204 0
174 197 0
182 204 0
177 200 0
179 202 0
179 203 0
178 200 0
174 199 0
178 202 0
180 203 0
179 202 0
183 206 0
174 198 0
177 201 0
178 202 0
175 199 0
178 201 0
178 203 0
180 203 0
174 198 0
178 202 0
173 197 0
182 204 0
178 201 0
179 200 0
184 207 0
177 201 0
179 202 0
175 200 0
181 204 0
164 182 28
135 130 60
137 132 62
153 146 84
150 144 77
144 137 70
143 138 75
146 140 79
137 132 77
147 141 80
146 139 82
151 146 91
155 148 90
150 145 90
159 153 95
157 151 91
149 145 90
161 155 96
160 155 97
159 155 97
158 152 95
160 154 94
162 156 101
153 150 94
162 157 102
163 158 98
167 162 104
159 155 102
154 150 97
159 155 101
169 165 104
159 155 101
155 152 100
159 155 102
159 155 103
159 155 102
166 164 110
153 150 100
154 152 101
168 165 108
156 152 101
164 161 107
162 159 106
168 164 109
161 157 105
169 166 110
171 165 109
167 163 107
160 156 104
168 166 111
169 165 109
171 168 112
163 160 107
167 164 107
165 161 107
159 155 103
167 164 109
169 167 112
162 159 106
155 153 103
162 160 108
166 164 109
169 166 110
173 170 113
164 162 109
165 162 109
166 165 110
168 165 110
163 161 107
168 164 109
156 154 103
167 164 109
165 162 108
165 162 108
165 164 110
170 168 112
166 165 110
166 165 110
165 163 109
169 167 112
168 164 109
165 162 108
158 155 103
168 165 110
175 171 113
167 164 109
165 163 109
164 162 108
173 170 113
163 160 106
171 168 112
164 160 106
166 163 107
164 161 107
154 152 102
158 154 102
167 162 107
172 167 110
171 166 109
164 159 104
164 161 106
161 158 101
169 165 108
169 165 108
162 159 103
160 157 101
168 165 109
159 155 101
147 144 91
160 157 102
168 163 104
158 154 99
157 153 101
154 149 90
154 150 97
166 161 103
155 149 95
166 162 106
151 146 93
158 151 93
166 159 101
151 144 88
147 142 90
144 138 88
151 147 88
148 143 84
154 148 95
142 135 80
147 141 85
148 144 87
148 142 87
148 143 85
147 140 84
153 146 85
140 135 74
150 143 84
137 131 70
158 172 48
178 201 0
180 204 0
180 204 0
177 202 0
183 205 0
178 202 0
175 201 0
184 208 0
177 202 0
179 202 0
179 204 0
178 203 0
178 202 0
181 204 0
179 204 0
179 203 0
182 205 0
178 202 0
179 204 0
181 205 0
179 203 0
177 202 0
181 205 0
178 202 0
178 202 0
178 203 0
180 204 0
178 202 0
179 202 0
180 204 0
182 206 0
179 203 0
179 202 0
180 204 0
180 203 0
181 204 0
177 201 0
178 202 0
177 202 0
179 203 0
174 199 0
185 208 0
178 202 0
183 207 0
178 201 0
179 202 0
180 204 0
178 204 0
176 200 0
178 203 0
178 203 0
180 204 0
179 203 0
175 199 0
176 201 0
175 200 0
180 204 0
178 203 0
175 200 0
175 200 0
180 204 0
180 204 0
178 202 0
180 204 0
177 202 0
174 199 0
182 205 0
178 202 0
178 202 0
176 201 0
179 203 0
177 201 0
180 204 0
176 201 0
179 201 0
178 201 0
177 201 0
179 204 0
176 202 0
178 202 0
179 203 0
182 205 0
179 203 0
179 202 0
172 198 0
178 202 0
176 201 0
182 206 0
180 203 0
178 201 0
176 201 0
180 204 0
181 205 0
179 203 0
177 201 0
177 201 0
184 207 0
177 202 0
178 200 0
180 204 0
180 203 0
179 202 0
178 203 0
179 203 0
179 204 0
177 201 0
179 203 0
174 199 0
179 203 0
180 204 0
177 201 0
178 202 0
178 202 0
180 204 0
177 201 0
181 204 0
178 202 0
175 200 0
176 201 0
182 205 0
177 201 0
178 201 0
175 199 0
174 198 0
172 197 0
177 202 0
181 205 0
181 205 0
180 204 0
180 204 0
176 200 0
178 203 0
176 201 0
176 202 0
177 200 0
179 203 0
180 204 0
180 204 0
179 203 0
177 201 0
178 201 0
174 198 0
180 203 0
178 201 0
176 200 0
177 201 0
178 202 0
180 203 0
177 201 0
176 200 0
181 204 0
177 200 0
180 204 0
179 203 0
180 204 0
175 199 0
178 202 0
177 201 0
180 204 0
177 201 0
175 198 0
178 202 0
175 199 0
179 202 0
178 202 0
177 201 0
175 200 0
177 201 0
178 202 0
177 200 0
179 202 0
175 199 0
176 201 0
173 197 0
180 203 0
180 203 0
179 202 0
175 198 0
178 201 0
179 203 0
179 204 0
180 204 0
174 197 0
177 201 0
175 199 0
178 202 0
178 202 0
180 204 0
173 197 0
175 200 0
180 202 0
176 200 0
175 199 0
174 198 0
178 203 0
183 206 0
176 200 0
176 199 0
176 200 0
177 200 0
177 202 0
178 201 0
178 202 0
180 203 0
177 201 0
179 203 0
180 204 0
182 205 0
175 199 0
178 201 0
178 201 0
183 207 0
176 200 0
179 202 0
178 203 0
175 200 0
182 205 0
176 199 0
177 200 0
179 202 0
179 203 0
179 203 0
178 203 0
178 201 0
176 199 0
177 201 0
176 201 0
176 199 0
174 197 0
182 206 0
176 200 0
177 200 0
183 205 0
180 204 0
181 204 0
178 202 0
180 203 0
181 202 0
181 205 0
177 201 0
176 201 0
176 200 0
179 202 0
178 202 0
175 198 0
178 203 0
179 202 0
177 202 0
175 200 0
180 204 0
174 197 0
179 203 0
177 201 0
176 199 0
180 203 0
180 201 0
174 198 0
179 202 0
175 200 0
180 203 0
178 201 0
176 198 0
136 137 53
132 125 66
147 140 72
122 119 56
144 139 79
154 148 82
147 141 77
136 130 75
148 143 79
155 149 93
157 150 90
163 158 94
150 143 87
158 153 95
168 160 102
150 145 93
145 141 86
168 162 103
155 150 94
158 153 96
159 152 97
157 154 91
151 146 87
164 159 101
165 160 99
159 154 101
168 163 106
162 157 101
160 156 101
166 161 101
158 154 99
162 157 102
162 157 102
160 155 101
167 164 106
169 163 104
159 155 101
169 164 107
157 153 101
160 158 105
167 164 109
171 167 109
162 159 105
171 169 113
165 162 109
163 160 105
177 172 114
164 161 107
169 164 108
161 159 106
159 156 103
166 163 109
171 167 111
168 166 110
168 165 110
163 160 107
166 163 108
164 161 107
169 166 110
166 164 109
166 163 108
159 157 104
174 170 113
168 165 109
163 160 107
159 157 105
171 168 112
166 163 108
170 167 112
164 162 108
166 164 109
173 169 113
169 166 110
162 160 107
170 167 112
168 167 112
163 161 108
162 161 108
173 169 112
170 166 110
170 166 110
169 167 112
170 167 112
168 165 110
168 165 110
169 166 110
168 166 110
165 161 107
166 162 107
172 168 112
159 156 104
157 156 103
160 158 106
157 155 103
162 159 106
157 156 104
170 166 110
163 160 107
166 162 107
160 158 106
161 157 103
166 163 107
158 156 104
167 163 104
153 150 98
154 151 98
156 152 99
161 158 102
169 165 109
166 161 103
169 165 103
162 157 101
165 160 106
161 157 102
157 153 101
163 158 98
161 157 101
152 149 95
148 144 93
159 154 98
149 146 90
138 133 80
148 142 88
152 148 90
171 164 98
153 147 90
152 148 93
140 135 79
153 147 93
147 142 84
144 138 82
155 149 87
150 145 88
132 127 72
139 132 77
145 140 75
152 146 77
128 124 64
177 198 22
178 201 0
183 206 0
179 203 0
174 199 0
180 205 0
174 199 0
179 203 0
176 201 0
181 204 0
178 201 0
178 202 0
180 202 0
178 202 0
180 203 0
176 201 0
178 202 0
181 205 0
178 202 0
179 202 0
178 202 0
180 204 0
180 204 0
179 203 0
180 204 0
176 201 0
178 203 0
178 202 0
174 199 0
178 202 0
175 200 0
177 201 0
181 205 0
181 204 0
180 203 0
177 201 0
179 204 0
180 204 0
181 204 0
183 206 0
179 204 0
177 201 0
176 201 0
180 203 0
177 201 0
181 203 0
179 202 0
179 203 0
179 203 0
176 200 0
179 203 0
180 203 0
185 208 0
181 205 0
179 204 0
183 206 0
175 201 0
181 205 0
179 203 0
177 201 0
177 201 0
176 201 0
178 202 0
182 205 0
181 205 0
180 204 0
180 203 0
178 201 0
180 203 0
179 203 0
178 202 0
180 203 0
182 206 0
175 200 0
176 201 0
176 201 0
178 203 0
179 203 0
178 202 0
179 204 0
174 200 0
186 208 0
177 202 0
177 201 0
178 203 0
179 203 0
176 199 0
179 203 0
176 200 0
178 202 0
180 204 0
177 201 0
176 200 0
178 202 0
178 202 0
183 207 0
180 204 0
180 204 0
180 204 0
177 200 0
176 200 0
179 203 0
179 202 0
180 204 0
181 205 0
178 201 0
177 202 0
181 205 0
176 200 0
178 201 0
178 201 0
176 201 0
178 202 0
176 200 0
178 202 0
179 204 0
181 204 0
181 205 0
180 204 0
177 202 0
184 207 0
178 202 0
178 202 0
177 202 0
176 201 0
180 203 0
178 203 0
180 203 0
175 200 0
176 200 0
178 202 0
176 201 0
176 200 0
180 204 0
179 203 0
179 202 0
176 199 0
175 201 0
177 201 0
173 198 0
178 199 0
175 200 0
176 200 0
178 202 0
178 202 0
177 200 0
175 200 0
180 203 0
181 204 0
177 200 0
174 199 0
181 204 0
177 201 0
181 204 0
182 205 0
178 201 0
177 202 0
177 201 0
178 200 0
177 200 0
179 203 0
177 201 0
176 200 0
181 203 0
178 202 0
176 200 0
181 204 0
179 202 0
179 203 0
179 203 0
181 204 0
178 202 0
179 202 0
182 204 0
179 202 0
181 204 0
179 203 0
176 200 0
176 201 0
179 202 0
177 202 0
177 201 0
179 203 0
174 199 0
175 198 0
182 204 0
175 200 0
177 202 0
179 200 0
177 200 0
174 198 0
177 200 0
178 201 0
174 199 0
179 203 0
175 200 0
180 204 0
177 202 0
175 199 0
179 202 0
180 202 0
183 206 0
175 199 0
183 204 0
176 200 0
176 200 0
178 201 0
174 200 0
176 201 0
178 203 0
175 199 0
174 196 0
175 198 0
174 197 0
182 205 0
180 203 0
179 203 0
180 203 0
178 203 0
171 195 0
178 202 0
181 204 0
177 201 0
178 202 0
177 200 0
180 204 0
179 202 0
177 200 0
176 200 0
181 205 0
176 200 0
181 205 0
176 200 0
180 204 0
178 202 0
177 202 0
175 198 0
174 197 0
174 199 0
180 204 0
182 206 0
173 197 0
177 202 0
174 198 0
177 202 0
175 199 0
173 196 0
174 198 0
175 199 0
177 201 0
176 200 0
177 201 0
179 202 0
178 202 0
182 205 0
177 201 0
177 201 0
180 204 0
178 202 0
178 201 0
179 202 0
163 173 51
125 120 62
139 133 66
148 142 70
145 139 70
144 138 77
159 153 90
153 147 85
144 137 85
161 155 93
158 152 91
167 161 98
158 152 85
148 142 85
158 153 95
164 159 93
158 152 91
163 158 97
154 150 90
159 154 95
153 150 89
150 146 95
161 156 101
157 154 100
161 155 98
170 164 104
167 162 101
152 147 97
153 150 93
157 153 99
166 161 107
166 161 107
160 155 100
167 163 105
165 161 104
166 162 106
168 164 107
164 159 106
165 162 107
170 165 106
160 157 104
156 154 103
159 156 103
169 166 109
168 165 108
167 164 108
166 163 109
163 161 105
160 158 104
171 168 112
169 166 110
168 164 109
173 170 113
164 161 108
167 164 109
164 161 107
168 164 109
162 161 108
164 160 106
164 161 107
160 157 103
164 163 109
167 163 108
163 161 107
160 158 107
167 164 109
163 160 107
167 166 112
162 160 107
166 163 109
162 160 107
170 167 112
162 160 107
168 167 112
170 167 112
167 165 110
169 167 112
168 165 110
164 162 108
164 162 108
167 165 110
173 170 113
162 162 109
163 161 108
164 161 107
165 163 107
167 164 109
164 163 109
169 166 110
163 159 106
160 157 104
168 165 108
166 164 109
168 165 109
163 159 104
168 165 109
163 159 106
165 162 107
165 162 108
159 156 103
168 166 109
162 159 106
167 163 108
154 150 98
163 159 102
170 166 110
157 153 101
166 163 107
161 156 102
160 156 98
162 158 101
162 157 102
159 155 98
161 157 102
159 154 97
165 159 102
141 136 87
153 150 95
160 155 99
149 144 93
158 152 93
161 156 99
146 142 88
150 144 88
158 153 91
163 157 98
145 141 80
149 143 82
157 152 88
155 149 90
148 141 85
155 149 90
143 136 82
150 144 87
143 137 79
143 137 85
137 131 68
143 137 77
140 135 79
153 163 42
181 206 0
177 201 0
179 203 0
178 202 0
178 203 0
174 199 0
179 202 0
176 201 0
177 202 0
182 205 0
176 200 0
180 203 0
178 202 0
180 205 0
181 204 0
180 205 0
179 203 0
181 205 0
178 202 0
178 202 0
181 205 0
179 202 0
178 203 0
180 204 0
185 208 0
179 203 0
178 203 0
181 205 0
182 206 0
179 203 0
179 203 0
175 199 0
182 206 0
178 202 0
178 202 0
184 206 0
176 202 0
181 204 0
180 204 0
176 201 0
179 203 0
178 201 0
178 203 0
177 201 0
180 203 0
182 204 0
179 202 0
180 204 0
178 202 0
175 199 0
176 200 0
181 205 0
180 204 0
178 203 0
177 202 0
178 201 0
180 204 0
179 202 0
181 205 0
178 202 0
181 204 0
178 203 0
174 199 0
179 203 0
175 200 0
180 204 0
177 201 0
180 204 0
179 204 0
185 208 0
177 202 0
178 202 0
178 203 0
178 203 0
177 201 0
176 201 0
182 205 0
179 203 0
175 199 0
176 200 0
179 203 0
178 203 0
178 202 0
176 201 0
182 205 0
178 203 0
181 206 0
179 203 0
176 200 0
177 202 0
176 200 0
179 204 0
180 204 0
180 203 0
174 199 0
176 200 0
178 202 0
180 203 0
179 202 0
177 201 0
177 201 0
178 202 0
179 202 0
180 203 0
177 202 0
178 201 0
176 201 0
178 202 0
177 201 0
180 204 0
181 205 0
177 201 0
177 202 0
177 201 0
178 202 0
178 202 0
178 203 0
178 201 0
175 200 0
179 203 0
180 203 0
178 202 0
179 203 0
175 200 0
176 201 0
175 200 0
179 202 0
175 199 0
177 200 0
183 203 0
175 199 0
177 202 0
180 204 0
179 203 0
177 202 0
178 202 0
177 201 0
174 199 0
180 204 0
178 201 0
179 202 0
179 204 0
179 203 0
176 200 0
179 203 0
178 202 0
177 200 0
180 203 0
176 201 0
180 204 0
174 199 0
178 202 0
177 201 0
176 201 0
176 201 0
176 199 0
179 203 0
174 198 0
182 204 0
176 198 0
176 201 0
177 201 0
177 203 0
176 199 0
179 203 0
178 202 0
179 202 0
177 199 0
175 199 0
174 199 0
177 201 0
174 199 0
178 201 0
182 205 0
176 201 0
176 201 0
180 202 0
177 200 0
180 204 0
180 203 0
180 204 0
186 209 0
181 204 0
172 197 0
179 202 0
178 202 0
177 202 0
185 207 0
177 200 0
176 200 0
178 202 0
176 199 0
183 206 0
176 201 0
174 197 0
177 202 0
176 200 0
177 201 0
175 199 0
175 200 0
176 200 0
180 202 0
178 202 0
179 204 0
175 199 0
183 206 0
176 200 0
180 203 0
174 200 0
177 201 0
175 200 0
175 198 0
170 194 0
176 199 0
174 200 0
178 202 0
178 203 0
177 201 0
178 201 0
179 202 0
177 201 0
177 201 0
182 204 0
176 201 0
179 202 0
177 201 0
179 201 0
181 204 0
176 201 0
184 207 0
176 199 0
174 197 0
177 200 0
180 204 0
176 200 0
175 198 0
179 202 0
178 203 0
179 202 0
177 200 0
179 202 0
177 199 0
177 201 0
179 202 0
177 201 0
178 201 0
174 198 0
174 197 0
181 205 0
174 199 0
177 201 0
177 200 0
177 200 0
179 203 0
174 199 0
180 204 0
170 194 0
177 201 0
177 201 0
170 191 32
142 137 68
143 137 80
138 132 68
153 147 77
151 145 80
145 138 77
150 145 80
119 115 64
145 139 85
157 150 88
144 139 77
156 150 87
166 160 93
134 130 76
154 148 89
155 149 95
162 156 95
139 135 76
162 157 97
163 158 99
153 149 90
166 159 100
166 162 101
158 153 94
156 151 98
158 154 101
158 154 99
163 159 104
161 157 104
155 152 97
163 157 101
160 158 103
163 160 105
156 153 102
159 155 98
166 161 104
167 164 110
162 158 103
163 158 103
163 158 103
159 155 101
151 148 94
166 163 107
173 168 111
164 161 106
163 159 104
164 162 107
157 155 104
166 164 109
165 163 109
166 163 109
166 162 108
164 162 109
166 163 109
156 154 104
164 162 109
164 162 109
169 166 111
167 164 109
169 167 112
164 161 107
172 168 112
162 160 107
166 164 110
172 169 113
170 167 112
172 169 113
173 170 113
162 160 107
171 168 112
169 166 110
164 163 109
169 167 112
169 167 112
167 166 112
167 164 109
171 168 112
163 160 107
167 164 109
160 158 106
174 170 113
161 159 107
168 167 112
168 166 112
169 167 112
165 162 108
169 167 112
160 158 106
171 168 112
154 152 102
162 161 107
162 158 104
167 165 110
166 163 107
170 167 110
167 163 107
171 168 112
164 161 107
171 168 110
165 161 106
165 163 109
166 162 104
165 160 101
155 152 102
166 162 108
164 159 102
162 158 104
154 151 98
167 162 107
168 162 106
161 157 102
161 156 101
163 159 106
161 157 104
164 158 99
158 152 91
157 152 97
166 162 103
164 159 95
152 147 95
160 154 93
174 168 104
171 164 104
148 144 85
156 151 98
138 133 80
169 164 102
157 152 98
156 151 88
161 156 95
150 144 84
138 134 80
153 148 87
150 144 82
149 142 82
143 137 80
134 129 70
140 133 77
145 140 77
127 121 58
173 193 32
180 203 0
180 202 0
178 203 0
181 204 0
181 204 0
179 204 0
176 199 0
183 207 0
178 202 0
178 201 0
179 203 0
181 204 0
181 204 0
180 204 0
182 206 0
180 204 0
184 207 0
180 204 0
178 202 0
178 203 0
177 201 0
176 201 0
178 203 0
174 200 0
178 202 0
180 204 0
182 205 0
182 206 0
177 202 0
182 205 0
178 203 0
179 203 0
179 204 0
178 202 0
180 204 0
178 203 0
178 202 0
177 201 0
180 204 0
182 207 0
178 202 0
180 204 0
180 204 0
178 201 0
181 205 0
181 206 0
180 204 0
178 201 0
180 204 0
178 203 0
177 202 0
175 200 0
186 208 0
180 204 0
181 204 0
176 200 0
178 202 0
174 199 0
183 206 0
175 199 0
179 202 0
182 205 0
178 203 0
179 203 0
179 202 0
178 201 0
177 201 0
179 203 0
178 202 0
176 201 0
181 206 0
178 202 0
180 204 0
176 201 0
177 201 0
174 200 0
179 202 0
181 205 0
177 202 0
177 200 0
177 201 0
175 201 0
177 201 0
178 202 0
178 203 0
179 201 0
181 205 0
179 203 0
182 205 0
177 201 0
180 204 0
176 201 0
180 203 0
177 201 0
179 203 0
176 200 0
176 200 0
182 205 0
177 200 0
178 203 0
179 202 0
174 198 0
178 202 0
179 203 0
179 201 0
175 199 0
179 202 0
180 203 0
177 201 0
181 203 0
176 201 0
176 200 0
173 199 0
177 201 0
180 204 0
176 200 0
179 202 0
177 201 0
176 201 0
178 202 0
179 202 0
176 200 0
177 201 0
180 204 0
180 204 0
176 201 0
180 203 0
177 200 0
179 203 0
176 199 0
175 199 0
181 204 0
181 204 0
178 201 0
177 201 0
178 201 0
178 202 0
175 199 0
180 204 0
182 205 0
181 205 0
181 205 0
178 202 0
175 199 0
176 201 0
177 201 0
178 202 0
177 202 0
177 202 0
181 204 0
176 200 0
176 200 0
177 198 0
177 201 0
180 203 0
175 200 0
177 201 0
176 201 0
177 202 0
181 205 0
178 202 0
179 202 0
181 204 0
177 201 0
177 199 0
178 200 0
178 201 0
177 201 0
178 201 0
178 201 0
176 200 0
178 202 0
172 194 0
179 202 0
176 198 0
180 203 0
178 202 0
178 202 0
176 200 0
179 203 0
180 203 0
179 204 0
178 203 0
180 204 0
176 200 0
179 202 0
176 201 0
180 205 0
180 203 0
176 200 0
178 202 0
178 202 0
177 201 0
179 201 0
177 200 0
179 203 0
177 201 0
177 201 0
178 201 0
175 200 0
178 202 0
178 201 0
181 203 0
178 200 0
180 204 0
179 202 0
179 203 0
176 200 0
177 202 0
177 202 0
181 204 0
175 200 0
174 198 0
182 205 0
182 205 0
176 201 0
177 200 0
176 200 0
178 200 0
178 203 0
179 203 0
174 198 0
177 200 0
174 199 0
180 204 0
178 200 0
178 200 0
177 201 0
176 200 0
181 204 0
176 199 0
180 203 0
175 199 0
177 201 0
181 203 0
178 202 0
179 202 0
176 200 0
179 202 0
178 201 0
179 202 0
178 202 0
177 201 0
178 203 0
175 199 0
174 198 0
179 203 0
179 204 0
177 201 0
177 199 0
177 201 0
177 200 0
179 202 0
177 201 0
179 203 0
178 200 0
179 203 0
182 205 0
152 155 60
130 124 68
132 127 60
144 138 77
141 135 70
146 141 62
146 142 79
145 140 82
158 152 87
156 149 85
154 148 85
151 145 80
151 144 88
155 149 87
158 153 91
152 147 90
151 146 91
162 156 99
159 154 93
160 155 99
157 151 90
161 153 96
160 155 97
161 156 96
162 157 98
150 147 93
160 155 97
154 150 95
148 145 95
160 156 102
162 159 98
150 148 91
164 160 106
151 147 96
171 166 109
158 156 101
163 159 104
145 143 95
167 163 106
166 164 109
170 164 108
164 161 107
166 163 109
169 166 111
163 160 108
160 156 103
161 159 107
165 161 107
149 148 101
163 161 106
171 168 112
171 167 109
164 161 107
165 162 108
169 166 109
168 165 110
167 165 110
173 169 112
161 158 105
165 162 109
164 161 107
164 162 109
162 159 106
169 167 112
170 167 112
163 161 108
169 166 110
173 169 112
170 167 111
166 164 109
164 162 108
164 162 108
172 169 113
172 170 114
167 164 109
170 168 113
166 164 109
167 164 109
166 164 109
168 166 110
162 159 106
169 165 109
164 162 108
167 164 109
168 166 110
168 166 110
166 163 108
167 165 110
167 162 107
164 162 108
168 165 110
160 159 107
169 166 110
164 161 106
162 159 106
173 169 112
167 163 108
166 161 104
169 165 109
164 160 103
164 160 106
169 166 110
174 170 110
162 158 103
165 161 107
167 164 108
170 165 106
155 151 99
160 156 101
164 159 103
172 166 107
164 160 104
157 154 97
154 151 99
168 162 103
151 146 95
154 151 99
143 140 91
161 155 98
170 163 103
165 160 103
165 158 99
158 152 95
155 151 98
154 148 88
158 153 95
148 143 91
146 140 88
161 155 97
162 155 91
155 149 87
141 136 79
162 156 97
154 148 85
140 135 77
155 149 90
149 144 80
133 129 72
148 141 84
128 123 64
141 134 77
139 140 62
178 202 0
178 201 0
181 204 0
182 205 0
177 202 0
178 203 0
179 203 0
181 204 0
178 203 0
182 205 0
179 203 0
179 203 0
183 206 0
182 206 0
179 202 0
178 203 0
176 200 0
179 203 0
180 204 0
182 206 0
178 203 0
177 202 0
176 200 0
178 202 0
179 203 0
176 200 0
180 204 0
178 203 0
180 204 0
179 203 0
179 203 0
182 205 0
179 203 0
178 202 0
179 203 0
178 202 0
177 201 0
178 202 0
177 203 0
176 200 0
180 205 0
182 205 0
179 202 0
178 202 0
182 205 0
182 205 0
175 200 0
178 202 0
181 204 0
175 201 0
180 204 0
178 203 0
176 200 0
176 200 0
182 205 0
177 202 0
178 202 0
178 201 0
174 198 0
179 203 0
179 202 0
180 203 0
179 203 0
176 201 0
179 202 0
178 202 0
178 202 0
178 203 0
176 200 0
179 202 0
174 200 0
180 204 0
173 199 0
178 202 0
185 208 0
179 202 0
177 202 0
178 201 0
176 201 0
182 205 0
177 202 0
177 201 0
182 206 0
177 202 0
173 197 0
179 203 0
178 203 0
180 204 0
176 201 0
180 203 0
177 201 0
183 207 0
181 204 0
181 204 0
180 203 0
178 201 0
181 204 0
179 202 0
177 201 0
177 202 0
178 201 0
183 206 0
179 203 0
177 201 0
177 200 0
175 200 0
179 201 0
174 199 0
179 203 0
175 199 0
180 204 0
179 203 0
177 201 0
178 203 0
177 201 0
177 201 0
176 199 0
180 203 0
178 203 0
175 200 0
178 201 0
178 201 0
177 201 0
176 199 0
183 206 0
179 202 0
178 202 0
174 198 0
180 203 0
180 203 0
178 202 0
178 202 0
180 204 0
178 202 0
176 199 0
180 204 0
178 202 0
176 200 0
173 198 0
175 200 0
178 200 0
178 202 0
180 204 0
177 202 0
174 199 0
178 202 0
174 197 0
180 203 0
176 199 0
179 203 0
179 202 0
175 199 0
178 202 0
177 200 0
179 202 0
178 202 0
177 201 0
178 203 0
179 203 0
177 200 0
175 200 0
174 199 0
180 204 0
178 202 0
180 203 0
175 199 0
179 202 0
176 201 0
175 198 0
178 201 0
179 203 0
175 199 0
175 199 0
177 201 0
182 204 0
183 206 0
176 201 0
178 202 0
179 202 0
177 200 0
177 200 0
175 200 0
175 200 0
177 201 0
177 201 0
176 200 0
178 202 0
178 201 0
179 203 0
178 201 0
175 199 0
181 204 0
181 203 0
176 199 0
180 203 0
175 199 0
181 204 0
177 201 0
175 198 0
176 199 0
179 203 0
181 204 0
170 193 0
180 203 0
179 203 0
176 200 0
178 201 0
175 199 0
179 201 0
181 203 0
181 204 0
177 201 0
176 199 0
178 201 0
175 199 0
179 203 0
176 199 0
177 200 0
176 200 0
180 202 0
173 196 0
176 201 0
183 206 0
180 202 0
178 202 0
178 201 0
182 204 0
174 196 0
177 202 0
177 201 0
176 199 0
179 203 0
173 198 0
178 200 0
177 200 0
177 201 0
178 199 0
177 200 0
176 200 0
176 200 0
176 200 0
177 201 0
176 201 0
172 197 0
179 202 0
179 203 0
177 202 0
181 204 0
179 203 0
178 201 0
178 202 0
179 202 0
176 201 0
175 199 0
175 199 0
173 196 0
180 204 0
168 189 28
130 124 60
134 128 64
123 118 64
145 139 84
146 140 79
142 136 79
149 144 82
150 144 75
157 151 87
156 150 87
151 145 87
150 144 85
155 148 93
153 147 88
163 157 97
150 145 90
165 159 95
159 153 89
159 154 95
158 153 85
161 155 89
156 152 95
155 151 95
159 155 100
148 143 89
155 150 94
160 154 97
159 155 99
161 158 102
158 154 98
162 159 103
158 154 101
163 158 102
166 161 106
159 157 102
177 170 111
166 162 108
161 157 104
165 160 104
162 159 106
166 164 110
165 161 106
168 165 108
156 154 103
167 164 109
159 157 102
167 165 110
172 168 111
170 166 109
163 159 106
164 162 107
170 165 109
172 169 112
163 161 108
164 161 107
172 169 113
165 162 107
172 169 113
162 160 107
165 163 109
165 162 108
164 161 107
162 159 107
164 162 109
166 164 109
168 165 109
166 163 108
173 169 113
165 164 110
174 170 113
161 159 106
170 168 113
157 155 103
170 167 112
167 164 109
171 169 113
168 166 110
166 165 110
171 169 113
173 170 113
173 170 113
168 165 110
169 166 110
166 164 109
170 166 110
168 165 109
165 162 108
171 167 110
173 170 113
165 161 107
172 168 110
172 168 112
162 159 106
162 160 106
164 161 107
167 164 107
164 160 106
167 164 108
166 164 109
158 155 102
162 159 106
169 166 110
164 159 103
165 161 104
165 162 104
172 168 112
156 154 99
172 166 108
168 164 104
165 161 104
164 159 101
159 157 103
170 163 106
163 159 102
160 155 99
174 168 107
162 158 101
161 156 101
164 158 99
168 162 101
162 158 103
158 153 97
163 157 95
150 145 90
160 156 98
157 151 97
163 156 97
155 151 95
160 154 97
153 148 85
159 151 94
155 149 93
156 149 85
154 147 90
143 136 79
147 141 79
153 146 84
147 140 87
151 145 84
140 134 74
148 143 75
144 136 80
166 184 22
182 206 0
179 201 0
177 200 0
178 202 0
180 204 0
182 205 0
177 202 0
182 205 0
180 203 0
182 205 0
180 204 0
180 203 0
180 203 0
181 204 0
182 206 0
180 203 0
177 201 0
179 203 0
179 203 0
178 202 0
179 203 0
183 206 0
180 204 0
175 198 0
176 201 0
182 205 0
173 198 0
180 204 0
174 199 0
178 202 0
177 202 0
182 204 0
179 202 0
176 200 0
178 202 0
176 200 0
178 202 0
177 201 0
177 202 0
179 202 0
182 206 0
176 201 0
180 203 0
178 203 0
181 205 0
181 204 0
176 201 0
179 203 0
179 203 0
178 202 0
176 200 0
178 202 0
179 203 0
178 200 0
180 204 0
177 200 0
177 201 0
180 203 0
177 201 0
175 200 0
177 201 0
180 204 0
176 201 0
175 200 0
177 201 0
177 202 0
177 201 0
180 204 0
177 200 0
177 202 0
175 199 0
177 202 0
177 201 0
179 203 0
178 202 0
176 201 0
180 204 0
179 203 0
182 205 0
176 200 0
177 201 0
180 203 0
179 203 0
176 201 0
180 204 0
176 201 0
176 200 0
177 202 0
182 207 0
177 201 0
175 200 0
176 201 0
177 202 0
182 204 0
179 203 0
178 202 0
173 197 0
180 203 0
176 200 0
178 201 0
177 202 0
179 203 0
178 201 0
176 201 0
175 199 0
179 203 0
178 202 0
179 202 0
176 201 0
178 202 0
180 204 0
176 201 0
175 200 0
175 199 0
178 202 0
175 199 0
179 202 0
176 198 0
180 203 0
180 201 0
180 204 0
180 203 0
177 200 0
173 198 0
180 203 0
178 202 0
179 202 0
179 203 0
179 202 0
178 202 0
177 200 0
178 203 0
179 202 0
179 202 0
177 201 0
179 203 0
182 206 0
175 199 0
177 201 0
175 200 0
176 200 0
173 197 0
176 200 0
178 202 0
176 200 0
179 202 0
175 200 0
177 202 0
174 198 0
176 201 0
178 201 0
180 203 0
177 202 0
176 200 0
174 200 0
177 201 0
178 202 0
178 202 0
176 199 0
176 200 0
178 202 0
177 199 0
179 203 0
179 202 0
177 200 0
178 202 0
179 201 0
178 202 0
180 204 0
176 200 0
178 201 0
174 198 0
180 203 0
174 197 0
174 198 0
174 199 0
174 199 0
177 201 0
175 198 0
178 202 0
180 202 0
179 202 0
177 201 0
178 200 0
176 200 0
178 201 0
177 200 0
178 201 0
176 200 0
177 201 0
175 199 0
175 199 0
178 202 0
172 195 0
176 200 0
178 201 0
173 198 0
172 196 0
176 201 0
176 200 0
178 201 0
179 201 0
180 202 0
178 202 0
179 202 0
178 202 0
176 199 0
178 201 0
177 200 0
175 200 0
177 201 0
179 203 0
180 204 0
176 200 0
179 202 0
180 204 0
177 201 0
176 201 0
175 200 0
179 203 0
174 198 0
177 201 0
176 199 0
175 200 0
178 202 0
174 198 0
181 203 0
174 199 0
179 202 0
180 203 0
176 199 0
177 202 0
175 199 0
176 199 0
174 198 0
177 201 0
178 202 0
175 199 0
177 201 0
170 194 0
179 202 0
178 202 0
178 202 0
178 200 0
176 200 0
177 201 0
180 202 0
174 198 0
178 202 0
181 204 0
178 201 0
180 202 0
178 202 0
176 200 0
175 200 0
179 203 0
127 129 48
150 144 75
146 140 70
147 141 79
146 140 75
145 140 77
132 128 70
154 147 85
145 139 75
152 146 85
153 146 81
147 141 83
152 146 87
163 156 93
167 160 96
159 154 96
151 146 89
151 147 92
147 143 88
169 165 102
158 153 94
160 155 97
146 141 87
165 158 99
150 148 98
151 148 95
161 158 100
160 154 97
159 156 101
158 155 99
158 155 100
161 158 104
164 161 106
164 161 107
161 158 100
157 154 99
163 159 103
159 157 104
170 166 109
156 154 103
167 163 103
157 154 101
161 159 104
158 155 101
165 163 107
162 160 106
167 164 109
160 157 105
158 156 104
163 159 106
161 159 106
164 160 106
164 161 107
169 166 110
170 167 110
172 169 113
166 164 109
166 164 110
163 160 107
165 162 109
163 161 107
167 165 109
166 163 108
162 159 107
162 159 106
171 169 113
168 166 111
165 163 109
173 170 113
164 163 110
168 165 110
169 166 110
168 165 110
171 169 113
167 164 109
168 164 109
169 166 110
173 169 112
168 165 110
169 166 110
169 166 110
166 163 108
171 168 112
168 165 110
170 167 112
162 160 107
170 166 110
173 170 113
165 162 107
172 168 112
164 161 107
164 162 108
170 167 110
170 166 110
166 163 108
164 160 106
169 165 109
167 163 107
170 167 112
169 165 108
166 163 108
171 166 109
169 166 109
168 166 110
163 159 102
163 161 104
166 162 106
171 167 109
170 166 107
166 161 103
161 157 103
160 155 101
159 155 99
170 167 110
164 160 104
166 161 101
162 157 99
162 158 102
155 150 95
163 159 99
157 153 95
161 155 99
152 148 95
157 152 93
160 155 99
155 150 91
152 147 91
161 156 97
149 143 93
138 133 80
146 142 91
160 153 94
151 145 84
143 138 84
146 140 90
157 151 82
161 155 91
154 148 84
142 137 79
148 143 75
138 133 77
141 135 75
145 139 80
130 131 56
177 201 0
175 201 0
178 202 0
177 201 0
179 203 0
177 202 0
180 204 0
180 203 0
181 205 0
175 198 0
179 202 0
177 201 0
182 206 0
176 201 0
177 201 0
181 204 0
179 204 0
178 202 0
178 202 0
178 202 0
176 200 0
179 202 0
180 204 0
182 206 0
176 200 0
182 206 0
182 205 0
181 204 0
174 199 0
181 204 0
179 203 0
179 203 0
177 201 0
174 198 0
176 201 0
179 203 0
181 205 0
182 206 0
181 205 0
176 201 0
181 204 0
175 198 0
181 204 0
180 203 0
178 202 0
180 203 0
180 204 0
178 202 0
178 202 0
181 204 0
180 203 0
177 201 0
179 202 0
177 202 0
176 199 0
177 201 0
179 203 0
181 203 0
182 206 0
177 201 0
179 203 0
178 202 0
180 203 0
181 204 0
180 204 0
178 203 0
178 202 0
177 201 0
179 202 0
180 204 0
179 203 0
178 202 0
180 204 0
177 200 0
175 200 0
181 205 0
178 202 0
176 200 0
178 203 0
179 203 0
181 204 0
179 203 0
179 202 0
179 202 0
176 199 0
177 201 0
181 204 0
176 201 0
177 200 0
180 203 0
177 201 0
177 202 0
179 203 0
176 201 0
179 203 0
179 204 0
176 200 0
179 202 0
181 204 0
177 202 0
176 201 0
176 200 0
175 199 0
179 202 0
180 204 0
177 201 0
173 197 0
175 199 0
181 203 0
181 204 0
177 201 0
176 201 0
180 203 0
176 199 0
179 203 0
177 201 0
177 200 0
175 197 0
176 200 0
178 202 0
178 201 0
175 199 0
177 201 0
180 204 0
177 200 0
177 201 0
178 202 0
177 200 0
180 204 0
177 201 0
175 199 0
178 202 0
179 203 0
178 202 0
179 203 0
179 202 0
185 207 0
180 202 0
179 202 0
177 200 0
181 205 0
177 201 0
178 201 0
178 202 0
178 202 0
179 203 0
174 199 0
175 199 0
178 200 0
177 201 0
174 198 0
175 199 0
173 197 0
176 200 0
178 202 0
182 206 0
175 200 0
182 206 0
179 202 0
180 203 0
176 200 0
176 200 0
178 202 0
176 200 0
177 201 0
180 203 0
178 202 0
180 203 0
182 205 0
176 200 0
175 199 0
180 203 0
176 201 0
180 203 0
176 201 0
178 202 0
175 199 0
179 202 0
179 202 0
176 199 0
178 202 0
177 201 0
178 202 0
178 202 0
179 202 0
173 198 0
180 204 0
177 198 0
178 200 0
182 203 0
178 203 0
177 202 0
177 201 0
177 201 0
178 202 0
179 202 0
179 203 0
177 199 0
177 200 0
180 203 0
174 198 0
177 201 0
178 203 0
177 201 0
173 197 0
178 201 0
177 200 0
177 202 0
177 200 0
184 207 0
178 201 0
175 199 0
172 196 0
179 201 0
178 200 0
174 198 0
175 199 0
176 199 0
179 203 0
177 201 0
178 201 0
177 201 0
179 203 0
178 203 0
181 204 0
178 201 0
177 201 0
174 197 0
178 201 0
175 197 0
175 198 0
178 202 0
176 199 0
171 195 0
175 199 0
176 201 0
177 201 0
179 203 0
176 199 0
178 203 0
178 200 0
180 202 0
179 202 0
179 203 0
177 201 0
172 196 0
176 201 0
178 200 0
178 202 0
177 200 0
178 202 0
175 200 0
177 201 0
180 204 0
178 200 0
168 179 53
115 110 48
142 136 74
144 137 68
147 141 77
146 141 75
146 140 77
155 149 83
142 136 79
143 138 77
155 150 85
157 151 87
157 150 88
159 153 88
153 149 87
138 134 81
144 139 80
151 146 90
149 145 91
146 141 84
138 134 80
159 155 97
153 148 94
154 151 99
152 149 94
143 139 89
159 156 104
165 161 99
159 154 96
155 150 95
163 158 103
168 163 105
161 156 100
161 156 101
173 167 107
158 153 100
166 162 106
165 162 104
160 157 102
166 162 106
159 155 97
169 164 107
163 160 106
166 161 106
158 155 103
160 158 107
158 155 102
167 164 109
165 162 107
167 163 108
169 166 110
174 170 113
168 165 109
173 170 113
158 156 105
162 160 107
166 163 108
169 166 110
165 162 107
168 164 109
164 162 109
166 162 108
169 166 111
163 160 107
165 162 108
166 163 108
164 161 107
170 167 111
172 169 113
166 163 109
171 168 112
170 167 111
168 165 110
167 164 109
170 168 112
169 166 110
169 166 110
173 169 112
166 164 109
169 166 110
171 168 112
167 164 109
162 159 106
166 163 108
172 168 112
169 166 109
173 168 110
170 168 113
169 166 110
168 166 110
167 164 109
168 165 109
165 162 108
160 158 106
165 161 107
172 168 112
168 166 109
169 166 109
162 158 104
174 169 109
167 162 104
173 170 112
163 159 106
168 163 107
164 161 106
156 152 98
170 165 107
164 160 106
164 160 104
172 167 109
168 161 104
164 160 103
159 155 98
165 162 102
160 156 99
160 157 97
156 152 97
154 151 97
160 155 95
168 163 104
163 158 101
167 163 101
155 151 97
159 155 98
163 158 94
165 160 98
158 152 98
166 160 99
157 152 91
160 155 97
153 149 97
154 147 88
155 150 94
160 154 95
154 149 93
139 133 77
150 145 90
146 139 84
153 147 84
142 137 80
159 152 91
134 129 70
145 138 79
146 140 77
119 113 60
153 171 22
179 202 0
177 201 0
178 202 0
178 200 0
177 200 0
177 201 0
180 204 0
179 203 0
179 203 0
178 202 0
183 206 0
184 207 0
175 200 0
180 204 0
174 199 0
179 203 0
178 201 0
182 205 0
180 203 0
178 202 0
180 203 0
181 204 0
179 204 0
179 203 0
178 201 0
175 201 0
181 205 0
180 203 0
180 204 0
178 202 0
177 201 0
177 202 0
178 202 0
178 202 0
179 203 0
178 202 0
180 204 0
183 207 0
181 204 0
180 203 0
177 201 0
177 202 0
181 205 0
181 205 0
178 203 0
179 203 0
180 203 0
181 205 0
174 199 0
178 201 0
178 203 0
178 202 0
179 203 0
178 202 0
179 203 0
181 204 0
174 199 0
177 201 0
178 202 0
178 202 0
175 198 0
178 203 0
177 201 0
177 201 0
177 201 0
177 202 0
176 201 0
182 204 0
180 204 0
180 203 0
177 201 0
178 202 0
180 203 0
178 202 0
181 204 0
181 205 0
178 202 0
177 199 0
177 202 0
174 197 0
176 200 0
178 202 0
183 206 0
176 201 0
180 203 0
175 200 0
177 202 0
178 203 0
178 201 0
175 200 0
178 202 0
180 204 0
178 202 0
179 203 0
175 199 0
180 203 0
180 204 0
175 199 0
171 196 0
179 203 0
179 203 0
175 199 0
179 202 0
180 204 0
176 200 0
177 201 0
178 201 0
177 201 0
178 201 0
177 202 0
180 203 0
182 205 0
179 203 0
178 202 0
178 202 0
178 202 0
178 202 0
178 203 0
177 200 0
177 202 0
178 203 0
178 202 0
179 203 0
179 202 0
176 199 0
176 200 0
179 202 0
180 204 0
176 200 0
177 202 0
179 203 0
183 207 0
176 200 0
178 203 0
175 198 0
180 203 0
175 199 0
177 201 0
180 205 0
173 198 0
178 201 0
177 200 0
178 202 0
178 201 0
178 202 0
179 203 0
176 201 0
182 205 0
175 200 0
178 202 0
178 202 0
177 201 0
178 201 0
179 203 0
181 204 0
179 202 0
175 198 0
176 200 0
177 202 0
177 201 0
175 198 0
177 201 0
176 199 0
178 202 0
176 199 0
180 204 0
177 200 0
178 202 0
176 199 0
182 205 0
175 199 0
178 202 0
179 203 0
182 205 0
178 201 0
176 200 0
179 202 0
180 203 0
177 200 0
175 200 0
176 199 0
179 203 0
175 199 0
177 200 0
179 202 0
180 203 0
176 201 0
174 198 0
180 202 0
179 202 0
175 199 0
178 202 0
176 202 0
177 202 0
179 203 0
178 202 0
176 200 0
177 201 0
176 200 0
180 203 0
176 201 0
173 197 0
176 201 0
178 202 0
175 199 0
177 200 0
175 199 0
181 204 0
178 203 0
176 200 0
177 200 0
180 202 0
173 196 0
179 201 0
178 201 0
177 200 0
177 201 0
180 203 0
175 200 0
177 201 0
180 202 0
172 193 0
178 201 0
175 199 0
176 199 0
176 200 0
177 202 0
179 203 0
181 204 0
178 202 0
178 202 0
181 204 0
178 202 0
176 200 0
176 199 0
176 201 0
175 199 0
179 202 0
177 201 0
177 200 0
176 199 0
178 201 0
178 202 0
177 201 0
174 198 0
179 203 0
179 202 0
173 197 0
181 203 0
180 203 0
177 202 0
176 200 0
173 196 0
179 202 0
149 151 58
149 143 80
144 138 62
122 118 60
138 132 74
154 147 74
158 151 85
152 144 87
153 147 82
140 136 68
155 148 87
153 148 75
163 156 87
160 154 95
154 149 90
151 147 87
145 138 84
159 154 97
164 157 99
150 146 92
163 158 101
158 153 93
163 158 100
156 151 95
164 159 99
152 146 87
154 149 92
164 160 101
157 153 101
148 143 94
142 139 93
159 156 99
162 158 103
158 154 103
158 155 104
160 156 101
161 156 103
159 155 100
153 151 99
160 156 103
160 157 105
158 154 103
163 159 106
162 159 106
162 160 107
166 162 108
165 161 105
155 155 105
165 163 109
162 158 104
161 159 106
163 159 106
172 169 113
164 161 108
169 165 110
168 166 110
168 165 110
169 166 110
172 169 112
165 162 109
168 165 110
165 162 107
157 156 105
161 159 106
166 164 109
164 162 109
169 166 110
170 167 111
171 169 113
169 167 112
167 166 111
167 165 110
166 163 109
172 170 113
176 172 114
168 166 111
163 161 107
174 169 111
166 164 109
175 171 114
174 169 112
162 160 107
164 161 107
168 165 108
171 169 113
174 171 113
172 169 113
164 161 107
174 169 110
164 162 108
172 169 113
165 162 108
167 164 109
172 169 113
166 163 107
170 166 109
169 166 109
170 166 110
167 164 108
167 163 108
170 165 109
171 167 107
169 164 107
165 161 104
171 166 108
164 162 108
166 162 107
159 155 98
167 163 104
171 167 109
161 157 99
164 161 104
163 158 98
171 166 108
173 167 108
160 156 99
165 160 103
162 157 99
163 157 101
170 164 104
165 161 104
156 151 98
150 147 91
165 158 99
155 150 91
160 157 98
155 150 93
161 154 98
168 160 97
153 147 94
158 152 91
167 161 97
153 147 91
154 148 93
154 147 87
159 152 93
156 151 94
153 148 88
152 146 85
147 139 82
148 144 82
150 145 87
157 150 90
133 127 68
134 128 72
134 140 48
180 204 0
183 206 0
182 203 0
179 203 0
176 200 0
176 201 0
176 200 0
178 202 0
178 201 0
179 203 0
178 203 0
179 204 0
179 202 0
177 201 0
177 202 0
179 203 0
175 199 0
178 202 0
180 203 0
180 204 0
177 201 0
178 202 0
183 205 0
182 205 0
180 203 0
180 204 0
176 201 0
180 202 0
183 206 0
180 204 0
178 203 0
177 201 0
177 201 0
177 201 0
178 203 0
178 202 0
173 197 0
175 200 0
181 205 0
181 205 0
180 204 0
174 200 0
177 202 0
177 201 0
177 201 0
175 200 0
178 203 0
183 206 0
178 202 0
180 203 0
178 202 0
175 199 0
176 201 0
177 200 0
178 202 0
177 201 0
180 204 0
180 204 0
181 204 0
175 200 0
179 203 0
179 203 0
179 203 0
177 202 0
180 204 0
177 201 0
180 204 0
179 204 0
178 202 0
177 201 0
180 204 0
180 203 0
180 204 0
176 201 0
173 198 0
177 201 0
179 201 0
178 202 0
178 201 0
182 205 0
174 199 0
179 204 0
178 203 0
182 206 0
176 200 0
177 200 0
182 205 0
180 204 0
176 201 0
175 199 0
177 200 0
179 203 0
177 201 0
179 203 0
180 204 0
175 199 0
176 200 0
179 203 0
177 200 0
174 197 0
178 201 0
182 206 0
180 203 0
174 198 0
176 201 0
182 205 0
176 200 0
177 200 0
174 198 0
175 199 0
179 202 0
179 202 0
177 201 0
178 201 0
179 203 0
178 202 0
179 203 0
179 202 0
177 201 0
179 203 0
178 202 0
180 204 0
181 204 0
176 199 0
183 206 0
177 201 0
179 203 0
179 202 0
179 202 0
176 199 0
176 200 0
176 201 0
177 201 0
176 200 0
180 203 0
177 201 0
180 204 0
174 198 0
178 202 0
179 201 0
176 199 0
177 201 0
176 200 0
179 202 0
175 199 0
178 202 0
177 201 0
177 200 0
179 202 0
180 203 0
178 202 0
181 202 0
177 201 0
177 201 0
176 200 0
177 200 0
178 201 0
180 203 0
176 199 0
180 203 0
176 199 0
175 200 0
181 204 0
174 196 0
176 199 0
177 199 0
180 203 0
180 203 0
177 201 0
176 200 0
179 202 0
181 204 0
179 202 0
181 204 0
177 201 0
178 201 0
176 200 0
174 198 0
177 200 0
176 200 0
173 198 0
180 203 0
178 201 0
183 204 0
177 201 0
177 201 0
175 200 0
177 200 0
178 202 0
177 200 0
176 200 0
178 202 0
181 203 0
174 199 0
180 202 0
178 202 0
174 198 0
178 202 0
174 199 0
179 203 0
177 199 0
173 198 0
176 200 0
177 201 0
175 199 0
179 202 0
178 201 0
174 197 0
177 201 0
176 200 0
178 201 0
178 202 0
180 202 0
173 193 0
175 196 0
177 202 0
176 200 0
178 199 0
182 205 0
177 201 0
182 204 0
182 205 0
176 201 0
179 202 0
175 198 0
179 202 0
175 198 0
176 200 0
180 203 0
173 195 0
179 202 0
179 202 0
177 201 0
177 200 0
173 197 0
177 201 0
181 204 0
178 199 0
177 198 0
178 200 0
177 200 0
178 202 0
177 201 0
174 199 0
179 201 0
178 200 0
178 202 0
173 197 0
178 201 0
175 196 0
177 200 0
182 204 0
178 202 0
157 169 42
125 121 56
136 130 70
134 129 58
139 134 66
137 131 74
141 136 75
149 143 80
155 150 79
154 147 84
154 147 80
149 143 72
156 150 88
150 145 85
162 157 94
148 143 85
148 143 86
146 141 89
159 153 90
151 148 92
157 151 96
160 155 93
163 158 101
157 153 95
159 156 96
155 150 94
153 150 94
149 146 91
157 153 100
159 156 103
159 155 101
159 156 103
159 156 101
145 143 92
162 157 101
163 158 104
166 162 108
151 147 98
164 161 105
170 165 106
151 148 97
161 158 106
165 162 108
167 164 107
150 148 101
170 167 108
160 158 105
153 150 101
163 160 107
162 160 108
163 160 106
154 153 103
168 164 110
167 164 109
163 159 106
171 167 111
161 159 107
167 164 109
165 163 109
163 160 106
167 164 110
161 158 105
165 163 109
162 161 108
168 165 109
168 164 110
166 163 109
170 167 112
171 167 112
167 165 110
171 169 113
173 169 112
168 166 112
166 164 109
165 163 109
166 164 110
164 163 110
164 162 109
171 169 113
177 172 114
170 167 112
169 167 110
169 166 110
175 172 114
170 166 109
164 162 108
167 164 109
167 164 109
173 169 112
171 168 112
166 164 108
167 165 108
165 161 106
171 168 112
168 164 108
173 170 113
169 165 107
165 160 103
173 168 109
171 168 110
167 164 109
171 167 110
174 169 112
168 165 107
170 167 109
170 166 109
168 162 103
167 164 108
161 157 98
164 161 107
171 166 109
173 168 107
164 158 97
168 163 106
166 162 107
169 166 110
166 162 106
151 148 93
171 167 106
161 158 99
168 163 103
161 156 99
158 153 95
161 156 98
162 156 99
168 163 103
164 158 101
160 156 93
151 147 95
167 161 95
157 151 97
151 146 88
156 151 93
145 139 87
147 142 79
154 148 88
147 142 75
161 154 88
144 139 77
149 144 79
152 146 87
135 129 72
146 140 74
149 142 82
140 134 72
139 133 68
134 128 72
174 193 32
177 200 0
179 201 0
181 205 0
178 201 0
178 202 0
178 203 0
177 201 0
178 202 0
178 202 0
182 205 0
176 201 0
175 199 0
179 203 0
178 202 0
184 206 0
179 203 0
178 202 0
178 203 0
180 203 0
178 202 0
177 202 0
180 205 0
175 200 0
177 201 0
179 202 0
181 204 0
180 203 0
177 201 0
179 202 0
179 203 0
176 200 0
177 202 0
182 205 0
179 202 0
175 199 0
179 204 0
177 202 0
180 204 0
185 207 0
182 206 0
179 204 0
181 206 0
178 203 0
174 199 0
179 203 0
181 204 0
177 202 0
173 197 0
181 204 0
182 205 0
178 201 0
179 202 0
179 203 0
179 203 0
179 203 0
180 204 0
178 201 0
178 202 0
179 203 0
178 201 0
176 199 0
177 201 0
177 202 0
176 200 0
179 203 0
178 201 0
178 202 0
177 202 0
178 202 0
179 203 0
177 202 0
179 202 0
177 202 0
177 201 0
178 202 0
176 201 0
178 202 0
179 204 0
180 204 0
179 203 0
180 203 0
177 201 0
179 203 0
179 203 0
183 207 0
179 203 0
181 204 0
179 203 0
179 202 0
179 203 0
181 205 0
176 200 0
177 201 0
177 201 0
178 202 0
175 199 0
180 204 0
182 204 0
178 201 0
179 203 0
179 202 0
173 197 0
175 200 0
174 197 0
177 200 0
178 203 0
176 200 0
173 197 0
182 206 0
174 199 0
179 203 0
178 201 0
176 200 0
178 202 0
177 201 0
178 202 0
180 204 0
178 203 0
178 202 0
178 201 0
176 201 0
174 199 0
174 199 0
174 198 0
180 204 0
175 200 0
177 200 0
175 200 0
182 204 0
178 202 0
181 204 0
176 200 0
175 200 0
180 203 0
181 205 0
176 200 0
179 203 0
178 202 0
175 200 0
177 200 0
179 203 0
178 201 0
178 202 0
176 200 0
178 202 0
176 199 0
174 199 0
180 203 0
179 203 0
175 200 0
178 202 0
177 200 0
180 203 0
181 203 0
181 205 0
178 202 0
174 198 0
177 201 0
179 203 0
181 205 0
179 202 0
175 199 0
178 202 0
177 202 0
171 196 0
178 202 0
176 200 0
175 201 0
175 199 0
173 198 0
178 202 0
179 202 0
176 200 0
178 201 0
183 207 0
176 201 0
181 204 0
181 204 0
179 203 0
177 200 0
178 202 0
177 200 0
179 203 0
175 199 0
178 200 0
177 201 0
178 201 0
175 200 0
179 202 0
176 200 0
175 199 0
180 203 0
180 203 0
178 202 0
179 203 0
179 202 0
177 202 0
178 202 0
178 201 0
174 198 0
178 201 0
177 200 0
178 202 0
179 203 0
176 199 0
177 200 0
175 200 0
179 203 0
170 193 0
173 198 0
176 200 0
177 201 0
177 203 0
180 202 0
179 203 0
178 200 0
176 198 0
176 200 0
179 202 0
176 199 0
179 203 0
177 201 0
175 196 0
177 201 0
173 197 0
179 202 0
179 202 0
172 197 0
176 200 0
178 202 0
176 198 0
177 201 0
177 200 0
178 202 0
175 199 0
175 199 0
177 201 0
175 199 0
175 199 0
178 202 0
177 200 0
174 198 0
176 199 0
174 198 0
176 201 0
180 202 0
177 201 0
177 198 0
173 196 0
175 200 0
181 204 0
173 198 0
146 146 48
128 123 58
128 123 60
152 146 79
138 133 70
158 152 87
150 144 72
145 139 77
133 128 77
150 143 86
147 143 77
144 139 80
155 150 85
151 146 91
160 155 87
145 140 81
156 152 84
162 155 98
156 151 91
153 148 89
152 149 92
154 150 98
136 132 84
156 153 95
160 156 103
160 154 100
153 149 94
153 149 94
162 158 101
158 153 98
157 153 101
159 155 99
158 154 98
166 161 102
158 154 101
168 162 103
161 157 103
165 162 106
167 163 108
163 160 108
159 156 103
159 156 104
157 154 101
159 156 101
162 159 105
157 155 103
162 159 106
165 161 107
159 157 106
162 160 106
156 155 103
160 157 104
158 156 106
171 167 111
162 160 107
173 169 112
164 161 107
167 164 107
170 166 109
173 169 112
169 165 110
168 165 110
169 166 111
173 169 112
167 164 109
168 165 110
173 170 113
160 157 105
164 162 109
164 161 107
167 165 111
168 164 107
170 168 112
165 164 110
170 167 112
161 159 107
165 162 108
167 165 111
172 170 113
172 169 113
170 167 112
170 167 112
167 165 110
170 168 110
169 166 110
171 167 109
175 171 113
163 161 108
174 169 109
170 166 110
175 172 114
171 168 112
169 165 109
169 165 108
156 153 102
161 157 103
172 167 109
172 168 110
169 165 108
163 159 103
166 163 108
169 165 106
158 155 102
167 164 107
170 167 109
171 167 109
171 166 107
164 160 101
168 163 107
172 168 108
166 162 103
169 166 103
169 165 109
168 163 107
160 156 101
165 161 103
170 166 106
159 155 101
159 155 102
168 164 104
158 153 95
163 158 95
171 164 102
164 160 102
149 143 90
161 157 94
154 149 91
165 160 101
171 163 101
152 147 87
153 148 93
162 157 98
158 151 88
161 155 90
159 154 94
151 145 88
156 149 91
147 141 84
148 142 82
157 151 88
165 158 93
152 146 85
143 138 80
145 139 82
144 136 80
134 128 75
126 120 62
150 155 60
177 202 0
179 201 0
176 200 0
179 200 0
178 201 0
179 202 0
178 202 0
177 202 0
180 203 0
177 201 0
178 200 0
179 203 0
177 201 0
177 201 0
175 200 0
180 203 0
178 202 0
178 202 0
182 205 0
177 201 0
174 199 0
178 201 0
174 198 0
178 202 0
179 204 0
182 205 0
182 205 0
180 204 0
178 202 0
176 200 0
176 199 0
180 204 0
179 203 0
179 203 0
178 202 0
177 201 0
176 201 0
177 202 0
181 204 0
183 206 0
173 198 0
179 202 0
174 198 0
178 202 0
178 202 0
179 202 0
177 200 0
180 203 0
178 202 0
179 203 0
178 200 0
175 199 0
181 204 0
179 202 0
180 204 0
178 202 0
179 202 0
177 201 0
179 203 0
179 203 0
179 202 0
179 203 0
182 206 0
180 203 0
177 201 0
180 204 0
178 201 0
181 204 0
177 202 0
181 205 0
176 200 0
174 199 0
179 203 0
186 208 0
180 203 0
178 202 0
177 202 0
178 201 0
179 203 0
183 205 0
179 203 0
183 207 0
171 195 0
177 200 0
179 203 0
178 201 0
179 202 0
177 201 0
177 201 0
179 203 0
179 203 0
174 198 0
180 203 0
181 204 0
177 200 0
176 201 0
176 200 0
179 203 0
177 201 0
178 202 0
177 202 0
180 204 0
175 200 0
179 203 0
178 202 0
179 203 0
174 198 0
181 205 0
178 202 0
180 204 0
174 199 0
174 198 0
175 200 0
176 201 0
179 203 0
178 200 0
181 203 0
180 203 0
179 203 0
178 201 0
177 201 0
173 197 0
177 202 0
177 199 0
180 203 0
176 198 0
179 203 0
177 200 0
180 204 0
178 202 0
178 202 0
178 203 0
178 201 0
180 204 0
175 199 0
179 204 0
174 198 0
177 201 0
175 199 0
177 200 0
178 202 0
180 203 0
178 202 0
174 198 0
181 205 0
175 200 0
179 202 0
179 201 0
176 200 0
180 203 0
176 200 0
176 200 0
175 199 0
178 202 0
178 203 0
178 201 0
177 200 0
177 201 0
174 198 0
173 195 0
180 202 0
179 202 0
178 200 0
176 199 0
176 200 0
180 203 0
176 199 0
177 200 0
180 202 0
178 201 0
179 201 0
177 199 0
176 200 0
174 197 0
176 200 0
177 201 0
179 203 0
178 201 0
177 201 0
178 202 0
172 197 0
176 200 0
179 203 0
175 197 0
180 203 0
176 200 0
177 202 0
170 194 0
175 198 0
176 201 0
177 200 0
178 202 0
180 202 0
171 196 0
176 200 0
174 198 0
177 199 0
178 201 0
174 198 0
179 202 0
179 202 0
176 200 0
174 198 0
178 201 0
174 198 0
177 201 0
177 200 0
178 201 0
176 201 0
175 199 0
184 207 0
177 201 0
178 199 0
176 199 0
174 196 0
177 199 0
175 200 0
173 198 0
181 202 0
177 201 0
176 199 0
178 202 0
181 204 0
174 199 0
176 199 0
175 197 0
181 203 0
174 198 0
176 199 0
181 201 0
180 203 0
181 202 0
178 201 0
176 200 0
176 199 0
174 198 0
177 200 0
175 199 0
177 201 0
179 203 0
174 199 0
176 199 0
178 201 0
177 201 0
179 203 0
177 198 0
177 199 0
174 197 0
180 203 0
177 199 0
177 201 0
169 187 28
147 140 72
144 138 72
132 127 64
134 129 68
143 138 70
147 141 72
145 140 79
144 139 87
160 153 90
140 134 76
163 156 92
161 154 93
152 145 88
157 149 84
153 146 85
154 149 86
150 148 94
163 158 100
159 154 99
164 157 99
154 150 94
158 153 95
154 149 93
162 156 100
150 146 96
157 152 95
152 148 96
163 157 100
158 155 104
162 156 99
161 156 100
162 157 104
162 159 103
161 158 106
171 166 107
159 156 104
169 164 107
168 163 106
152 150 102
154 152 102
163 160 106
160 157 104
162 161 107
164 161 107
171 167 110
162 158 104
162 161 109
166 161 105
162 159 107
160 158 106
160 156 103
163 162 110
167 164 110
165 163 109
167 164 109
164 162 109
166 165 112
171 167 111
159 156 105
169 165 110
166 164 109
165 163 109
168 165 109
169 166 110
173 170 113
171 169 113
169 165 110
167 165 110
170 168 112
161 159 107
169 167 112
168 166 111
166 164 109
173 169 110
168 165 110
169 167 112
170 167 112
168 164 109
171 167 111
174 170 112
161 159 107
168 165 109
170 167 111
168 167 109
169 166 110
169 166 110
168 163 108
170 167 112
166 164 109
171 168 110
174 170 110
166 163 107
178 173 113
166 163 108
169 165 108
164 161 104
163 159 104
165 161 107
167 164 109
166 163 106
159 157 104
171 167 109
172 168 109
169 165 109
173 167 109
168 164 107
171 167 109
166 161 102
167 163 104
169 165 109
172 169 101
172 168 109
166 161 104
167 163 107
165 160 102
166 161 102
165 162 104
170 165 107
168 164 104
167 163 99
164 160 106
163 158 99
152 149 94
160 156 95
157 153 97
159 154 99
145 142 88
149 143 91
163 157 94
161 157 90
157 151 94
155 150 91
147 143 87
160 154 95
159 154 95
152 147 90
146 140 82
149 143 82
147 142 87
149 143 77
145 140 80
150 142 79
150 145 87
145 140 80
125 120 66
149 142 77
143 135 77
136 130 68
168 189 22
177 200 0
179 202 0
180 203 0
179 202 0
178 201 0
179 203 0
176 200 0
177 202 0
178 202 0
181 204 0
178 203 0
180 203 0
178 203 0
179 203 0
179 203 0
175 199 0
177 201 0
176 201 0
181 205 0
176 201 0
178 203 0
181 204 0
177 200 0
176 200 0
183 206 0
175 200 0
178 202 0
180 204 0
178 202 0
175 199 0
176 201 0
180 204 0
179 202 0
179 203 0
180 202 0
180 203 0
178 202 0
177 201 0
181 204 0
179 203 0
177 201 0
177 201 0
178 201 0
177 201 0
178 201 0
181 205 0
174 199 0
179 202 0
182 205 0
178 202 0
179 203 0
178 202 0
179 203 0
175 200 0
177 201 0
179 202 0
178 202 0
178 201 0
182 205 0
178 202 0
178 202 0
179 203 0
176 200 0
177 201 0
175 198 0
181 205 0
178 203 0
177 202 0
176 199 0
179 203 0
179 203 0
179 202 0
179 202 0
177 202 0
178 202 0
176 200 0
177 201 0
176 200 0
174 199 0
180 203 0
179 203 0
185 208 0
178 203 0
177 200 0
182 205 0
178 202 0
178 202 0
176 200 0
178 202 0
180 203 0
179 202 0
177 201 0
182 204 0
177 201 0
179 202 0
182 205 0
180 204 0
178 201 0
175 200 0
174 199 0
179 203 0
178 202 0
178 202 0
182 205 0
176 200 0
172 197 0
179 203 0
180 203 0
178 202 0
179 203 0
180 203 0
173 196 0
175 199 0
183 206 0
183 206 0
181 204 0
175 199 0
174 198 0
178 202 0
179 202 0
176 199 0
180 204 0
178 202 0
181 204 0
175 199 0
179 202 0
175 199 0
179 202 0
179 202 0
177 200 0
177 200 0
179 203 0
176 201 0
179 203 0
177 201 0
177 202 0
177 201 0
176 200 0
178 201 0
179 203 0
179 202 0
175 199 0
179 202 0
176 200 0
175 199 0
178 200 0
180 204 0
175 198 0
175 200 0
176 199 0
177 201 0
176 200 0
177 201 0
179 203 0
178 202 0
172 196 0
179 202 0
178 202 0
180 203 0
175 198 0
179 203 0
177 201 0
172 196 0
182 203 0
177 201 0
179 202 0
178 202 0
179 203 0
178 202 0
179 202 0
177 201 0
177 202 0
180 203 0
178 201 0
175 198 0
179 202 0
174 197 0
178 202 0
177 202 0
174 198 0
178 202 0
175 200 0
177 201 0
178 201 0
178 200 0
179 202 0
176 199 0
174 197 0
176 201 0
173 196 0
178 202 0
177 201 0
176 200 0
174 198 0
178 201 0
179 202 0
176 199 0
177 201 0
177 201 0
174 199 0
177 201 0
176 200 0
176 199 0
175 200 0
180 204 0
175 198 0
178 201 0
175 199 0
179 202 0
178 202 0
174 197 0
177 200 0
177 201 0
173 197 0
179 203 0
171 196 0
172 196 0
176 200 0
180 203 0
178 201 0
178 201 0
173 198 0
176 200 0
175 199 0
180 202 0
178 201 0
180 204 0
180 203 0
177 202 0
175 199 0
180 202 0
181 203 0
176 199 0
178 202 0
180 202 0
173 197 0
175 199 0
176 200 0
174 199 0
175 199 0
183 206 0
175 198 0
172 196 0
175 199 0
175 200 0
176 198 0
176 200 0
174 199 0
176 200 0
175 198 0
156 164 45
117 112 58
144 138 80
143 136 70
121 117 60
139 133 72
156 150 78
153 148 79
143 137 75
166 158 95
155 150 87
152 147 82
163 156 86
148 142 84
159 154 87
167 161 100
158 153 93
152 147 90
153 148 88
157 152 97
161 156 93
148 144 89
156 152 97
161 156 96
167 161 99
139 135 81
155 151 95
139 137 84
145 142 91
152 148 98
154 150 99
162 159 100
158 152 96
149 145 95
158 155 97
161 157 102
155 152 97
150 148 99
155 153 99
159 156 102
158 155 103
168 164 109
167 164 109
156 153 101
161 159 106
153 152 102
160 158 105
160 158 105
160 158 105
164 162 107
156 154 102
166 163 108
163 160 107
156 154 103
174 170 112
167 163 108
164 161 108
169 166 111
165 163 110
161 159 107
160 158 106
175 170 113
171 166 110
170 167 109
167 164 109
173 169 113
170 166 109
169 166 110
164 162 109
171 168 112
172 169 113
172 170 114
165 163 110
168 166 110
169 166 111
164 162 108
169 166 110
173 169 112
171 167 110
172 168 112
172 167 108
171 168 112
168 165 110
171 167 109
166 164 109
168 166 109
172 169 113
171 168 112
175 171 112
171 166 109
174 170 110
161 158 106
169 166 109
174 170 113
173 169 110
172 167 110
171 168 110
170 165 109
168 165 109
174 169 112
171 166 108
171 167 107
171 168 110
168 164 109
171 166 106
172 168 110
170 166 108
168 164 108
169 164 107
159 155 99
168 164 107
166 161 103
170 164 107
172 166 108
166 161 101
170 166 104
164 160 98
159 155 99
169 165 106
176 170 108
168 163 101
173 167 107
169 163 102
160 156 101
158 154 97
159 154 99
165 161 101
161 156 98
155 150 91
160 156 97
164 159 99
164 158 95
156 151 88
148 142 77
158 152 88
159 152 94
145 140 82
162 155 94
149 144 85
170 161 101
155 149 90
145 139 79
146 141 79
147 140 82
153 147 84
136 130 75
142 136 79
148 142 75
143 137 77
145 155 48
179 202 0
175 201 0
180 204 0
179 203 0
177 200 0
182 205 0
179 202 0
179 203 0
176 200 0
184 207 0
178 202 0
179 204 0
179 203 0
176 200 0
180 204 0
180 204 0
177 202 0
177 201 0
177 201 0
178 201 0
178 201 0
178 202 0
182 205 0
179 203 0
175 199 0
177 202 0
182 205 0
180 204 0
178 202 0
180 204 0
178 202 0
180 203 0
179 202 0
180 203 0
178 203 0
178 203 0
176 200 0
176 199 0
178 201 0
176 200 0
179 203 0
177 202 0
181 205 0
176 201 0
179 202 0
180 204 0
182 205 0
181 204 0
177 201 0
181 204 0
179 201 0
179 204 0
178 201 0
177 201 0
180 203 0
181 205 0
179 203 0
179 202 0
182 205 0
179 202 0
181 204 0
180 204 0
180 204 0
176 200 0
178 201 0
178 202 0
176 200 0
176 200 0
177 200 0
178 201 0
181 203 0
174 199 0
178 201 0
177 202 0
179 203 0
176 200 0
176 199 0
182 205 0
178 203 0
179 202 0
176 200 0
179 203 0
179 202 0
178 201 0
176 201 0
181 204 0
176 200 0
177 202 0
179 203 0
180 204 0
178 202 0
177 200 0
174 198 0
178 202 0
180 203 0
179 202 0
179 203 0
180 203 0
175 199 0
176 200 0
178 201 0
173 197 0
175 200 0
178 202 0
176 199 0
175 200 0
178 202 0
176 199 0
181 204 0
184 206 0
178 202 0
179 202 0
177 201 0
176 201 0
179 203 0
179 203 0
174 199 0
177 200 0
177 201 0
177 200 0
178 200 0
176 200 0
180 204 0
179 203 0
175 200 0
176 199 0
177 201 0
174 198 0
174 199 0
176 201 0
178 203 0
175 200 0
179 202 0
177 201 0
174 199 0
180 203 0
175 199 0
180 203 0
177 201 0
174 197 0
177 200 0
177 199 0
176 198 0
177 200 0
176 200 0
176 200 0
177 201 0
178 201 0
178 201 0
179 203 0
179 202 0
179 201 0
177 201 0
176 201 0
176 199 0
174 197 0
174 198 0
179 202 0
177 201 0
182 202 0
181 204 0
178 202 0
176 200 0
178 201 0
181 204 0
179 203 0
178 201 0
182 204 0
177 202 0
175 200 0
177 201 0
177 201 0
174 197 0
175 199 0
176 199 0
179 202 0
178 201 0
179 203 0
173 198 0
180 203 0
173 197 0
180 203 0
176 201 0
176 200 0
177 200 0
183 206 0
178 202 0
171 196 0
176 198 0
177 201 0
177 201 0
179 200 0
176 199 0
178 202 0
177 200 0
174 198 0
180 204 0
176 199 0
176 200 0
178 201 0
177 202 0
175 200 0
175 198 0
177 200 0
176 199 0
174 197 0
179 203 0
178 202 0
178 202 0
177 202 0
174 198 0
174 197 0
181 204 0
174 198 0
175 199 0
177 201 0
176 199 0
175 200 0
176 200 0
176 199 0
177 200 0
176 200 0
175 200 0
176 199 0
175 199 0
175 199 0
178 201 0
177 201 0
178 201 0
176 200 0
177 199 0
179 202 0
183 203 0
177 199 0
176 201 0
177 201 0
179 200 0
179 202 0
175 200 0
178 202 0
175 199 0
177 200 0
175 198 0
179 203 0
173 196 0
177 199 0
175 199 0
176 200 0
179 203 0
176 195 42
145 138 74
137 130 72
142 136 72
138 133 68
137 131 70
139 133 70
147 139 80
155 149 82
143 137 85
145 140 82
155 148 87
160 153 87
151 145 83
144 139 80
150 145 87
155 150 90
158 152 87
149 143 84
151 147 92
150 144 89
152 149 95
160 155 93
149 146 87
134 130 79
161 157 99
165 160 101
150 146 90
164 161 104
150 148 96
152 149 91
150 147 95
150 147 92
160 156 96
160 156 103
158 155 102
154 151 101
166 162 104
154 151 99
152 150 99
161 157 101
156 153 99
158 155 101
155 152 101
164 160 108
154 152 100
157 154 103
163 160 106
158 156 106
161 158 106
170 164 107
166 164 110
169 165 110
159 157 106
161 159 108
170 166 107
170 166 109
167 164 109
164 160 108
165 163 110
170 167 112
160 157 105
165 163 110
166 164 109
167 164 110
164 163 109
171 167 112
167 165 110
166 163 110
171 167 111
167 166 110
168 165 110
169 167 112
165 163 109
172 169 113
159 157 106
169 167 112
173 169 112
171 169 112
172 168 112
170 168 111
167 163 109
166 164 109
171 166 110
174 171 112
174 170 113
175 171 114
171 169 112
171 168 110
169 166 109
171 168 109
177 171 112
171 168 112
174 169 110
169 164 108
172 168 112
165 162 103
171 167 108
170 165 108
165 162 107
167 164 107
175 170 109
173 168 110
169 165 107
166 164 108
169 166 108
170 166 109
170 165 106
168 164 107
170 166 108
162 158 103
169 164 106
166 161 106
170 165 103
165 161 103
172 168 109
165 161 106
175 169 110
172 167 106
166 162 103
163 158 101
169 163 103
162 159 99
164 160 104
158 152 95
162 156 97
163 157 99
162 157 95
143 139 87
166 160 98
163 157 98
157 152 90
150 146 95
163 158 93
144 139 85
155 149 95
160 154 97
160 156 88
160 153 84
157 151 95
163 156 93
147 142 91
157 152 87
159 151 91
159 152 90
143 138 80
145 139 79
143 136 75
144 138 75
128 122 64
127 121 62
180 204 0
179 203 0
174 197 0
180 203 0
177 201 0
179 203 0
178 201 0
178 202 0
179 201 0
177 201 0
179 203 0
176 200 0
176 201 0
178 202 0
180 203 0
175 199 0
177 202 0
179 203 0
179 203 0
178 203 0
176 201 0
177 201 0
179 204 0
179 203 0
177 200 0
177 202 0
179 202 0
179 203 0
173 196 0
175 200 0
177 201 0
179 203 0
177 201 0
177 201 0
176 201 0
183 206 0
178 202 0
178 202 0
180 203 0
178 202 0
181 205 0
180 204 0
178 202 0
179 203 0
174 198 0
177 202 0
174 198 0
178 202 0
180 204 0
177 201 0
176 201 0
180 204 0
175 199 0
176 200 0
179 203 0
180 204 0
178 202 0
180 203 0
179 203 0
178 202 0
177 202 0
181 204 0
178 202 0
177 201 0
177 200 0
179 203 0
176 200 0
177 202 0
176 200 0
178 202 0
177 200 0
177 202 0
177 201 0
181 204 0
181 204 0
180 202 0
181 205 0
180 202 0
178 203 0
175 199 0
179 203 0
180 203 0
178 202 0
177 201 0
177 202 0
177 202 0
177 202 0
179 201 0
180 203 0
180 202 0
183 207 0
175 199 0
177 200 0
179 202 0
178 201 0
177 200 0
178 200 0
178 202 0
176 201 0
176 200 0
177 201 0
180 204 0
176 200 0
180 203 0
177 200 0
176 200 0
177 201 0
169 195 0
176 201 0
173 197 0
179 202 0
175 200 0
177 202 0
178 201 0
175 199 0
176 200 0
176 200 0
182 205 0
174 198 0
177 201 0
175 199 0
173 198 0
177 201 0
176 200 0
176 200 0
177 201 0
173 196 0
177 201 0
177 201 0
178 202 0
174 198 0
175 200 0
176 198 0
178 201 0
173 197 0
178 202 0
177 199 0
174 197 0
175 198 0
177 200 0
176 200 0
178 201 0
181 203 0
176 200 0
177 201 0
175 200 0
179 203 0
175 199 0
180 203 0
174 198 0
176 200 0
178 202 0
177 201 0
175 198 0
175 200 0
176 200 0
177 201 0
176 201 0
176 199 0
175 199 0
176 199 0
175 198 0
180 203 0
177 201 0
176 201 0
177 201 0
178 202 0
177 200 0
177 202 0
177 200 0
178 201 0
177 200 0
177 202 0
175 199 0
176 200 0
178 201 0
177 200 0
180 203 0
176 199 0
178 201 0
179 203 0
178 201 0
178 202 0
176 199 0
178 202 0
178 202 0
176 199 0
178 202 0
178 200 0
177 201 0
181 205 0
180 203 0
177 200 0
172 198 0
177 201 0
176 200 0
177 201 0
176 199 0
178 200 0
180 204 0
174 197 0
176 199 0
175 199 0
176 200 0
178 200 0
173 197 0
178 201 0
178 202 0
175 198 0
173 198 0
173 197 0
173 196 0
175 197 0
176 199 0
175 198 0
175 198 0
175 197 0
178 202 0
178 202 0
178 201 0
174 196 0
176 200 0
174 196 0
175 200 0
174 199 0
176 199 0
175 198 0
176 200 0
177 199 0
172 196 0
179 203 0
176 199 0
176 200 0
178 201 0
176 199 0
180 202 0
179 202 0
177 200 0
180 204 0
178 202 0
180 202 0
173 196 0
178 200 0
175 197 0
175 199 0
175 199 0
172 193 0
172 197 0
175 198 0
152 164 32
135 127 70
140 134 62
123 117 60
146 141 72
148 143 70
152 146 77
150 145 77
140 135 70
146 141 75
153 145 83
160 155 92
135 131 78
147 142 85
144 139 75
156 150 82
148 144 87
151 146 82
159 154 93
155 151 92
158 153 87
155 151 95
139 135 84
152 149 96
147 145 93
159 154 98
149 146 92
169 163 102
163 159 104
158 156 100
158 155 102
156 152 97
154 151 98
148 146 91
152 151 101
164 159 98
156 153 101
164 161 106
157 153 102
159 156 104
162 158 103
157 153 99
163 160 107
161 158 104
164 159 105
160 157 106
158 157 105
163 161 109
158 156 106
158 157 106
159 156 105
163 161 109
167 165 108
166 163 109
160 159 109
167 164 110
159 157 106
167 165 109
166 162 108
170 167 111
153 152 104
169 165 110
171 168 112
171 167 111
168 164 108
169 165 110
173 169 112
173 169 112
169 166 110
171 168 111
170 167 111
169 167 113
173 169 112
169 166 110
173 170 112
169 165 110
167 164 110
177 173 114
168 165 109
164 163 110
167 163 108
171 168 110
174 171 112
173 170 112
171 168 112
171 167 110
172 169 108
173 169 112
176 172 112
168 165 108
174 170 112
168 165 108
176 171 110
171 167 110
178 173 113
167 164 109
173 169 112
172 168 110
165 161 104
169 166 110
168 164 108
177 172 110
170 165 109
172 168 108
171 166 108
159 157 102
174 169 110
167 163 104
170 166 109
165 162 106
169 166 107
168 163 102
167 162 103
172 166 106
159 155 98
171 166 109
164 160 101
174 166 102
165 161 101
158 153 98
163 159 102
164 160 102
166 160 97
174 169 102
159 153 95
164 159 103
165 160 94
161 156 97
159 154 94
151 146 93
163 157 98
150 146 90
155 148 94
155 149 91
163 158 98
159 154 87
160 155 95
152 146 87
156 151 91
152 146 84
141 135 79
140 134 79
143 137 80
135 128 74
152 145 87
142 138 75
150 143 80
159 153 84
138 133 75
137 132 72
137 132 72
170 186 28
177 201 0
178 202 0
174 198 0
179 202 0
178 201 0
173 197 0
182 205 0
179 204 0
176 201 0
179 202 0
179 203 0
175 200 0
177 201 0
178 201 0
176 199 0
182 204 0
177 202 0
184 206 0
180 203 0
179 201 0
178 202 0
175 201 0
177 202 0
174 199 0
177 202 0
178 203 0
179 203 0
175 200 0
177 202 0
180 203 0
178 202 0
180 204 0
176 201 0
177 201 0
179 203 0
175 199 0
178 202 0
177 201 0
181 204 0
179 202 0
178 202 0
181 205 0
180 203 0
180 205 0
179 202 0
178 202 0
177 201 0
177 201 0
177 202 0
178 202 0
179 203 0
174 197 0
179 203 0
176 200 0
177 202 0
182 205 0
178 202 0
177 202 0
176 200 0
173 197 0
175 199 0
175 200 0
175 200 0
176 200 0
181 204 0
178 202 0
178 202 0
175 199 0
176 201 0
176 200 0
178 202 0
178 201 0
175 199 0
177 201 0
178 201 0
178 202 0
177 201 0
178 202 0
179 202 0
182 205 0
177 200 0
175 200 0
177 201 0
179 202 0
178 202 0
178 202 0
179 202 0
177 200 0
180 204 0
173 199 0
175 199 0
180 203 0
175 201 0
175 197 0
176 199 0
177 201 0
176 201 0
175 199 0
177 200 0
176 201 0
178 202 0
180 204 0
174 197 0
179 202 0
180 204 0
179 202 0
179 202 0
174 199 0
178 202 0
177 201 0
178 203 0
174 198 0
177 201 0
179 203 0
175 200 0
182 205 0
178 202 0
179 203 0
179 202 0
175 199 0
180 202 0
175 200 0
177 199 0
176 200 0
180 203 0
176 200 0
179 202 0
180 203 0
176 201 0
174 198 0
177 201 0
177 200 0
177 200 0
178 202 0
176 200 0
179 202 0
179 202 0
176 200 0
177 201 0
176 199 0
175 199 0
176 199 0
171 195 0
175 197 0
176 200 0
178 202 0
170 195 0
176 200 0
178 201 0
176 199 0
173 197 0
175 198 0
178 201 0
178 202 0
177 201 0
174 197 0
177 201 0
177 201 0
176 199 0
178 201 0
178 202 0
183 205 0
177 201 0
183 206 0
175 198 0
173 198 0
176 199 0
175 199 0
173 196 0
174 199 0
178 200 0
176 199 0
176 199 0
176 198 0
177 202 0
175 199 0
177 200 0
175 200 0
175 199 0
177 198 0
177 200 0
175 199 0
172 196 0
178 201 0
179 203 0
179 202 0
179 203 0
174 198 0
179 202 0
174 197 0
174 198 0
176 199 0
178 202 0
180 203 0
180 202 0
175 198 0
172 195 0
181 203 0
180 204 0
178 202 0
171 194 44
160 183 69
149 172 85
143 167 95
143 167 96
125 150 110
128 152 118
125 149 120
104 130 137
116 139 128
124 149 116
127 152 115
135 159 109
124 150 117
127 149 116
140 164 99
149 171 86
161 184 75
165 186 70
169 192 37
176 200 0
177 201 0
173 197 0
179 200 0
176 200 0
176 200 0
176 200 0
180 202 0
180 203 0
173 197 0
177 200 0
179 202 0
176 200 0
178 202 0
178 201 0
174 197 0
175 199 0
175 198 0
178 202 0
176 198 0
171 194 0
176 198 0
176 199 0
175 200 0
172 198 0
181 204 0
177 199 0
173 197 0
132 130 56
144 138 66
126 120 60
132 127 64
130 123 66
144 139 73
150 143 80
150 144 79
144 139 75
161 154 93
158 153 84
143 138 74
141 136 80
150 147 87
145 140 86
158 152 94
155 150 88
144 140 85
150 144 88
160 155 95
149 144 89
155 151 90
156 152 96
157 152 91
161 156 99
154 150 96
154 149 98
144 142 93
155 152 95
165 160 104
151 148 98
152 148 97
159 155 101
153 150 98
157 154 101
155 151 100
153 150 99
160 158 103
143 141 94
152 150 99
161 158 102
152 149 98
162 158 105
166 163 108
156 154 105
157 152 100
151 148 99
165 162 108
167 163 108
154 152 101
162 160 106
169 163 107
154 152 103
171 166 110
166 162 109
158 155 104
160 158 106
166 162 108
168 166 111
161 159 107
167 165 110
166 163 109
175 171 112
172 168 112
170 166 109
165 162 108
166 162 108
170 167 111
173 170 113
171 167 111
169 166 110
170 167 112
173 169 112
171 168 112
166 163 109
164 162 109
171 168 112
175 170 113
171 168 112
174 170 113
172 168 112
168 165 109
174 171 113
169 166 111
172 168 110
174 169 112
173 170 112
173 168 109
171 168 112
170 167 112
172 168 109
172 168 110
164 162 107
174 170 109
168 167 110
174 169 110
166 162 106
168 164 108
167 163 107
170 165 108
163 160 104
169 166 109
167 162 106
168 164 106
178 173 113
172 167 108
168 165 109
161 157 101
161 157 101
176 170 107
163 159 101
170 166 104
167 162 104
170 167 108
170 164 107
168 162 106
167 161 103
163 158 103
171 165 106
166 160 102
168 162 107
165 161 101
171 165 104
164 159 102
169 164 97
162 156 94
163 157 97
180 173 107
164 159 102
166 159 98
166 161 97
162 157 98
165 159 90
159 154 94
158 153 93
165 158 97
152 146 87
147 142 85
162 156 97
161 153 87
159 152 91
145 139 77
139 135 66
149 143 87
136 131 72
148 142 72
149 143 80
146 140 79
149 143 72
132 127 64
138 131 70
163 175 51
180 204 0
178 201 0
180 203 0
176 201 0
179 202 0
178 201 0
178 201 0
179 203 0
180 203 0
180 204 0
178 202 0
176 201 0
178 201 0
177 200 0
180 204 0
178 203 0
175 199 0
179 202 0
178 202 0
178 202 0
178 202 0
177 201 0
177 201 0
178 202 0
181 205 0
179 203 0
176 201 0
181 204 0
178 202 0
178 202 0
177 202 0
177 201 0
177 202 0
177 202 0
177 200 0
181 205 0
178 202 0
175 199 0
180 203 0
175 200 0
175 198 0
175 199 0
177 201 0
181 204 0
174 199 0
177 201 0
177 201 0
177 202 0
174 199 0
176 201 0
180 203 0
177 200 0
179 202 0
178 202 0
175 198 0
177 201 0
177 201 0
172 196 0
176 200 0
177 201 0
174 199 0
174 198 0
180 203 0
174 198 0
179 203 0
179 202 0
177 201 0
178 202 0
180 204 0
180 204 0
179 204 0
177 200 0
180 204 0
179 202 0
178 202 0
176 200 0
177 201 0
177 200 0
177 202 0
177 201 0
182 205 0
174 199 0
177 201 0
176 201 0
177 201 0
177 201 0
179 203 0
179 204 0
179 203 0
177 200 0
173 197 0
177 200 0
178 201 0
177 202 0
174 198 0
176 200 0
178 202 0
179 201 0
177 201 0
175 199 0
178 202 0
177 201 0
181 204 0
177 202 0
174 198 0
175 199 0
177 201 0
179 202 0
178 201 0
178 201 0
175 199 0
175 198 0
176 200 0
177 201 0
178 202 0
181 204 0
179 202 0
176 200 0
175 199 0
179 202 0
173 196 0
175 200 0
175 198 0
181 205 0
181 203 0
177 201 0
176 200 0
176 200 0
176 199 0
182 206 0
177 201 0
176 198 0
178 202 0
174 199 0
178 200 0
178 201 0
175 199 0
177 201 0
176 200 0
177 201 0
174 199 0
177 200 0
175 199 0
180 203 0
174 199 0
176 200 0
175 198 0
176 199 0
177 201 0
175 199 0
173 196 0
177 201 0
175 199 0
183 206 0
176 198 0
176 199 0
175 198 0
175 200 0
177 201 0
177 200 0
174 197 0
176 200 0
177 198 0
178 202 0
175 200 0
175 199 0
176 200 0
179 202 0
172 196 0
175 199 0
175 198 0
182 206 0
174 199 0
175 198 0
178 202 0
175 198 0
176 200 0
177 201 0
178 201 0
174 199 0
172 197 0
176 200 0
174 198 0
178 201 0
179 202 0
177 200 0
176 198 0
175 199 0
181 205 0
179 200 0
172 196 0
176 200 0
176 199 0
164 189 47
152 175 87
124 147 115
117 142 122
113 139 126
85 112 149
69 98 158
56 90 162
56 90 161
56 90 163
57 91 166
56 91 165
56 91 165
57 92 168
57 91 167
57 91 167
57 92 168
57 91 164
57 92 168
57 91 167
57 92 167
56 91 165
57 91 165
56 90 163
56 89 163
56 90 164
55 90 164
68 98 154
78 107 148
117 141 126
128 152 113
127 150 107
147 171 87
167 191 43
175 199 0
176 199 0
178 199 0
181 203 0
175 200 0
175 197 0
174 195 0
175 199 0
179 202 0
178 200 0
174 195 0
174 198 0
177 200 0
175 200 0
173 197 0
176 199 0
178 201 0
175 199 0
175 201 0
176 199 0
161 178 22
106 101 45
129 124 60
133 128 60
130 125 58
141 136 76
144 139 82
145 139 74
133 128 70
158 151 87
145 141 80
148 144 80
145 140 79
162 156 89
150 145 90
149 144 90
164 158 88
156 150 88
152 149 90
147 142 83
159 155 96
150 145 84
153 148 89
151 147 90
157 154 99
156 153 98
150 146 93
166 160 100
166 161 102
154 151 96
165 159 101
148 145 97
165 161 100
158 155 102
161 157 99
140 138 92
163 159 105
155 154 102
159 156 102
159 155 104
168 164 106
151 149 99
154 152 104
164 159 103
159 155 102
159 156 103
159 157 107
153 151 103
150 149 98
147 146 102
163 161 108
165 163 108
162 161 109
161 159 107
160 157 106
163 160 108
164 162 109
162 161 109
168 164 109
163 161 107
163 161 109
159 156 103
162 160 109
163 162 109
172 168 112
167 164 108
167 164 109
168 166 112
168 165 109
169 167 112
173 169 112
164 162 109
169 165 110
169 166 111
168 165 109
166 163 107
171 167 112
172 169 112
173 169 112
171 168 112
173 169 112
176 171 113
168 164 109
165 163 108
165 163 109
173 169 112
176 171 112
177 172 113
173 169 112
167 163 108
174 169 110
175 170 110
173 169 112
170 167 112
176 171 113
173 169 112
172 167 108
172 168 106
176 171 112
171 168 110
164 161 107
171 168 112
172 167 107
169 166 109
173 169 110
168 164 108
175 168 108
162 159 104
162 157 102
169 165 108
159 155 101
172 168 109
174 169 110
173 168 109
169 164 101
169 165 107
168 163 104
170 163 106
168 163 102
167 164 103
168 164 103
169 163 103
161 157 101
159 155 95
168 163 102
168 164 106
155 151 93
160 155 94
169 163 103
162 157 94
165 159 99
158 153 95
158 151 95
158 152 94
168 161 102
168 162 99
155 149 87
157 151 91
161 155 88
157 151 87
164 158 94
160 153 94
156 150 90
147 140 87
151 145 80
155 148 90
146 140 75
141 136 70
145 138 77
161 154 87
124 118 64
127 121 68
136 131 72
173 194 0
176 200 0
176 200 0
177 201 0
181 204 0
175 198 0
178 202 0
179 203 0
181 204 0
177 201 0
179 202 0
177 202 0
178 201 0
177 200 0
179 202 0
180 203 0
179 203 0
180 203 0
180 202 0
178 202 0
176 200 0
180 204 0
178 202 0
176 201 0
178 202 0
177 202 0
179 203 0
179 203 0
176 200 0
178 202 0
177 202 0
177 201 0
178 202 0
178 203 0
177 202 0
178 202 0
178 202 0
176 201 0
177 201 0
178 202 0
173 197 0
178 202 0
174 200 0
176 200 0
177 200 0
176 200 0
177 202 0
177 199 0
175 200 0
179 203 0
181 205 0
178 202 0
176 200 0
178 202 0
177 201 0
175 199 0
180 204 0
175 200 0
179 203 0
178 202 0
177 201 0
175 200 0
175 199 0
180 203 0
177 201 0
178 202 0
179 203 0
179 203 0
178 202 0
178 201 0
179 201 0
176 201 0
178 201 0
178 202 0
177 201 0
178 202 0
179 202 0
179 203 0
181 205 0
173 197 0
175 200 0
178 202 0
178 202 0
180 203 0
175 199 0
180 203 0
180 204 0
179 203 0
180 203 0
177 201 0
177 201 0
179 202 0
175 199 0
176 200 0
178 202 0
174 199 0
173 197 0
174 197 0
180 203 0
177 201 0
178 202 0
179 203 0
174 199 0
177 199 0
174 198 0
178 201 0
177 201 0
177 201 0
176 199 0
183 205 0
176 201 0
178 202 0
177 202 0
177 201 0
175 198 0
180 202 0
180 204 0
175 199 0
174 198 0
178 202 0
180 204 0
181 204 0
174 198 0
173 199 0
175 197 0
176 200 0
176 201 0
179 203 0
177 202 0
178 202 0
175 199 0
177 200 0
179 202 0
176 199 0
174 198 0
174 199 0
172 197 0
174 197 0
176 199 0
177 201 0
177 200 0
176 200 0
176 200 0
179 202 0
177 200 0
174 199 0
177 201 0
178 202 0
177 200 0
176 201 0
178 202 0
175 197 0
174 199 0
179 203 0
181 204 0
174 199 0
172 196 0
180 202 0
174 198 0
175 200 0
177 199 0
177 199 0
178 202 0
179 200 0
179 203 0
171 195 0
176 200 0
178 202 0
178 202 0
177 200 0
174 199 0
176 201 0
171 195 0
175 200 0
179 203 0
177 201 0
179 203 0
176 201 0
178 201 0
179 203 0
173 197 0
179 200 0
174 198 0
174 199 0
175 198 0
176 199 0
181 205 0
174 199 0
172 196 46
155 179 68
129 153 110
109 133 135
80 108 152
56 90 163
57 91 166
57 91 166
57 92 167
57 92 170
58 93 170
58 93 170
58 93 169
59 93 170
58 93 169
58 93 168
58 93 170
58 94 172
58 93 170
58 93 171
58 93 170
58 94 172
59 94 171
58 93 170
59 94 171
58 93 170
58 94 172
58 93 169
58 93 172
59 94 171
57 92 169
58 93 169
57 92 168
58 93 170
57 91 166
58 92 167
57 92 168
57 91 165
55 88 160
69 99 156
118 141 121
129 153 117
156 181 78
173 195 8
174 198 0
180 203 0
178 201 0
175 198 0
176 200 0
175 199 0
177 199 0
174 196 0
176 199 0
175 198 0
176 198 0
173 197 0
177 200 0
177 200 0
175 198 0
154 158 58
127 122 53
131 126 62
129 123 62
145 140 70
138 132 64
158 151 79
137 134 71
138 133 68
141 135 77
138 134 77
147 142 82
139 134 74
159 153 90
148 144 83
148 141 70
158 152 90
154 148 92
150 146 83
153 149 92
144 140 77
153 147 91
145 140 90
148 143 93
144 140 90
152 148 94
158 154 97
146 144 89
158 154 96
160 156 98
161 157 103
150 148 95
152 149 100
156 151 97
150 147 95
164 159 101
157 154 103
152 150 101
151 148 99
158 156 101
154 152 99
162 158 105
164 161 106
163 161 107
162 160 108
156 154 104
152 150 100
156 155 104
156 154 104
161 159 106
160 157 105
145 145 100
167 164 108
162 159 108
162 160 107
166 163 109
156 154 105
167 164 107
158 156 105
160 158 108
170 167 110
162 160 109
169 167 112
162 160 109
165 162 109
169 165 109
163 161 109
168 165 110
166 163 109
171 168 112
169 165 110
167 164 110
170 168 112
172 168 112
162 159 107
170 167 112
164 162 109
176 171 113
166 163 110
171 168 112
173 170 112
166 163 109
172 167 110
177 172 110
172 167 110
171 168 112
170 167 110
170 167 108
173 169 109
169 167 109
176 172 112
170 165 109
173 170 113
175 171 113
175 170 112
171 169 112
176 171 112
167 164 108
174 171 110
175 169 107
169 165 108
173 169 107
169 167 109
172 168 112
169 165 107
174 169 109
165 161 104
167 164 106
160 156 101
170 165 104
168 164 107
167 164 104
165 161 103
162 159 101
167 162 104
161 158 98
165 161 104
168 163 103
170 167 106
172 166 106
163 158 97
168 163 103
159 155 99
161 156 99
161 157 95
165 159 98
167 161 104
167 162 99
169 162 99
174 168 106
161 155 94
163 158 97
164 159 95
158 154 95
157 153 85
158 153 90
163 155 91
149 145 91
162 156 94
152 147 94
160 155 87
146 141 82
158 151 87
150 144 85
157 151 82
149 143 84
152 146 85
139 135 70
146 139 74
146 140 87
123 117 66
140 131 66
125 121 60
154 170 28
177 200 0
181 205 0
179 203 0
181 204 0
178 202 0
178 201 0
178 202 0
176 201 0
179 203 0
176 200 0
175 199 0
177 201 0
177 202 0
182 205 0
178 202 0
177 201 0
177 202 0
177 202 0
182 205 0
177 201 0
177 201 0
180 204 0
176 200 0
182 205 0
175 200 0
178 201 0
179 203 0
179 203 0
178 202 0
179 203 0
180 204 0
183 205 0
180 204 0
177 202 0
175 199 0
173 197 0
179 203 0
179 203 0
176 199 0
181 204 0
176 200 0
175 200 0
180 204 0
178 202 0
181 204 0
179 202 0
175 200 0
179 202 0
179 202 0
178 202 0
185 207 0
175 200 0
176 201 0
177 201 0
176 200 0
180 204 0
176 201 0
174 199 0
180 203 0
175 199 0
176 200 0
179 203 0
180 204 0
180 204 0
177 201 0
177 201 0
176 199 0
176 200 0
178 203 0
179 202 0
175 200 0
177 200 0
175 199 0
180 203 0
178 201 0
181 204 0
178 202 0
177 202 0
179 203 0
175 199 0
177 200 0
175 200 0
176 199 0
176 200 0
176 199 0
174 200 0
176 200 0
179 203 0
180 204 0
176 200 0
175 199 0
177 201 0
182 205 0
179 203 0
184 206 0
175 199 0
174 199 0
177 202 0
176 200 0
179 202 0
178 202 0
177 201 0
177 201 0
179 202 0
179 202 0
179 202 0
177 201 0
178 201 0
178 202 0
177 201 0
180 203 0
178 202 0
180 203 0
175 199 0
176 200 0
179 203 0
179 203 0
177 200 0
177 200 0
183 206 0
178 201 0
173 198 0
179 202 0
173 196 0
175 199 0
178 201 0
176 200 0
179 204 0
178 201 0
174 198 0
176 200 0
175 200 0
174 198 0
177 201 0
175 199 0
178 202 0
176 200 0
174 198 0
177 201 0
180 204 0
176 199 0
177 200 0
174 197 0
177 202 0
176 200 0
176 198 0
177 201 0
174 198 0
178 201 0
179 201 0
178 203 0
178 201 0
179 202 0
180 204 0
174 198 0
177 201 0
175 199 0
175 199 0
176 201 0
173 197 0
173 196 0
175 198 0
175 198 0
181 203 0
176 200 0
175 199 0
178 201 0
174 198 0
180 203 0
179 202 0
175 197 0
177 201 0
175 198 0
175 198 0
180 203 0
178 201 0
176 200 0
177 200 0
175 198 0
178 202 0
175 199 0
176 200 0
179 201 0
175 199 22
151 175 81
125 149 121
88 116 147
56 90 165
57 91 166
57 91 164
57 92 168
58 93 169
59 93 169
58 93 171
59 94 171
58 94 171
58 94 173
58 94 173
59 95 171
59 95 173
59 95 174
59 94 170
59 94 172
59 95 174
59 95 172
59 95 173
59 95 174
59 95 174
59 95 173
59 94 171
60 95 172
59 95 174
59 95 174
59 95 174
59 95 173
59 95 173
59 95 174
59 94 173
58 94 172
59 95 173
58 94 172
58 93 170
58 93 169
58 94 171
59 94 170
58 93 169
58 93 169
58 93 168
57 91 168
56 90 162
60 92 159
81 107 149
129 153 115
160 184 72
167 192 43
178 202 0
173 198 0
169 193 0
177 200 0
174 196 0
174 196 0
176 198 0
175 197 0
173 197 0
173 197 0
170 191 22
118 115 48
127 122 62
149 143 64
144 137 62
127 123 56
148 143 77
140 136 74
146 141 78
150 144 66
157 150 84
161 155 93
158 152 88
149 142 78
143 138 82
152 148 87
146 140 85
144 140 77
155 149 88
145 141 90
146 142 86
154 149 96
153 148 86
157 152 95
146 145 96
151 148 98
144 141 92
157 153 99
153 150 95
164 159 104
152 148 91
155 152 95
150 147 94
151 148 97
149 148 101
157 154 104
160 156 105
151 149 102
161 158 107
153 151 100
146 144 97
149 146 98
162 160 106
150 149 100
164 161 107
161 158 103
162 159 106
167 163 108
163 160 107
164 161 108
158 156 105
168 164 108
156 153 103
159 157 107
166 164 110
165 162 108
158 157 106
161 158 106
166 163 109
162 160 107
164 161 107
167 163 109
163 162 109
162 161 107
162 160 107
166 164 110
169 166 112
168 165 110
168 164 109
168 165 110
175 170 113
168 165 110
165 163 109
172 168 110
174 170 112
173 170 113
168 164 109
171 167 111
161 159 108
170 168 111
173 169 112
175 172 114
175 171 113
161 159 107
173 170 113
173 169 111
171 168 108
171 167 109
170 167 110
174 170 112
172 169 112
175 171 112
164 162 103
168 165 106
172 168 110
163 160 106
170 168 110
172 167 108
172 167 109
173 168 110
170 166 107
171 167 107
174 169 108
172 167 110
168 163 103
167 163 104
172 167 108
165 161 106
173 168 109
165 160 102
173 169 109
168 164 104
174 169 106
158 154 95
169 162 104
167 162 103
167 162 107
166 161 104
165 160 102
168 164 101
168 163 106
175 170 102
168 163 103
163 158 101
170 165 104
162 156 98
168 162 97
173 167 103
161 156 95
162 157 97
164 159 102
160 156 91
166 160 95
165 160 98
163 158 98
163 158 101
157 152 95
154 148 91
163 156 91
161 155 91
158 153 85
150 146 74
160 153 93
157 150 85
153 148 82
159 153 87
134 129 75
154 146 84
155 148 84
154 147 82
116 111 56
142 136 68
146 141 80
149 143 74
160 169 42
178 202 0
182 205 0
184 206 0
178 202 0
178 202 0
179 200 0
174 199 0
179 202 0
180 204 0
177 201 0
178 202 0
183 206 0
176 200 0
172 198 0
178 202 0
183 205 0
177 202 0
178 202 0
178 201 0
178 202 0
181 203 0
181 204 0
179 202 0
177 202 0
176 201 0
177 201 0
174 198 0
178 202 0
176 201 0
175 199 0
177 201 0
177 202 0
179 203 0
173 197 0
180 204 0
179 202 0
180 204 0
178 202 0
178 202 0
175 200 0
178 201 0
178 202 0
179 202 0
179 203 0
181 204 0
177 199 0
176 200 0
177 202 0
176 201 0
180 202 0
178 203 0
175 200 0
176 200 0
175 199 0
175 199 0
179 203 0
179 204 0
180 203 0
180 204 0
178 202 0
180 203 0
174 197 0
176 200 0
179 203 0
176 200 0
176 201 0
177 201 0
175 200 0
175 199 0
177 201 0
177 202 0
176 201 0
175 199 0
179 203 0
178 202 0
178 202 0
176 198 0
175 199 0
180 204 0
178 202 0
173 198 0
180 203 0
175 199 0
180 203 0
180 203 0
177 201 0
175 199 0
181 204 0
179 203 0
178 201 0
177 201 0
175 199 0
179 202 0
177 201 0
178 202 0
176 201 0
175 199 0
178 201 0
173 197 0
180 202 0
180 203 0
176 200 0
176 200 0
178 202 0
177 201 0
174 198 0
178 203 0
173 198 0
178 202 0
175 200 0
175 200 0
178 200 0
176 200 0
179 203 0
177 201 0
175 199 0
178 201 0
178 202 0
176 201 0
180 204 0
179 202 0
179 202 0
181 203 0
180 203 0
175 199 0
180 203 0
175 200 0
177 200 0
178 202 0
174 200 0
178 201 0
177 201 0
179 202 0
179 204 0
174 199 0
180 203 0
178 202 0
179 202 0
177 201 0
178 202 0
176 199 0
176 201 0
175 199 0
176 200 0
179 202 0
176 200 0
177 199 0
175 199 0
176 200 0
176 200 0
181 204 0
173 197 0
177 200 0
178 201 0
178 200 0
175 199 0
176 200 0
176 201 0
176 198 0
178 201 0
179 200 0
179 202 0
178 202 0
171 194 0
175 198 0
178 201 0
176 199 0
176 201 0
170 194 0
173 198 0
177 201 0
181 205 0
175 199 0
175 199 0
178 201 0
173 197 0
175 200 0
179 203 0
177 202 0
178 200 0
168 191 51
144 168 94
102 127 135
70 100 157
56 90 164
57 91 166
57 91 165
58 94 171
58 93 167
59 94 172
58 94 173
59 94 170
59 95 172
59 95 173
58 95 175
59 95 173
59 95 175
59 95 175
60 96 174
59 95 173
59 95 175
59 96 175
59 95 175
59 95 175
59 96 176
59 96 175
60 96 175
60 96 175
59 95 175
59 95 175
60 96 174
60 96 174
59 95 175
60 96 175
59 95 175
60 96 175
59 95 175
59 95 174
60 96 175
60 96 173
59 95 173
59 94 172
59 94 171
59 95 173
59 95 173
58 94 172
58 94 173
59 94 171
58 94 171
59 94 171
57 92 167
58 93 170
57 91 165
56 90 165
55 88 158
100 126 139
145 169 90
169 191 51
175 200 0
174 197 0
177 200 0
177 199 0
179 201 0
176 198 0
176 200 0
154 169 39
103 99 45
144 136 70
138 132 70
145 139 64
146 140 68
148 143 72
145 141 75
140 135 76
147 142 79
152 145 82
152 147 80
148 142 86
148 143 86
143 138 80
146 142 81
143 139 72
154 149 87
153 149 92
155 151 94
155 150 90
145 143 90
157 152 91
148 144 94
154 150 92
151 148 98
148 144 92
144 140 89
135 132 85
143 141 92
145 143 91
160 157 101
153 151 97
153 148 97
160 157 100
157 155 102
168 164 107
141 140 94
155 153 103
153 151 98
159 156 103
150 149 97
158 154 102
155 151 99
151 150 103
154 150 99
158 156 106
161 157 106
154 153 103
144 143 97
159 157 105
159 155 104
164 161 107
161 159 106
159 157 104
164 160 106
159 157 106
168 165 111
164 162 109
160 157 104
163 160 107
165 162 108
158 157 107
163 160 107
163 162 109
168 165 107
162 160 107
160 158 106
161 160 109
166 164 110
173 169 112
171 168 109
169 166 110
164 161 109
169 164 106
170 167 112
169 166 111
168 166 109
170 167 110
171 166 111
170 167 112
173 169 112
166 164 108
164 162 106
171 168 112
171 167 110
172 168 110
170 167 112
169 166 110
165 162 108
173 169 107
171 168 112
169 166 110
166 163 106
174 170 110
174 170 113
171 166 108
179 174 113
175 170 110
174 170 113
172 168 109
173 168 108
172 167 107
168 164 107
169 165 107
170 165 107
177 171 110
171 165 106
164 161 106
171 167 107
168 164 107
174 170 110
166 161 103
176 170 108
167 164 103
170 166 106
173 168 110
168 162 102
161 156 98
167 162 103
166 161 101
161 156 98
168 163 101
169 163 97
157 154 101
170 164 104
161 157 97
170 165 106
164 157 94
163 157 95
164 159 98
163 158 102
167 163 101
165 158 97
159 152 93
163 157 94
156 150 93
163 157 97
156 151 87
156 149 94
146 142 79
157 152 94
143 139 82
160 154 93
148 143 84
167 160 94
142 137 80
147 142 84
135 129 74
150 144 79
136 130 68
140 134 68
131 127 64
145 139 74
143 139 68
178 200 22
179 202 0
179 202 0
177 202 0
178 201 0
180 203 0
179 201 0
179 201 0
180 203 0
179 203 0
179 203 0
177 201 0
178 202 0
181 204 0
176 200 0
178 202 0
180 203 0
179 203 0
182 205 0
179 203 0
174 198 0
181 204 0
179 203 0
179 201 0
178 202 0
179 202 0
180 204 0
179 202 0
183 206 0
180 203 0
178 202 0
183 206 0
178 202 0
179 204 0
177 201 0
176 201 0
182 205 0
178 201 0
179 203 0
178 202 0
174 198 0
179 203 0
176 200 0
178 202 0
177 201 0
175 199 0
177 202 0
178 201 0
176 200 0
181 204 0
176 200 0
176 201 0
177 201 0
175 199 0
176 201 0
178 201 0
174 198 0
175 200 0
182 205 0
177 202 0
180 204 0
177 200 0
181 205 0
182 206 0
178 202 0
175 199 0
180 203 0
177 201 0
178 202 0
178 201 0
176 199 0
174 198 0
175 198 0
178 201 0
176 200 0
175 200 0
175 199 0
177 201 0
177 200 0
176 200 0
176 201 0
177 201 0
174 199 0
175 200 0
178 202 0
180 204 0
174 197 0
180 203 0
176 201 0
175 200 0
180 203 0
174 198 0
174 199 0
181 204 0
179 202 0
175 199 0
177 201 0
176 200 0
176 200 0
177 200 0
175 200 0
176 199 0
177 200 0
176 201 0
177 201 0
173 197 0
171 196 0
179 203 0
180 203 0
178 202 0
176 200 0
179 202 0
177 201 0
177 200 0
177 201 0
178 202 0
176 200 0
178 201 0
175 199 0
174 198 0
177 200 0
177 201 0
177 201 0
175 198 0
169 192 0
180 203 0
177 200 0
175 199 0
176 200 0
178 202 0
176 201 0
177 200 0
173 198 0
179 203 0
182 205 0
177 201 0
180 204 0
174 197 0
174 197 0
175 199 0
179 201 0
178 201 0
174 199 0
177 201 0
175 199 0
177 201 0
177 201 0
175 199 0
173 197 0
175 199 0
177 200 0
179 202 0
175 199 0
179 203 0
174 197 0
175 200 0
178 201 0
181 205 0
183 206 0
181 204 0
177 200 0
173 196 0
176 200 0
179 202 0
178 202 0
175 199 0
182 204 0
177 199 0
176 199 0
176 199 0
173 197 0
175 199 0
175 198 0
175 197 0
178 202 0
180 203 0
178 201 0
167 190 46
137 160 106
104 129 133
56 90 163
57 91 167
57 92 168
58 93 169
58 93 169
59 94 170
59 95 172
59 94 171
59 95 174
59 95 173
59 95 175
59 95 174
59 96 175
59 95 174
59 96 176
60 96 174
59 96 175
60 96 174
60 96 175
60 96 176
60 96 175
60 96 176
60 96 176
60 96 174
60 96 176
60 96 176
60 96 176
60 96 176
60 96 176
60 96 176
60 96 176
60 96 176
60 96 176
59 96 176
59 96 176
59 96 177
60 96 176
60 96 176
60 96 175
59 96 176
59 96 176
60 96 175
59 95 174
60 96 175
60 96 174
59 95 174
59 95 173
59 95 174
58 93 170
59 95 174
58 94 171
59 94 171
58 93 170
58 92 165
58 92 167
57 92 168
56 90 165
55 89 162
92 118 138
140 162 96
166 190 38
176 199 0
176 199 0
178 202 0
175 196 0
132 140 32
139 133 74
131 125 58
123 119 62
148 142 70
156 149 82
164 157 86
153 146 72
155 149 77
135 131 64
150 144 82
157 150 91
153 148 84
145 140 82
133 130 77
159 154 89
149 144 81
141 137 78
155 150 89
158 154 90
135 132 82
160 155 95
156 151 93
154 149 96
147 143 86
158 153 93
154 150 92
157 154 97
148 145 95
146 143 93
143 141 91
151 146 88
162 157 104
152 150 99
150 146 95
157 153 100
148 146 98
151 148 101
158 154 100
152 150 101
161 159 104
157 155 103
163 160 106
142 142 98
154 152 102
148 146 98
139 139 96
165 162 108
155 153 98
161 158 106
162 159 107
160 158 105
158 155 104
153 152 104
158 156 106
167 163 107
155 153 103
151 151 103
157 155 106
165 162 108
156 154 104
160 157 106
165 162 109
163 160 108
162 160 107
166 163 110
162 160 108
163 161 109
168 165 109
170 167 112
172 168 111
171 168 112
167 164 110
167 164 109
165 162 108
172 169 112
167 165 110
166 162 107
170 166 108
167 164 109
169 165 110
172 169 109
172 167 109
176 171 111
167 164 108
172 168 110
173 168 109
168 165 106
170 167 108
167 164 108
172 168 109
171 168 109
165 161 104
170 166 108
172 169 112
172 167 110
173 168 106
176 171 109
173 169 108
173 169 111
172 166 107
171 167 108
172 167 107
168 164 107
167 163 103
168 164 108
175 171 110
172 167 110
177 171 109
170 165 103
175 170 108
173 168 106
175 170 108
167 162 99
169 165 103
174 169 108
163 159 104
161 156 98
171 165 104
165 160 99
165 161 104
164 160 99
165 159 101
168 162 98
163 158 97
168 162 101
171 165 103
164 158 94
161 155 95
164 158 99
161 156 97
169 163 99
168 162 103
164 156 95
161 155 93
158 154 93
155 149 90
161 156 93
165 158 97
158 152 87
161 155 91
163 156 91
158 152 88
146 141 72
162 156 82
148 142 80
158 152 82
149 142 84
134 128 70
148 142 80
153 146 80
153 146 82
130 126 66
136 130 72
128 121 60
172 192 16
178 201 0
178 201 0
175 200 0
178 202 0
178 202 0
178 202 0
174 200 0
176 200 0
177 201 0
178 201 0
177 202 0
174 199 0
181 205 0
177 202 0
177 201 0
177 202 0
177 200 0
174 198 0
178 202 0
179 202 0
177 201 0
178 202 0
177 201 0
181 205 0
175 200 0
178 203 0
177 200 0
177 202 0
175 199 0
178 201 0
177 201 0
178 202 0
179 203 0
179 203 0
177 202 0
181 204 0
176 201 0
174 197 0
178 202 0
177 201 0
177 201 0
178 202 0
180 203 0
177 201 0
179 203 0
177 200 0
185 208 0
176 200 0
178 202 0
177 202 0
177 201 0
177 200 0
174 198 0
181 205 0
178 201 0
175 200 0
178 202 0
180 204 0
176 200 0
179 203 0
176 201 0
176 201 0
178 201 0
180 204 0
178 201 0
175 199 0
179 202 0
176 200 0
180 202 0
176 201 0
178 201 0
177 201 0
178 203 0
176 199 0
179 204 0
175 199 0
183 206 0
178 202 0
177 201 0
175 199 0
180 204 0
174 199 0
178 202 0
175 199 0
176 200 0
178 201 0
179 202 0
179 202 0
178 202 0
177 201 0
175 200 0
178 201 0
180 203 0
173 197 0
178 203 0
174 198 0
174 198 0
175 198 0
178 201 0
176 201 0
176 200 0
176 200 0
181 204 0
177 201 0
175 199 0
179 202 0
171 194 0
176 199 0
178 201 0
175 199 0
172 196 0
173 196 0
178 202 0
178 202 0
176 198 0
177 200 0
177 201 0
175 199 0
179 201 0
177 201 0
180 203 0
178 201 0
176 200 0
177 201 0
174 198 0
179 202 0
175 199 0
177 201 0
174 198 0
174 198 0
176 199 0
176 200 0
172 197 0
180 204 0
172 197 0
180 204 0
177 200 0
178 202 0
176 200 0
178 202 0
178 200 0
176 201 0
177 200 0
182 203 0
173 197 0
174 199 0
182 204 0
177 200 0
172 196 0
176 198 0
176 200 0
177 201 0
176 200 0
181 204 0
179 202 0
175 198 0
174 199 0
173 197 0
174 198 0
180 204 0
175 198 0
173 195 0
179 201 0
172 195 0
179 203 0
178 202 0
175 198 0
176 199 0
178 201 0
179 201 0
171 196 0
173 196 0
173 197 0
175 198 32
142 166 101
101 127 141
60 92 160
57 91 162
57 92 164
58 93 168
59 94 170
58 94 172
59 94 172
59 95 172
59 95 174
59 95 172
59 95 175
59 95 173
60 96 174
60 96 175
60 96 176
60 96 176
59 96 175
60 96 176
59 96 176
60 96 176
60 96 177
59 96 176
60 96 177
60 96 176
59 96 176
60 97 177
59 96 177
60 97 177
60 96 177
60 97 177
60 97 177
60 97 176
60 97 177
60 96 176
60 96 177
60 96 176
60 96 177
60 96 176
60 97 177
60 97 176
60 96 176
60 96 175
59 96 177
60 96 176
60 96 175
60 96 175
60 96 176
60 97 176
60 96 174
60 96 175
60 96 175
60 96 175
59 95 172
58 94 171
59 95 175
59 95 174
60 95 171
59 95 172
59 94 172
58 93 171
57 92 169
57 92 168
56 90 162
59 91 157
111 136 130
145 167 79
172 196 40
173 195 0
122 119 48
134 129 58
142 137 70
147 141 68
137 131 60
141 136 72
145 140 75
137 132 74
137 131 77
156 150 87
156 150 76
136 132 79
150 145 81
156 151 85
142 138 81
156 150 88
136 134 78
143 140 88
145 141 91
153 148 91
151 147 89
155 150 90
161 156 95
148 144 87
151 147 94
144 141 88
156 152 98
150 148 100
150 148 99
158 155 100
152 150 97
149 146 96
156 154 103
149 146 95
147 145 96
136 135 94
151 149 97
155 153 104
155 152 102
161 157 101
161 157 102
155 153 104
149 148 102
151 148 99
161 157 102
150 148 99
161 159 108
152 151 102
148 147 101
152 150 103
163 160 107
151 149 102
162 159 105
163 159 104
165 164 110
156 154 104
161 160 108
162 161 108
160 157 105
161 159 107
157 155 105
161 158 106
156 155 105
168 165 108
168 166 109
166 163 110
164 161 108
167 164 108
167 163 109
163 160 109
169 166 110
170 167 110
171 168 111
170 167 112
169 167 111
167 163 107
165 163 109
169 166 111
168 164 106
172 169 110
170 167 109
164 159 106
173 169 110
174 169 112
171 168 110
174 168 109
172 169 112
172 168 110
172 168 108
169 166 110
174 170 110
172 168 110
173 170 110
166 164 107
176 172 112
169 166 106
167 163 106
170 166 109
172 169 109
173 168 109
172 167 109
179 172 109
176 171 109
171 167 103
176 171 112
171 167 109
167 165 107
168 163 107
175 169 104
170 165 106
171 167 109
173 167 108
165 162 103
170 165 102
167 162 102
172 166 101
171 166 106
175 169 108
170 164 107
176 171 110
169 163 104
167 163 99
166 161 99
162 157 98
156 151 94
162 157 101
161 156 94
163 159 97
155 150 88
158 153 94
162 157 101
165 159 97
159 155 94
155 150 91
153 149 87
159 153 82
164 158 95
157 151 93
160 154 91
145 141 79
156 149 88
149 144 82
150 145 79
155 149 84
157 150 77
160 152 88
152 145 84
146 139 77
158 151 85
153 148 84
134 129 75
161 154 77
149 142 75
135 130 66
125 121 64
164 174 42
180 204 0
179 202 0
176 201 0
175 199 0
178 202 0
177 202 0
179 204 0
179 203 0
179 202 0
177 201 0
176 201 0
177 201 0
176 200 0
178 202 0
175 199 0
177 201 0
175 200 0
177 201 0
176 200 0
179 203 0
176 199 0
178 202 0
180 204 0
179 201 0
176 201 0
174 198 0
177 200 0
178 201 0
177 201 0
173 197 0
179 203 0
175 199 0
178 202 0
179 203 0
175 198 0
180 202 0
177 200 0
177 201 0
178 202 0
180 203 0
175 199 0
179 203 0
179 203 0
178 202 0
181 204 0
176 200 0
176 201 0
173 198 0
177 201 0
180 203 0
178 202 0
178 202 0
182 206 0
179 202 0
175 200 0
179 202 0
179 202 0
178 202 0
177 201 0
177 202 0
178 202 0
175 200 0
178 202 0
181 204 0
179 203 0
178 201 0
176 201 0
180 203 0
177 200 0
180 203 0
179 203 0
178 203 0
179 202 0
181 205 0
178 203 0
177 201 0
176 200 0
181 204 0
176 199 0
178 202 0
176 200 0
178 201 0
177 201 0
175 199 0
176 200 0
174 199 0
175 200 0
178 202 0
176 201 0
177 201 0
176 199 0
183 206 0
175 199 0
179 202 0
179 202 0
177 200 0
176 200 0
178 202 0
178 201 0
175 200 0
178 202 0
176 201 0
181 204 0
177 201 0
181 204 0
176 199 0
182 205 0
176 201 0
179 203 0
178 202 0
176 199 0
178 202 0
174 198 0
177 200 0
179 202 0
180 203 0
180 203 0
177 200 0
175 199 0
176 200 0
180 203 0
177 199 0
178 201 0
176 200 0
176 200 0
174 199 0
176 199 0
178 202 0
175 199 0
176 200 0
178 200 0
173 197 0
180 204 0
175 199 0
177 201 0
178 201 0
173 196 0
175 198 0
178 202 0
174 199 0
177 201 0
177 199 0
179 202 0
173 197 0
176 199 0
179 203 0
177 202 0
171 195 0
176 200 0
176 199 0
178 201 0
173 198 0
176 200 0
176 199 0
174 197 0
175 198 0
177 199 0
176 200 0
173 196 0
178 202 0
173 197 0
176 199 0
177 199 0
178 200 0
173 196 0
174 198 0
175 199 0
171 195 0
174 199 0
178 202 0
178 201 0
171 195 43
123 147 118
75 103 155
57 91 163
58 93 169
58 93 170
58 93 168
58 94 171
59 95 173
59 95 174
59 95 171
59 95 171
59 95 174
59 96 175
60 96 173
60 96 176
60 96 175
60 96 176
60 97 176
60 96 176
59 96 176
60 96 176
60 96 177
60 97 177
60 96 176
60 97 177
60 97 177
60 97 177
60 97 178
59 96 178
60 97 178
61 97 177
60 97 177
61 97 177
60 97 177
60 97 177
60 97 178
60 96 177
60 97 177
60 97 177
60 97 177
61 97 177
60 97 178
60 96 177
60 97 177
60 97 177
60 97 178
60 96 176
60 97 177
60 97 177
59 96 175
60 97 177
60 96 176
60 97 176
60 97 176
60 96 176
60 96 176
60 96 173
60 96 176
59 96 176
59 95 173
59 95 172
59 95 174
59 95 173
59 94 172
59 95 173
58 94 171
58 93 169
56 90 164
57 91 167
54 86 154
61 91 152
130 148 96
123 121 72
117 112 51
146 141 70
119 116 49
146 140 74
141 136 70
135 130 71
143 138 70
156 151 86
151 146 83
146 142 80
159 153 87
150 145 84
151 145 87
148 142 81
147 143 87
146 142 82
145 141 89
148 144 93
148 144 86
139 135 78
142 139 87
137 134 83
141 139 89
147 145 94
156 154 97
147 143 94
149 147 96
147 145 93
151 146 91
155 150 97
155 150 99
155 152 100
132 131 88
139 138 91
151 150 101
150 149 102
158 154 100
150 148 99
165 161 108
151 149 101
150 148 100
149 147 99
146 145 100
148 145 98
150 148 96
156 154 104
148 146 101
146 144 99
159 155 103
161 158 106
169 166 111
155 152 101
160 158 105
149 148 100
160 157 106
161 159 109
166 163 109
161 159 107
161 157 105
161 156 103
169 165 109
171 167 109
158 155 100
167 165 110
159 157 107
159 156 105
166 162 108
165 163 109
170 166 108
162 159 107
161 159 105
169 166 110
168 165 110
167 163 106
168 166 112
175 171 113
164 162 109
167 165 110
176 171 113
171 166 106
172 167 108
171 168 111
171 169 111
171 167 110
171 168 112
171 167 109
171 168 111
173 169 110
171 168 110
167 164 107
174 169 106
168 166 106
177 172 112
172 169 110
168 164 108
171 167 109
173 168 108
172 168 107
173 167 108
174 170 108
170 165 106
173 169 110
176 171 109
170 164 106
172 167 107
177 172 110
172 166 104
171 167 108
173 168 108
172 167 104
169 164 104
177 172 108
174 169 108
170 164 103
175 171 112
172 167 106
165 161 101
175 169 108
169 162 104
171 165 106
168 162 101
166 161 95
164 162 98
163 159 98
165 160 99
169 162 103
173 167 101
163 158 93
158 151 95
165 159 95
166 160 94
169 163 102
162 156 88
155 150 88
156 150 90
157 151 84
167 160 93
151 146 87
169 161 98
151 146 77
162 157 93
150 145 85
150 144 84
159 152 88
147 142 82
153 147 80
149 144 74
147 142 72
149 143 72
138 133 75
140 135 62
146 140 75
142 135 66
136 131 60
141 146 45
177 200 0
176 200 0
182 206 0
178 201 0
178 202 0
176 199 0
184 205 0
177 201 0
178 202 0
173 199 0
178 203 0
178 201 0
175 199 0
180 204 0
178 203 0
175 199 0
178 202 0
180 203 0
179 203 0
179 203 0
173 199 0
178 202 0
177 202 0
178 199 0
176 200 0
178 202 0
178 201 0
180 204 0
179 203 0
181 204 0
176 201 0
178 202 0
179 202 0
172 196 0
176 201 0
179 203 0
181 205 0
177 201 0
175 201 0
177 201 0
175 199 0
179 201 0
183 207 0
178 202 0
181 204 0
179 203 0
181 205 0
177 201 0
175 200 0
177 201 0
178 201 0
176 201 0
175 199 0
175 199 0
176 200 0
179 202 0
177 201 0
178 202 0
177 201 0
177 201 0
179 201 0
178 202 0
175 199 0
177 200 0
176 200 0
174 198 0
177 200 0
174 197 0
176 200 0
177 201 0
177 201 0
180 203 0
175 200 0
174 197 0
176 200 0
177 201 0
177 201 0
178 201 0
174 199 0
179 202 0
179 203 0
179 203 0
179 202 0
179 202 0
178 201 0
177 201 0
178 202 0
178 201 0
176 201 0
178 202 0
177 200 0
179 203 0
177 200 0
174 198 0
177 201 0
174 199 0
181 203 0
178 201 0
174 198 0
176 200 0
177 199 0
177 201 0
183 206 0
184 206 0
175 199 0
178 201 0
174 199 0
176 200 0
179 202 0
173 199 0
174 198 0
179 202 0
176 200 0
174 198 0
175 197 0
173 198 0
177 201 0
177 200 0
177 202 0
175 199 0
176 199 0
180 202 0
176 200 0
176 200 0
179 202 0
178 202 0
175 199 0
177 201 0
175 197 0
175 200 0
172 197 0
176 199 0
178 199 0
175 198 0
179 203 0
174 199 0
177 201 0
176 200 0
176 198 0
176 198 0
178 202 0
173 198 0
178 202 0
175 199 0
180 203 0
175 199 0
175 199 0
177 201 0
176 199 0
176 200 0
175 199 0
178 202 0
173 196 0
179 202 0
177 202 0
177 201 0
176 200 0
174 197 0
174 197 0
175 198 0
174 199 0
176 199 0
179 203 0
174 198 0
178 201 0
177 201 0
175 199 0
172 196 0
174 199 0
163 187 64
109 133 132
61 93 161
57 91 163
58 92 166
59 94 169
58 94 169
59 95 172
59 95 173
59 95 172
59 95 174
60 96 175
61 97 175
61 96 174
60 96 174
59 96 176
60 96 173
59 96 176
60 96 174
61 97 177
60 96 177
60 97 176
60 97 177
60 97 177
60 97 177
60 97 177
60 97 178
61 97 177
60 97 178
60 97 177
61 97 177
61 97 177
60 96 177
60 97 178
60 97 178
60 97 178
61 97 178
60 97 178
60 97 177
60 97 178
60 97 178
60 97 178
60 97 178
61 98 178
60 97 178
61 97 177
61 97 177
60 97 178
60 97 178
61 97 177
60 97 177
59 96 175
60 97 177
60 97 177
60 97 178
61 97 176
60 97 178
60 97 176
60 97 176
60 97 177
60 97 176
60 97 176
59 94 171
59 95 173
60 96 176
60 96 175
59 94 172
59 95 173
60 96 173
59 94 170
59 94 170
59 94 169
57 92 166
57 91 165
57 91 161
55 87 156
76 97 145
139 135 87
138 133 70
133 127 58
148 144 77
147 141 75
144 139 69
152 145 79
144 138 75
148 144 67
146 142 81
154 148 85
141 137 80
156 150 89
151 147 87
140 136 82
152 147 86
151 147 92
144 141 86
146 141 92
138 136 84
146 142 91
145 142 95
144 141 89
152 149 94
144 141 89
133 132 85
140 139 89
158 154 98
146 144 97
151 148 99
148 146 95
156 153 101
151 146 94
161 158 104
137 136 90
146 144 97
151 146 94
162 159 107
138 137 90
146 144 99
140 139 96
155 153 103
144 143 99
153 150 102
159 156 103
150 147 101
155 152 102
156 154 106
149 148 102
152 150 102
150 148 101
168 165 110
162 160 106
165 163 108
161 159 107
168 163 109
166 162 107
154 153 104
164 161 108
166 164 110
166 163 110
159 157 107
161 158 105
166 163 110
158 156 106
164 163 110
171 167 112
163 161 106
171 168 109
168 165 109
164 161 109
171 167 109
177 172 113
176 171 113
169 166 109
169 166 109
166 163 109
171 168 111
168 166 112
172 168 108
168 165 106
175 170 112
178 172 112
171 166 107
171 167 109
174 170 113
177 172 112
177 172 112
174 169 110
176 172 109
173 168 110
176 171 108
172 169 112
174 169 108
171 167 108
166 161 103
173 169 110
174 169 110
175 170 106
176 171 106
172 169 109
173 169 108
166 162 106
176 169 103
173 169 106
166 162 102
173 169 107
165 160 103
172 167 102
169 165 104
164 159 101
173 167 107
172 166 108
171 166 106
167 163 104
172 166 106
167 161 98
168 163 103
176 170 109
172 166 103
166 161 99
166 161 99
171 166 106
168 162 103
167 162 101
165 159 97
160 154 95
168 163 97
168 160 101
173 166 98
169 163 101
167 160 97
168 162 95
160 155 90
161 156 90
165 158 91
159 151 93
167 160 95
163 157 85
158 152 90
148 144 82
162 155 91
159 150 90
149 144 80
154 148 85
145 139 80
148 143 80
139 130 77
134 129 74
157 149 82
156 148 77
150 144 79
147 143 70
136 130 64
173 197 16
175 200 0
180 202 0
177 200 0
180 203 0
175 200 0
176 201 0
184 206 0
177 201 0
177 201 0
177 202 0
176 200 0
179 203 0
177 201 0
179 203 0
180 205 0
177 201 0
182 205 0
178 201 0
176 200 0
177 202 0
177 201 0
176 200 0
178 201 0
178 202 0
180 203 0
177 201 0
177 200 0
176 201 0
180 204 0
177 201 0
180 203 0
179 203 0
175 200 0
179 203 0
177 200 0
179 202 0
178 201 0
180 203 0
178 202 0
179 203 0
180 204 0
179 203 0
181 205 0
181 204 0
182 205 0
181 203 0
180 202 0
175 199 0
179 202 0
178 202 0
176 201 0
178 201 0
177 202 0
173 198 0
175 198 0
178 202 0
180 203 0
177 201 0
180 203 0
178 202 0
176 199 0
180 203 0
176 201 0
179 202 0
177 202 0
178 202 0
175 200 0
173 196 0
177 200 0
176 200 0
178 201 0
180 203 0
180 203 0
178 201 0
176 199 0
177 202 0
178 201 0
175 200 0
176 200 0
176 200 0
178 201 0
179 201 0
173 196 0
176 200 0
178 201 0
177 200 0
178 201 0
174 199 0
177 200 0
178 201 0
175 198 0
176 199 0
174 199 0
174 197 0
181 204 0
180 204 0
177 201 0
178 202 0
176 199 0
173 197 0
178 202 0
177 201 0
180 203 0
176 201 0
180 203 0
176 200 0
179 202 0
177 200 0
177 201 0
176 200 0
173 197 0
178 202 0
175 199 0
180 202 0
173 198 0
176 199 0
171 195 0
175 199 0
179 203 0
175 198 0
179 202 0
176 200 0
174 197 0
172 197 0
176 199 0
176 200 0
177 200 0
175 199 0
177 201 0
175 197 0
176 201 0
177 201 0
177 201 0
175 198 0
173 197 0
177 201 0
178 202 0
175 199 0
176 200 0
178 201 0
173 197 0
177 199 0
181 203 0
175 200 0
172 196 0
173 197 0
174 197 0
176 200 0
174 198 0
175 198 0
176 200 0
176 200 0
174 199 0
174 199 0
174 199 0
178 203 0
177 201 0
177 200 0
181 202 0
175 199 0
174 198 0
176 200 0
178 200 0
177 201 0
175 199 0
174 197 0
150 174 88
100 125 143
57 91 163
57 92 168
58 93 169
59 94 170
58 94 170
58 94 172
59 95 171
60 96 172
60 96 175
60 96 175
59 96 177
59 96 175
59 96 176
60 96 177
60 97 177
60 96 177
61 97 177
61 97 177
60 97 177
60 97 178
60 97 177
60 97 178
60 97 177
60 97 178
60 97 178
60 97 177
61 97 178
61 97 178
60 97 178
61 98 177
60 97 178
61 97 177
60 97 178
60 97 177
60 97 179
60 97 179
61 98 178
61 98 178
60 97 179
60 97 178
61 98 178
60 97 178
60 97 178
60 97 177
60 97 178
60 97 177
60 97 178
60 97 178
61 97 178
60 97 177
60 97 178
61 97 178
61 97 178
60 97 177
60 97 178
60 96 175
60 97 177
60 97 177
60 97 177
60 97 177
61 97 177
60 97 177
60 97 177
60 97 177
59 96 177
60 95 172
59 95 174
59 96 176
59 95 174
60 96 175
59 94 172
59 95 171
58 93 167
59 94 169
58 92 167
58 93 168
58 92 166
56 90 163
74 98 156
123 123 96
147 140 84
139 133 75
140 134 70
142 136 78
144 140 87
134 130 69
126 124 67
149 144 78
158 153 88
137 133 79
143 139 83
148 143 88
157 152 91
147 144 89
148 145 90
141 140 85
151 147 93
140 138 80
144 142 91
140 136 86
154 151 97
141 138 88
144 143 96
152 148 99
138 135 87
149 146 96
150 147 97
139 138 92
154 151 101
136 136 93
157 154 102
151 148 97
138 136 88
149 147 99
133 134 93
151 150 102
139 138 96
139 137 94
154 152 100
151 149 102
145 144 100
148 147 99
144 143 100
157 154 103
150 148 102
155 153 103
156 154 105
151 150 102
155 153 104
167 164 108
157 156 105
158 157 107
164 162 108
161 158 107
162 159 106
159 156 103
159 156 106
162 157 104
161 160 109
163 160 107
164 161 105
161 158 107
164 161 107
166 164 106
158 157 104
166 163 109
164 161 107
164 161 106
173 169 112
167 163 107
170 167 111
170 165 109
168 165 110
167 164 106
169 166 111
171 167 110
171 168 108
168 165 108
170 166 110
175 171 109
168 164 109
173 169 112
171 167 107
174 170 113
168 164 109
172 169 113
177 172 112
173 168 107
170 165 108
176 171 108
172 167 108
178 173 112
177 172 113
169 166 108
176 172 107
178 172 110
174 168 107
173 168 110
174 170 104
173 169 112
173 169 106
171 165 107
171 165 104
173 168 104
176 171 109
166 162 99
177 172 109
166 161 103
170 166 106
168 162 99
175 170 108
171 166 108
171 166 102
171 166 103
171 166 102
171 165 98
170 165 102
165 160 101
167 162 95
163 160 99
172 165 102
174 169 104
163 157 94
165 160 103
168 164 97
164 159 97
165 158 91
160 154 91
157 152 90
164 159 95
155 151 85
157 151 87
155 149 91
153 148 85
161 157 91
155 149 87
158 150 90
152 146 87
156 149 87
165 158 93
148 143 79
150 143 77
149 144 74
128 124 66
138 132 70
135 129 74
157 150 88
150 145 70
139 132 72
133 128 60
122 119 62
170 189 22
177 201 0
177 202 0
176 200 0
178 202 0
179 201 0
181 203 0
180 203 0
179 203 0
179 201 0
178 203 0
179 203 0
177 201 0
175 199 0
178 203 0
176 201 0
175 199 0
177 201 0
178 202 0
176 200 0
178 202 0
177 200 0
177 201 0
179 202 0
177 201 0
177 201 0
180 203 0
180 204 0
178 200 0
179 204 0
179 201 0
177 202 0
177 201 0
175 199 0
179 202 0
176 199 0
176 199 0
183 206 0
176 200 0
176 201 0
177 201 0
182 205 0
180 203 0
177 202 0
179 203 0
176 200 0
176 200 0
179 203 0
179 201 0
175 200 0
181 205 0
177 201 0
177 201 0
175 199 0
181 205 0
180 203 0
176 201 0
175 199 0
177 202 0
176 200 0
179 202 0
171 194 0
179 203 0
176 200 0
178 202 0
177 200 0
177 201 0
178 202 0
174 199 0
180 204 0
175 198 0
179 201 0
175 198 0
173 197 0
174 198 0
176 200 0
177 201 0
176 200 0
177 201 0
180 203 0
175 199 0
173 197 0
178 201 0
177 201 0
177 200 0
173 197 0
176 200 0
177 201 0
183 206 0
177 201 0
175 200 0
173 197 0
175 199 0
179 200 0
178 202 0
174 197 0
181 205 0
176 200 0
176 199 0
171 195 0
180 204 0
178 201 0
174 199 0
179 203 0
173 197 0
172 196 0
179 202 0
178 201 0
178 202 0
174 197 0
178 201 0
176 200 0
178 201 0
176 198 0
177 200 0
174 197 0
177 202 0
173 196 0
174 199 0
176 199 0
179 202 0
173 197 0
177 201 0
172 196 0
178 201 0
175 199 0
176 200 0
177 201 0
179 202 0
176 199 0
178 201 0
177 200 0
176 200 0
179 202 0
176 199 0
175 199 0
177 200 0
173 197 0
176 200 0
173 198 0
177 202 0
175 198 0
179 202 0
175 199 0
172 195 0
175 200 0
179 202 0
178 201 0
177 201 0
177 200 0
171 195 0
172 196 0
179 201 0
172 197 0
173 198 0
173 195 0
173 197 0
174 196 0
177 200 0
178 202 0
169 193 0
173 197 0
179 202 0
175 199 0
178 201 0
150 174 85
94 120 144
56 90 162
57 92 167
58 93 164
58 93 169
59 94 171
59 95 172
59 95 172
60 96 174
59 95 173
60 96 176
59 96 175
60 96 174
61 97 177
60 97 177
61 97 174
61 97 177
60 97 177
61 97 176
59 96 176
61 97 178
60 97 178
61 97 176
61 97 178
61 97 177
60 97 177
61 97 178
60 97 178
61 97 178
61 97 178
60 97 177
61 98 178
61 97 177
60 97 178
60 97 178
61 98 178
61 97 178
60 97 178
61 97 178
60 97 178
60 97 178
60 97 179
61 98 178
61 97 178
60 97 178
60 97 178
61 97 177
61 98 178
61 98 178
61 97 177
60 97 178
60 97 178
60 97 179
60 97 178
60 97 178
60 97 178
60 97 177
60 97 178
61 97 178
61 97 177
60 97 178
60 97 178
60 96 176
60 97 177
60 97 178
60 97 177
60 97 177
60 97 176
60 97 177
60 96 176
60 96 174
61 97 174
60 96 174
58 93 171
59 96 176
60 96 174
60 96 174
59 95 172
59 94 170
59 93 169
58 93 170
57 91 163
57 90 163
93 106 131
123 123 96
155 149 80
151 145 84
157 151 80
151 146 82
144 139 80
121 118 69
146 141 82
160 154 93
152 148 87
148 143 87
159 154 92
146 143 83
147 143 85
138 134 87
136 134 87
155 151 97
133 131 84
146 143 90
144 141 90
144 141 90
135 133 89
148 147 96
143 141 92
144 143 97
142 140 95
138 137 93
152 149 95
140 138 89
147 145 98
159 155 103
142 142 95
138 136 92
137 137 94
154 151 102
153 150 102
149 147 101
139 138 91
142 142 98
147 146 101
145 145 97
157 155 103
146 144 99
143 143 100
153 152 104
164 162 109
167 165 110
162 159 106
158 156 106
158 156 106
157 155 106
158 156 105
151 150 104
157 155 106
159 155 105
162 161 109
157 155 105
163 160 107
161 159 108
168 165 110
167 165 109
165 162 105
161 157 106
171 167 111
166 164 105
158 156 104
165 163 109
167 165 110
170 166 109
169 165 108
170 166 109
163 162 105
168 164 107
176 170 113
171 167 110
170 167 112
171 167 109
171 167 107
171 167 106
168 164 108
174 169 110
173 169 108
177 172 112
176 171 109
171 167 110
173 168 111
179 173 113
174 170 108
166 161 104
179 173 112
175 171 110
175 171 110
173 168 104
177 172 107
171 168 106
171 167 109
167 164 102
172 167 109
176 172 112
170 165 104
173 168 106
168 163 106
176 171 110
170 165 107
169 166 108
169 164 108
175 169 108
164 160 98
166 161 103
171 165 103
166 161 102
172 167 106
167 162 101
172 166 99
173 167 106
172 165 102
158 152 90
172 166 108
162 157 91
170 165 101
158 152 97
165 159 88
165 160 101
166 161 99
167 160 101
159 153 95
164 158 93
156 151 84
166 160 93
160 155 91
168 162 99
160 155 90
157 152 87
155 148 90
160 154 91
157 152 88
165 159 90
144 139 77
151 146 75
156 151 87
150 144 75
150 145 84
157 151 82
160 154 80
151 144 80
136 131 70
146 140 87
143 137 70
141 135 62
134 128 60
153 158 58
179 202 0
178 201 0
178 200 0
178 200 0
178 202 0
178 202 0
177 201 0
178 202 0
178 202 0
178 202 0
179 203 0
176 201 0
178 201 0
176 201 0
177 201 0
178 202 0
182 205 0
180 203 0
178 201 0
177 201 0
181 204 0
178 202 0
177 201 0
177 201 0
180 203 0
179 203 0
178 201 0
177 201 0
176 199 0
177 201 0
174 198 0
180 204 0
176 201 0
177 200 0
179 203 0
178 202 0
176 201 0
179 203 0
175 201 0
181 204 0
178 202 0
176 201 0
174 197 0
179 203 0
177 201 0
176 200 0
183 206 0
176 200 0
173 197 0
176 200 0
179 201 0
176 201 0
177 201 0
176 201 0
177 201 0
181 204 0
176 200 0
177 200 0
178 201 0
176 200 0
178 202 0
175 199 0
179 202 0
177 201 0
179 203 0
180 203 0
177 201 0
175 198 0
183 206 0
177 200 0
174 198 0
181 204 0
178 202 0
180 203 0
182 205 0
179 201 0
179 203 0
177 200 0
176 201 0
179 202 0
179 201 0
176 200 0
175 200 0
177 200 0
177 200 0
175 199 0
168 192 0
174 199 0
178 201 0
174 199 0
180 203 0
173 197 0
178 202 0
180 203 0
176 199 0
177 200 0
180 203 0
180 203 0
176 200 0
178 202 0
177 201 0
171 196 0
174 197 0
174 198 0
181 204 0
175 199 0
174 197 0
173 197 0
175 200 0
180 203 0
176 200 0
180 203 0
174 197 0
177 201 0
175 199 0
177 201 0
177 199 0
176 200 0
176 199 0
175 199 0
174 198 0
178 202 0
178 201 0
179 202 0
179 202 0
177 201 0
179 202 0
176 200 0
176 199 0
174 197 0
178 202 0
175 199 0
173 196 0
176 199 0
181 204 0
174 198 0
173 198 0
175 199 0
175 200 0
179 202 0
176 200 0
177 200 0
178 201 0
182 205 0
176 200 0
171 196 0
174 198 0
175 199 0
178 203 0
178 202 0
175 200 0
175 199 0
176 200 0
176 200 0
173 196 0
176 201 0
178 201 0
179 202 0
177 199 0
176 199 0
178 201 0
175 199 0
161 185 62
96 121 136
56 90 160
58 92 164
58 94 166
59 95 173
59 95 173
60 95 173
59 95 174
59 95 175
60 96 173
60 97 174
60 97 175
60 96 176
61 97 176
60 97 177
60 97 177
60 97 177
61 97 176
60 97 176
61 97 178
61 97 176
60 97 177
60 97 178
60 97 178
61 98 178
61 98 178
60 97 177
61 98 178
61 98 179
60 97 178
61 98 178
61 98 178
60 97 178
60 97 178
60 97 178
61 98 179
60 97 178
61 98 179
61 98 179
61 97 178
61 98 179
60 97 179
60 97 178
60 97 179
61 97 178
60 97 178
60 97 179
61 98 178
60 97 179
61 98 178
61 97 177
61 97 177
61 97 177
60 97 179
60 97 178
61 98 179
61 98 178
60 97 178
61 97 178
60 97 179
60 97 178
61 98 178
61 97 178
60 97 178
60 97 178
61 97 178
61 97 177
60 97 178
61 97 177
61 97 177
61 97 175
60 96 175
60 96 175
60 96 177
61 97 177
60 96 174
60 96 174
60 96 174
60 96 174
60 95 174
58 93 170
59 95 172
59 95 173
58 93 167
58 93 168
58 92 168
55 88 157
81 101 150
135 134 91
147 142 76
150 145 87
142 137 82
150 146 84
150 145 80
156 150 90
153 149 85
127 125 78
135 133 77
145 142 87
130 128 78
131 128 80
143 139 89
149 146 86
147 144 94
148 146 92
135 134 89
141 139 92
138 136 91
152 150 98
141 140 94
143 140 93
149 147 97
135 134 91
148 146 99
139 137 89
129 129 86
152 149 98
141 141 97
140 138 91
150 147 96
146 145 99
143 140 93
149 147 100
143 142 98
150 147 100
157 155 104
148 146 99
151 149 101
147 146 101
152 150 103
159 156 106
153 152 104
147 146 101
145 144 99
157 155 104
155 154 104
164 161 107
169 166 108
163 161 108
163 159 106
159 157 104
159 158 105
162 160 108
157 156 105
161 158 103
161 159 105
162 160 109
164 161 107
175 170 110
175 171 113
171 168 107
168 165 108
168 166 108
166 164 107
156 155 104
170 166 111
166 163 109
172 168 110
169 166 110
176 171 109
170 167 110
170 168 111
172 168 106
169 164 108
172 167 110
175 170 109
172 168 109
171 168 111
163 160 105
171 168 106
173 168 107
178 172 109
177 171 112
174 170 109
177 172 107
169 165 106
176 170 104
176 170 112
174 170 110
174 169 108
176 171 112
175 170 106
177 172 109
171 167 103
173 167 106
174 170 107
172 168 109
169 165 107
177 170 108
174 169 104
168 164 101
171 166 106
171 167 103
171 166 104
171 165 103
168 163 102
173 167 107
166 161 101
172 166 103
172 168 107
168 163 103
164 159 97
169 164 98
164 159 95
165 161 98
168 163 101
166 161 98
165 160 98
168 164 97
176 170 101
155 151 91
160 154 91
175 168 101
158 152 95
165 159 95
158 152 91
167 162 98
160 154 88
168 161 97
154 149 84
158 153 87
169 162 97
164 157 90
161 155 95
156 149 87
158 152 85
149 144 84
152 146 82
150 145 74
149 143 82
152 146 75
143 136 77
147 142 72
156 148 80
141 136 72
138 133 70
146 149 56
181 205 0
176 200 0
178 201 0
177 201 0
174 198 0
177 201 0
176 199 0
178 201 0
177 200 0
179 202 0
176 200 0
177 202 0
176 199 0
177 201 0
177 202 0
178 202 0
175 199 0
179 203 0
179 202 0
178 203 0
179 202 0
174 199 0
174 199 0
180 203 0
176 201 0
178 202 0
179 203 0
176 200 0
173 197 0
176 201 0
172 197 0
179 203 0
181 204 0
181 205 0
178 202 0
174 199 0
179 202 0
177 202 0
181 203 0
179 202 0
179 203 0
177 201 0
181 205 0
176 200 0
181 204 0
179 202 0
179 203 0
175 200 0
179 203 0
178 202 0
176 201 0
177 201 0
180 204 0
176 200 0
176 201 0
179 203 0
176 201 0
178 202 0
175 199 0
177 201 0
175 199 0
177 201 0
176 200 0
176 201 0
179 203 0
177 199 0
177 201 0
179 204 0
176 201 0
181 204 0
178 202 0
175 200 0
181 204 0
176 201 0
177 199 0
177 200 0
179 202 0
179 202 0
173 197 0
179 202 0
178 202 0
177 201 0
176 200 0
177 201 0
180 203 0
177 201 0
177 200 0
177 200 0
181 204 0
176 199 0
176 200 0
173 198 0
176 200 0
173 197 0
180 203 0
173 197 0
175 199 0
175 198 0
179 202 0
175 198 0
177 201 0
178 202 0
174 199 0
174 199 0
176 200 0
173 196 0
178 201 0
178 202 0
173 196 0
176 199 0
178 202 0
177 200 0
180 200 0
181 204 0
175 199 0
176 200 0
177 201 0
175 199 0
174 199 0
174 198 0
172 196 0
174 196 0
174 198 0
177 201 0
178 200 0
175 199 0
175 199 0
172 196 0
176 201 0
182 205 0
178 201 0
176 200 0
172 196 0
171 195 0
171 195 0
174 199 0
175 199 0
175 198 0
177 200 0
169 194 0
176 198 0
174 197 0
178 201 0
176 200 0
171 195 0
177 201 0
168 192 0
176 200 0
178 202 0
174 199 0
174 196 0
173 198 0
168 191 0
176 200 0
171 196 0
174 196 0
179 203 0
171 195 0
176 198 0
176 200 0
157 181 74
118 142 127
57 91 164
57 91 165
58 93 167
59 94 169
59 95 172
59 95 173
60 95 171
60 96 174
60 96 175
60 96 173
60 96 176
61 97 175
61 97 177
60 97 177
60 97 176
60 97 177
60 97 178
60 97 178
60 97 177
60 97 178
61 97 178
61 97 178
60 97 178
60 97 178
60 97 178
61 98 178
61 98 178
61 97 178
61 98 179
61 98 179
61 98 179
61 97 179
61 97 178
61 98 178
60 97 179
60 97 179
60 97 179
60 98 179
61 98 178
61 98 179
60 97 178
60 97 178
61 98 178
60 97 179
60 97 179
60 97 179
60 97 177
61 98 178
61 98 179
61 98 179
61 98 179
60 97 179
60 97 179
60 97 178
61 98 178
61 98 178
61 98 179
61 97 178
60 97 179
61 98 178
60 97 179
61 97 178
60 97 179
61 98 178
60 97 178
60 97 178
61 98 178
61 97 178
61 98 178
60 97 178
61 97 178
61 97 176
60 97 178
61 97 177
60 96 176
60 97 176
60 96 175
60 96 177
59 95 172
60 96 176
59 95 174
60 96 175
60 96 174
61 96 173
60 95 172
58 92 165
58 93 167
58 92 166
56 89 160
61 91 157
90 104 133
145 141 91
141 136 78
140 136 74
140 138 80
145 142 89
135 131 81
132 129 78
141 138 87
137 133 78
142 138 91
137 135 85
135 132 82
133 131 84
140 137 90
135 134 85
163 158 99
147 144 95
135 134 88
118 119 83
129 130 91
145 143 96
143 140 91
140 139 96
141 140 95
136 134 93
134 134 92
144 142 94
141 140 92
144 142 94
131 130 89
146 145 100
144 142 96
141 141 97
143 141 94
152 149 100
160 156 104
157 154 103
138 137 94
154 153 103
144 144 100
152 150 103
158 155 103
148 146 96
147 146 98
151 149 102
153 151 103
154 152 103
156 153 103
163 160 107
165 162 106
157 155 105
161 159 107
162 160 108
159 158 106
163 160 107
165 163 109
169 167 112
160 158 105
168 166 110
167 164 110
166 164 111
170 166 110
168 164 105
166 163 109
171 167 110
170 167 108
174 169 109
164 162 105
176 171 108
177 171 110
171 167 109
171 168 110
169 166 102
176 171 112
170 167 110
168 165 110
170 166 110
169 165 107
176 170 110
170 166 109
176 171 107
173 168 109
172 167 105
177 172 108
175 170 104
173 171 108
176 171 110
176 171 109
176 170 109
175 169 109
172 168 112
171 165 104
172 167 101
177 171 108
166 163 104
173 168 103
179 173 104
169 166 106
176 170 104
167 161 97
174 169 106
177 171 104
172 168 104
164 162 98
176 172 108
171 167 107
174 169 108
162 159 101
173 166 104
174 168 102
172 167 103
167 161 97
168 163 102
170 163 97
167 161 101
172 167 104
169 164 98
168 162 102
169 164 97
160 154 88
175 169 102
154 149 88
169 163 99
164 158 101
162 155 88
154 150 91
163 157 91
156 151 85
163 158 93
160 155 88
157 151 84
148 142 82
153 147 77
161 153 87
167 159 95
144 139 77
149 143 82
146 138 79
140 134 70
144 140 66
155 150 80
152 146 80
155 149 80
131 127 66
136 131 66
133 128 60
125 126 56
176 200 0
172 196 0
176 201 0
175 199 0
182 204 0
176 199 0
176 200 0
173 197 0
179 203 0
178 201 0
178 201 0
176 200 0
177 201 0
173 198 0
176 200 0
177 201 0
178 203 0
178 201 0
177 201 0
174 199 0
180 204 0
182 205 0
181 205 0
178 203 0
177 201 0
176 200 0
176 200 0
176 199 0
177 200 0
180 203 0
177 201 0
177 201 0
175 200 0
180 203 0
181 204 0
178 201 0
178 201 0
176 201 0
177 200 0
177 200 0
175 197 0
177 201 0
181 204 0
175 199 0
175 199 0
177 201 0
175 200 0
179 202 0
173 197 0
180 204 0
179 203 0
179 202 0
178 201 0
177 201 0
177 201 0
177 201 0
179 202 0
178 201 0
182 205 0
175 199 0
180 204 0
176 200 0
178 202 0
180 204 0
179 203 0
183 205 0
179 203 0
176 201 0
174 197 0
177 201 0
177 201 0
175 198 0
184 208 0
177 201 0
177 201 0
171 195 0
173 197 0
178 202 0
174 199 0
178 201 0
178 202 0
177 201 0
176 200 0
173 196 0
176 200 0
179 203 0
175 199 0
177 200 0
176 200 0
176 200 0
179 203 0
180 203 0
174 198 0
182 205 0
176 200 0
177 201 0
177 201 0
177 201 0
175 199 0
173 198 0
179 204 0
173 197 0
177 201 0
178 200 0
178 201 0
177 201 0
174 197 0
178 201 0
176 200 0
178 202 0
179 202 0
178 201 0
176 198 0
179 203 0
177 200 0
176 200 0
176 200 0
170 193 0
177 200 0
175 199 0
179 201 0
176 200 0
172 196 0
177 200 0
175 198 0
174 199 0
175 198 0
173 196 0
176 200 0
180 203 0
175 199 0
172 197 0
172 198 0
174 199 0
174 197 0
175 198 0
176 199 0
175 199 0
178 201 0
172 195 0
176 200 0
177 200 0
177 201 0
178 202 0
174 198 0
174 198 0
180 204 0
174 198 0
178 201 0
173 197 0
175 199 0
175 200 0
177 200 0
175 199 0
175 199 0
175 199 0
179 203 0
174 198 0
175 199 0
131 155 105
65 97 159
58 93 167
58 92 160
58 94 166
58 94 171
59 95 173
60 96 174
60 96 173
60 96 176
59 96 176
60 96 174
61 97 176
60 96 173
60 97 176
61 97 178
61 97 177
61 97 177
61 97 177
61 98 177
60 97 178
61 98 177
61 98 177
61 98 178
61 98 178
60 97 179
60 97 178
60 97 179
61 97 178
61 98 178
60 97 179
60 97 179
61 98 178
61 97 177
61 98 178
60 98 180
61 98 178
62 98 178
61 98 178
61 98 179
60 97 178
61 98 179
60 97 178
62 98 179
61 98 179
60 97 178
61 98 179
60 98 179
60 97 179
61 98 179
60 97 179
60 97 178
60 97 179
60 97 178
60 97 179
61 98 179
61 98 178
60 97 179
61 98 179
61 98 178
61 98 178
61 98 179
61 97 177
61 98 179
61 98 178
61 97 177
61 98 179
60 97 178
60 97 179
60 97 177
60 97 178
60 97 178
61 97 177
61 98 178
61 98 178
60 97 176
60 97 177
61 97 178
61 97 178
61 97 177
60 97 174
60 97 177
60 95 172
60 96 175
60 96 176
60 96 176
60 96 175
60 96 174
60 96 173
59 95 174
59 94 171
58 93 169
58 93 169
57 90 162
55 87 155
90 102 127
143 140 81
141 138 78
141 137 76
137 134 76
138 135 86
136 134 73
127 125 75
148 144 92
139 135 83
152 148 94
142 139 91
147 144 93
153 148 93
135 133 88
148 146 95
135 133 86
136 135 88
137 134 90
143 142 95
143 142 92
144 143 95
138 136 92
147 144 95
135 134 91
141 139 94
144 143 97
158 155 100
141 138 92
147 146 101
142 138 93
150 148 100
158 156 104
151 150 103
141 141 98
149 149 102
142 141 95
146 145 98
158 156 106
141 142 99
152 149 101
154 152 103
156 154 102
154 152 102
158 156 105
141 140 97
144 144 99
157 155 106
153 152 102
160 157 105
157 154 103
162 160 107
161 159 107
156 154 103
163 160 108
163 161 109
158 155 102
165 163 109
159 159 106
165 161 109
170 165 108
167 164 109
161 158 104
166 162 109
165 162 107
172 168 108
163 160 104
170 167 106
167 163 106
168 164 109
173 168 110
176 171 112
172 167 104
172 168 110
167 164 107
173 169 111
174 170 105
174 170 108
171 166 106
169 165 103
169 167 110
176 171 109
169 165 106
175 170 107
170 166 106
175 171 110
174 170 109
176 171 107
179 172 109
175 168 107
178 171 109
173 169 107
177 171 110
176 170 106
170 167 108
173 169 112
173 168 98
171 167 106
181 173 107
173 170 109
175 170 107
173 168 102
166 161 106
170 164 99
167 162 103
173 168 101
171 166 102
166 160 95
168 163 99
175 169 102
177 171 103
172 167 99
168 163 98
164 159 97
167 161 99
163 159 95
168 162 99
170 163 103
155 151 90
163 159 94
170 163 99
165 162 95
166 160 94
164 159 93
165 157 90
168 162 97
164 158 93
156 151 87
162 154 88
160 155 88
155 149 85
161 154 88
152 147 84
154 148 85
155 150 84
158 152 82
156 149 80
156 150 84
151 144 82
132 127 70
147 142 74
148 141 77
146 140 80
139 133 62
138 134 66
130 124 53
175 198 16
178 202 0
178 201 0
176 198 0
177 200 0
182 206 0
180 203 0
182 205 0
177 202 0
180 204 0
177 202 0
180 203 0
174 198 0
178 201 0
177 201 0
176 201 0
178 202 0
177 201 0
179 202 0
179 203 0
178 202 0
176 199 0
180 203 0
175 198 0
178 202 0
178 201 0
179 202 0
181 204 0
178 202 0
175 199 0
178 202 0
180 202 0
180 203 0
176 201 0
177 201 0
174 198 0
177 199 0
178 202 0
176 201 0
178 202 0
174 199 0
181 204 0
178 202 0
178 202 0
178 202 0
177 201 0
177 200 0
176 201 0
178 201 0
174 198 0
177 201 0
178 203 0
179 203 0
175 199 0
175 200 0
178 202 0
177 200 0
176 200 0
179 202 0
175 201 0
178 202 0
178 202 0
176 200 0
176 200 0
175 199 0
172 196 0
175 200 0
173 197 0
177 201 0
174 199 0
176 201 0
176 201 0
174 198 0
179 203 0
178 202 0
173 197 0
179 203 0
179 202 0
174 199 0
178 200 0
175 199 0
179 201 0
174 199 0
179 203 0
176 199 0
177 201 0
178 202 0
178 202 0
176 199 0
175 199 0
176 198 0
175 199 0
179 202 0
177 201 0
180 204 0
175 200 0
175 200 0
177 201 0
177 200 0
178 202 0
178 200 0
180 203 0
176 200 0
176 199 0
180 204 0
174 197 0
177 200 0
172 196 0
176 199 0
177 201 0
175 198 0
175 199 0
175 200 0
169 193 0
173 197 0
175 199 0
173 198 0
176 201 0
174 199 0
178 201 0
176 199 0
178 201 0
172 196 0
175 198 0
179 202 0
174 198 0
174 198 0
176 199 0
174 197 0
175 198 0
174 199 0
173 197 0
172 197 0
175 198 0
180 202 0
177 201 0
171 195 0
174 196 0
176 200 0
176 200 0
176 198 0
171 194 0
174 198 0
179 203 0
177 199 0
177 200 0
178 202 0
175 199 0
174 198 0
174 197 0
178 201 0
175 198 0
174 198 0
174 199 0
176 200 0
174 199 0
177 200 0
143 166 99
77 105 148
57 92 168
58 93 170
59 94 171
60 95 169
58 94 169
60 96 173
60 96 173
60 96 174
61 97 174
61 97 176
60 97 177
61 97 177
60 97 178
61 97 178
61 98 178
60 97 178
61 97 178
61 97 178
61 97 178
61 97 178
60 97 178
61 98 178
61 98 179
61 98 178
60 97 179
60 97 179
61 97 178
61 97 178
61 98 177
61 98 179
61 98 179
60 97 179
61 98 179
61 97 178
61 98 178
60 98 179
60 97 179
61 98 178
60 97 178
60 97 179
61 98 179
60 97 179
61 98 178
61 98 178
61 98 179
61 98 179
61 98 179
61 98 179
61 98 179
61 98 178
61 98 179
60 98 179
60 98 179
60 97 179
61 98 179
61 98 179
62 99 178
61 98 179
61 98 179
61 98 179
61 98 178
61 98 179
61 98 179
60 97 179
61 98 179
61 98 178
61 98 179
60 97 179
61 97 178
61 98 178
61 98 178
60 97 178
61 98 178
60 97 178
60 97 176
61 97 178
60 97 177
61 97 176
60 97 177
61 98 178
60 97 178
60 97 177
61 97 178
60 97 178
60 96 174
59 96 176
59 95 174
60 96 175
61 97 176
60 96 173
59 94 170
59 95 173
60 95 171
57 90 159
58 92 166
57 91 165
77 99 150
138 136 99
140 136 78
135 134 78
144 140 85
145 142 83
135 132 87
144 140 84
138 136 83
146 143 93
143 140 88
131 130 78
125 123 80
134 133 87
141 138 88
134 133 91
127 126 87
124 125 84
139 139 95
142 139 93
150 146 98
131 132 92
143 141 96
148 145 97
129 129 85
138 137 95
146 144 97
152 149 101
141 141 95
136 135 92
147 144 97
154 152 103
138 141 96
151 148 99
151 150 101
154 152 103
149 148 102
148 146 101
152 150 101
143 142 99
155 153 104
143 143 99
154 151 102
156 154 104
156 154 103
149 148 99
156 154 104
151 151 104
150 148 99
160 158 106
157 154 102
157 155 102
167 164 109
159 157 103
154 154 104
160 158 101
170 166 111
164 161 106
164 161 107
165 162 108
171 167 106
172 168 108
164 161 105
173 168 109
170 165 109
164 162 106
164 161 104
167 164 104
174 169 108
163 161 107
164 161 107
170 167 109
173 169 107
170 167 110
175 169 110
172 168 104
169 165 103
166 163 102
170 167 107
174 169 110
173 169 104
175 170 108
173 167 107
170 167 107
171 167 104
173 169 108
172 169 108
174 169 108
173 168 103
171 168 110
174 168 104
171 165 107
173 168 103
176 171 107
174 169 102
173 167 103
165 161 99
177 171 104
171 166 107
171 166 102
169 165 103
174 168 104
169 164 101
167 163 99
168 162 99
175 169 106
175 168 103
169 163 102
164 159 97
175 170 102
170 163 97
174 169 106
161 156 94
165 159 101
169 163 95
168 161 101
162 158 93
169 161 98
165 157 94
180 172 102
155 151 88
155 149 91
170 164 101
158 152 82
167 162 97
158 154 84
163 156 87
160 154 85
155 149 80
163 157 94
164 157 88
152 145 82
138 133 74
158 152 90
153 146 84
153 148 80
156 149 85
150 144 75
151 146 79
155 149 79
149 145 75
145 138 74
146 140 68
130 123 58
132 126 68
170 188 36
181 204 0
177 201 0
180 202 0
173 197 0
178 201 0
177 200 0
180 204 0
179 202 0
178 201 0
175 200 0
178 202 0
177 201 0
177 201 0
179 203 0
175 200 0
176 201 0
179 202 0
178 202 0
176 199 0
177 201 0
179 200 0
178 203 0
179 202 0
176 201 0
179 203 0
177 201 0
179 203 0
178 201 0
178 201 0
175 199 0
179 203 0
178 201 0
175 199 0
177 200 0
177 201 0
176 201 0
177 201 0
179 202 0
174 199 0
178 203 0
177 201 0
179 203 0
180 202 0
178 202 0
178 202 0
178 202 0
175 199 0
177 200 0
178 201 0
176 200 0
174 198 0
175 199 0
178 202 0
176 200 0
180 204 0
176 200 0
175 200 0
174 198 0
178 201 0
173 198 0
176 200 0
178 200 0
177 200 0
177 202 0
173 198 0
173 197 0
175 198 0
179 202 0
178 202 0
177 199 0
176 200 0
176 199 0
175 200 0
179 202 0
172 196 0
180 204 0
176 200 0
177 200 0
173 197 0
176 199 0
179 202 0
174 197 0
176 199 0
170 195 0
176 200 0
175 200 0
178 201 0
176 201 0
178 200 0
177 201 0
176 200 0
174 197 0
178 201 0
180 203 0
174 198 0
177 200 0
178 202 0
177 201 0
176 200 0
177 201 0
176 199 0
175 200 0
178 201 0
176 198 0
178 201 0
181 204 0
174 198 0
179 202 0
175 199 0
172 197 0
172 195 0
175 199 0
176 200 0
177 201 0
179 202 0
180 202 0
174 198 0
176 200 0
178 202 0
180 203 0
172 195 0
176 199 0
172 196 0
177 199 0
177 200 0
174 198 0
175 198 0
174 198 0
181 203 0
180 203 0
174 199 0
175 199 0
174 196 0
176 199 0
175 199 0
175 199 0
179 203 0
177 200 0
174 198 0
179 203 0
175 198 0
174 198 0
175 199 0
176 200 0
178 200 0
180 203 0
175 200 0
175 199 0
175 197 0
178 202 0
177 201 0
177 200 0
172 195 0
177 200 0
168 192 51
109 135 127
57 91 163
58 93 168
58 94 166
59 95 167
59 95 170
59 96 173
59 95 171
60 96 172
61 97 176
61 97 177
61 97 177
60 97 178
60 97 177
61 97 177
61 98 177
60 97 178
61 98 176
61 98 178
61 97 178
60 97 179
61 98 178
61 98 177
61 98 179
62 98 178
61 98 178
61 98 179
60 97 179
60 98 179
61 98 178
61 98 179
61 98 179
61 98 179
61 98 179
60 97 179
61 98 178
61 98 179
61 98 179
61 98 179
61 98 178
61 98 179
60 98 178
60 98 180
61 98 179
60 97 178
60 97 178
61 98 179
61 98 179
60 97 179
61 98 179
61 98 179
61 98 179
61 98 179
60 97 179
61 98 179
61 98 179
61 98 179
61 98 179
61 98 179
61 98 179
61 98 179
61 98 178
61 98 179
60 97 179
61 98 179
60 97 177
61 98 179
60 98 180
60 97 179
61 98 178
61 98 179
61 98 179
60 97 179
61 98 178
61 98 179
60 97 179
60 97 178
60 97 178
61 98 178
60 97 179
60 97 176
61 98 179
60 97 177
61 98 178
61 97 175
62 98 176
60 97 176
60 97 176
60 97 176
59 96 174
60 97 176
61 97 176
60 96 175
61 97 174
59 95 173
59 94 169
60 94 170
58 93 165
58 93 168
58 92 165
56 89 158
78 97 141
132 130 82
134 130 76
146 143 88
133 130 85
141 137 87
138 134 86
133 131 80
135 133 90
135 133 89
134 132 87
134 133 87
142 139 95
150 147 93
134 132 84
140 136 87
136 134 91
133 133 91
131 131 88
130 129 88
127 129 88
140 139 94
128 129 86
143 142 95
149 146 98
144 142 95
136 136 93
126 125 87
151 150 101
138 136 90
143 143 97
142 142 96
148 146 99
147 147 100
147 145 99
138 137 94
145 144 100
145 146 100
142 142 99
149 149 99
158 155 105
148 147 101
148 148 101
157 155 104
159 156 103
147 146 101
158 156 103
161 158 104
148 147 101
159 156 104
162 160 108
161 157 105
158 155 105
163 160 106
165 161 103
163 160 106
167 163 106
169 164 108
166 163 108
176 171 109
167 164 107
160 158 102
169 165 107
169 165 106
170 166 109
169 166 105
173 167 109
169 166 105
174 170 112
174 170 109
170 166 107
173 168 107
169 166 104
174 170 112
171 168 105
175 171 109
173 169 109
178 172 104
173 169 106
176 171 105
177 171 107
174 168 106
176 171 108
175 170 104
176 171 109
171 166 104
175 169 106
175 170 110
166 162 104
171 165 103
172 167 103
177 171 107
177 170 104
168 165 99
180 173 108
171 166 103
174 170 107
173 167 107
173 167 101
173 167 99
173 168 101
171 166 103
171 167 103
174 168 102
172 167 106
171 164 103
164 159 95
169 161 101
163 157 98
168 162 101
173 166 98
169 162 98
170 165 97
166 160 95
166 160 94
174 167 107
167 162 95
165 159 97
156 151 84
163 157 90
170 162 95
164 158 91
171 164 97
156 150 87
158 152 80
158 152 88
169 162 98
160 153 91
148 143 79
154 148 80
147 142 75
150 145 80
157 151 84
138 132 75
157 149 80
157 150 80
153 147 77
152 146 80
152 146 74
131 126 66
136 130 62
142 136 64
133 128 53
165 179 36
178 201 0
174 198 0
175 199 0
178 202 0
179 202 0
175 196 0
179 203 0
175 199 0
178 202 0
176 200 0
180 202 0
172 197 0
175 200 0
178 202 0
176 199 0
177 201 0
178 203 0
177 201 0
176 200 0
177 202 0
176 200 0
178 201 0
179 203 0
178 201 0
173 198 0
175 200 0
178 203 0
173 197 0
179 203 0
180 204 0
175 200 0
175 200 0
178 202 0
179 203 0
177 201 0
176 200 0
177 201 0
178 202 0
179 202 0
177 201 0
179 204 0
175 199 0
174 198 0
178 201 0
177 200 0
179 202 0
176 201 0
175 199 0
177 201 0
177 202 0
174 199 0
183 206 0
177 202 0
177 201 0
173 199 0
175 198 0
178 202 0
177 201 0
179 202 0
175 199 0
180 204 0
175 199 0
172 197 0
176 200 0
180 204 0
176 199 0
179 203 0
179 203 0
176 200 0
179 202 0
180 203 0
176 199 0
178 202 0
178 202 0
177 201 0
175 199 0
174 198 0
178 201 0
178 202 0
180 204 0
179 202 0
178 201 0
176 201 0
178 201 0
175 201 0
173 197 0
179 202 0
180 204 0
175 198 0
172 197 0
176 200 0
179 203 0
178 202 0
174 198 0
174 198 0
176 200 0
175 199 0
178 202 0
175 198 0
178 201 0
174 198 0
173 197 0
179 201 0
176 200 0
176 200 0
172 197 0
173 198 0
175 200 0
175 199 0
175 199 0
178 202 0
177 201 0
176 200 0
177 200 0
171 196 0
176 199 0
174 198 0
175 199 0
178 202 0
174 199 0
176 199 0
175 197 0
174 198 0
180 202 0
177 201 0
178 201 0
178 201 0
172 197 0
177 200 0
176 199 0
178 202 0
176 199 0
178 202 0
179 203 0
176 200 0
174 197 0
176 199 0
177 198 0
174 197 0
176 200 0
176 199 0
176 198 0
176 198 0
175 198 0
178 200 0
177 200 0
173 196 0
176 199 0
179 201 0
176 198 0
175 198 0
174 198 0
177 199 0
139 162 93
81 109 153
57 91 162
58 93 163
58 93 167
59 94 170
60 96 175
61 96 171
60 96 174
60 97 176
60 97 176
60 97 175
60 96 177
61 97 176
60 97 176
60 96 176
61 97 176
61 97 177
61 98 178
61 97 178
61 98 178
60 97 179
60 97 178
61 97 176
61 98 178
61 98 178
61 98 178
60 97 179
61 98 178
60 97 179
62 98 179
61 97 178
60 97 179
61 98 179
62 99 179
61 98 179
61 98 179
61 98 179
61 98 179
61 98 179
61 98 178
60 97 179
61 98 179
60 97 179
60 98 179
61 98 179
60 97 179
61 98 179
61 98 180
61 98 179
61 98 179
61 98 179
61 98 178
60 97 179
61 98 179
61 98 178
61 97 178
61 97 178
61 98 179
60 98 179
60 98 179
61 98 179
61 98 179
61 98 179
62 98 179
61 98 179
61 98 178
61 98 178
61 98 179
61 98 179
61 98 179
61 98 178
61 98 179
61 98 178
61 98 179
61 98 179
62 98 179
61 98 179
61 98 178
61 98 178
61 98 179
60 97 175
61 98 179
62 98 179
60 97 179
61 98 178
62 98 177
61 97 177
60 97 178
61 98 176
61 97 178
61 97 178
60 96 175
60 96 174
61 96 173
60 96 175
61 97 172
59 95 173
60 95 167
58 94 171
59 93 164
57 92 165
58 93 165
57 92 165
60 90 158
128 130 107
138 136 86
123 123 70
141 138 87
143 140 91
143 138 91
131 130 81
137 135 86
132 129 71
134 134 92
120 119 79
144 140 92
136 136 92
128 127 85
138 137 91
139 137 93
134 133 92
119 121 85
139 138 94
140 139 93
141 139 93
141 140 92
158 156 104
148 146 100
140 139 91
143 140 93
130 129 89
144 142 97
144 142 94
152 150 101
145 143 99
144 143 98
144 142 97
151 150 102
148 146 100
148 147 101
141 140 96
158 156 105
152 150 102
154 153 103
155 153 103
161 157 102
163 159 105
148 146 98
150 148 101
162 159 106
161 157 105
161 159 107
163 160 107
159 156 105
167 164 109
164 160 104
154 152 101
163 160 105
162 159 104
162 159 104
165 162 103
166 163 105
168 166 109
163 159 107
166 162 109
163 160 102
167 164 108
175 169 109
177 172 112
174 169 108
166 163 102
171 167 110
171 167 108
169 165 101
168 165 107
176 171 108
167 164 108
174 168 109
179 172 108
172 168 107
178 172 112
178 173 101
177 172 113
171 168 104
167 163 101
176 171 107
174 170 103
170 165 99
176 171 112
177 171 109
173 167 108
175 169 107
172 168 107
175 171 112
171 166 106
178 171 102
170 166 108
175 170 103
180 173 108
175 169 104
172 166 104
174 169 104
169 165 104
175 169 103
171 165 99
168 161 99
169 164 95
168 163 101
173 166 99
169 163 102
161 157 101
162 157 91
162 156 95
171 165 99
164 158 99
163 157 91
175 169 102
165 160 97
166 160 99
169 163 93
165 158 80
171 165 93
157 152 88
151 145 88
153 149 91
163 158 93
157 151 91
172 166 98
153 146 80
164 156 91
161 155 88
156 150 75
154 146 80
149 144 80
151 145 80
141 135 70
150 144 72
132 127 68
136 132 64
144 139 70
136 130 62
147 139 70
130 125 51
142 137 58
129 124 58
161 177 32
176 200 0
177 200 0
177 200 0
178 201 0
178 201 0
176 198 0
179 203 0
181 205 0
177 201 0
179 203 0
178 202 0
178 201 0
179 203 0
179 203 0
175 200 0
179 202 0
172 197 0
176 200 0
176 201 0
178 202 0
180 204 0
173 197 0
173 198 0
180 203 0
178 203 0
179 203 0
179 202 0
178 202 0
175 198 0
175 200 0
178 201 0
180 203 0
176 201 0
175 200 0
172 196 0
180 202 0
177 201 0
176 200 0
182 204 0
179 203 0
174 199 0
176 201 0
174 199 0
174 198 0
168 193 0
178 202 0
175 200 0
181 205 0
177 201 0
178 202 0
175 199 0
177 201 0
178 202 0
179 202 0
178 201 0
173 197 0
176 201 0
179 203 0
180 203 0
173 198 0
179 202 0
176 200 0
173 196 0
175 200 0
177 200 0
177 201 0
173 196 0
174 198 0
180 204 0
176 199 0
173 197 0
175 199 0
174 198 0
177 200 0
174 198 0
178 202 0
178 202 0
176 200 0
174 198 0
178 202 0
178 201 0
178 201 0
176 199 0
178 201 0
171 196 0
174 198 0
175 199 0
175 199 0
175 199 0
177 200 0
170 194 0
177 201 0
177 201 0
174 198 0
175 199 0
177 200 0
177 202 0
176 200 0
177 200 0
173 197 0
177 201 0
175 198 0
176 200 0
176 200 0
172 196 0
178 201 0
176 201 0
178 201 0
175 198 0
178 202 0
177 201 0
175 198 0
175 198 0
177 199 0
177 201 0
176 199 0
176 199 0
179 201 0
176 198 0
173 198 0
177 200 0
173 198 0
173 197 0
175 199 0
171 194 0
178 201 0
173 197 0
175 199 0
175 200 0
177 200 0
175 198 0
178 202 0
180 203 0
176 200 0
172 196 0
178 201 0
177 201 0
175 199 0
172 195 0
175 200 0
176 199 0
176 199 0
178 201 0
175 198 0
178 202 0
176 201 0
175 198 0
174 198 0
176 199 0
176 198 0
176 200 0
169 193 54
124 148 111
57 91 162
58 92 165
58 93 167
59 94 165
59 94 159
60 96 173
60 96 176
60 96 172
60 97 175
60 97 175
61 97 175
61 98 177
60 97 174
60 97 177
60 97 177
60 97 174
61 98 178
61 97 177
60 97 178
61 97 174
60 97 178
61 98 179
60 98 179
60 97 176
60 97 177
61 98 179
61 97 178
60 97 179
61 98 179
61 97 177
61 98 179
61 98 179
62 98 179
61 97 178
61 98 179
61 98 179
61 97 178
61 98 179
61 98 179
61 98 180
61 98 179
61 98 179
61 98 180
61 98 180
61 98 179
61 98 179
60 97 179
61 98 179
61 98 179
61 98 179
61 98 179
61 98 179
60 97 178
61 98 179
61 98 179
61 98 179
61 98 178
61 98 179
61 98 179
61 98 179
61 98 179
60 97 179
62 98 178
61 98 179
61 98 180
61 98 180
62 99 179
60 98 180
61 98 179
60 97 179
60 98 180
61 97 178
61 98 179
61 98 179
62 98 179
61 98 179
61 98 179
60 97 178
61 98 179
60 97 179
61 98 179
61 97 177
61 98 179
61 97 178
61 98 177
60 97 179
61 98 177
61 98 176
61 97 177
61 97 178
60 97 178
60 97 175
60 96 171
61 97 173
61 97 177
61 97 177
61 97 176
59 95 173
60 96 173
59 95 170
60 96 173
59 93 166
57 91 161
59 94 166
58 93 167
55 88 159
88 102 130
124 122 79
131 128 82
127 125 72
145 142 91
128 127 83
126 124 82
129 127 83
133 132 88
132 132 89
133 132 88
145 144 93
137 136 90
139 137 90
136 135 91
134 136 93
139 137 91
132 131 88
142 140 94
146 145 98
140 140 96
142 140 96
132 133 93
120 122 83
153 150 103
132 131 90
142 142 98
136 136 94
133 132 89
138 138 96
139 139 96
136 135 94
147 146 100
152 150 101
139 140 98
150 148 101
142 141 98
160 158 107
157 155 104
155 153 104
153 151 99
147 147 102
161 157 104
151 148 99
165 162 108
153 151 100
160 156 103
158 156 104
166 162 106
163 159 106
164 161 107
161 158 105
162 158 106
163 159 102
154 152 101
161 158 104
163 161 103
161 159 106
168 165 108
158 157 106
167 163 105
164 161 104
163 161 105
173 169 107
170 166 103
174 169 110
176 171 109
176 172 112
173 170 109
173 168 101
170 165 106
171 166 107
176 171 109
176 171 110
175 171 110
175 169 110
175 170 108
175 170 106
174 168 106
171 168 105
180 172 109
175 171 104
174 169 107
178 172 107
176 171 110
174 169 107
172 166 104
175 169 104
169 165 102
172 167 104
172 168 104
176 171 103
171 165 101
173 167 99
174 169 107
165 161 95
173 168 103
169 165 99
178 171 106
166 162 93
170 165 98
171 165 102
163 157 91
172 168 101
170 165 99
174 167 97
177 170 104
161 158 94
160 155 85
169 162 98
163 158 94
167 161 94
156 150 90
167 161 93
160 155 85
161 156 88
162 157 91
155 151 91
159 153 87
161 155 90
163 156 94
159 154 93
164 158 91
152 146 90
163 157 88
153 146 79
143 137 75
152 148 77
159 152 85
148 143 80
154 148 75
164 157 84
151 144 79
145 138 77
149 144 74
158 151 74
138 132 64
128 124 60
129 124 56
125 121 58
158 171 39
176 200 0
179 200 0
176 199 0
177 201 0
177 200 0
177 201 0
178 201 0
174 199 0
178 203 0
178 202 0
177 202 0
175 199 0
177 200 0
177 201 0
176 201 0
175 198 0
172 196 0
175 199 0
179 202 0
180 203 0
176 201 0
180 203 0
178 201 0
178 201 0
176 199 0
182 205 0
175 200 0
173 198 0
176 200 0
175 200 0
178 201 0
176 200 0
178 201 0
177 201 0
177 201 0
179 202 0
179 202 0
173 198 0
177 202 0
173 197 0
178 200 0
179 202 0
184 207 0
173 197 0
177 200 0
174 199 0
175 200 0
178 200 0
175 200 0
177 200 0
175 199 0
179 203 0
179 201 0
176 201 0
174 198 0
180 203 0
175 199 0
173 197 0
176 199 0
177 199 0
174 198 0
174 198 0
180 204 0
177 201 0
178 200 0
176 200 0
176 201 0
173 196 0
173 197 0
177 201 0
172 195 0
177 201 0
179 203 0
176 199 0
180 203 0
175 199 0
179 201 0
174 197 0
174 198 0
177 201 0
172 195 0
174 198 0
176 200 0
175 199 0
177 201 0
174 198 0
180 204 0
180 203 0
174 198 0
176 198 0
174 198 0
176 200 0
174 198 0
174 199 0
177 201 0
175 199 0
173 196 0
175 198 0
176 201 0
177 200 0
178 203 0
176 200 0
174 198 0
172 195 0
176 201 0
178 202 0
178 201 0
174 198 0
177 200 0
170 193 0
173 197 0
178 201 0
173 197 0
173 197 0
177 200 0
175 199 0
172 196 0
177 199 0
179 201 0
173 197 0
175 199 0
175 199 0
180 202 0
179 201 0
179 201 0
173 197 0
172 195 0
175 198 0
175 198 0
174 198 0
173 196 0
179 203 0
177 199 0
176 198 0
174 198 0
173 195 0
169 194 0
174 198 0
177 201 0
174 198 0
176 199 0
174 198 0
173 197 0
175 199 0
173 196 0
175 198 0
178 201 0
180 204 0
177 199 0
175 199 0
142 166 99
83 109 141
57 91 164
59 93 164
59 95 172
59 94 169
59 95 168
60 96 173
61 97 176
60 96 176
61 97 173
61 97 174
60 97 172
61 98 178
61 98 178
61 98 178
60 97 177
61 97 178
61 98 178
61 97 176
61 98 177
61 98 179
61 98 179
62 98 178
61 98 177
61 98 179
61 98 179
61 98 179
61 97 176
61 98 177
61 98 179
61 98 178
61 98 179
60 97 178
61 98 179
61 98 179
61 97 178
61 98 179
61 98 179
61 98 179
60 97 178
61 98 178
61 98 178
60 98 179
60 97 179
61 98 180
61 98 179
61 98 179
61 98 180
61 98 179
61 98 179
61 98 180
61 98 180
61 98 179
60 98 179
61 98 179
61 98 179
62 98 179
61 98 179
62 98 178
61 98 179
61 98 179
61 98 179
61 98 179
60 98 179
60 98 180
61 98 179
61 98 179
60 97 180
61 98 179
61 98 180
62 98 178
61 98 179
61 98 179
60 97 179
60 98 179
60 98 180
61 98 179
61 98 179
60 97 177
60 97 177
62 98 178
60 98 179
60 97 177
61 98 179
61 98 179
60 97 179
62 98 179
60 96 176
61 98 179
61 98 175
61 97 178
60 97 175
61 97 178
61 98 179
61 98 178
62 97 172
62 98 175
61 98 177
61 98 177
61 97 177
60 96 171
60 96 173
61 97 174
60 96 173
60 96 172
59 94 169
59 94 169
58 93 168
56 89 158
58 87 147
120 124 105
122 120 77
138 135 83
133 131 85
118 119 79
127 124 82
122 122 85
118 117 76
138 138 91
125 125 86
124 124 84
143 140 89
130 129 85
134 133 90
139 138 93
139 137 89
125 126 87
129 130 89
131 133 94
124 125 88
142 141 95
138 137 96
131 132 90
128 129 87
147 144 93
128 128 90
142 140 95
148 145 96
136 135 94
141 141 98
144 142 97
151 149 102
151 149 100
152 150 97
145 144 100
149 146 96
141 141 97
148 148 101
152 149 98
148 147 101
155 152 102
168 165 111
143 143 98
155 154 103
163 160 103
156 154 103
158 153 101
147 146 96
156 153 102
160 158 102
164 161 103
165 162 106
165 161 108
165 162 104
168 164 105
165 161 103
170 164 107
176 171 105
167 164 106
166 163 105
174 169 108
171 166 105
163 160 103
164 161 106
173 169 106
169 165 107
169 167 108
171 167 109
168 163 107
173 169 107
174 169 108
173 169 111
169 166 103
171 167 103
174 169 109
179 173 112
177 172 106
173 169 99
172 167 106
178 172 106
170 166 103
168 164 97
177 171 109
165 162 99
167 163 102
173 166 101
169 164 103
174 170 107
169 164 102
173 167 99
175 168 98
173 167 103
175 169 104
180 173 104
173 167 101
171 163 101
164 159 101
167 163 101
166 160 93
166 163 98
173 166 102
174 167 101
173 166 104
167 161 99
169 163 95
174 169 103
169 163 88
160 156 90
176 171 106
165 159 91
167 160 97
161 156 87
164 159 95
163 157 90
168 161 94
158 152 84
159 154 90
168 162 98
171 164 101
157 151 90
166 160 95
153 148 88
157 151 79
161 156 77
152 146 77
156 151 80
148 143 80
156 149 85
153 146 88
147 140 75
151 146 70
146 140 70
136 132 64
157 151 82
149 142 79
127 123 62
150 143 75
131 125 62
134 138 45
180 204 0
176 199 0
178 200 0
176 200 0
175 198 0
176 199 0
178 202 0
175 200 0
176 200 0
175 199 0
175 199 0
177 201 0
178 202 0
179 203 0
179 203 0
177 201 0
177 202 0
179 203 0
177 201 0
178 202 0
176 200 0
180 202 0
176 199 0
173 197 0
177 201 0
179 202 0
182 205 0
178 202 0
177 201 0
174 198 0
177 201 0
176 200 0
175 200 0
176 199 0
178 201 0
173 197 0
176 199 0
177 200 0
178 202 0
176 200 0
174 198 0
174 199 0
176 201 0
174 197 0
177 201 0
176 200 0
178 203 0
175 199 0
180 204 0
177 200 0
175 200 0
175 200 0
179 201 0
174 198 0
178 202 0
176 200 0
177 200 0
180 203 0
179 202 0
178 202 0
173 197 0
182 204 0
177 201 0
179 202 0
175 199 0
177 202 0
175 199 0
175 199 0
178 201 0
176 199 0
175 199 0
174 198 0
176 200 0
174 199 0
183 206 0
177 200 0
179 202 0
176 200 0
172 196 0
174 197 0
177 200 0
178 200 0
178 201 0
178 202 0
176 199 0
180 203 0
179 202 0
177 200 0
175 198 0
168 193 0
180 203 0
173 196 0
174 198 0
172 197 0
177 201 0
176 200 0
177 201 0
172 197 0
180 202 0
177 202 0
181 202 0
176 200 0
176 198 0
178 203 0
178 201 0
171 195 0
177 200 0
178 202 0
175 198 0
176 201 0
173 198 0
176 200 0
178 201 0
173 197 0
175 198 0
178 201 0
176 200 0
176 200 0
172 195 0
173 197 0
176 199 0
175 199 0
176 198 0
177 200 0
176 199 0
173 197 0
175 200 0
176 199 0
173 198 0
180 203 0
176 200 0
176 200 0
170 194 0
176 199 0
171 195 0
174 197 0
175 198 0
175 199 0
177 200 0
173 197 0
175 199 0
176 199 0
172 197 0
173 197 0
172 196 0
175 199 0
176 199 0
177 200 0
174 198 0
140 164 99
61 94 160
57 91 160
60 95 165
59 94 170
60 95 168
59 95 174
60 96 172
60 97 174
60 97 173
61 97 175
60 96 172
60 97 176
61 98 176
60 97 178
60 97 176
61 98 176
61 98 176
60 97 178
60 97 177
61 98 177
61 97 178
61 98 179
61 98 179
61 98 179
61 98 179
62 98 179
61 98 179
61 98 179
61 98 179
61 98 177
61 98 177
61 98 178
62 98 179
62 99 179
60 97 179
61 98 179
62 98 179
62 99 179
61 98 179
61 98 178
61 98 179
61 98 179
61 98 179
61 98 179
61 98 179
60 98 180
61 98 180
61 98 179
61 98 179
61 98 180
60 97 178
61 98 179
61 98 179
61 98 179
61 98 179
60 97 179
60 98 180
61 98 179
61 98 179
61 98 179
61 97 178
61 98 179
61 98 179
61 98 179
61 98 179
61 98 179
61 98 179
61 98 179
61 98 178
61 98 179
61 98 179
61 98 179
61 98 179
61 98 179
61 98 180
61 98 179
62 99 177
60 98 179
61 98 179
61 98 180
61 98 179
60 97 180
61 98 179
61 98 179
61 98 177
61 98 179
60 97 178
61 98 179
61 98 178
60 97 179
61 98 177
61 98 179
61 98 179
61 98 177
61 98 179
61 98 175
60 97 175
61 98 177
60 95 173
61 97 175
60 96 172
60 97 178
60 96 168
61 96 170
61 96 172
60 96 175
59 95 173
59 95 173
59 94 167
58 92 164
57 90 158
55 87 151
112 118 123
117 117 77
126 123 77
125 124 81
129 128 85
134 132 90
115 114 72
142 140 92
127 129 89
143 141 90
135 134 91
128 128 87
143 139 94
132 132 87
132 132 91
132 132 91
139 138 95
132 131 91
130 129 88
124 125 84
133 133 94
143 142 99
148 146 97
122 123 85
147 145 100
135 135 94
136 136 95
139 138 92
145 144 99
134 134 93
153 151 102
138 139 95
133 134 95
151 149 99
140 139 96
155 154 106
155 153 104
153 149 100
153 151 101
153 151 103
156 153 102
148 146 98
161 158 107
149 149 101
158 155 103
157 155 101
152 150 102
158 156 101
159 158 105
167 165 106
161 159 106
169 165 106
163 160 102
168 164 107
168 164 106
169 166 108
163 160 103
167 164 104
172 167 108
165 162 106
171 167 108
176 171 104
172 168 107
174 169 107
174 170 109
171 167 101
173 168 104
171 166 101
171 167 103
175 169 107
173 169 105
177 172 112
170 165 105
170 165 102
176 171 104
178 172 107
171 166 104
177 171 108
175 170 104
176 171 101
173 168 104
171 167 103
172 168 105
171 167 98
175 168 102
173 168 106
177 171 99
173 169 107
171 165 99
176 170 103
177 171 103
175 168 99
175 169 107
166 162 97
176 169 104
171 166 103
176 169 108
168 163 99
171 164 101
173 166 99
174 168 107
175 171 108
168 161 88
162 157 94
169 163 91
167 161 101
155 150 90
172 165 99
167 161 93
164 158 95
176 169 102
159 154 91
166 161 99
152 147 91
162 156 91
151 147 82
145 141 77
161 155 88
156 150 84
158 151 87
154 150 82
170 164 90
163 156 94
157 151 82
152 145 85
158 151 82
146 142 72
143 138 70
143 137 80
147 141 72
151 143 75
149 142 80
147 141 70
131 127 64
133 128 72
118 113 53
140 133 70
136 143 42
175 199 0
177 201 0
181 205 0
179 202 0
173 197 0
177 200 0
177 201 0
180 204 0
184 207 0
177 201 0
179 202 0
176 201 0
179 203 0
175 200 0
178 202 0
177 201 0
176 200 0
172 196 0
178 202 0
180 204 0
172 196 0
176 201 0
177 201 0
175 199 0
176 201 0
177 200 0
174 199 0
176 199 0
177 200 0
176 200 0
177 201 0
178 202 0
176 200 0
179 202 0
178 201 0
175 199 0
176 200 0
178 201 0
176 200 0
177 201 0
177 200 0
179 203 0
175 199 0
177 201 0
179 203 0
179 203 0
179 203 0
174 199 0
176 199 0
175 200 0
177 201 0
173 197 0
172 198 0
174 200 0
174 198 0
176 200 0
180 203 0
176 199 0
176 201 0
178 202 0
180 202 0
177 201 0
176 199 0
175 199 0
176 201 0
176 199 0
181 203 0
171 197 0
178 202 0
175 199 0
175 200 0
177 201 0
182 205 0
179 201 0
179 202 0
175 198 0
178 202 0
178 202 0
179 202 0
178 203 0
181 205 0
177 201 0
174 199 0
178 201 0
177 199 0
176 201 0
176 200 0
179 202 0
176 200 0
177 201 0
175 200 0
179 201 0
180 204 0
178 201 0
174 197 0
174 199 0
179 201 0
173 198 0
177 202 0
174 199 0
175 199 0
177 199 0
173 196 0
175 199 0
177 200 0
179 202 0
176 200 0
174 198 0
179 202 0
177 201 0
174 198 0
173 196 0
179 202 0
173 198 0
173 198 0
178 201 0
177 200 0
178 200 0
173 197 0
179 202 0
178 201 0
176 199 0
173 197 0
173 198 0
177 199 0
176 199 0
177 200 0
174 199 0
177 201 0
175 198 0
173 197 0
174 197 0
172 196 0
174 199 0
178 201 0
176 199 0
180 202 0
174 197 0
173 197 0
175 198 0
176 200 0
178 202 0
176 198 0
174 197 0
175 199 0
171 195 0
172 196 0
168 190 43
104 129 129
56 89 159
58 93 166
60 95 170
59 95 169
60 95 165
60 96 172
61 97 176
60 96 173
60 96 173
61 97 177
59 96 173
61 98 178
61 98 178
61 98 178
61 98 175
62 98 177
61 98 178
61 98 177
62 98 179
62 98 178
61 97 177
61 98 179
61 98 179
62 99 179
60 97 178
61 98 179
61 98 179
60 97 177
61 98 179
60 97 177
61 98 179
62 98 179
61 98 179
61 98 179
61 98 179
61 98 179
60 97 179
61 98 179
61 98 180
61 98 179
61 98 179
61 98 179
60 97 179
61 98 179
61 98 179
61 98 178
61 98 180
61 98 180
61 98 180
60 98 180
61 98 179
61 98 178
61 98 180
62 99 179
61 97 178
60 98 179
61 98 180
61 98 180
61 98 180
61 98 179
62 98 179
61 98 179
61 98 179
61 98 180
61 98 179
61 98 179
61 98 180
61 98 179
61 98 179
61 98 179
62 99 179
60 98 180
61 98 179
61 98 179
61 98 179
61 98 179
61 98 178
61 98 179
61 98 179
62 99 179
60 98 179
61 98 179
62 98 179
61 98 179
61 98 179
61 98 177
62 98 179
61 98 178
62 98 177
61 98 178
61 98 179
61 98 177
62 98 177
61 98 175
61 98 179
62 98 177
61 97 175
60 97 177
62 98 177
61 97 177
61 97 176
60 97 178
61 97 177
60 97 178
61 97 176
60 96 175
60 95 173
60 96 174
60 96 170
59 95 173
59 94 167
57 92 166
56 89 157
56 90 159
91 106 138
129 128 85
137 134 89
124 125 83
128 127 86
129 128 82
108 109 76
123 124 82
135 133 87
129 128 86
147 143 95
128 128 88
122 122 83
116 117 81
123 123 83
125 125 88
125 125 83
142 142 98
126 127 89
121 122 84
119 121 88
126 127 87
129 130 91
126 128 90
130 130 90
140 139 94
128 130 93
137 137 94
146 144 98
144 144 100
138 138 96
145 143 99
135 134 95
134 133 94
155 153 103
159 156 105
151 149 97
149 148 98
160 158 106
154 152 102
153 151 100
154 151 100
151 149 101
150 148 96
158 156 104
168 163 106
164 161 108
157 154 103
169 165 110
166 162 107
158 155 104
172 167 111
158 155 99
162 159 103
162 159 98
172 166 109
169 166 107
165 162 108
171 166 104
172 167 106
164 161 105
171 168 103
175 169 107
170 165 103
175 170 108
163 160 101
171 167 107
166 163 104
172 167 107
172 168 101
175 170 107
176 171 108
166 162 100
174 169 106
173 168 104
176 171 110
171 167 103
177 171 106
171 166 102
172 167 99
173 168 108
176 171 109
174 169 108
177 172 107
177 171 104
177 171 109
169 165 102
172 167 98
172 166 104
171 165 104
171 165 101
172 166 102
178 173 106
175 169 102
172 166 99
174 168 99
175 168 99
169 163 98
175 170 104
171 164 98
172 165 94
170 163 99
167 162 94
167 161 102
161 157 91
179 171 103
173 168 98
166 160 94
169 164 97
170 164 98
160 153 93
167 161 94
155 150 80
162 157 90
160 153 90
163 158 93
160 156 94
155 151 75
147 143 75
161 154 84
156 151 82
165 159 85
160 156 87
158 153 74
154 149 85
143 137 72
141 135 75
152 145 84
150 144 74
144 138 66
137 131 64
137 132 70
142 136 70
150 142 77
134 128 66
138 133 64
131 129 48
178 201 0
173 195 0
176 199 0
179 203 0
176 199 0
175 199 0
177 200 0
178 202 0
177 201 0
176 201 0
178 201 0
180 203 0
178 202 0
175 199 0
177 201 0
177 199 0
177 199 0
175 199 0
178 203 0
173 198 0
178 202 0
173 197 0
177 201 0
177 200 0
180 203 0
178 202 0
175 200 0
177 201 0
174 197 0
175 198 0
177 201 0
173 196 0
177 200 0
174 198 0
175 199 0
179 203 0
175 198 0
179 202 0
176 200 0
176 200 0
176 200 0
172 195 0
176 200 0
177 200 0
176 198 0
177 201 0
175 199 0
180 203 0
178 201 0
173 197 0
175 199 0
177 200 0
174 198 0
173 198 0
178 202 0
178 203 0
179 203 0
174 198 0
177 200 0
175 200 0
174 198 0
180 203 0
174 199 0
175 199 0
174 198 0
175 200 0
173 198 0
175 200 0
176 200 0
171 195 0
179 203 0
174 198 0
178 201 0
174 197 0
179 202 0
177 199 0
171 195 0
178 202 0
174 197 0
173 197 0
177 201 0
175 198 0
176 199 0
179 203 0
176 199 0
173 198 0
172 197 0
171 196 0
178 202 0
178 201 0
175 198 0
175 199 0
179 203 0
174 198 0
175 198 0
175 200 0
175 199 0
179 203 0
179 202 0
179 202 0
176 200 0
176 198 0
174 198 0
175 199 0
175 198 0
173 198 0
178 201 0
174 198 0
174 197 0
177 200 0
173 196 0
174 200 0
171 195 0
172 195 0
177 201 0
171 194 0
175 198 0
177 201 0
174 198 0
178 200 0
179 201 0
180 202 0
177 201 0
179 202 0
175 200 0
178 202 0
177 200 0
176 200 0
175 199 0
173 198 0
177 200 0
169 194 0
173 196 0
178 202 0
175 199 0
177 201 0
173 197 0
167 191 0
177 198 0
169 193 0
173 196 0
174 198 0
176 196 0
174 199 0
177 200 0
172 194 0
173 194 22
97 122 133
58 93 158
58 93 163
59 94 168
60 95 170
60 96 170
61 96 171
61 97 176
60 96 173
61 97 175
61 97 172
61 97 176
61 98 176
61 97 177
61 97 173
62 99 179
61 98 178
61 98 179
62 98 178
61 98 178
62 99 179
61 98 179
61 98 177
61 98 177
60 97 178
62 99 179
61 98 179
61 98 179
61 98 179
61 98 179
61 98 179
61 98 179
61 98 179
61 98 178
61 98 179
62 98 179
61 97 178
61 99 180
62 99 180
61 98 180
61 98 180
61 98 180
61 98 179
62 99 180
61 98 179
61 98 179
61 98 179
61 98 179
61 98 180
62 98 178
61 98 180
62 99 179
61 98 179
61 98 178
61 98 179
61 98 180
61 98 180
61 98 179
61 98 179
61 98 180
61 98 179
61 98 179
62 98 179
61 98 179
62 98 179
61 98 180
61 98 179
62 99 179
60 97 179
61 98 180
62 98 179
61 98 178
62 99 179
61 98 179
61 98 179
61 98 179
61 98 179
61 98 179
62 99 180
61 97 178
61 98 179
62 99 180
62 99 180
62 99 179
61 98 179
61 98 179
61 97 177
61 98 180
61 98 179
61 98 177
61 98 177
61 98 179
61 98 177
61 98 177
61 98 179
61 98 177
60 97 177
61 97 177
61 98 176
61 97 173
62 98 178
61 98 179
60 97 177
61 98 178
60 96 174
59 95 173
61 98 176
60 97 174
61 97 175
60 96 173
59 96 169
59 95 173
61 96 174
59 94 168
57 92 165
57 90 163
57 90 156
63 89 146
118 118 87
117 117 72
120 119 77
120 119 71
133 132 86
126 124 83
137 133 87
122 123 85
125 126 85
127 127 84
116 118 83
107 109 78
142 142 95
126 127 91
133 132 92
132 131 89
116 119 83
123 124 86
125 125 82
143 143 99
139 138 94
135 135 95
142 140 95
140 139 92
127 129 93
155 153 102
140 139 93
142 141 97
147 146 97
141 140 96
145 143 96
148 147 102
147 145 98
154 154 102
151 149 100
144 143 98
157 154 103
152 149 100
151 149 102
144 144 97
152 150 100
159 155 100
162 159 106
160 158 103
166 162 107
169 165 110
155 153 103
155 152 99
166 162 105
165 161 103
169 164 106
165 162 103
167 163 106
161 159 99
170 167 104
170 165 106
171 167 103
174 169 109
174 170 112
171 167 106
169 165 104
164 161 103
177 172 110
165 161 103
169 164 106
172 166 100
171 167 105
169 165 106
172 167 104
174 169 106
174 169 106
176 171 104
175 171 109
172 167 106
169 164 104
170 167 108
173 168 101
175 168 101
173 167 104
170 166 104
171 165 96
164 161 98
172 167 99
174 167 103
169 163 101
176 170 101
175 170 103
177 171 104
174 168 102
173 168 104
172 166 91
174 167 102
169 164 98
172 165 99
170 164 99
165 159 99
170 163 98
174 167 102
163 158 95
173 167 98
169 164 99
171 165 93
166 160 99
160 155 93
170 163 91
169 163 93
167 160 102
172 164 97
168 161 95
162 157 95
166 161 94
167 160 87
160 154 82
165 158 93
159 153 85
155 147 82
164 158 88
155 149 80
169 165 90
160 152 87
136 132 68
156 149 85
152 146 79
153 148 75
144 139 70
144 137 75
150 144 79
142 138 66
140 135 68
146 141 75
138 133 68
130 125 64
128 123 62
109 107 45
118 113 45
183 206 0
176 199 0
178 199 0
173 196 0
179 202 0
182 205 0
176 201 0
173 198 0
178 201 0
177 202 0
173 198 0
178 201 0
179 202 0
175 199 0
173 197 0
179 203 0
179 203 0
178 201 0
172 197 0
175 198 0
176 200 0
178 200 0
176 201 0
177 200 0
175 199 0
172 197 0
175 199 0
173 198 0
177 201 0
179 202 0
177 202 0
178 202 0
179 203 0
178 202 0
177 199 0
178 203 0
176 200 0
177 201 0
175 199 0
177 201 0
179 203 0
174 198 0
175 198 0
176 200 0
175 199 0
177 201 0
174 197 0
177 200 0
179 203 0
177 200 0
179 202 0
174 199 0
171 197 0
178 200 0
182 204 0
178 203 0
175 200 0
177 201 0
173 198 0
179 203 0
174 198 0
174 199 0
173 197 0
177 201 0
175 199 0
178 201 0
177 201 0
177 201 0
175 197 0
176 200 0
173 197 0
175 199 0
177 202 0
174 197 0
174 198 0
173 198 0
175 199 0
172 197 0
177 200 0
177 201 0
179 202 0
173 197 0
178 202 0
176 200 0
181 203 0
174 197 0
175 199 0
175 199 0
176 200 0
176 199 0
172 196 0
177 202 0
174 197 0
171 194 0
176 200 0
174 198 0
177 201 0
178 202 0
173 197 0
178 201 0
175 199 0
177 200 0
176 199 0
177 200 0
175 199 0
174 198 0
174 200 0
175 198 0
180 203 0
174 197 0
175 199 0
174 198 0
175 199 0
174 198 0
172 197 0
178 201 0
174 197 0
176 199 0
173 196 0
178 202 0
175 198 0
174 198 0
178 200 0
174 199 0
174 198 0
173 197 0
170 194 0
171 195 0
175 199 0
178 201 0
179 203 0
177 200 0
168 192 0
174 197 0
173 196 0
176 199 0
176 200 0
173 199 0
174 198 0
175 198 0
172 196 0
176 199 0
175 199 0
176 200 0
172 196 0
152 175 78
72 102 149
58 93 166
59 94 170
59 94 165
61 96 170
60 96 173
60 96 172
60 96 167
60 96 167
61 97 176
61 97 178
61 98 177
61 98 177
62 99 174
61 98 178
61 98 178
60 97 176
61 98 178
61 98 176
62 98 177
61 98 175
61 98 177
61 98 179
61 98 177
61 98 177
61 98 179
60 97 176
61 98 180
61 98 179
62 98 178
61 98 179
61 98 179
61 98 179
61 98 180
62 99 179
61 98 179
61 98 179
62 98 178
61 98 179
61 98 179
61 98 177
61 97 178
61 98 179
61 98 179
62 98 179
62 98 179
61 98 179
60 98 180
61 98 179
61 98 179
61 98 179
61 98 180
62 98 178
61 98 178
61 98 179
61 98 179
61 98 179
61 98 180
61 98 179
61 98 180
61 98 179
61 98 180
61 98 179
61 98 179
61 98 179
61 98 179
61 98 180
61 98 179
61 98 180
61 98 180
60 97 178
60 97 180
61 98 180
61 98 180
61 98 179
61 98 179
61 98 180
61 98 179
61 98 179
61 98 179
60 97 180
61 98 178
60 97 178
61 98 179
61 98 179
61 98 179
61 98 178
61 98 179
60 97 174
61 98 179
61 98 176
61 98 175
61 98 179
61 98 179
62 98 174
60 97 177
62 99 177
61 97 177
62 98 179
61 98 177
60 97 177
61 97 177
60 96 173
61 98 177
61 98 178
61 98 178
61 97 177
62 98 176
62 98 176
60 96 170
61 97 174
60 96 173
61 97 168
60 96 173
59 93 166
59 94 171
57 91 156
58 93 159
58 93 162
64 92 154
104 107 90
133 130 79
134 132 86
131 129 87
117 118 78
119 119 82
120 120 83
124 122 82
111 113 81
122 122 83
117 120 83
122 122 84
124 124 86
112 115 83
119 120 84
132 132 91
140 140 94
136 134 93
134 133 91
145 145 99
133 132 91
131 131 91
148 147 102
133 133 92
141 140 94
136 135 93
132 133 94
132 133 96
146 144 95
150 147 99
144 143 98
162 160 108
140 140 97
146 145 99
154 150 100
157 154 102
160 157 103
159 157 101
153 151 101
141 141 96
153 152 104
154 153 104
155 153 95
143 143 94
162 159 102
161 156 102
157 154 101
163 159 106
164 161 106
168 165 105
167 163 104
166 162 106
168 164 107
175 169 108
169 165 101
169 165 106
178 172 106
160 157 96
176 171 111
167 163 104
169 165 106
179 173 107
170 166 105
170 166 103
168 163 105
174 169 107
170 167 107
171 167 104
173 168 104
170 166 103
173 168 106
173 167 104
176 171 102
170 166 100
177 170 106
168 162 101
176 169 103
172 167 106
172 166 103
175 171 106
174 169 102
174 167 103
171 166 106
173 168 99
174 168 102
165 160 97
172 167 104
173 168 104
169 165 104
168 163 103
169 163 102
168 164 101
172 166 99
166 161 94
171 164 94
169 163 94
166 161 93
169 163 101
172 165 102
174 167 102
168 162 94
166 160 91
164 158 87
163 157 93
172 165 95
169 164 90
172 165 93
167 161 91
163 157 88
171 164 95
160 154 88
161 154 87
160 155 88
149 143 80
165 158 91
150 145 82
156 152 80
148 142 79
148 142 74
155 149 88
152 147 82
153 147 75
158 152 77
148 143 72
157 151 80
145 140 66
140 134 70
147 140 70
137 133 72
138 133 60
143 136 72
132 126 60
133 128 60
137 131 66
171 194 0
178 198 0
180 203 0
178 201 0
180 203 0
178 200 0
179 203 0
176 201 0
176 201 0
178 202 0
175 198 0
180 202 0
178 201 0
178 201 0
178 202 0
174 198 0
179 202 0
175 199 0
174 198 0
181 204 0
176 201 0
174 199 0
177 201 0
177 201 0
179 203 0
178 202 0
175 199 0
179 203 0
176 201 0
176 200 0
175 199 0
176 200 0
180 204 0
174 198 0
175 198 0
176 199 0
178 201 0
174 198 0
176 200 0
181 204 0
173 198 0
180 204 0
179 202 0
175 199 0
178 200 0
174 198 0
176 200 0
177 201 0
174 197 0
175 200 0
176 199 0
177 201 0
177 200 0
178 201 0
180 202 0
177 200 0
176 200 0
179 201 0
176 201 0
176 200 0
177 201 0
173 198 0
177 200 0
180 203 0
179 203 0
177 200 0
177 200 0
175 199 0
178 201 0
177 201 0
175 199 0
175 198 0
182 205 0
178 202 0
176 197 0
180 202 0
172 195 0
177 201 0
175 199 0
178 202 0
178 201 0
177 201 0
175 199 0
174 198 0
177 201 0
176 201 0
173 198 0
176 199 0
174 197 0
176 200 0
176 199 0
172 196 0
174 198 0
179 202 0
176 199 0
178 201 0
180 203 0
173 196 0
174 199 0
176 200 0
175 199 0
175 199 0
172 196 0
176 201 0
175 197 0
171 196 0
171 195 0
171 194 0
176 200 0
173 197 0
175 199 0
174 198 0
178 202 0
175 199 0
175 199 0
170 195 0
172 198 0
181 203 0
173 196 0
173 198 0
174 198 0
176 200 0
175 198 0
184 207 0
175 199 0
176 199 0
176 200 0
177 201 0
173 197 0
174 198 0
173 195 0
174 198 0
174 197 0
177 200 0
169 194 0
175 198 0
173 196 0
173 195 0
173 197 0
169 193 0
173 197 0
174 199 0
176 199 0
173 197 0
152 176 77
76 105 150
58 92 165
60 95 167
59 93 166
60 96 169
60 96 174
60 96 172
61 97 173
61 97 173
61 97 172
61 98 173
61 97 178
61 97 174
62 99 174
61 97 173
61 97 176
60 97 175
61 97 176
61 98 177
60 97 174
61 98 178
61 98 177
61 98 177
62 99 179
62 98 179
61 98 179
60 98 180
60 97 177
61 98 179
61 98 179
61 98 177
61 98 179
61 98 180
61 98 179
61 98 179
61 98 178
61 98 180
60 98 179
61 98 178
61 98 180
61 98 179
61 98 179
61 98 179
62 98 179
61 98 179
61 98 178
62 99 180
61 98 180
60 98 180
61 98 180
60 98 179
61 98 179
61 98 179
61 98 180
62 99 180
61 98 180
62 98 179
61 98 180
61 98 179
61 98 180
61 98 179
61 98 179
60 98 180
61 98 179
61 98 179
61 98 179
60 98 179
61 98 180
61 98 180
61 98 179
61 98 179
61 98 179
61 98 179
61 98 179
61 98 180
61 98 178
61 98 180
62 98 179
62 98 179
61 98 179
61 98 179
61 98 179
60 97 179
61 98 179
60 97 179
61 98 180
61 98 177
61 98 179
62 98 179
61 98 179
61 98 179
60 97 179
61 98 179
62 98 177
61 97 174
62 98 178
62 99 179
61 98 179
61 98 179
61 98 178
60 97 177
60 97 175
62 98 178
61 97 175
61 98 175
61 98 179
61 98 178
62 99 177
61 97 173
61 98 175
61 97 175
62 98 176
61 97 176
61 97 175
60 95 164
60 96 172
60 95 165
59 94 166
60 95 165
58 92 161
58 92 167
55 88 157
97 105 105
112 112 78
139 136 85
119 119 81
131 130 81
118 119 82
118 118 81
106 109 76
117 117 82
103 105 76
122 122 82
128 128 88
116 119 84
127 127 88
127 127 88
135 135 92
124 125 87
118 119 84
140 140 97
130 130 92
145 145 102
139 139 96
113 114 81
148 146 98
140 141 97
139 138 94
142 141 95
151 149 100
119 120 84
137 137 94
143 143 97
152 150 100
145 144 100
150 147 95
160 158 104
147 146 98
158 156 103
169 164 107
159 155 103
158 154 99
156 154 100
158 157 105
163 159 103
162 160 105
155 154 100
144 143 92
153 152 99
164 161 107
166 161 106
167 163 101
163 160 108
167 163 106
158 155 95
167 163 102
167 163 104
163 161 106
169 165 102
169 165 106
171 165 104
172 167 103
168 166 106
173 168 103
165 162 109
178 173 106
170 166 101
173 169 107
173 168 106
175 168 106
176 171 109
171 165 103
176 170 109
172 167 99
170 165 102
172 167 103
180 173 103
169 165 101
177 170 101
169 164 99
172 167 104
167 162 102
172 166 101
176 170 102
174 168 102
176 171 102
173 169 101
173 168 95
176 170 103
174 168 94
174 168 102
172 167 101
167 162 97
171 166 97
173 168 95
167 162 95
175 169 103
169 164 97
168 163 93
167 162 84
166 161 93
168 162 94
155 150 91
169 162 99
177 169 97
168 162 94
163 159 91
169 163 95
162 157 87
172 165 101
162 156 87
170 164 97
162 155 85
156 150 85
155 152 84
168 161 88
166 159 93
147 142 77
158 152 75
164 158 87
169 161 88
153 146 80
147 140 79
157 149 85
152 145 80
150 144 72
152 145 79
139 133 70
148 142 68
144 139 72
137 132 60
131 126 62
135 130 62
143 136 74
150 144 68
166 187 16
175 199 0
173 195 0
174 197 0
174 196 0
180 203 0
177 201 0
176 200 0
172 197 0
177 201 0
177 201 0
180 203 0
174 198 0
179 202 0
180 204 0
175 200 0
180 204 0
177 201 0
175 198 0
176 200 0
177 201 0
175 200 0
174 198 0
175 198 0
180 202 0
177 200 0
178 202 0
181 203 0
178 201 0
177 201 0
176 201 0
177 201 0
170 195 0
177 200 0
176 199 0
177 201 0
180 204 0
176 199 0
177 200 0
176 200 0
178 201 0
173 197 0
178 201 0
176 200 0
179 202 0
176 200 0
180 203 0
174 198 0
178 202 0
178 201 0
176 201 0
174 198 0
179 204 0
177 201 0
173 198 0
178 202 0
174 198 0
176 200 0
179 202 0
177 202 0
178 202 0
177 201 0
176 200 0
174 198 0
179 203 0
176 201 0
176 201 0
178 202 0
177 200 0
172 198 0
176 200 0
175 199 0
176 199 0
175 199 0
173 197 0
180 204 0
174 198 0
175 199 0
178 203 0
173 198 0
175 199 0
176 200 0
175 200 0
178 202 0
174 198 0
171 196 0
172 195 0
175 199 0
178 201 0
177 201 0
172 198 0
175 199 0
174 198 0
175 198 0
173 197 0
173 197 0
178 201 0
174 198 0
175 196 0
177 200 0
175 198 0
176 199 0
178 201 0
175 197 0
177 202 0
174 198 0
174 197 0
178 201 0
177 201 0
175 200 0
178 201 0
174 199 0
177 200 0
174 198 0
176 198 0
175 199 0
172 196 0
176 200 0
175 198 0
177 201 0
175 198 0
173 197 0
174 198 0
176 200 0
174 198 0
173 197 0
177 202 0
173 196 0
172 196 0
177 201 0
177 199 0
174 197 0
176 200 0
177 201 0
176 200 0
175 198 0
176 198 0
175 198 0
171 194 0
175 199 0
175 199 0
175 199 0
174 198 0
125 148 115
57 90 149
58 93 168
59 95 170
59 94 170
60 96 171
60 96 173
60 96 173
61 97 172
60 97 170
60 96 172
60 97 176
61 97 177
61 98 176
61 97 178
61 97 175
62 98 172
62 98 179
60 97 177
62 98 177
62 99 177
61 98 179
61 98 179
62 98 179
61 98 177
60 97 179
62 99 177
61 98 179
61 98 180
61 98 176
61 98 179
61 98 180
61 98 179
62 98 179
61 98 179
62 99 179
61 98 180
61 98 177
61 98 180
61 98 178
61 98 180
61 98 179
61 98 179
61 98 179
61 98 179
61 98 180
61 98 180
61 98 179
61 98 179
62 99 179
62 98 179
61 98 179
61 98 180
62 99 179
60 98 179
61 98 179
61 98 179
62 99 179
61 98 179
61 98 180
62 99 179
61 98 179
61 98 179
61 98 180
62 98 179
62 99 180
61 98 179
62 99 180
60 97 179
61 98 179
61 98 180
61 98 180
62 99 180
61 98 176
61 98 180
60 98 180
61 98 180
61 98 179
62 98 179
61 98 179
61 98 179
61 98 177
61 98 180
61 98 179
61 98 180
62 98 179
61 98 180
61 98 177
61 98 179
61 98 177
61 98 177
61 98 178
61 98 179
62 99 179
61 98 178
61 98 179
61 98 179
61 98 177
62 98 179
61 98 177
61 97 177
60 97 176
60 96 175
60 96 172
61 98 176
62 99 179
61 98 175
61 98 176
60 97 177
61 98 178
61 97 175
62 98 177
62 98 171
60 96 171
60 96 173
60 97 176
60 96 173
61 96 170
61 96 166
60 96 173
59 95 167
57 92 166
59 94 165
58 92 167
55 88 155
83 96 117
107 109 76
121 122 86
115 115 77
107 109 80
129 128 87
118 118 78
118 119 80
105 108 74
117 117 79
122 122 85
120 121 84
136 136 93
132 133 93
112 114 81
130 131 92
134 135 93
123 125 87
135 135 93
131 131 93
140 138 94
151 150 103
142 142 98
120 123 89
134 135 93
146 145 99
159 155 102
137 136 93
147 146 100
142 141 97
152 150 94
147 147 101
156 154 105
144 143 96
145 144 99
152 150 98
155 153 102
153 151 101
161 158 99
156 154 101
153 151 100
161 157 104
162 159 102
168 164 101
158 156 104
168 163 105
162 159 102
163 160 107
156 155 99
165 161 99
166 162 96
165 162 104
169 165 108
172 167 107
167 164 107
170 166 106
171 166 102
168 162 100
173 168 105
171 166 105
164 162 104
174 168 104
169 164 102
175 169 107
177 170 106
172 166 101
172 168 105
166 162 99
174 169 104
176 170 104
173 168 103
176 171 107
172 166 99
174 168 104
175 169 104
168 164 99
175 169 103
172 168 103
180 173 107
179 172 102
172 167 97
177 170 101
175 170 104
175 169 102
174 168 95
175 169 102
173 167 99
174 167 101
170 163 94
173 168 106
170 166 94
169 164 94
172 167 103
171 165 94
160 153 90
163 157 93
165 158 93
172 166 99
174 167 99
160 156 94
164 158 90
165 159 91
163 157 88
160 153 87
168 163 99
165 157 88
170 163 97
166 160 91
159 155 79
167 161 91
166 160 90
164 158 94
154 147 82
161 154 90
164 157 91
149 144 80
154 148 82
147 141 70
171 164 85
161 155 84
149 143 77
149 144 74
155 148 79
153 144 82
156 149 75
153 147 77
146 141 68
153 147 70
138 131 64
129 124 62
140 135 66
128 122 56
172 192 16
175 199 0
176 197 0
176 199 0
179 203 0
178 200 0
178 203 0
172 196 0
177 201 0
178 201 0
177 202 0
176 200 0
178 202 0
177 200 0
176 201 0
177 201 0
176 200 0
179 203 0
181 204 0
179 202 0
182 204 0
177 201 0
179 202 0
178 202 0
177 201 0
178 202 0
176 201 0
179 202 0
181 204 0
177 201 0
177 201 0
181 203 0
178 202 0
175 199 0
174 198 0
178 202 0
176 200 0
174 199 0
171 196 0
177 202 0
182 205 0
179 201 0
176 199 0
178 201 0
175 199 0
176 200 0
174 197 0
174 197 0
175 199 0
176 200 0
179 203 0
181 203 0
177 201 0
179 201 0
174 197 0
175 198 0
176 199 0
177 201 0
174 197 0
176 200 0
176 199 0
175 198 0
175 199 0
178 201 0
178 200 0
178 201 0
178 202 0
172 196 0
179 203 0
175 199 0
172 196 0
178 202 0
173 197 0
176 199 0
172 196 0
177 201 0
175 198 0
181 203 0
174 198 0
174 198 0
175 199 0
177 199 0
174 196 0
180 203 0
179 201 0
173 196 0
174 198 0
178 201 0
173 197 0
173 196 0
174 199 0
175 199 0
178 202 0
171 195 0
172 197 0
170 194 0
176 198 0
178 200 0
175 198 0
177 201 0
178 200 0
178 202 0
177 200 0
179 202 0
178 201 0
178 200 0
172 196 0
180 204 0
175 200 0
173 198 0
175 198 0
173 197 0
176 200 0
179 202 0
177 200 0
173 195 0
175 199 0
176 198 0
175 198 0
177 201 0
178 201 0
176 198 0
176 199 0
175 199 0
176 199 0
172 195 0
176 198 0
172 195 0
174 199 0
178 201 0
177 199 0
172 194 0
176 200 0
172 195 0
178 201 0
176 199 0
180 202 0
174 197 0
176 199 0
174 197 0
175 198 0
175 198 0
121 145 123
57 91 162
58 93 167
59 94 165
60 95 169
59 94 161
61 97 172
60 96 173
62 98 177
60 97 175
61 97 177
61 97 176
62 98 176
61 98 177
61 98 178
62 99 179
60 96 175
62 98 175
60 97 175
61 98 176
61 98 178
61 98 176
62 98 177
61 98 177
61 98 179
62 99 175
62 99 178
61 98 178
62 99 179
61 98 178
61 98 177
61 98 180
61 98 178
61 98 179
62 98 179
61 98 178
61 98 179
61 98 179
61 98 179
62 99 179
61 98 180
61 98 179
62 98 179
62 99 179
61 98 179
61 98 179
61 98 179
62 98 179
61 98 179
61 98 179
61 98 180
61 98 179
61 98 178
61 98 179
62 99 179
61 98 180
61 98 180
61 98 180
60 98 180
61 98 179
61 98 180
61 98 180
61 98 179
61 98 180
62 98 179
61 98 179
61 98 180
61 98 180
61 98 179
62 99 179
61 98 179
61 98 179
60 98 180
61 98 179
61 98 179
61 98 176
61 98 179
61 98 180
61 98 180
61 98 179
61 98 180
61 98 179
61 98 180
61 98 178
61 98 180
61 98 177
61 98 180
62 99 178
61 98 179
61 98 180
61 98 177
62 99 179
61 98 177
62 99 180
61 98 180
61 98 179
62 98 179
61 98 179
62 99 180
61 98 177
62 99 179
61 98 174
61 98 177
62 99 179
62 99 176
61 98 174
61 97 176
61 98 176
62 99 179
61 98 177
61 97 176
61 97 171
60 97 175
61 98 177
61 96 172
62 98 175
61 97 173
61 97 172
60 96 173
60 96 167
59 94 171
60 94 170
59 95 170
59 93 162
58 93 167
57 91 164
54 87 146
71 91 124
122 121 82
111 112 76
127 126 82
113 113 77
113 115 82
105 108 79
110 112 78
125 126 86
116 117 83
113 114 80
124 125 83
119 121 85
127 128 90
135 135 92
130 131 90
123 125 88
126 127 90
113 116 81
128 128 86
134 135 93
120 122 87
131 133 94
146 144 98
122 124 86
134 134 91
132 133 93
140 140 97
151 150 100
130 131 93
153 151 101
148 146 98
149 147 99
147 145 98
155 152 98
151 149 100
143 142 93
160 158 103
149 147 97
153 152 102
153 152 98
152 150 98
146 145 95
165 160 106
158 155 102
163 159 103
160 157 105
164 161 103
174 169 102
172 168 112
148 147 99
171 166 105
169 164 107
168 165 107
171 167 108
172 166 104
171 167 105
169 164 105
167 163 98
170 166 103
168 164 99
170 165 105
171 167 97
165 162 103
176 171 105
176 170 104
172 166 97
174 169 104
176 170 105
173 167 98
173 169 109
176 171 105
173 168 106
175 169 101
173 168 101
169 164 102
179 174 103
175 169 102
166 161 97
168 163 98
171 165 93
176 170 101
171 165 97
173 166 106
174 169 102
177 171 104
172 167 101
173 168 99
171 166 98
172 166 97
170 165 98
172 165 97
167 161 93
176 169 93
164 158 91
173 165 95
165 159 93
174 167 97
164 158 88
170 163 93
172 166 87
165 159 97
172 166 97
161 154 87
159 153 91
166 161 85
159 154 80
169 163 94
158 153 84
158 151 79
173 165 95
168 161 90
156 151 80
165 158 82
157 151 85
161 154 82
157 151 82
154 148 84
147 141 74
152 148 72
145 141 66
148 142 72
148 142 77
149 143 79
146 140 74
119 115 60
139 133 68
150 144 74
144 139 64
136 129 70
137 131 64
170 191 22
174 198 0
176 199 0
177 200 0
179 201 0
175 198 0
175 200 0
177 201 0
178 201 0
177 202 0
176 200 0
178 201 0
177 201 0
180 203 0
178 202 0
176 201 0
175 199 0
178 202 0
179 201 0
181 205 0
176 200 0
176 201 0
179 202 0
176 199 0
180 204 0
179 202 0
177 200 0
176 200 0
180 204 0
173 198 0
177 201 0
178 202 0
180 202 0
177 201 0
176 200 0
177 201 0
173 197 0
176 200 0
173 197 0
173 198 0
176 201 0
176 200 0
178 201 0
178 202 0
176 199 0
175 198 0
175 199 0
173 196 0
179 203 0
177 200 0
174 198 0
172 197 0
177 201 0
179 203 0
177 201 0
178 202 0
177 201 0
174 196 0
171 196 0
178 202 0
178 202 0
178 202 0
176 199 0
176 199 0
174 199 0
178 200 0
180 203 0
182 205 0
171 196 0
175 199 0
176 198 0
176 200 0
176 200 0
174 199 0
170 193 0
181 203 0
178 201 0
177 201 0
178 202 0
175 198 0
177 202 0
177 200 0
174 199 0
173 196 0
177 200 0
170 195 0
176 200 0
175 199 0
173 198 0
178 201 0
174 199 0
173 198 0
174 198 0
172 197 0
172 195 0
174 198 0
176 199 0
173 197 0
174 199 0
177 200 0
180 203 0
178 200 0
172 197 0
176 200 0
175 199 0
174 198 0
175 200 0
175 200 0
176 200 0
174 198 0
179 202 0
177 200 0
177 200 0
175 199 0
176 199 0
174 197 0
174 199 0
176 199 0
171 196 0
176 200 0
176 200 0
173 196 0
176 200 0
174 197 0
177 200 0
175 197 0
174 198 0
177 200 0
171 194 0
169 193 0
172 196 0
177 200 0
176 200 0
175 198 0
170 195 0
175 198 0
174 198 0
170 194 0
171 195 0
174 197 0
174 198 31
122 147 118
57 91 156
59 94 166
59 94 167
59 95 171
61 96 174
61 96 171
60 96 168
61 97 174
60 97 173
60 97 176
62 99 172
62 98 178
61 97 176
62 98 177
61 98 176
61 98 175
61 98 177
61 98 178
62 98 176
61 97 178
62 98 177
61 98 179
62 98 176
61 98 179
61 98 179
61 98 175
62 99 178
61 98 179
61 98 179
60 98 180
62 99 179
61 98 179
61 98 179
61 98 180
62 98 179
61 98 179
61 98 178
61 98 179
62 98 179
62 99 179
61 98 180
61 98 179
62 99 179
61 98 179
61 98 180
62 99 177
61 98 179
61 98 180
60 98 179
61 98 177
61 98 180
62 99 180
62 98 179
61 98 179
61 98 179
61 98 180
61 98 179
62 98 179
61 98 179
61 98 179
61 98 180
62 99 180
62 99 180
61 98 178
62 99 179
61 98 178
62 99 180
61 98 179
62 99 180
61 98 179
61 98 180
60 98 179
62 99 180
61 98 178
61 98 179
61 98 179
61 98 180
61 98 177
61 98 180
61 98 179
61 98 179
61 98 180
61 98 179
61 98 180
62 98 179
61 98 180
61 99 178
61 98 179
61 98 179
61 98 180
62 99 179
62 98 177
62 99 178
60 98 178
62 98 179
62 99 177
61 98 177
61 98 178
61 98 179
61 98 179
62 99 179
62 98 179
62 99 179
61 98 179
60 97 174
62 98 174
61 98 179
61 98 179
62 98 178
61 98 175
62 99 179
61 98 177
61 97 175
61 97 173
62 97 175
61 97 177
60 96 171
60 96 172
60 96 176
61 97 175
60 96 174
61 96 172
60 96 170
58 93 167
58 93 164
57 92 165
58 92 163
57 91 155
90 101 124
110 113 80
115 116 78
109 111 76
111 113 79
121 123 84
118 119 82
128 128 87
119 119 84
121 123 83
112 114 77
134 133 90
121 121 84
111 114 85
127 129 91
116 117 83
120 121 88
114 117 84
115 118 85
116 120 87
135 136 92
124 125 89
130 131 93
129 131 89
134 132 91
141 139 95
145 143 96
143 143 94
141 140 95
152 150 98
137 138 93
152 151 100
134 133 89
149 146 95
156 153 100
145 143 94
144 144 94
158 154 101
153 151 99
159 156 99
161 158 103
160 157 98
164 160 103
161 157 99
158 155 98
171 167 109
151 149 96
164 160 103
156 153 101
160 155 97
166 162 103
160 157 96
160 158 96
168 164 102
174 168 104
166 161 100
163 159 106
173 167 104
171 166 102
165 160 97
178 171 109
167 162 96
168 164 101
175 170 107
173 168 98
173 167 101
169 165 103
173 166 93
178 171 106
170 165 97
172 167 100
172 167 101
173 168 104
175 169 104
175 170 102
175 169 102
176 169 104
178 172 99
175 169 102
175 169 104
179 172 95
172 167 98
173 168 95
176 170 107
174 168 102
173 167 103
170 165 102
175 169 99
174 167 103
169 164 98
179 172 98
172 165 88
170 163 101
174 168 99
168 162 95
166 159 90
166 162 88
159 153 80
167 161 97
165 157 90
164 159 98
169 162 98
165 159 90
168 162 93
166 160 85
162 155 94
157 151 84
161 154 84
173 166 98
162 158 88
160 153 85
152 146 82
171 163 93
167 160 90
143 138 75
157 151 74
151 145 72
160 155 87
152 146 70
136 130 68
148 143 77
156 150 74
144 140 70
136 131 60
134 130 60
138 131 58
137 133 51
141 136 72
133 129 56
132 127 58
166 184 36
178 201 0
177 201 0
178 201 0
175 198 0
178 201 0
179 203 0
179 203 0
175 199 0
178 202 0
181 204 0
178 201 0
176 199 0
179 203 0
178 202 0
179 203 0
173 196 0
177 201 0
175 200 0
178 201 0
178 201 0
177 200 0
175 199 0
177 201 0
180 203 0
174 197 0
175 199 0
180 201 0
176 200 0
176 200 0
178 202 0
181 204 0
173 197 0
172 197 0
177 199 0
177 199 0
177 200 0
173 198 0
175 200 0
176 201 0
178 202 0
179 202 0
178 202 0
175 200 0
177 200 0
176 199 0
179 203 0
178 202 0
176 201 0
176 200 0
176 199 0
173 198 0
176 199 0
181 204 0
174 200 0
175 199 0
172 196 0
177 201 0
176 199 0
178 200 0
172 197 0
177 201 0
178 202 0
173 197 0
174 197 0
174 199 0
178 201 0
174 199 0
175 200 0
173 197 0
175 199 0
169 193 0
176 200 0
176 201 0
177 201 0
176 200 0
178 202 0
170 192 0
177 200 0
179 201 0
182 205 0
174 198 0
177 201 0
173 196 0
177 201 0
177 200 0
174 198 0
175 199 0
177 201 0
175 199 0
173 197 0
178 202 0
177 200 0
174 197 0
174 198 0
176 199 0
172 197 0
173 197 0
176 198 0
173 198 0
177 200 0
175 199 0
174 199 0
178 202 0
173 197 0
171 195 0
168 191 0
175 199 0
175 198 0
179 202 0
176 199 0
173 197 0
176 200 0
177 200 0
176 201 0
174 199 0
180 204 0
177 201 0
175 199 0
175 198 0
169 194 0
175 198 0
176 198 0
178 201 0
178 201 0
176 200 0
177 202 0
170 194 0
172 197 0
177 199 0
171 196 0
174 197 0
175 198 0
178 202 0
171 194 0
175 198 0
173 195 0
177 201 0
174 198 0
176 200 0
124 148 117
57 91 157
59 93 168
60 95 169
60 95 168
60 96 167
60 96 170
60 96 175
61 97 172
61 97 172
61 97 172
61 97 175
60 97 178
61 97 178
61 98 178
61 98 177
61 98 178
62 98 178
62 99 179
62 99 179
61 98 178
60 97 175
61 98 178
61 98 179
61 98 179
60 97 177
62 98 179
61 98 179
61 98 180
61 98 177
61 98 178
61 98 178
61 98 177
61 98 179
62 99 178
62 98 179
61 98 179
61 98 180
61 98 177
62 98 179
61 98 179
61 98 179
61 98 177
61 98 180
60 97 179
61 98 179
61 98 180
62 99 179
61 98 179
60 98 180
61 98 180
62 99 177
61 98 179
62 99 180
62 98 179
61 98 179
61 98 180
61 98 179
61 98 179
61 98 180
61 98 179
61 98 180
61 98 179
61 98 179
61 97 177
61 98 180
61 98 179
62 98 179
61 98 179
61 98 179
61 98 178
61 98 178
61 98 180
62 98 179
61 98 179
61 98 179
61 98 179
61 98 180
62 98 179
61 98 180
61 98 179
61 98 179
61 98 180
61 98 178
61 98 179
61 98 177
61 98 180
60 98 178
61 98 179
62 99 179
61 98 179
61 98 180
62 99 179
61 98 179
61 98 178
61 98 178
62 99 180
61 98 179
62 99 179
62 98 177
62 99 180
61 98 176
60 97 177
61 98 178
60 97 176
61 97 170
61 98 179
61 97 174
61 98 175
61 98 177
62 99 178
62 98 179
61 98 177
61 97 174
61 98 177
61 98 177
61 97 172
60 97 169
61 98 173
61 97 175
62 98 174
62 98 172
61 97 174
61 97 171
60 96 174
59 94 165
60 95 170
59 95 169
60 95 169
59 93 166
56 90 161
75 93 129
123 123 89
94 97 72
113 113 77
97 100 72
116 117 83
111 114 82
117 119 84
103 107 81
99 103 74
107 109 79
112 114 83
127 127 88
126 126 87
126 127 87
116 117 83
139 138 94
141 141 98
127 127 87
111 114 82
124 124 81
133 133 90
133 133 92
135 135 89
125 126 87
136 136 90
133 133 89
140 139 96
148 146 95
142 141 93
139 139 95
146 145 98
141 139 91
144 143 96
159 156 103
151 149 96
162 159 105
159 156 102
152 150 101
154 152 103
159 156 96
158 155 100
164 161 102
148 148 98
166 161 101
156 152 95
158 155 99
160 158 95
162 159 101
171 166 104
161 157 104
163 159 102
170 165 99
171 167 96
170 165 104
169 165 103
175 169 106
176 170 104
168 164 100
171 166 95
181 173 107
170 165 94
175 170 103
182 175 106
172 166 100
177 171 106
168 164 99
171 167 99
176 170 106
177 171 104
176 170 102
171 164 102
178 171 103
173 166 93
178 171 105
172 167 101
173 168 95
175 168 97
170 165 99
172 166 98
174 169 99
176 171 101
171 166 95
170 165 99
170 165 98
173 167 99
176 169 103
172 166 95
160 157 94
172 166 99
164 158 93
172 164 95
177 170 97
168 162 97
166 160 94
171 167 101
170 164 97
166 160 98
160 154 87
172 165 94
172 165 93
170 162 91
171 164 98
165 160 93
165 159 97
157 151 84
152 147 82
165 159 91
159 153 84
162 155 85
159 152 80
165 159 82
158 152 80
157 151 82
163 156 77
149 143 72
155 149 75
155 150 68
166 158 87
136 130 68
153 148 79
143 138 70
153 146 79
154 149 68
143 138 68
148 141 70
131 126 56
144 138 66
126 121 62
167 188 0
176 198 0
174 198 0
178 203 0
177 199 0
176 200 0
178 202 0
176 201 0
179 202 0
178 202 0
176 201 0
178 201 0
177 201 0
176 199 0
179 203 0
170 194 0
174 200 0
176 199 0
177 201 0
181 204 0
175 200 0
178 202 0
178 200 0
171 195 0
177 202 0
173 197 0
177 201 0
180 203 0
175 199 0
173 197 0
178 201 0
177 201 0
176 200 0
176 200 0
178 202 0
178 202 0
181 205 0
179 203 0
175 200 0
172 196 0
176 200 0
177 201 0
177 202 0
177 200 0
180 204 0
175 199 0
180 204 0
177 201 0
181 204 0
175 199 0
179 202 0
179 202 0
176 200 0
175 200 0
175 199 0
177 202 0
176 198 0
176 200 0
174 197 0
177 200 0
180 203 0
177 201 0
180 204 0
178 201 0
172 195 0
175 200 0
177 200 0
172 195 0
174 199 0
179 203 0
173 198 0
177 201 0
181 204 0
175 200 0
174 197 0
175 199 0
175 198 0
178 201 0
177 200 0
176 198 0
173 197 0
177 201 0
171 193 0
176 200 0
175 198 0
174 198 0
178 202 0
175 197 0
174 200 0
174 199 0
174 198 0
176 200 0
177 201 0
180 201 0
174 197 0
174 198 0
179 202 0
170 195 0
179 201 0
174 198 0
174 198 0
176 200 0
172 195 0
177 200 0
177 201 0
175 197 0
178 202 0
172 197 0
173 196 0
173 196 0
168 191 0
175 199 0
176 199 0
175 198 0
178 202 0
177 201 0
177 201 0
177 201 0
173 197 0
174 198 0
173 197 0
177 201 0
175 200 0
179 201 0
177 201 0
177 201 0
176 200 0
178 201 0
175 197 0
172 194 0
176 200 0
171 195 0
175 198 0
171 195 0
173 196 0
170 192 0
176 200 0
167 189 0
179 202 0
116 140 113
57 91 162
59 94 168
60 95 168
60 95 171
60 96 166
60 95 169
60 96 173
61 97 175
61 98 174
62 98 173
61 98 176
61 98 177
61 98 175
61 98 176
60 97 174
62 99 177
61 98 177
60 97 175
61 98 178
60 97 176
61 98 177
61 98 179
62 99 179
61 97 175
61 98 177
62 99 180
62 98 177
62 98 177
62 99 178
62 99 179
61 98 179
61 98 178
61 98 178
61 98 179
61 98 180
62 99 178
61 98 179
61 98 178
61 98 179
62 99 180
61 98 179
62 99 180
61 98 180
62 98 179
61 98 179
60 98 180
60 98 180
61 97 177
61 98 178
60 98 180
61 98 179
62 99 179
62 99 180
61 98 180
61 98 179
61 98 180
60 97 179
60 98 180
62 99 179
62 99 179
61 98 180
61 98 178
61 98 180
62 99 180
61 98 179
61 98 178
61 98 179
61 98 179
61 98 179
61 98 180
61 97 179
61 98 180
61 98 179
61 98 179
61 98 180
61 98 180
61 98 179
62 98 177
61 98 178
60 97 179
61 98 177
61 98 178
61 98 178
62 99 179
61 98 179
61 98 180
61 98 180
61 98 178
62 98 176
61 98 178
62 98 179
61 98 179
60 97 178
61 98 178
61 98 180
62 99 180
61 98 178
61 98 177
62 99 180
61 98 178
61 98 178
62 99 179
61 98 180
61 98 179
61 98 178
61 98 180
62 99 179
61 98 178
62 99 175
61 97 174
62 99 174
62 99 179
61 98 179
61 97 170
61 98 177
61 98 177
62 98 176
62 98 178
61 97 175
61 97 173
60 96 173
61 97 174
60 96 171
60 96 174
61 96 169
59 94 169
58 94 166
58 91 158
58 92 159
58 92 161
58 92 159
58 91 160
76 92 125
107 110 78
102 105 77
94 96 68
102 104 74
102 106 75
116 117 83
125 126 89
104 106 76
113 115 83
123 124 88
119 121 86
114 117 84
111 115 83
122 124 88
127 128 90
114 117 84
128 129 90
116 118 83
116 120 84
134 132 90
134 134 92
125 128 88
140 139 89
157 154 104
143 142 96
138 137 93
147 146 95
150 147 97
133 132 88
144 143 91
156 153 101
149 147 96
141 138 92
147 147 97
149 147 91
151 149 100
159 156 105
155 153 96
155 152 96
156 154 103
154 151 98
161 156 98
160 156 102
162 159 103
172 167 106
162 158 99
156 154 94
159 155 93
164 162 103
160 158 99
168 164 101
171 166 104
168 163 103
172 167 102
171 167 107
167 161 95
169 165 100
167 162 100
174 170 106
172 167 104
179 173 108
171 166 100
170 164 106
175 170 101
171 166 101
174 169 104
176 169 99
175 170 99
171 166 103
169 164 97
172 167 100
172 165 102
174 168 101
172 167 99
178 172 108
177 170 102
169 163 101
176 168 99
168 162 93
178 171 103
175 168 99
174 168 103
170 164 101
169 163 98
174 168 98
172 165 98
174 167 101
169 163 88
170 163 97
175 169 102
176 168 98
172 166 99
168 163 93
162 156 87
173 167 91
158 153 84
153 149 82
155 149 80
163 157 90
164 156 88
169 162 97
164 156 88
162 156 74
158 152 84
162 156 74
164 158 94
157 151 79
160 154 87
152 146 80
150 146 77
168 162 88
152 147 80
163 158 84
159 154 75
165 157 87
154 148 77
152 146 70
169 161 85
154 150 66
147 141 68
148 143 75
150 144 70
133 128 56
122 118 51
129 124 53
147 138 66
125 121 51
167 187 16
177 197 0
176 199 0
178 202 0
179 199 0
178 200 0
175 199 0
172 196 0
173 197 0
175 200 0
172 196 0
175 200 0
179 203 0
174 198 0
178 202 0
177 202 0
177 201 0
177 201 0
178 201 0
179 201 0
178 202 0
176 200 0
178 202 0
177 200 0
178 202 0
176 201 0
175 199 0
181 203 0
177 201 0
177 201 0
179 203 0
175 199 0
178 202 0
176 201 0
181 204 0
171 195 0
181 204 0
176 200 0
175 199 0
173 198 0
179 201 0
177 201 0
175 200 0
178 202 0
177 201 0
174 198 0
174 199 0
175 199 0
177 200 0
175 199 0
179 202 0
179 201 0
181 204 0
178 201 0
175 199 0
180 203 0
178 202 0
176 201 0
177 199 0
178 201 0
178 201 0
179 201 0
176 200 0
175 198 0
172 196 0
175 198 0
176 200 0
174 198 0
178 201 0
181 204 0
173 197 0
176 200 0
175 200 0
178 200 0
176 200 0
178 201 0
174 199 0
177 200 0
173 198 0
177 202 0
175 199 0
177 201 0
177 202 0
174 198 0
170 195 0
176 199 0
179 201 0
175 199 0
178 202 0
173 197 0
173 197 0
173 197 0
178 201 0
177 201 0
175 199 0
174 198 0
174 199 0
175 200 0
177 201 0
180 203 0
178 201 0
177 200 0
178 201 0
176 200 0
175 197 0
176 200 0
176 200 0
177 201 0
177 201 0
175 200 0
178 201 0
177 200 0
169 194 0
177 200 0
177 200 0
170 193 0
178 201 0
176 200 0
176 199 0
174 198 0
177 201 0
174 198 0
178 202 0
179 203 0
173 197 0
169 192 0
175 197 0
171 195 0
177 201 0
175 197 0
176 199 0
176 198 0
176 198 0
173 196 0
170 194 0
172 195 0
178 201 0
172 194 0
108 133 126
57 90 155
57 92 160
59 94 168
60 96 170
59 95 168
61 97 169
60 97 177
62 98 177
61 97 175
61 98 175
61 97 176
61 98 179
62 98 178
63 99 178
62 99 179
62 99 179
61 97 173
62 98 178
61 98 177
61 98 176
61 97 170
61 98 177
61 97 174
62 99 180
61 98 177
61 98 178
61 97 177
61 98 179
62 99 180
62 99 176
63 99 177
61 98 178
60 97 174
61 98 180
62 99 180
61 98 179
62 99 178
61 98 179
61 98 180
61 98 180
62 99 180
61 98 178
62 99 179
61 98 179
61 98 179
61 98 179
61 98 179
61 98 179
61 98 175
61 97 177
62 99 179
61 98 179
61 98 179
62 99 179
61 98 180
61 98 180
61 98 179
61 99 180
62 99 179
61 98 178
61 98 179
61 98 178
61 98 180
61 99 180
61 98 179
61 98 178
61 98 180
61 98 179
62 98 179
61 98 179
62 98 179
61 98 179
61 98 180
61 98 180
61 98 179
61 98 178
61 98 178
61 98 179
62 99 179
61 98 179
61 98 179
62 99 180
61 98 178
62 99 180
61 98 180
61 98 179
61 98 178
60 97 179
60 98 179
61 98 178
61 98 179
61 98 178
61 98 177
62 99 176
61 98 179
61 98 179
62 99 179
61 98 179
61 98 179
61 98 179
61 98 180
62 99 178
62 99 174
62 99 174
61 98 178
61 98 179
61 98 179
62 99 177
62 98 174
61 98 173
61 98 178
61 98 176
62 98 179
61 98 178
61 98 179
62 99 178
62 98 177
60 96 171
61 98 174
62 98 175
61 98 175
61 98 174
61 98 174
61 97 175
61 98 176
60 97 173
60 97 168
61 97 172
60 95 169
59 94 166
60 95 168
59 93 161
58 92 162
55 87 154
76 93 125
106 109 76
88 92 68
95 96 67
103 106 76
101 105 76
110 112 78
120 119 81
104 107 78
109 112 75
84 88 67
120 120 83
119 120 86
136 135 90
119 121 84
124 126 89
124 124 86
137 136 92
135 135 89
141 139 93
126 127 87
127 127 88
132 133 91
136 137 97
121 123 86
148 147 101
133 132 86
142 141 94
145 143 95
147 145 98
136 135 92
157 155 99
151 149 100
146 145 98
145 145 98
160 156 101
155 152 98
154 152 98
144 143 96
158 155 97
164 160 101
150 148 96
161 158 99
154 152 91
159 155 102
160 157 101
157 154 95
169 164 104
171 166 107
163 159 97
158 155 96
178 171 107
164 160 96
173 168 99
168 163 98
161 158 89
170 165 105
177 171 99
176 170 104
175 170 97
175 168 103
175 169 101
177 171 103
179 173 99
169 165 100
177 169 106
170 165 97
175 168 104
174 169 103
170 165 103
173 168 104
170 164 96
173 168 99
168 162 90
170 165 96
175 169 101
174 168 98
178 171 99
170 165 94
171 166 98
176 171 102
172 166 95
180 172 103
170 164 102
172 166 99
171 165 94
171 165 88
179 171 102
171 166 85
168 161 95
176 168 94
170 164 90
165 159 82
167 161 94
165 158 90
167 161 94
163 157 88
164 158 88
168 162 87
159 153 87
168 162 91
166 159 88
164 159 82
164 158 84
162 155 85
172 164 95
161 155 85
162 157 79
162 155 82
156 150 88
158 154 77
160 154 79
155 149 79
153 147 82
164 157 82
147 142 64
143 137 66
155 147 84
166 159 90
146 139 62
143 137 75
149 142 68
135 130 53
145 139 68
139 134 66
135 129 58
132 127 56
175 196 16
176 199 0
181 204 0
176 199 0
176 200 0
171 194 0
179 203 0
175 200 0
178 201 0
174 199 0
177 201 0
174 198 0
179 202 0
174 199 0
177 200 0
176 201 0
177 201 0
176 201 0
176 200 0
176 199 0
176 201 0
182 205 0
177 201 0
176 201 0
174 198 0
176 201 0
174 199 0
179 202 0
176 199 0
179 203 0
178 201 0
173 197 0
174 198 0
176 199 0
177 201 0
172 196 0
176 199 0
178 201 0
176 200 0
174 197 0
175 198 0
180 203 0
176 200 0
181 204 0
176 201 0
179 202 0
178 201 0
180 203 0
176 200 0
174 197 0
177 200 0
176 200 0
178 202 0
173 197 0
178 201 0
177 200 0
175 200 0
175 199 0
175 199 0
174 198 0
177 201 0
176 199 0
173 196 0
177 201 0
178 201 0
178 202 0
175 199 0
173 197 0
173 197 0
174 199 0
175 199 0
177 200 0
177 201 0
172 197 0
175 199 0
174 198 0
175 197 0
175 199 0
172 197 0
175 198 0
177 200 0
178 201 0
173 196 0
177 201 0
177 200 0
175 198 0
175 199 0
170 194 0
176 201 0
172 195 0
174 198 0
170 194 0
173 197 0
174 198 0
172 196 0
177 201 0
181 204 0
177 200 0
177 199 0
176 200 0
174 198 0
174 196 0
173 197 0
176 200 0
172 196 0
171 194 0
175 199 0
175 196 0
178 201 0
174 198 0
179 201 0
175 197 0
177 201 0
174 198 0
175 198 0
174 198 0
173 197 0
177 200 0
174 198 0
174 197 0
174 198 0
174 198 0
174 197 0
172 195 0
171 195 0
175 199 0
174 197 0
174 198 0
177 200 0
175 197 0
172 197 0
171 194 0
171 195 0
175 198 0
175 198 0
173 197 0
176 199 0
118 142 110
56 90 154
59 93 165
59 94 166
60 95 164
60 96 162
61 97 174
61 97 171
60 96 170
60 97 170
61 98 176
61 97 175
61 97 176
61 97 176
61 98 173
61 98 179
61 98 177
62 98 173
63 99 179
61 98 175
61 98 179
62 98 178
62 98 179
62 99 179
61 98 176
62 99 179
61 98 179
61 98 176
62 99 179
61 98 179
61 98 178
63 99 176
61 98 178
61 98 174
61 98 180
62 99 178
62 99 180
62 99 178
61 98 179
61 98 178
62 98 178
60 98 178
61 98 180
61 98 178
62 99 179
61 98 179
61 98 178
61 98 178
61 98 179
61 98 179
61 98 177
61 98 180
61 98 177
62 99 179
62 99 178
61 98 180
61 98 180
61 98 180
61 98 179
62 98 178
61 98 180
61 98 180
61 98 179
61 98 180
62 99 179
61 98 179
62 99 179
62 99 178
62 99 179
62 99 180
61 98 179
61 98 179
62 98 179
61 98 180
61 98 180
61 99 180
61 98 179
61 98 180
61 98 178
61 98 179
60 98 180
61 98 179
62 98 179
61 98 180
62 99 180
62 99 180
61 98 179
62 99 179
61 98 180
62 98 179
62 99 180
61 98 176
62 98 177
61 98 178
61 98 177
61 98 178
62 99 180
61 98 176
62 99 179
61 98 180
62 99 180
61 98 175
61 98 178
61 98 178
61 98 176
61 98 176
62 99 176
62 99 178
62 98 177
61 98 180
62 99 175
61 98 174
61 98 178
61 98 174
61 97 173
61 98 176
62 99 177
62 99 180
61 97 173
61 98 173
62 99 173
61 98 175
60 96 171
62 99 179
60 96 170
60 97 175
61 97 174
61 97 174
60 95 169
61 97 166
61 97 174
60 96 173
60 95 165
60 96 172
58 92 159
57 91 164
56 89 159
81 94 105
95 96 68
108 112 80
79 85 65
87 90 67
108 111 80
119 121 85
107 110 78
103 106 72
114 117 80
129 130 89
117 118 84
110 112 80
113 116 82
100 103 75
130 131 90
131 131 89
117 119 83
127 127 87
139 139 95
137 138 94
130 131 92
128 129 89
142 141 93
140 138 93
128 129 88
144 143 93
144 144 97
152 150 98
140 139 96
140 140 93
151 148 93
155 152 102
142 141 93
135 135 88
158 156 103
137 137 91
150 146 93
134 133 87
159 156 100
151 150 93
164 160 102
157 154 98
159 157 102
165 161 102
163 159 98
158 155 101
164 160 101
162 157 97
173 168 102
162 157 95
173 168 105
173 167 103
158 156 96
170 165 99
170 166 99
168 163 100
174 169 103
174 169 103
179 173 102
169 165 99
170 165 94
165 161 100
168 163 97
175 169 105
178 172 100
173 168 97
171 166 97
174 168 100
171 167 104
175 169 95
179 173 106
175 170 101
169 164 93
171 167 103
175 168 98
178 171 102
180 172 108
171 164 95
167 162 90
172 167 98
172 166 97
174 168 94
170 166 97
172 165 91
171 165 93
173 167 93
176 169 98
172 165 93
169 164 91
177 170 102
167 161 87
167 161 91
169 162 84
158 153 91
160 155 88
170 164 99
160 153 87
164 158 87
165 160 88
163 156 91
168 160 93
159 153 82
170 162 90
156 151 88
161 153 85
165 158 87
163 156 90
158 152 87
159 153 79
162 155 80
166 159 85
154 148 82
164 158 79
151 144 72
141 136 68
140 133 66
154 147 75
149 143 66
145 139 64
162 156 79
158 151 82
120 115 53
135 129 64
138 132 58
130 125 53
177 199 16
176 199 0
176 200 0
180 204 0
178 201 0
176 198 0
176 200 0
177 201 0
177 201 0
173 197 0
174 197 0
175 198 0
178 201 0
178 202 0
179 203 0
177 201 0
175 199 0
178 201 0
172 195 0
176 200 0
176 200 0
176 199 0
178 203 0
180 204 0
177 201 0
175 200 0
178 201 0
175 200 0
176 199 0
178 201 0
176 200 0
177 201 0
180 202 0
176 200 0
177 201 0
172 195 0
175 199 0
180 202 0
177 201 0
173 197 0
178 202 0
178 202 0
176 200 0
177 201 0
177 200 0
180 201 0
175 199 0
175 199 0
173 197 0
178 201 0
181 203 0
175 199 0
175 199 0
176 199 0
178 201 0
177 200 0
179 202 0
180 203 0
179 202 0
174 199 0
174 197 0
176 197 0
177 200 0
176 200 0
175 199 0
173 197 0
176 200 0
172 196 0
179 202 0
177 201 0
175 199 0
175 199 0
175 198 0
175 200 0
177 200 0
176 200 0
175 199 0
177 201 0
175 199 0
175 200 0
181 203 0
177 200 0
171 196 0
171 195 0
174 198 0
178 201 0
174 197 0
174 198 0
175 198 0
176 200 0
173 197 0
176 199 0
172 196 0
176 198 0
176 201 0
176 200 0
177 201 0
178 200 0
177 200 0
174 197 0
174 198 0
176 198 0
176 201 0
175 199 0
175 199 0
170 195 0
176 200 0
179 202 0
174 198 0
170 196 0
176 199 0
178 201 0
172 196 0
168 192 0
176 200 0
176 200 0
176 200 0
176 199 0
175 198 0
172 196 0
177 200 0
174 198 0
176 200 0
170 193 0
175 199 0
175 198 0
176 200 0
171 193 0
177 200 0
174 197 0
175 200 0
172 195 0
172 196 0
176 198 0
178 202 0
175 198 0
140 164 88
57 90 153
58 93 161
59 94 169
61 97 164
60 96 166
61 96 172
61 97 169
61 97 170
61 97 165
61 97 172
61 98 171
61 97 172
62 98 175
60 97 175
61 98 178
62 98 177
62 98 171
61 98 179
61 98 176
61 98 178
62 98 177
62 98 176
62 99 179
61 98 178
62 99 179
61 97 176
61 98 178
61 98 178
62 99 179
61 98 178
61 98 176
62 99 178
62 99 178
61 98 179
61 98 178
62 99 180
62 99 179
62 99 180
62 99 180
61 98 180
61 98 180
61 98 179
61 98 176
62 99 178
60 98 180
61 98 180
61 98 179
61 98 178
62 98 179
61 98 180
61 98 179
61 98 179
61 98 179
61 98 180
61 98 180
62 99 179
62 99 178
61 98 180
61 98 178
61 98 179
61 98 178
61 99 180
61 98 179
62 99 179
61 98 179
62 99 180
62 99 179
61 98 180
62 99 178
63 99 180
62 99 180
62 99 180
61 98 179
61 99 178
61 98 178
61 98 178
62 99 179
61 98 180
61 98 180
62 99 180
61 98 179
62 99 179
62 98 176
62 99 177
62 98 179
62 98 179
62 98 179
61 98 179
62 99 180
61 98 178
61 98 180
62 98 178
62 99 180
61 98 179
62 99 179
60 98 178
62 99 178
61 98 180
62 99 177
62 99 177
63 99 178
62 99 180
61 98 177
62 99 180
61 98 178
62 99 176
61 98 179
61 98 180
62 99 176
61 98 177
61 97 176
62 99 178
61 97 175
62 98 174
61 98 179
62 99 179
61 98 176
60 97 176
61 98 176
60 96 169
62 99 177
61 98 179
62 98 176
61 98 175
61 97 171
61 97 170
61 97 172
60 97 174
61 96 172
60 97 176
61 97 173
61 97 175
61 96 172
59 95 165
60 94 165
59 94 165
59 94 168
54 86 149
88 99 116
109 109 76
95 97 71
93 96 69
91 96 71
91 95 70
106 106 74
117 117 79
117 118 85
115 117 82
119 120 85
102 105 76
115 116 82
94 99 72
118 120 85
114 117 84
120 122 86
122 124 83
125 124 79
118 119 82
129 130 86
143 142 97
142 140 94
125 127 90
133 133 91
144 142 89
139 139 92
136 136 87
136 134 89
157 154 96
142 141 91
147 145 88
151 148 93
154 151 98
149 148 94
153 151 100
149 147 95
157 154 97
155 153 99
156 152 95
151 149 94
157 154 97
169 165 107
163 159 99
170 166 99
163 160 98
166 162 94
162 158 97
168 164 101
169 165 99
169 164 97
163 159 99
165 160 95
162 159 99
168 163 98
171 166 99
170 166 100
171 166 96
162 157 87
169 163 103
173 168 104
174 169 98
173 167 98
167 164 95
177 171 103
168 163 94
170 165 99
178 172 99
172 166 98
171 167 100
173 166 101
176 169 98
178 171 106
174 168 98
174 167 98
175 167 101
182 174 108
176 170 98
170 165 88
167 160 90
168 163 93
172 166 101
178 171 99
168 161 87
177 169 97
170 164 94
170 162 91
165 160 90
170 163 97
167 159 95
177 168 97
166 161 91
161 156 88
172 165 93
171 163 91
159 153 82
162 155 88
163 156 85
164 160 85
157 152 74
163 157 93
162 156 91
155 149 84
168 159 90
166 160 87
166 159 85
161 154 79
165 158 90
157 151 80
151 146 66
160 153 75
152 145 74
153 148 66
140 135 70
159 153 82
158 152 77
141 135 68
157 151 64
149 142 72
136 130 66
157 150 75
128 123 58
136 131 66
135 130 58
139 133 60
176 198 0
174 194 0
178 201 0
175 197 0
175 198 0
175 198 0
174 198 0
176 201 0
173 197 0
181 204 0
180 204 0
178 201 0
177 199 0
174 198 0
178 202 0
177 202 0
177 200 0
177 201 0
171 195 0
179 203 0
174 198 0
177 201 0
179 202 0
180 203 0
176 199 0
178 200 0
178 202 0
180 203 0
174 199 0
179 202 0
173 196 0
174 198 0
177 201 0
174 199 0
176 199 0
181 203 0
176 199 0
180 203 0
178 201 0
174 198 0
177 201 0
181 203 0
182 205 0
180 202 0
179 202 0
173 197 0
177 200 0
174 199 0
176 199 0
179 201 0
175 199 0
172 197 0
179 202 0
172 195 0
175 200 0
180 203 0
177 200 0
177 201 0
176 200 0
180 202 0
174 199 0
177 201 0
178 201 0
178 202 0
177 201 0
178 202 0
176 200 0
174 198 0
176 200 0
174 198 0
174 198 0
174 198 0
178 201 0
177 200 0
173 197 0
179 202 0
175 199 0
176 199 0
174 197 0
173 196 0
175 199 0
175 198 0
171 195 0
171 196 0
177 200 0
176 199 0
175 200 0
176 200 0
175 197 0
175 199 0
176 200 0
174 197 0
178 201 0
173 195 0
178 201 0
176 199 0
178 201 0
178 202 0
179 203 0
174 198 0
175 200 0
174 198 0
176 200 0
178 201 0
178 200 0
175 196 0
171 196 0
178 202 0
176 199 0
176 199 0
175 196 0
175 199 0
177 200 0
174 198 0
171 194 0
174 197 0
175 199 0
175 200 0
172 196 0
174 199 0
173 197 0
176 200 0
173 196 0
173 197 0
176 199 0
168 192 0
175 198 0
175 198 0
169 193 0
172 195 0
169 193 0
178 201 0
175 198 0
174 198 0
172 196 0
158 180 68
61 94 156
57 92 162
60 95 161
59 95 162
60 96 164
60 96 176
61 97 172
62 98 168
61 97 170
62 98 176
62 99 174
61 98 171
62 98 176
61 98 176
61 98 174
61 97 177
61 97 172
61 98 179
62 99 176
61 98 177
61 98 175
62 98 177
63 100 178
62 99 177
61 98 174
61 98 170
60 97 177
61 98 178
62 98 177
62 98 179
62 98 178
61 99 180
62 99 179
61 98 178
61 98 180
62 99 180
62 98 179
62 99 179
62 99 180
62 99 180
62 99 178
62 99 178
61 98 177
61 98 179
61 98 179
60 98 180
62 98 179
61 98 179
62 99 180
62 99 180
61 98 180
61 98 179
61 98 179
61 98 179
62 99 179
60 97 177
61 98 180
61 98 180
62 99 178
61 98 180
61 98 179
61 98 180
62 99 179
61 98 180
61 98 180
60 97 175
61 98 179
61 98 178
61 98 178
61 99 180
62 99 180
61 98 180
61 98 180
61 98 180
61 98 180
61 98 177
61 98 177
62 98 177
61 98 180
61 98 180
61 98 180
61 98 179
61 98 178
61 98 178
61 98 174
61 98 180
61 98 178
61 98 179
62 99 180
62 99 178
62 99 177
61 98 178
60 98 180
62 99 179
61 98 180
61 98 178
61 99 180
62 99 180
61 98 176
62 98 176
61 98 176
62 99 180
61 98 179
61 98 178
62 99 178
62 99 179
61 98 178
62 99 179
62 98 179
62 99 180
61 98 173
61 98 178
61 98 176
61 98 177
62 98 179
61 98 178
61 98 177
62 98 177
62 99 180
60 97 171
61 98 172
61 97 174
61 98 175
61 98 170
62 99 171
62 98 175
61 97 170
60 96 169
61 97 171
61 97 171
60 96 166
61 97 169
60 95 165
60 95 168
60 95 170
60 95 170
57 92 158
58 92 159
58 92 162
56 88 155
84 96 113
100 104 77
98 101 75
99 102 74
98 101 76
93 96 67
117 120 85
121 121 86
105 108 78
99 103 77
126 128 92
119 121 84
104 107 70
124 124 87
105 108 77
115 118 85
130 130 90
136 135 91
124 126 88
119 121 82
134 134 91
125 126 88
128 128 83
131 131 90
141 140 94
131 130 91
142 141 89
143 141 95
142 140 95
145 142 92
159 157 104
147 146 96
143 141 95
153 150 98
159 155 97
153 150 95
154 152 95
147 145 93
170 164 104
156 153 100
154 152 93
165 162 101
158 155 98
162 158 94
158 155 95
172 167 105
159 156 97
169 164 101
169 163 101
171 166 102
163 160 95
171 167 99
170 166 99
169 165 101
170 165 104
167 162 95
170 165 103
165 161 95
176 171 101
166 162 93
176 171 105
178 171 102
177 171 105
169 164 99
178 172 103
177 169 99
174 169 103
170 166 99
172 167 95
173 167 96
167 164 90
176 170 99
169 163 90
176 170 101
178 171 98
169 164 95
171 166 96
177 170 101
171 165 94
179 171 98
177 169 97
159 153 82
180 172 99
172 165 94
165 162 84
173 167 93
172 165 88
163 157 87
161 155 88
171 164 91
162 158 88
178 171 97
160 154 79
156 150 88
169 162 91
169 162 85
165 158 82
175 168 94
173 165 93
155 149 84
156 150 84
161 155 88
156 149 72
159 153 80
165 158 90
169 161 87
151 145 77
163 157 85
159 153 85
152 147 75
154 148 79
145 139 70
150 144 74
151 144 74
142 136 66
141 135 68
136 131 68
138 133 68
144 138 64
158 150 79
141 134 58
147 140 68
142 136 64
124 121 56
173 197 0
176 199 0
172 196 0
178 202 0
181 203 0
180 202 0
181 204 0
172 197 0
177 202 0
176 200 0
178 202 0
179 202 0
177 202 0
177 202 0
176 200 0
174 197 0
174 197 0
182 205 0
174 198 0
177 201 0
174 198 0
176 200 0
174 198 0
176 200 0
177 201 0
180 203 0
175 200 0
172 196 0
179 202 0
175 200 0
175 199 0
177 200 0
174 197 0
175 200 0
177 201 0
179 203 0
176 200 0
179 203 0
177 201 0
177 201 0
176 200 0
177 200 0
172 196 0
175 199 0
179 202 0
174 197 0
176 199 0
176 198 0
176 199 0
175 200 0
176 200 0
176 199 0
177 200 0
170 194 0
177 200 0
178 200 0
173 198 0
173 197 0
174 198 0
179 202 0
168 192 0
176 200 0
177 199 0
177 201 0
175 200 0
178 202 0
177 201 0
174 199 0
174 198 0
177 200 0
179 203 0
177 200 0
173 196 0
177 201 0
174 198 0
178 202 0
176 200 0
174 197 0
176 200 0
177 199 0
172 195 0
176 199 0
177 201 0
176 200 0
175 199 0
177 200 0
175 199 0
171 194 0
175 198 0
174 197 0
172 195 0
176 199 0
177 201 0
171 194 0
175 198 0
171 196 0
173 197 0
177 201 0
176 200 0
181 203 0
175 198 0
175 200 0
175 199 0
168 192 0
176 200 0
176 200 0
175 199 0
177 200 0
177 201 0
178 201 0
172 196 0
176 199 0
177 201 0
172 195 0
176 198 0
167 191 0
177 199 0
173 197 0
172 195 0
178 201 0
172 196 0
172 197 0
172 195 0
174 198 0
170 193 0
178 201 0
175 198 0
178 201 0
171 194 0
172 197 0
172 195 0
178 201 0
176 197 0
175 198 0
153 177 61
61 92 143
57 92 158
59 94 162
60 95 167
59 95 167
60 96 168
61 97 175
61 97 170
61 97 174
61 97 172
61 97 172
60 97 168
61 98 173
61 97 173
61 98 179
61 98 175
61 98 179
62 99 178
61 98 178
61 97 174
62 98 173
62 98 175
61 98 173
62 99 176
61 98 177
61 98 175
61 98 180
61 98 178
61 98 180
62 98 179
61 98 180
61 98 176
61 98 176
62 99 179
61 98 180
62 98 178
62 99 180
61 98 177
62 99 178
61 98 176
61 98 177
62 99 180
62 99 180
62 99 179
62 99 180
62 99 180
61 98 178
61 98 179
61 98 178
62 99 180
62 99 176
61 98 178
61 98 179
62 99 180
61 98 179
62 99 179
61 98 177
62 98 177
62 99 179
62 99 180
61 98 180
61 98 176
62 99 180
61 98 179
61 98 179
61 98 177
61 98 179
60 97 180
61 98 177
61 98 180
62 99 179
62 99 179
61 98 178
62 99 179
61 98 180
62 99 179
61 99 180
61 98 178
62 99 180
61 98 179
61 98 178
61 98 177
61 98 180
61 98 179
62 99 179
61 98 179
62 99 178
62 98 176
61 98 178
61 98 178
61 98 175
61 98 179
60 97 177
62 99 178
62 98 179
61 98 180
60 98 178
62 99 178
61 98 180
61 98 180
61 98 179
61 98 174
61 98 178
61 98 180
61 98 180
61 98 177
61 98 178
61 98 176
62 99 178
62 99 180
62 99 180
62 98 172
62 98 177
62 99 178
62 98 178
62 98 176
62 99 180
61 98 179
61 98 175
62 99 179
62 98 174
63 99 179
62 99 176
62 99 179
61 98 175
61 97 171
62 98 175
60 96 170
61 98 175
61 97 170
61 97 176
60 96 171
61 96 169
61 96 170
61 97 172
60 96 170
60 96 169
58 92 151
58 94 165
57 90 156
56 89 154
64 91 144
94 102 94
92 95 67
95 99 72
89 93 67
95 99 72
101 105 77
90 95 71
111 112 79
103 104 75
107 110 80
128 129 92
122 122 85
112 114 81
134 135 95
112 114 79
128 129 89
117 117 81
118 120 86
123 124 86
127 127 88
130 130 92
134 134 91
144 143 97
119 121 78
124 126 84
141 140 88
129 130 87
144 144 94
131 131 88
150 148 98
149 147 93
151 149 94
143 142 93
135 136 86
155 151 93
153 149 96
156 152 89
158 153 93
158 155 97
158 156 100
167 162 99
154 150 91
161 157 93
166 162 101
163 158 103
160 156 93
169 165 96
164 158 93
164 159 97
170 165 105
169 163 102
171 165 90
164 160 94
168 163 102
172 167 98
162 159 98
168 163 101
173 166 97
175 170 104
172 165 93
177 170 101
169 165 100
170 165 88
174 169 95
173 167 104
173 168 99
168 164 90
174 168 97
169 163 92
172 166 90
167 161 93
168 163 89
177 170 101
173 167 94
174 168 91
176 169 98
169 164 85
172 165 95
170 165 94
169 162 94
167 162 91
173 167 98
174 168 93
166 160 91
162 157 88
169 163 88
178 171 102
164 158 88
167 161 94
168 162 90
171 164 90
166 160 87
159 154 84
166 160 88
169 163 90
154 148 82
159 154 84
176 167 94
162 155 85
154 148 82
161 156 75
148 143 82
153 147 80
150 145 75
165 158 84
151 145 70
167 159 80
159 153 79
164 156 80
157 151 79
156 148 84
151 146 72
153 148 77
160 153 80
142 136 68
152 144 75
131 126 62
139 133 62
137 132 66
144 137 62
126 120 53
130 125 60
141 145 42
173 196 0
176 200 0
177 198 0
177 199 0
179 201 0
176 199 0
177 201 0
175 200 0
178 202 0
177 200 0
174 199 0
174 198 0
179 203 0
176 200 0
177 200 0
176 200 0
175 199 0
178 202 0
179 202 0
171 196 0
174 198 0
174 198 0
178 201 0
177 201 0
179 202 0
173 197 0
174 196 0
175 198 0
175 200 0
176 200 0
178 201 0
176 200 0
177 201 0
173 197 0
173 197 0
175 199 0
180 203 0
176 200 0
177 201 0
174 199 0
178 201 0
177 201 0
179 203 0
178 202 0
174 198 0
178 201 0
177 201 0
175 199 0
175 199 0
177 200 0
176 200 0
175 198 0
177 200 0
168 191 0
176 199 0
172 196 0
176 199 0
173 197 0
174 198 0
176 200 0
171 195 0
174 198 0
178 201 0
173 198 0
179 203 0
178 202 0
175 200 0
170 193 0
171 195 0
174 198 0
176 200 0
174 198 0
174 198 0
172 196 0
176 201 0
170 195 0
175 199 0
177 200 0
171 195 0
172 196 0
175 199 0
175 198 0
176 199 0
178 202 0
177 201 0
176 199 0
171 195 0
172 196 0
175 198 0
172 197 0
176 199 0
177 200 0
179 202 0
171 195 0
173 196 0
174 198 0
173 197 0
178 203 0
175 197 0
175 198 0
172 195 0
177 200 0
174 198 0
175 198 0
177 200 0
176 199 0
171 195 0
173 197 0
172 195 0
180 203 0
175 200 0
177 199 0
172 196 0
174 199 0
178 201 0
174 197 0
171 192 0
176 200 0
172 195 0
175 199 0
175 199 0
174 198 0
176 198 0
175 199 0
177 201 0
171 195 0
174 198 0
174 198 0
175 199 0
174 199 0
177 199 0
175 197 0
178 202 0
164 187 38
68 97 145
58 93 159
59 94 163
59 95 158
60 96 169
60 96 171
60 96 169
61 97 171
61 98 173
62 98 172
61 98 169
61 98 169
61 98 174
61 97 172
62 99 177
64 100 179
61 97 175
61 98 176
61 98 172
62 99 177
61 98 174
61 98 174
62 98 179
61 98 174
61 98 174
61 98 176
62 99 173
60 98 180
62 98 177
60 97 178
61 98 180
62 99 179
61 98 175
61 98 172
61 98 179
62 99 179
62 99 180
62 99 178
61 98 178
61 98 179
61 98 180
62 99 179
61 98 179
61 98 178
62 99 176
62 99 180
62 99 180
62 99 179
61 98 180
61 98 179
61 97 177
61 97 177
62 99 179
61 98 180
62 99 179
60 98 180
62 99 179
61 98 179
62 99 180
61 98 179
61 98 180
61 98 180
62 98 177
61 99 178
61 98 179
61 98 179
61 98 180
62 99 179
62 98 179
61 98 178
61 98 180
61 98 177
61 98 178
61 98 179
62 99 179
61 98 179
61 98 180
61 98 179
62 99 180
62 99 179
61 98 180
62 99 179
62 98 179
61 98 179
61 98 179
61 98 178
61 98 179
61 99 180
63 99 179
61 98 176
62 99 179
62 98 179
61 98 178
62 99 180
62 98 177
62 99 180
62 99 178
62 98 179
61 98 176
61 98 178
61 98 178
62 99 178
61 98 177
62 98 174
62 98 178
61 98 179
61 98 179
62 99 179
61 98 172
62 98 176
62 99 178
61 98 178
62 98 174
61 98 180
62 99 175
61 99 178
62 99 180
62 99 179
62 99 174
61 97 174
61 98 178
62 98 174
62 99 178
62 99 178
61 98 174
62 98 174
62 98 175
62 99 177
61 97 172
61 98 179
62 98 171
62 98 173
62 98 174
61 97 173
61 97 170
62 98 173
60 95 171
62 98 171
60 96 169
60 95 168
58 92 155
58 91 160
56 89 155
54 85 144
89 94 74
91 95 71
82 88 68
105 108 78
95 101 77
110 111 80
104 106 75
96 99 71
116 118 81
133 132 86
122 123 86
97 103 78
119 121 86
115 117 75
118 119 80
117 119 80
133 133 90
129 129 87
133 134 88
130 130 88
138 137 91
131 130 85
140 138 92
127 127 89
151 148 90
131 131 88
132 133 85
141 141 96
138 137 90
150 148 96
154 152 91
154 152 96
156 152 96
151 150 91
159 156 99
153 150 95
155 153 91
153 151 92
163 159 101
158 153 92
163 158 100
159 155 94
174 167 101
164 158 101
160 157 100
159 155 85
164 159 97
166 162 99
170 165 100
170 164 98
170 165 96
167 162 101
169 164 102
164 159 92
168 163 99
175 169 106
166 162 97
168 164 103
173 168 101
172 167 102
173 168 95
173 169 101
172 166 94
172 166 97
171 165 99
172 165 99
178 171 97
170 164 92
173 167 97
175 168 95
171 167 97
172 165 94
163 158 91
177 170 95
175 168 103
174 167 94
177 170 102
167 161 87
170 164 94
170 164 95
164 159 80
165 160 80
170 163 91
159 155 85
163 159 84
170 162 90
168 162 93
174 168 91
164 158 87
168 162 84
163 157 87
162 154 88
172 165 95
174 167 95
168 162 90
163 157 79
166 160 84
152 146 75
162 155 85
168 162 87
164 157 84
154 148 82
166 160 85
159 153 80
156 151 85
154 147 82
152 146 72
169 162 87
161 154 84
167 160 77
143 139 72
144 139 70
157 150 82
140 134 64
142 138 62
136 130 60
123 118 48
129 124 53
124 118 51
127 122 62
120 115 58
142 147 42
177 198 0
174 198 0
174 198 0
178 200 0
179 202 0
176 201 0
176 200 0
179 203 0
177 200 0
176 201 0
181 204 0
176 200 0
179 203 0
178 201 0
177 201 0
181 203 0
177 201 0
176 200 0
175 199 0
174 199 0
177 200 0
178 202 0
174 198 0
177 201 0
174 198 0
176 200 0
177 199 0
178 201 0
177 201 0
174 199 0
176 200 0
170 194 0
179 202 0
178 201 0
177 200 0
176 200 0
178 202 0
175 200 0
179 201 0
175 199 0
176 200 0
179 202 0
175 199 0
174 198 0
176 200 0
173 197 0
174 198 0
177 201 0
183 206 0
173 197 0
172 195 0
173 198 0
172 196 0
176 200 0
176 200 0
172 196 0
179 202 0
176 199 0
177 201 0
176 200 0
171 194 0
171 196 0
175 199 0
172 196 0
175 198 0
173 196 0
178 202 0
177 201 0
173 197 0
178 202 0
173 197 0
175 199 0
177 201 0
173 195 0
177 200 0
174 198 0
170 195 0
175 198 0
172 196 0
178 201 0
175 200 0
173 197 0
178 201 0
171 195 0
178 200 0
174 198 0
176 200 0
178 200 0
177 200 0
179 202 0
179 202 0
176 200 0
174 199 0
178 202 0
176 199 0
174 198 0
178 201 0
174 198 0
173 195 0
175 199 0
173 198 0
173 198 0
174 198 0
174 196 0
173 199 0
175 199 0
175 199 0
176 199 0
176 199 0
171 195 0
175 200 0
174 198 0
176 199 0
173 197 0
179 201 0
171 195 0
170 196 0
177 200 0
170 193 0
170 193 0
173 197 0
166 190 0
175 198 0
177 200 0
177 200 0
175 199 0
169 194 0
168 191 0
172 195 0
176 200 0
176 198 0
171 194 0
177 199 0
108 133 130
57 91 154
59 94 160
61 95 167
59 95 169
60 96 167
60 97 171
62 98 174
62 98 176
61 98 176
61 98 173
62 99 177
63 99 179
61 98 178
62 98 177
61 98 175
61 98 177
62 99 168
62 98 179
62 98 176
62 99 178
61 98 173
61 99 180
62 98 177
61 98 180
62 99 177
61 98 180
62 99 178
62 99 177
62 99 178
62 98 177
61 98 179
61 99 180
61 98 175
62 99 176
61 98 178
61 98 180
61 98 174
61 98 175
61 98 178
62 98 175
61 98 178
61 98 180
62 99 178
62 99 180
61 98 180
60 98 179
61 98 180
61 98 177
61 98 179
62 98 179
61 98 179
61 98 178
62 99 176
62 99 178
61 98 180
61 98 179
61 98 179
61 98 179
62 99 179
62 99 180
61 98 178
62 99 179
61 98 180
62 99 179
61 98 178
61 98 179
61 98 178
61 98 180
61 98 180
62 99 179
63 99 176
62 98 177
61 98 179
61 98 178
62 99 180
62 99 180
61 98 179
61 98 178
61 98 179
61 98 180
61 98 179
62 98 179
61 98 176
62 99 180
61 98 176
62 99 179
61 98 178
62 99 179
61 98 179
61 98 178
61 98 178
60 98 180
62 99 178
61 98 179
62 99 179
61 98 179
62 99 179
61 98 179
62 99 178
62 99 177
61 99 178
62 99 179
62 99 180
62 99 179
62 99 176
62 98 175
62 99 178
62 99 178
62 98 176
62 99 179
61 98 178
61 98 180
61 98 172
61 98 180
62 99 175
61 98 180
62 99 175
61 98 171
62 98 179
61 98 178
62 99 178
62 98 174
62 99 175
62 99 178
61 98 176
61 97 172
63 99 172
62 99 176
62 99 178
60 97 174
61 98 174
61 98 170
62 98 177
63 99 175
59 95 164
62 98 174
62 97 171
60 96 163
59 94 164
59 94 167
60 94 169
60 95 167
58 93 165
57 91 155
79 98 136
106 108 81
88 92 66
87 91 66
109 110 77
104 106 73
100 103 74
101 105 75
93 96 68
110 111 78
109 112 80
115 117 82
118 119 81
126 127 88
115 118 83
128 127 85
114 117 82
116 118 78
115 116 77
139 137 86
136 136 93
137 136 92
143 140 91
129 129 85
138 137 87
152 151 98
130 130 90
150 147 90
139 138 81
148 145 94
148 146 92
150 147 93
158 155 98
146 144 89
142 141 84
155 152 93
149 147 90
156 153 97
151 149 95
147 145 93
161 157 100
158 155 95
150 146 88
157 154 96
173 166 101
171 165 103
167 163 98
163 160 97
169 163 101
164 159 93
170 165 104
168 164 94
167 162 95
176 170 105
170 166 97
160 157 93
164 160 91
161 158 90
158 154 85
173 167 99
169 162 97
175 169 102
162 158 89
166 162 95
176 170 102
165 159 95
174 169 102
169 164 95
165 161 90
166 159 90
168 163 94
181 174 102
168 162 93
173 167 98
174 168 97
176 169 94
174 167 95
173 166 91
162 157 82
173 166 94
172 166 95
167 162 94
171 165 90
163 158 87
170 163 94
166 160 84
168 162 85
157 151 87
154 149 74
159 154 84
162 155 88
168 161 88
164 160 82
163 157 84
158 152 80
166 159 90
168 162 84
171 164 90
166 159 88
161 155 74
167 161 88
161 155 79
164 159 79
160 154 74
147 140 74
162 155 80
152 145 79
148 142 66
161 155 87
147 141 70
145 141 68
142 138 58
160 152 79
155 150 77
144 136 75
141 135 62
139 134 53
137 131 53
148 143 62
145 138 66
126 122 42
152 160 42
175 198 0
175 198 0
172 195 0
177 201 0
179 201 0
177 201 0
176 200 0
179 202 0
175 200 0
176 199 0
174 198 0
177 202 0
177 201 0
177 201 0
177 200 0
172 196 0
183 205 0
174 198 0
179 201 0
181 204 0
182 205 0
178 203 0
180 202 0
176 200 0
175 198 0
175 199 0
173 198 0
173 198 0
176 200 0
176 200 0
178 201 0
182 205 0
173 196 0
170 196 0
175 199 0
176 201 0
176 200 0
175 198 0
174 198 0
176 201 0
180 202 0
176 200 0
177 201 0
178 202 0
173 197 0
177 201 0
174 198 0
175 199 0
175 199 0
175 200 0
172 196 0
176 200 0
175 199 0
178 202 0
176 200 0
177 200 0
177 201 0
178 202 0
176 200 0
174 198 0
177 200 0
178 202 0
175 199 0
176 199 0
174 197 0
176 199 0
174 198 0
176 200 0
179 202 0
178 202 0
177 201 0
180 202 0
173 197 0
177 200 0
178 201 0
172 195 0
172 196 0
180 203 0
177 199 0
175 199 0
171 195 0
176 199 0
177 201 0
181 203 0
173 196 0
179 203 0
176 199 0
172 195 0
180 202 0
179 203 0
168 191 0
180 202 0
172 195 0
176 200 0
176 199 0
177 201 0
174 198 0
175 198 0
173 198 0
171 194 0
178 201 0
170 192 0
176 199 0
176 200 0
169 192 0
177 201 0
176 200 0
173 197 0
176 200 0
179 201 0
174 198 0
173 196 0
175 199 0
174 197 0
177 200 0
172 195 0
176 200 0
172 195 0
172 196 0
174 198 0
167 191 0
176 200 0
175 199 0
170 194 0
171 195 0
169 194 0
171 195 0
174 198 0
175 198 0
172 194 0
173 196 0
174 197 0
111 134 122
58 92 161
58 93 160
60 95 161
61 97 171
60 96 169
60 96 165
61 98 172
61 98 174
61 97 174
61 98 174
61 97 176
61 97 171
62 98 175
61 97 172
62 99 178
61 97 176
61 98 173
61 98 175
62 99 175
61 98 177
62 98 177
62 98 170
61 98 178
62 98 176
61 98 175
63 99 176
61 98 178
61 98 177
62 99 179
61 98 178
62 99 180
62 99 176
61 98 177
62 99 180
62 98 177
61 98 177
62 99 180
61 98 175
61 98 180
62 99 180
62 98 179
62 99 178
61 98 178
62 99 180
61 98 177
62 99 178
62 99 179
62 99 178
61 99 180
62 99 180
62 98 176
61 98 178
61 98 177
62 99 178
62 99 179
61 98 180
60 98 180
62 98 179
62 99 180
62 98 179
62 99 179
61 99 180
62 98 179
62 99 180
61 98 179
62 99 179
62 99 179
60 98 177
61 98 177
61 97 176
62 99 178
61 98 178
62 98 179
62 98 175
62 99 180
61 98 179
61 98 179
61 98 175
61 98 178
62 99 180
61 98 179
62 99 180
62 99 177
61 98 180
62 99 178
61 98 177
62 98 179
61 98 178
61 98 180
61 98 177
61 98 180
62 99 179
62 99 178
63 99 178
62 99 178
61 98 176
62 98 175
62 99 180
61 98 179
62 99 179
62 99 180
61 98 176
61 98 180
63 99 179
62 99 180
62 99 180
62 99 179
61 98 178
60 98 176
61 98 176
62 99 180
61 98 179
61 98 174
61 98 178
61 98 178
62 99 176
61 97 173
62 99 179
62 99 174
61 98 173
62 99 176
61 97 174
62 98 175
60 97 169
60 97 163
62 98 172
62 98 176
62 99 179
62 98 172
62 99 174
61 97 172
61 98 175
62 98 174
61 98 174
60 96 170
61 97 170
62 97 166
61 97 167
61 97 172
60 96 163
61 97 172
61 96 164
58 92 159
59 94 166
58 92 160
56 87 148
69 91 133
83 87 66
106 108 76
80 85 65
97 100 72
77 83 60
104 107 74
106 109 78
116 117 82
107 109 78
114 117 81
122 124 87
122 123 84
104 108 78
108 110 77
117 118 75
122 121 77
124 125 83
128 127 86
128 128 85
138 137 92
129 129 80
134 133 84
139 139 92
137 137 89
132 132 87
140 137 87
143 140 87
154 152 91
139 138 91
153 151 93
151 149 92
154 150 95
138 137 86
143 143 91
151 149 91
147 144 86
151 149 87
163 159 99
166 161 103
165 160 96
163 158 99
165 161 101
144 142 84
162 158 97
159 155 97
172 166 103
160 156 92
174 168 98
173 167 99
161 156 93
164 159 90
167 163 94
173 166 97
179 172 102
172 167 94
172 167 95
167 162 99
168 162 98
172 165 98
163 158 100
171 165 96
175 169 105
174 168 94
172 167 95
170 165 95
171 165 94
173 167 93
172 166 97
170 164 96
176 169 102
169 162 93
165 159 91
175 169 93
168 162 88
175 168 97
170 164 94
175 168 93
174 168 87
172 164 95
170 163 90
175 168 95
167 161 91
166 160 88
164 158 90
175 168 93
174 165 94
166 160 88
162 155 85
165 158 94
170 163 90
170 164 85
163 157 82
166 159 79
168 161 80
164 158 85
162 155 80
166 160 87
160 154 80
155 149 79
160 152 85
159 153 79
157 151 70
161 155 80
159 154 79
154 147 72
162 155 79
159 152 80
147 141 75
151 146 74
160 154 74
148 143 64
146 139 64
153 147 74
136 132 62
147 141 68
134 129 58
131 127 58
144 139 51
134 128 60
155 164 36
177 200 0
175 200 0
176 200 0
171 194 0
174 197 0
176 199 0
177 201 0
175 199 0
178 202 0
182 205 0
179 202 0
175 198 0
179 202 0
180 204 0
174 198 0
180 203 0
176 200 0
174 198 0
174 197 0
175 199 0
175 200 0
178 201 0
177 199 0
174 198 0
179 203 0
180 203 0
177 200 0
177 201 0
176 200 0
175 199 0
178 202 0
177 201 0
179 202 0
174 199 0
174 197 0
180 204 0
177 200 0
176 199 0
179 202 0
170 194 0
178 202 0
174 198 0
176 199 0
170 195 0
177 200 0
176 200 0
176 200 0
179 202 0
176 199 0
174 198 0
175 199 0
173 197 0
175 198 0
175 198 0
174 199 0
175 200 0
180 203 0
174 198 0
182 204 0
174 198 0
175 199 0
177 199 0
179 203 0
179 203 0
176 201 0
173 196 0
172 196 0
175 198 0
175 200 0
176 198 0
175 199 0
177 200 0
171 196 0
176 199 0
175 199 0
176 200 0
170 194 0
175 199 0
177 201 0
171 196 0
171 194 0
173 198 0
174 198 0
172 197 0
174 198 0
173 197 0
175 200 0
175 199 0
174 198 0
174 199 0
175 198 0
173 196 0
175 199 0
178 201 0
174 198 0
175 199 0
178 201 0
173 198 0
179 203 0
173 197 0
175 199 0
171 196 0
173 196 0
178 201 0
175 198 0
176 198 0
171 195 0
175 199 0
175 199 0
180 203 0
176 200 0
174 198 0
178 201 0
174 198 0
174 197 0
176 198 0
177 200 0
175 197 0
175 197 0
176 197 0
171 195 0
178 201 0
172 194 0
176 199 0
176 199 0
169 193 0
173 196 0
172 195 0
175 200 0
175 198 0
172 196 0
151 174 85
57 90 158
58 93 162
60 95 165
60 95 158
61 97 173
61 97 173
60 96 171
62 98 172
61 97 168
61 97 166
61 98 174
62 98 173
62 99 177
62 99 177
62 99 177
61 97 173
62 99 175
61 98 175
62 99 178
62 99 178
62 98 178
62 99 179
62 99 178
62 99 179
60 97 174
61 98 180
60 97 176
61 98 176
62 98 176
62 99 179
61 98 179
63 99 179
62 99 178
62 99 178
61 98 177
62 99 180
61 98 179
61 98 179
61 98 178
62 99 179
62 99 179
62 99 180
61 98 178
61 98 177
62 99 178
61 98 179
62 99 176
61 98 180
61 98 179
61 98 177
62 99 180
61 98 178
62 98 179
61 98 180
62 99 176
61 99 180
61 98 179
62 99 180
62 99 180
61 98 176
62 98 178
61 98 180
61 98 178
62 98 179
61 98 177
61 98 179
62 99 179
61 99 176
61 98 179
62 99 178
61 97 173
61 98 180
61 98 180
62 99 179
62 99 177
61 98 178
62 99 178
61 98 179
62 98 176
61 98 177
62 99 180
62 99 177
61 98 179
62 98 177
61 98 180
61 98 177
62 99 179
62 99 179
60 97 177
62 99 179
61 98 180
61 98 177
61 98 177
62 98 178
61 98 176
61 98 179
62 99 176
61 98 178
62 99 179
62 99 179
62 99 178
61 98 178
61 98 178
62 99 180
63 99 172
62 99 178
62 99 179
62 99 180
62 99 176
62 98 175
62 99 179
62 99 178
61 98 177
62 99 178
62 98 177
62 99 178
61 98 176
62 99 178
62 99 178
62 98 172
61 98 175
62 99 176
62 99 176
62 98 174
62 99 176
62 98 178
61 97 170
61 98 174
61 97 177
61 98 174
61 97 170
62 98 176
62 98 174
62 98 177
62 99 168
61 97 172
61 97 172
61 97 173
62 98 173
62 98 169
60 96 171
60 96 158
60 95 169
58 93 165
60 95 167
59 93 163
58 92 159
55 87 150
61 75 81
88 92 68
105 106 76
106 108 77
88 91 64
93 96 67
115 118 84
103 107 73
110 112 79
100 104 75
124 125 87
99 104 76
120 121 81
108 111 78
129 129 88
124 124 85
130 129 87
131 130 81
110 114 79
119 119 73
124 126 86
145 143 88
143 143 93
139 137 92
134 133 89
138 136 81
144 143 95
161 157 101
149 147 93
149 145 94
148 145 88
143 142 94
138 138 83
149 146 86
150 148 88
157 154 93
151 149 93
163 159 93
150 148 96
144 142 88
156 153 99
154 150 90
160 157 95
165 160 96
170 164 93
164 160 96
160 156 94
166 162 97
170 164 99
170 164 98
163 158 94
167 162 91
171 165 98
164 160 92
171 166 93
169 166 100
168 162 85
174 168 92
176 169 104
173 167 95
175 168 99
166 162 94
178 170 102
169 162 89
174 169 90
176 170 101
160 155 91
172 166 93
174 168 93
176 169 90
174 167 99
176 168 88
171 165 98
167 160 97
174 168 94
168 162 91
175 168 94
167 161 87
173 167 95
172 166 94
171 165 91
171 165 87
177 171 98
176 169 98
166 161 82
169 162 85
165 160 91
156 151 85
159 154 80
160 154 85
171 163 85
159 153 84
165 158 85
168 161 79
160 154 84
164 157 80
161 156 77
166 159 84
167 160 84
159 153 72
149 144 70
168 161 80
152 146 62
157 151 80
147 141 72
160 154 80
157 150 77
143 140 58
147 141 64
148 143 66
147 141 72
135 130 62
150 144 72
141 135 58
137 134 58
134 129 56
146 139 66
144 138 66
118 113 48
163 177 32
175 196 0
175 199 0
174 198 0
178 200 0
175 198 0
173 196 0
176 200 0
180 202 0
179 203 0
176 201 0
178 202 0
175 199 0
176 200 0
177 202 0
178 202 0
177 201 0
179 202 0
173 198 0
175 199 0
173 196 0
178 201 0
177 201 0
175 198 0
177 201 0
176 200 0
173 198 0
179 202 0
175 198 0
180 202 0
179 203 0
176 199 0
177 201 0
174 197 0
175 200 0
177 199 0
176 200 0
175 198 0
173 198 0
176 200 0
180 203 0
174 198 0
176 201 0
178 201 0
167 191 0
175 199 0
176 199 0
175 199 0
176 198 0
175 199 0
178 201 0
170 194 0
175 198 0
174 198 0
177 200 0
177 200 0
174 198 0
177 201 0
179 202 0
174 198 0
175 198 0
181 205 0
172 196 0
176 199 0
175 199 0
177 200 0
174 199 0
176 200 0
174 199 0
170 194 0
174 198 0
175 200 0
176 200 0
173 195 0
175 199 0
176 199 0
175 198 0
174 197 0
174 198 0
179 202 0
177 200 0
171 195 0
178 201 0
174 199 0
171 195 0
180 203 0
174 196 0
171 194 0
175 197 0
175 198 0
174 198 0
177 200 0
169 194 0
171 196 0
171 196 0
177 200 0
175 200 0
174 198 0
177 200 0
176 200 0
179 203 0
177 200 0
173 197 0
174 197 0
175 197 0
178 199 0
172 196 0
168 192 0
171 195 0
175 198 0
175 198 0
178 202 0
177 200 0
173 196 0
174 197 0
170 194 0
176 200 0
173 197 0
171 194 0
175 199 0
177 200 0
175 198 0
174 197 0
176 198 0
173 197 0
175 198 0
178 200 0
173 196 0
176 199 0
171 195 0
174 197 0
162 186 48
61 93 154
59 93 158
59 95 168
60 95 168
60 96 166
61 96 171
60 97 173
61 97 169
62 98 170
62 99 175
62 98 178
62 98 176
62 98 176
61 98 176
61 98 175
63 99 177
62 99 179
62 99 170
62 98 176
62 99 179
62 99 173
62 99 179
61 98 179
61 98 176
62 98 177
62 98 175
62 99 178
61 98 177
61 98 179
61 98 178
62 99 176
61 98 174
62 98 179
61 98 178
62 98 176
62 99 175
62 99 174
61 99 180
62 99 178
62 99 179
62 99 180
62 99 178
62 99 178
61 98 177
61 98 179
62 99 179
61 98 178
61 98 178
61 98 179
61 98 180
60 98 180
61 98 179
62 99 180
62 99 177
61 98 180
62 98 177
61 98 180
61 99 180
61 98 180
61 98 177
61 98 178
62 99 178
62 99 180
61 98 177
61 98 180
61 98 180
61 98 179
61 98 179
61 98 180
61 98 178
61 98 180
61 98 177
61 98 178
61 98 179
62 99 179
61 99 178
62 99 179
63 100 176
62 99 180
61 98 180
61 98 180
61 98 176
62 99 179
62 98 177
61 98 178
61 98 178
62 99 178
62 99 178
61 98 178
62 99 179
62 99 180
62 99 179
60 97 179
61 98 179
61 98 176
61 98 176
61 98 180
62 99 180
62 99 179
62 98 176
61 98 179
62 99 178
62 99 179
62 99 180
62 99 180
61 98 177
61 98 178
62 99 179
62 99 180
61 98 178
61 98 176
63 99 178
62 99 178
62 99 176
62 99 178
62 99 178
62 99 176
62 98 178
62 98 175
62 99 179
62 99 177
62 98 174
62 99 178
61 98 175
62 98 174
61 98 177
61 97 172
62 98 174
62 99 174
61 98 175
61 97 170
62 98 174
61 98 175
60 97 171
62 99 176
62 98 176
61 98 175
62 98 178
61 98 169
61 97 171
62 98 173
60 96 166
61 98 174
61 97 169
60 95 169
61 96 168
59 94 159
57 91 159
57 91 158
59 90 147
86 91 79
74 82 68
87 89 63
81 85 61
99 101 68
98 101 75
83 89 70
103 106 80
112 115 79
118 119 83
119 120 78
119 121 83
121 121 83
120 121 81
128 127 86
140 138 86
127 126 81
128 130 84
138 138 87
139 138 91
126 127 86
115 118 84
138 136 82
145 144 92
129 128 86
123 124 83
136 136 89
153 150 93
152 149 94
135 135 85
152 149 97
154 151 97
157 153 94
159 156 96
160 155 88
142 140 87
155 151 91
158 155 99
153 150 93
156 153 97
166 161 96
162 158 92
156 153 88
167 162 99
164 160 91
169 164 94
169 163 100
165 161 93
160 156 92
168 163 97
167 161 97
171 165 99
171 165 92
174 169 93
177 170 101
171 165 99
175 169 97
176 169 98
171 164 99
174 167 103
181 173 102
175 169 101
167 161 93
172 166 95
170 164 93
168 163 92
171 167 91
182 174 107
174 168 94
172 166 97
168 161 88
164 159 84
175 168 99
166 161 93
175 168 95
167 162 90
164 158 80
173 167 88
167 162 90
169 164 93
165 160 91
169 162 85
162 156 80
173 166 90
167 162 82
164 159 87
165 158 77
164 157 84
154 147 75
152 147 68
157 150 85
165 158 85
173 166 88
163 156 87
163 157 80
161 153 87
152 146 70
168 160 91
154 148 72
153 148 75
157 151 80
158 153 75
154 148 72
165 158 79
154 147 74
146 140 68
145 139 68
156 149 75
142 137 56
134 128 64
134 130 60
127 123 62
140 136 58
145 139 64
141 134 62
140 136 60
129 124 53
126 122 48
167 184 22
174 196 0
176 198 0
178 201 0
174 197 0
170 193 0
175 197 0
172 197 0
170 194 0
178 201 0
177 201 0
175 199 0
174 198 0
174 198 0
179 202 0
179 203 0
173 198 0
177 201 0
177 200 0
177 201 0
178 201 0
173 197 0
175 199 0
173 198 0
175 199 0
177 201 0
177 200 0
175 199 0
178 201 0
176 200 0
177 201 0
176 199 0
173 197 0
174 198 0
174 198 0
174 197 0
172 196 0
178 202 0
177 201 0
177 200 0
173 198 0
175 199 0
176 200 0
174 198 0
176 200 0
172 198 0
175 199 0
177 201 0
175 198 0
178 201 0
177 200 0
180 203 0
176 200 0
174 198 0
175 199 0
179 203 0
173 197 0
178 201 0
177 200 0
179 202 0
179 202 0
173 197 0
175 199 0
176 199 0
174 199 0
177 200 0
181 203 0
171 197 0
175 199 0
176 201 0
175 198 0
177 200 0
173 198 0
175 198 0
171 195 0
172 196 0
171 196 0
172 195 0
178 201 0
176 199 0
177 200 0
177 200 0
174 197 0
176 200 0
174 198 0
174 198 0
169 194 0
174 198 0
175 199 0
177 201 0
172 197 0
178 201 0
176 200 0
176 199 0
173 197 0
178 200 0
175 199 0
176 199 0
174 198 0
172 195 0
180 202 0
177 201 0
174 197 0
177 200 0
173 198 0
174 196 0
167 191 0
176 199 0
174 198 0
175 199 0
173 197 0
175 199 0
172 195 0
180 201 0
175 198 0
172 195 0
175 200 0
174 198 0
173 197 0
175 199 0
170 194 0
168 193 0
175 199 0
173 197 0
171 195 0
175 199 0
171 193 0
177 201 0
173 195 0
168 192 0
181 204 0
100 125 129
58 92 155
60 95 170
59 94 159
59 95 166
61 96 162
62 98 173
61 97 170
61 98 172
61 98 172
62 98 178
61 98 176
62 98 171
62 98 173
61 97 169
62 99 174
61 98 174
62 98 174
62 99 176
62 99 176
62 99 172
62 98 172
62 99 178
62 99 178
62 98 173
62 99 179
61 98 177
61 98 179
61 98 176
62 99 179
61 98 176
62 98 179
62 98 179
62 98 177
62 99 174
61 98 180
61 98 177
62 99 179
61 98 180
61 98 180
62 99 178
61 98 178
62 98 177
61 98 179
61 98 176
61 98 178
61 98 178
62 98 178
61 98 177
62 99 178
60 97 179
62 99 179
61 98 180
61 99 180
61 98 180
61 98 175
62 99 180
61 99 178
62 99 179
61 98 177
61 98 175
62 99 178
61 98 180
61 98 176
62 99 180
61 98 180
62 99 180
61 98 179
61 98 179
62 99 180
61 98 179
61 98 177
61 98 178
61 98 180
62 98 176
61 98 178
62 99 180
61 99 178
62 99 180
61 98 178
62 98 176
62 99 178
62 98 174
61 98 178
62 99 178
61 98 176
61 98 179
62 98 177
61 98 178
62 98 177
61 98 178
62 99 180
61 98 178
61 98 179
61 98 179
61 98 177
61 98 179
62 99 180
62 98 176
62 99 180
61 98 176
63 99 178
61 98 178
60 97 177
62 99 178
62 99 178
62 99 174
61 98 178
62 99 180
62 98 178
61 98 172
62 100 178
61 98 176
62 99 174
61 98 177
62 99 172
62 99 180
62 98 178
63 99 170
62 99 175
62 99 178
61 98 176
62 98 174
62 99 177
61 98 169
61 98 174
62 98 178
61 98 176
62 99 178
62 98 173
62 99 171
62 99 174
62 99 177
62 98 173
62 98 174
62 99 177
61 98 176
61 97 170
62 99 174
61 96 172
60 96 170
62 98 177
61 97 169
60 96 167
61 97 174
60 96 167
60 94 167
60 94 158
59 93 161
58 92 160
57 91 155
58 84 137
84 88 64
96 99 71
97 99 68
102 107 75
97 100 69
97 100 74
111 112 72
107 110 81
102 105 72
113 115 79
113 116 78
116 119 83
108 110 77
117 118 78
113 116 80
121 120 74
121 123 81
136 135 92
111 112 67
139 138 83
132 130 78
131 130 84
131 130 87
150 148 94
146 143 88
132 132 81
156 152 99
145 142 91
147 144 91
152 149 93
154 151 94
152 149 97
153 150 96
161 157 89
162 156 97
154 151 92
158 155 92
159 155 96
156 154 90
160 156 93
151 148 86
158 153 92
157 152 93
162 159 90
164 159 94
164 159 95
165 160 86
165 159 95
172 166 96
167 162 95
168 162 93
168 163 96
169 164 86
164 159 96
169 163 95
160 157 92
168 163 92
173 167 95
174 168 97
169 164 99
173 167 100
168 163 92
179 171 102
170 164 95
166 161 92
171 164 91
175 168 93
172 168 93
169 163 91
170 162 87
178 171 97
169 161 84
174 167 94
165 159 82
172 165 94
174 165 91
175 167 97
166 161 85
166 159 85
167 159 91
164 158 85
165 159 82
168 161 93
168 161 93
167 161 85
172 164 94
166 159 90
157 150 84
175 167 93
164 157 85
163 156 82
163 156 87
157 151 66
160 154 79
161 154 80
161 155 80
158 151 80
165 159 68
160 153 79
161 154 82
163 156 75
159 155 74
154 147 68
146 141 68
158 152 77
141 136 62
151 145 75
139 133 70
155 148 72
145 141 70
129 125 60
139 134 51
145 139 53
136 130 56
126 121 56
145 137 58
118 112 53
173 190 0
178 200 0
177 200 0
174 197 0
174 196 0
177 199 0
173 196 0
172 197 0
175 200 0
179 200 0
179 203 0
176 199 0
176 200 0
177 200 0
175 200 0
167 192 0
176 200 0
174 199 0
174 198 0
177 200 0
178 201 0
178 202 0
179 202 0
176 199 0
177 202 0
176 200 0
176 199 0
177 200 0
178 200 0
176 200 0
181 204 0
177 201 0
171 195 0
173 197 0
178 201 0
177 201 0
174 199 0
173 197 0
175 199 0
173 198 0
179 202 0
173 196 0
175 199 0
175 199 0
176 199 0
178 201 0
176 200 0
173 198 0
175 199 0
179 202 0
179 203 0
176 199 0
174 197 0
175 199 0
172 197 0
175 199 0
175 199 0
173 197 0
178 201 0
178 200 0
175 198 0
171 195 0
173 196 0
174 197 0
176 200 0
176 200 0
176 200 0
173 198 0
176 199 0
177 201 0
178 202 0
176 199 0
175 198 0
174 197 0
181 204 0
172 195 0
176 200 0
173 198 0
173 198 0
174 198 0
173 198 0
176 200 0
171 194 0
176 199 0
163 188 0
171 195 0
174 198 0
173 198 0
173 197 0
173 197 0
171 195 0
171 195 0
174 197 0
174 197 0
177 201 0
178 201 0
174 198 0
172 195 0
176 198 0
175 199 0
172 196 0
171 196 0
170 193 0
176 199 0
174 199 0
167 191 0
166 190 0
178 201 0
173 197 0
174 199 0
174 197 0
172 195 0
172 196 0
175 198 0
173 197 0
172 196 0
175 197 0
177 200 0
171 195 0
173 197 0
171 194 0
171 194 0
173 195 0
174 198 0
173 197 0
168 192 0
172 196 0
170 194 0
175 199 0
173 197 0
122 147 110
57 90 155
60 94 169
59 94 163
60 96 160
61 96 167
61 97 171
61 97 166
61 97 168
61 98 174
62 98 167
61 97 169
61 98 171
63 99 173
61 98 177
60 97 175
61 97 172
61 98 174
62 98 174
61 98 172
61 98 174
60 97 177
60 97 164
62 99 180
61 98 176
62 99 174
62 99 176
61 98 176
61 98 174
62 98 177
61 98 176
61 97 174
62 99 178
61 98 174
63 100 180
62 99 178
61 98 179
62 99 176
62 99 179
61 99 180
61 98 179
62 99 180
61 98 179
61 98 179
61 98 174
61 98 178
62 99 180
61 98 177
61 98 179
61 98 178
61 98 180
61 98 177
61 98 178
62 99 178
62 99 178
61 98 176
62 99 179
62 98 176
62 99 178
62 98 179
62 99 178
61 98 178
61 98 180
62 98 175
61 98 177
62 99 180
62 98 179
62 99 174
61 98 180
63 100 178
62 99 178
62 99 176
61 97 175
62 99 178
61 98 179
62 98 178
61 98 180
62 99 179
62 99 179
61 99 180
62 99 180
62 99 180
61 98 177
60 98 178
62 99 176
62 99 180
63 99 180
62 99 178
61 98 178
62 99 180
62 98 177
61 98 179
62 99 179
62 99 179
61 98 176
62 99 179
62 99 180
61 98 180
62 99 176
62 99 177
61 98 179
62 99 180
63 100 178
61 98 177
62 99 176
62 98 173
62 99 178
62 99 176
61 98 176
61 98 176
62 99 178
61 98 178
62 98 174
62 99 180
61 98 174
61 98 176
61 98 174
61 98 176
61 98 176
61 98 176
61 98 178
62 99 178
61 98 177
62 99 178
61 98 180
61 98 172
61 98 174
61 98 179
61 98 177
62 99 176
61 98 176
62 99 179
62 98 173
61 97 173
62 99 176
62 99 176
63 99 174
61 98 177
61 98 175
63 99 174
62 98 176
62 98 175
60 96 168
61 96 166
61 96 167
62 98 168
60 96 168
61 96 165
61 96 161
60 95 162
58 93 160
56 89 154
56 88 151
69 89 123
89 93 68
83 89 63
97 99 72
102 104 73
99 101 69
87 93 67
106 109 75
88 92 63
111 113 77
116 117 78
100 105 71
91 94 61
110 112 75
110 113 76
120 121 77
119 118 69
127 127 82
122 122 77
126 127 84
132 131 82
141 140 88
134 134 85
141 137 83
135 134 83
137 137 85
138 137 83
139 138 82
146 143 88
156 152 96
139 137 82
157 152 99
146 143 87
137 136 88
144 141 85
150 147 89
152 149 91
169 163 97
158 154 86
161 156 96
158 154 93
161 157 96
166 161 93
162 158 92
164 159 95
167 163 94
168 163 99
171 165 97
171 166 90
168 162 97
175 170 103
169 163 92
164 160 91
165 160 93
161 158 95
173 167 97
170 164 99
165 159 89
175 168 99
169 163 92
173 168 97
176 170 101
166 160 90
176 169 95
166 160 95
174 168 93
165 159 90
178 170 92
176 170 95
178 171 94
172 165 87
177 170 98
168 162 94
171 165 89
172 163 94
170 163 90
161 158 88
172 167 91
165 159 85
175 168 97
170 164 93
167 160 80
167 161 80
167 164 85
160 154 80
164 158 84
167 160 87
168 161 90
167 161 84
163 156 74
161 155 79
166 160 80
152 147 70
153 148 74
158 151 79
160 153 74
157 151 70
164 158 75
163 156 85
158 151 84
152 145 72
150 145 70
154 148 79
146 141 70
170 162 85
141 135 66
157 151 68
160 153 68
145 141 62
151 145 70
139 133 70
134 130 58
139 133 64
155 148 72
130 126 51
138 131 62
138 137 56
180 202 0
175 198 0
177 200 0
176 198 0
177 199 0
177 196 0
172 195 0
177 201 0
178 201 0
175 199 0
173 196 0
179 202 0
174 199 0
179 202 0
175 200 0
174 198 0
175 200 0
176 200 0
176 200 0
174 196 0
178 202 0
178 202 0
173 197 0
174 198 0
176 200 0
179 202 0
177 201 0
176 200 0
178 202 0
174 198 0
173 197 0
176 199 0
173 196 0
175 200 0
173 196 0
176 200 0
176 200 0
178 201 0
178 201 0
176 200 0
175 199 0
176 200 0
174 199 0
178 201 0
173 197 0
170 194 0
176 197 0
174 198 0
175 199 0
180 203 0
174 198 0
178 203 0
180 201 0
178 203 0
177 200 0
172 196 0
174 199 0
177 201 0
177 201 0
177 201 0
178 201 0
174 197 0
176 199 0
176 199 0
177 199 0
173 198 0
176 200 0
172 196 0
175 199 0
177 201 0
179 202 0
176 200 0
175 200 0
175 198 0
174 198 0
175 200 0
178 203 0
173 197 0
172 196 0
174 198 0
176 199 0
175 199 0
178 201 0
173 196 0
175 200 0
173 196 0
175 200 0
175 198 0
177 201 0
173 196 0
175 199 0
178 201 0
178 202 0
177 200 0
174 198 0
177 199 0
176 200 0
178 200 0
172 196 0
173 196 0
174 198 0
174 197 0
172 195 0
172 196 0
173 195 0
176 199 0
171 194 0
168 189 0
173 197 0
175 198 0
172 195 0
171 194 0
171 194 0
173 196 0
173 195 0
176 200 0
171 195 0
173 197 0
173 196 0
172 195 0
173 197 0
176 199 0
173 196 0
174 197 0
170 194 0
173 197 0
178 202 0
174 198 0
178 201 0
159 182 66
64 96 156
58 92 159
59 94 160
58 93 154
60 96 168
61 97 173
61 96 165
62 98 172
61 97 165
62 98 170
62 99 175
61 98 175
61 97 172
62 99 175
62 98 179
61 98 172
62 99 173
62 98 174
61 98 174
62 99 174
62 99 174
62 98 176
63 99 179
61 98 176
61 98 174
62 99 179
61 98 177
62 98 178
62 98 174
62 98 178
61 98 179
61 98 175
61 98 176
62 99 174
61 98 180
62 99 179
61 98 178
62 99 178
62 98 174
62 99 180
62 99 179
61 98 176
61 98 172
62 99 178
62 99 176
61 98 177
62 99 178
61 99 180
61 98 180
62 99 178
62 99 178
62 99 178
61 98 180
61 98 178
62 99 178
61 98 179
62 99 179
62 99 180
62 99 176
61 98 179
61 98 178
61 98 178
62 99 179
61 98 180
61 98 178
61 98 178
61 98 180
61 98 179
62 99 179
61 98 178
61 98 179
61 98 179
61 98 180
61 98 176
61 98 177
61 98 179
62 98 177
61 98 177
61 98 178
62 99 179
62 99 180
61 98 179
62 98 179
62 99 178
61 98 179
61 98 174
62 98 178
62 98 179
61 98 178
62 99 178
62 99 176
62 99 178
62 98 175
62 99 178
61 98 180
61 98 177
60 98 180
62 98 178
62 99 177
62 99 176
61 99 180
61 98 176
61 98 177
62 99 176
61 98 179
61 98 180
62 99 179
61 98 176
62 99 178
62 99 178
61 98 176
62 99 180
62 99 176
61 98 178
61 98 178
61 98 174
62 99 180
62 98 178
61 98 176
61 98 170
62 99 175
61 98 174
61 98 176
63 99 176
61 96 172
61 98 178
62 99 172
62 98 173
64 100 172
62 99 176
62 99 171
62 99 174
62 99 174
63 99 180
62 98 177
61 98 172
60 97 175
61 97 174
60 97 172
61 97 170
60 97 170
62 98 174
60 96 168
60 97 174
60 96 167
60 97 173
61 97 169
59 94 161
61 96 164
60 95 167
56 89 148
60 93 158
58 91 154
55 87 151
57 68 63
88 94 72
80 85 62
89 93 60
89 93 63
100 103 73
99 101 72
105 108 75
104 108 75
88 95 70
100 104 66
107 109 78
113 115 82
114 115 81
121 123 80
123 123 81
130 129 86
131 130 82
130 130 85
133 132 78
146 144 91
125 126 76
131 130 78
129 127 80
140 139 87
121 123 79
138 137 85
142 141 82
138 137 81
145 142 86
154 151 90
151 147 90
155 152 93
149 146 85
147 145 82
156 152 93
162 157 93
152 149 91
161 156 93
158 154 95
169 162 96
161 158 86
158 155 91
161 157 90
165 162 97
153 150 79
171 164 84
165 159 84
165 161 92
165 160 91
172 166 95
170 164 98
165 160 96
168 164 88
167 162 98
171 166 98
163 158 87
176 169 95
168 162 84
169 164 93
169 163 96
168 161 90
168 162 88
173 166 95
174 167 92
172 165 90
176 169 99
171 164 90
170 163 85
172 165 91
172 166 90
177 170 91
171 164 91
178 171 98
159 154 79
173 167 87
176 168 91
172 164 87
169 164 90
169 162 85
172 166 84
162 156 79
161 155 74
159 152 77
167 159 88
171 164 90
164 157 90
158 151 72
161 154 82
162 156 79
156 150 75
156 150 75
165 158 82
166 159 85
163 156 84
165 158 79
129 127 56
164 156 85
170 163 84
142 137 60
162 155 70
147 140 72
148 142 70
159 152 70
146 141 56
142 137 64
161 154 74
143 138 68
150 141 72
153 148 66
120 117 51
137 130 62
133 126 58
128 124 53
135 128 60
147 149 48
176 199 0
174 196 0
175 199 0
174 196 0
176 198 0
177 200 0
179 201 0
178 201 0
180 203 0
178 200 0
176 199 0
174 198 0
176 200 0
180 203 0
175 199 0
177 200 0
176 201 0
174 198 0
182 204 0
173 197 0
178 200 0
177 200 0
172 195 0
179 202 0
177 201 0
177 201 0
177 200 0
173 197 0
181 203 0
174 199 0
174 199 0
176 200 0
176 199 0
176 200 0
176 200 0
179 203 0
176 200 0
176 201 0
174 199 0
179 202 0
175 199 0
175 198 0
176 199 0
178 201 0
174 198 0
179 203 0
173 199 0
176 200 0
178 202 0
178 202 0
176 199 0
176 200 0
177 201 0
174 199 0
175 199 0
177 199 0
174 199 0
172 196 0
178 201 0
175 198 0
174 197 0
176 200 0
170 192 0
176 200 0
175 198 0
170 193 0
176 200 0
172 196 0
175 200 0
176 197 0
174 199 0
172 197 0
175 199 0
171 195 0
169 194 0
176 199 0
175 198 0
177 201 0
170 195 0
175 199 0
175 199 0
172 196 0
173 196 0
177 201 0
178 201 0
173 197 0
171 195 0
174 196 0
173 195 0
176 199 0
170 193 0
173 197 0
175 198 0
175 199 0
175 198 0
175 200 0
172 195 0
175 199 0
173 197 0
173 197 0
172 196 0
173 196 0
171 194 0
174 198 0
177 200 0
174 197 0
175 200 0
174 196 0
173 197 0
172 194 0
170 195 0
175 199 0
172 195 0
168 191 0
178 201 0
166 189 0
175 199 0
173 195 0
175 199 0
172 197 0
173 196 0
175 200 0
171 194 0
170 192 0
171 195 0
168 190 0
175 198 0
173 194 0
169 192 0
86 115 148
59 93 161
59 94 164
60 96 167
61 96 163
61 97 169
60 96 171
60 96 169
61 97 169
62 99 173
61 97 171
62 99 178
61 97 167
61 98 177
61 97 174
63 100 176
61 97 169
61 98 174
62 99 177
61 98 177
61 97 173
61 98 174
61 98 177
61 98 178
62 98 175
61 98 174
62 99 178
62 98 173
62 99 178
62 99 174
62 98 179
63 99 178
61 98 178
62 98 176
60 97 176
62 99 180
62 99 180
61 98 178
62 99 178
61 99 178
62 99 178
62 98 177
60 97 177
61 98 178
62 99 179
62 99 180
62 98 177
61 98 180
62 99 180
62 99 176
61 98 178
62 99 179
62 98 177
61 98 178
62 98 176
62 98 177
61 98 175
61 98 178
61 98 175
61 98 178
62 99 177
62 99 178
61 98 178
62 99 176
62 98 178
62 99 176
61 98 179
62 99 179
62 99 180
62 99 178
61 98 177
61 98 178
61 99 180
62 98 176
60 97 176
61 98 176
62 99 179
61 98 176
61 98 176
61 98 177
62 99 178
62 99 180
62 98 176
62 98 177
61 98 179
61 98 176
62 98 176
62 99 176
61 98 176
61 98 176
62 99 180
61 98 180
61 98 178
62 99 178
61 98 177
60 97 172
62 99 178
62 99 176
62 99 178
61 98 178
62 98 178
62 99 179
61 98 178
61 98 180
61 98 180
62 99 179
61 98 174
62 99 176
62 99 178
62 99 178
61 98 174
60 97 175
62 99 176
61 98 172
62 99 176
62 99 177
62 99 180
61 98 177
62 99 176
62 98 175
62 99 180
62 99 178
62 98 179
63 100 174
61 98 178
62 99 176
61 98 176
62 99 180
61 97 171
61 98 175
62 98 172
62 99 178
62 99 173
62 99 177
61 98 176
62 99 172
62 99 176
61 98 176
63 99 173
62 98 170
62 98 172
62 98 170
61 97 172
62 98 164
60 96 166
61 97 172
61 97 173
61 98 167
61 97 169
60 95 164
59 94 162
60 96 169
60 94 161
59 94 164
56 88 145
62 88 135
89 95 78
76 80 59
118 118 83
92 96 72
69 74 52
75 82 59
105 108 70
102 104 73
109 111 71
108 111 77
114 115 80
116 117 78
120 120 77
109 111 79
104 107 69
107 109 71
125 127 88
144 142 90
120 121 76
130 129 78
134 135 89
137 136 89
134 132 84
144 141 86
150 146 89
145 142 90
133 133 83
140 138 84
141 140 83
147 145 87
151 147 88
152 149 87
159 155 91
155 152 85
160 155 84
157 153 86
162 156 90
157 154 83
160 157 86
165 158 95
162 158 93
150 146 81
160 156 95
167 162 92
163 158 90
162 157 93
171 165 90
162 158 87
170 164 92
170 164 89
167 161 99
170 164 94
160 155 88
176 170 101
169 162 90
173 167 90
174 167 97
173 167 97
171 163 88
169 163 93
169 163 88
170 164 93
159 153 77
170 164 91
166 161 87
179 172 97
169 163 94
162 155 84
176 169 93
173 167 91
166 160 91
171 166 90
163 157 84
173 167 93
170 163 90
168 163 93
167 161 87
171 163 88
169 162 82
163 156 75
174 168 95
168 163 85
170 162 87
170 163 84
167 159 85
164 158 85
164 157 87
166 158 80
163 157 80
156 150 74
161 155 75
157 151 80
153 147 70
160 154 79
160 152 84
162 155 77
157 150 84
158 152 74
153 145 72
147 143 66
155 148 74
152 146 70
145 139 62
141 136 58
145 139 68
142 136 62
145 138 70
148 143 72
139 133 48
141 135 60
134 129 56
134 129 53
140 135 60
124 119 42
144 153 36
180 202 0
173 195 0
178 201 0
175 199 0
176 197 0
176 199 0
180 202 0
176 200 0
173 197 0
174 198 0
175 198 0
174 197 0
175 199 0
174 197 0
173 196 0
176 200 0
177 201 0
171 194 0
180 203 0
176 200 0
176 200 0
176 200 0
176 199 0
174 199 0
178 201 0
175 200 0
175 198 0
176 200 0
175 199 0
176 198 0
176 199 0
179 203 0
181 204 0
175 200 0
175 199 0
173 197 0
178 201 0
170 193 0
175 199 0
179 202 0
174 197 0
176 198 0
178 201 0
178 201 0
174 197 0
174 196 0
175 199 0
175 199 0
175 198 0
175 199 0
176 198 0
178 202 0
174 199 0
175 199 0
168 193 0
170 195 0
173 196 0
176 199 0
175 198 0
181 204 0
176 199 0
171 195 0
176 200 0
170 194 0
175 200 0
173 196 0
176 200 0
173 197 0
176 200 0
177 201 0
171 195 0
171 196 0
176 198 0
174 199 0
171 195 0
173 197 0
174 198 0
176 200 0
178 201 0
172 198 0
175 200 0
174 199 0
175 198 0
172 195 0
173 196 0
172 194 0
175 199 0
173 194 0
169 192 0
172 196 0
173 197 0
171 195 0
175 198 0
173 198 0
177 200 0
172 196 0
178 200 0
171 196 0
179 202 0
174 196 0
172 197 0
179 202 0
174 199 0
171 196 0
176 200 0
179 201 0
174 196 0
177 200 0
170 194 0
171 195 0
172 196 0
172 196 0
178 201 0
178 200 0
172 195 0
175 198 0
169 192 0
177 200 0
178 200 0
172 196 0
172 195 0
175 198 0
173 197 0
178 200 0
166 191 0
177 200 0
171 195 0
174 197 0
108 132 117
55 88 147
59 94 166
59 94 161
60 96 164
61 97 170
61 97 173
61 97 171
61 97 172
61 98 167
61 97 167
61 97 164
63 99 175
62 98 177
62 99 173
62 98 171
62 98 176
63 99 174
62 99 174
62 99 172
62 98 176
63 99 174
62 99 172
62 99 178
62 99 175
62 99 178
61 98 174
62 98 177
61 98 176
62 99 178
61 98 178
62 98 174
62 99 177
62 99 177
61 98 176
62 99 178
63 99 174
62 99 180
62 98 175
64 100 176
62 99 180
62 99 178
62 99 180
61 98 180
61 98 180
61 98 178
62 99 178
62 98 178
62 99 178
61 99 180
62 99 174
61 98 176
62 99 178
62 98 179
62 99 177
62 99 175
61 98 180
61 98 179
61 98 179
62 98 174
63 100 178
61 98 176
62 99 179
61 98 176
61 98 177
61 98 178
62 99 179
61 98 178
61 98 179
61 98 176
61 99 176
62 99 180
61 98 177
62 99 179
62 99 180
62 98 176
61 98 174
60 97 177
61 97 173
61 98 179
62 99 177
62 99 179
62 98 175
62 99 178
61 98 179
61 98 174
62 99 179
62 99 179
61 98 174
62 99 177
61 98 177
61 98 180
62 99 172
61 98 177
62 99 177
62 99 178
61 98 176
61 98 175
61 97 174
62 99 180
61 99 180
63 100 176
62 98 176
60 98 176
62 99 178
62 99 176
62 99 179
62 99 178
62 98 174
60 97 175
61 98 176
61 98 176
61 98 174
61 98 180
62 99 176
61 98 171
62 98 174
62 99 178
62 99 180
62 100 178
62 99 178
61 98 176
61 98 173
61 98 178
62 99 178
61 98 176
62 99 174
63 99 179
61 98 177
63 99 176
62 99 178
63 100 180
62 99 178
62 99 170
61 98 178
62 99 179
62 99 176
61 98 176
60 97 170
64 101 172
62 99 171
61 98 178
62 99 170
62 99 172
63 99 179
61 97 169
62 98 172
61 97 170
61 96 170
61 98 171
60 96 164
61 96 166
61 96 167
59 94 157
60 94 166
59 94 162
57 90 154
67 85 109
86 91 66
94 98 63
88 91 64
90 94 65
82 84 58
98 101 69
94 98 70
106 108 68
118 118 80
108 110 70
113 114 79
115 117 72
111 112 68
130 128 83
113 116 74
136 134 82
136 135 83
142 140 86
135 132 87
120 121 81
122 122 77
142 140 84
139 138 81
128 127 83
141 138 82
138 136 80
137 134 90
140 138 80
148 145 85
155 152 93
159 154 90
158 153 96
151 148 93
159 155 90
149 146 74
163 159 93
160 157 87
154 151 78
166 161 90
158 154 90
166 160 91
162 158 94
158 153 83
166 161 90
162 158 83
164 158 89
161 157 90
168 163 95
171 165 92
163 159 96
157 152 84
177 170 92
167 161 87
171 165 91
170 164 98
164 158 92
174 168 94
167 162 88
168 163 92
172 167 101
171 165 96
175 168 90
171 164 90
172 165 93
171 165 90
171 165 93
162 157 86
172 167 97
173 166 97
170 162 93
169 163 90
168 163 82
166 160 84
171 165 88
172 165 94
167 159 88
172 166 91
160 154 79
167 160 82
162 155 91
166 159 85
167 161 79
165 159 87
166 160 79
165 158 79
162 156 80
154 148 72
159 154 72
161 154 79
161 157 75
156 150 75
161 155 80
158 152 77
151 146 66
158 152 72
166 158 85
164 157 80
151 144 75
151 146 60
158 152 74
152 148 64
161 155 77
149 142 68
146 139 77
153 146 75
152 145 60
144 138 66
136 131 58
151 145 70
138 131 60
129 124 51
128 123 56
134 128 62
151 167 0
182 205 0
171 193 0
172 196 0
174 196 0
174 198 0
175 198 0
176 196 0
176 199 0
175 199 0
176 200 0
176 201 0
175 199 0
176 199 0
179 202 0
181 204 0
177 200 0
171 196 0
177 201 0
177 200 0
177 200 0
174 198 0
179 202 0
178 201 0
174 199 0
172 196 0
176 200 0
176 200 0
177 200 0
175 198 0
168 191 0
174 199 0
176 199 0
176 199 0
175 198 0
177 201 0
174 198 0
176 200 0
176 199 0
172 196 0
175 200 0
178 201 0
175 199 0
181 204 0
173 199 0
176 199 0
177 201 0
178 201 0
173 197 0
176 200 0
177 200 0
173 198 0
176 201 0
174 198 0
175 199 0
176 199 0
175 199 0
176 200 0
179 203 0
176 199 0
177 200 0
173 198 0
176 199 0
171 195 0
176 200 0
176 199 0
175 199 0
173 198 0
175 199 0
174 197 0
169 192 0
176 200 0
175 199 0
176 200 0
175 197 0
178 200 0
172 197 0
174 197 0
179 202 0
170 193 0
172 197 0
175 198 0
176 199 0
175 197 0
170 194 0
175 199 0
172 196 0
177 199 0
174 198 0
176 199 0
174 198 0
176 199 0
175 199 0
175 199 0
173 197 0
175 198 0
172 196 0
174 197 0
174 197 0
174 199 0
170 194 0
175 198 0
174 198 0
173 197 0
170 194 0
175 199 0
176 200 0
167 190 0
176 199 0
175 198 0
174 197 0
166 190 0
173 196 0
174 198 0
176 200 0
174 197 0
176 200 0
173 197 0
177 200 0
172 195 0
175 199 0
178 201 0
176 200 0
169 192 0
174 197 0
174 197 0
175 199 0
173 196 0
162 185 67
65 95 145
59 94 163
60 95 162
61 96 166
61 97 167
61 97 169
61 97 166
61 98 172
62 98 171
61 98 173
62 99 175
61 98 175
61 98 171
62 98 175
61 98 178
61 97 170
62 98 175
61 98 177
62 98 172
62 98 175
61 98 174
61 98 176
63 100 176
62 98 167
62 99 178
62 99 178
61 98 176
62 98 177
62 99 176
62 98 173
62 99 179
62 98 178
61 98 176
62 99 176
61 98 178
61 98 178
62 99 178
62 99 176
62 99 178
62 99 175
60 97 176
62 99 179
61 98 178
63 100 180
62 99 176
61 98 176
62 99 178
62 98 179
62 98 174
62 99 176
62 99 180
61 99 180
62 99 179
61 97 176
62 99 178
61 98 177
61 99 180
62 99 178
62 99 177
60 97 178
60 97 173
61 98 180
61 98 176
62 99 176
62 99 180
62 99 178
62 99 179
61 98 178
61 99 176
62 98 179
61 98 179
61 98 180
61 98 179
61 98 178
62 99 179
61 98 173
62 99 180
61 98 177
62 99 174
61 98 180
62 99 176
61 98 178
61 98 179
61 98 177
61 99 180
62 99 178
61 98 180
62 98 176
62 99 179
62 99 176
61 98 169
62 99 180
61 98 180
61 98 177
62 99 176
61 98 176
62 99 178
61 98 176
60 97 173
62 98 179
62 99 178
62 99 178
61 98 178
61 98 180
61 98 179
62 99 176
62 99 178
63 100 180
61 98 172
61 98 178
62 98 177
61 98 172
62 98 175
62 99 180
62 99 176
62 99 176
62 98 176
62 99 174
62 99 174
62 98 176
61 98 174
61 98 172
62 99 178
62 99 174
62 99 178
61 98 176
60 97 170
62 99 178
61 98 174
62 99 169
62 99 176
61 97 176
61 98 170
63 99 172
61 98 176
60 97 170
62 99 176
61 98 172
61 98 168
63 99 178
62 98 174
63 99 178
61 98 168
62 99 174
62 98 167
62 98 177
62 99 172
60 95 161
61 97 162
60 96 168
61 96 168
61 97 171
60 95 156
60 95 166
60 95 162
58 90 155
58 90 150
59 89 147
85 91 75
67 74 54
92 96 66
81 87 58
101 102 69
112 114 77
113 115 76
94 97 65
114 113 65
118 118 74
106 106 69
106 108 68
118 117 75
123 123 74
108 110 73
118 120 74
136 135 79
105 110 75
134 131 80
127 127 79
132 131 75
116 117 75
143 142 92
136 134 82
148 146 92
126 125 79
144 142 84
142 140 89
147 144 86
148 145 82
159 153 85
161 157 90
152 150 91
157 152 88
154 150 83
158 153 88
154 151 85
157 153 86
161 157 84
162 156 88
162 158 92
157 153 90
154 150 83
163 158 83
168 162 84
151 149 78
167 162 98
163 158 87
166 162 80
165 160 82
172 166 93
170 164 93
167 161 95
161 157 86
167 161 88
163 158 91
169 163 87
175 168 97
169 162 80
169 162 90
168 162 90
173 165 88
175 167 87
167 161 88
174 168 91
161 155 82
173 167 93
171 164 93
168 162 85
171 163 93
172 166 84
166 160 82
165 160 77
169 162 85
169 162 85
173 166 88
171 166 87
171 164 95
167 161 84
158 152 75
159 153 77
169 161 88
161 155 79
161 154 74
166 159 82
160 155 77
156 151 79
162 155 74
158 154 80
166 160 87
163 156 79
164 158 80
158 151 85
169 162 82
159 154 72
152 144 74
154 148 75
148 141 64
154 149 68
155 149 66
145 139 68
152 146 64
148 143 66
156 150 62
144 138 60
126 120 48
143 137 53
147 141 64
132 127 56
133 129 45
130 125 45
113 110 45
123 119 36
166 187 0
176 198 0
173 196 0
172 197 0
175 197 0
178 199 0
174 196 0
174 197 0
174 198 0
176 199 0
175 198 0
179 203 0
175 198 0
176 200 0
178 201 0
175 199 0
175 199 0
175 199 0
175 199 0
177 200 0
177 201 0
172 197 0
177 201 0
178 201 0
175 198 0
175 200 0
174 198 0
179 202 0
172 196 0
175 197 0
174 199 0
174 198 0
178 202 0
179 201 0
177 200 0
177 201 0
180 203 0
175 197 0
172 195 0
177 200 0
177 200 0
176 200 0
178 202 0
173 197 0
175 199 0
178 201 0
175 199 0
177 201 0
170 195 0
176 199 0
182 205 0
175 199 0
177 201 0
174 198 0
177 201 0
179 202 0
179 202 0
172 195 0
173 197 0
172 196 0
177 201 0
173 197 0
172 196 0
173 197 0
175 198 0
176 200 0
179 202 0
176 198 0
171 195 0
173 198 0
171 194 0
175 198 0
172 195 0
179 202 0
170 195 0
177 200 0
174 199 0
171 194 0
173 197 0
173 196 0
178 202 0
178 202 0
178 202 0
176 200 0
167 191 0
174 199 0
169 192 0
176 200 0
170 194 0
173 198 0
175 198 0
181 204 0
175 199 0
176 199 0
172 195 0
176 199 0
175 198 0
173 197 0
172 196 0
173 197 0
176 200 0
174 198 0
176 199 0
174 198 0
174 198 0
174 199 0
177 200 0
173 198 0
170 194 0
172 196 0
174 196 0
174 198 0
174 198 0
169 193 0
172 195 0
173 197 0
175 198 0
175 199 0
174 197 0
180 203 0
164 188 0
176 199 0
174 197 0
167 191 0
172 196 0
174 198 0
175 198 0
175 198 0
110 134 110
59 93 158
59 94 165
60 95 163
59 95 154
61 97 167
62 97 165
61 97 172
60 96 172
61 98 173
62 98 169
61 97 170
61 97 174
60 96 167
61 98 176
61 98 168
61 98 177
62 98 174
62 98 173
62 99 176
62 99 178
61 98 170
62 98 177
63 99 178
61 98 177
60 97 176
63 100 178
61 98 174
62 99 179
62 98 170
62 99 176
60 98 169
61 98 179
61 98 180
61 98 176
62 99 180
62 99 176
63 100 175
62 99 176
61 98 180
62 99 177
61 98 176
62 98 174
61 98 176
62 98 176
62 99 176
61 98 178
62 99 180
61 98 176
62 99 178
62 99 180
62 99 178
62 99 178
62 98 175
63 99 180
61 98 180
62 99 179
62 99 178
61 98 174
62 99 178
61 98 172
61 98 176
61 98 180
63 99 180
62 99 180
63 99 178
62 99 180
61 98 179
62 99 178
61 98 180
61 98 177
62 98 176
62 99 176
60 98 178
62 99 177
62 99 178
61 98 176
62 99 178
61 98 176
61 98 179
62 98 177
62 99 180
62 98 178
61 98 175
62 98 176
62 99 180
61 98 178
62 99 175
62 99 176
61 98 179
62 99 178
62 99 176
62 99 178
63 99 176
61 98 178
62 99 178
61 98 178
62 99 172
62 98 176
62 98 176
62 99 180
61 98 177
62 99 172
62 99 178
63 100 176
61 98 176
61 98 175
62 99 176
61 98 172
61 98 178
61 98 177
61 98 176
63 100 178
62 99 176
61 98 176
62 98 174
61 98 174
62 99 178
62 99 178
62 98 176
62 99 178
62 99 178
62 99 180
62 99 172
63 100 180
61 98 171
62 99 180
61 98 168
61 98 178
62 99 175
62 99 165
62 99 178
62 99 178
62 99 175
60 97 162
62 99 172
62 98 172
62 99 174
60 97 170
61 98 175
62 98 174
61 98 172
62 99 172
61 98 166
62 98 172
62 98 166
63 99 175
61 98 170
62 98 167
62 98 175
61 96 161
60 96 163
60 96 167
60 96 160
58 93 160
59 94 162
60 94 161
58 93 159
57 92 163
54 77 120
85 90 64
79 84 58
88 90 65
90 93 66
105 104 68
93 96 69
100 102 68
99 101 65
106 109 70
114 114 69
114 114 70
119 118 76
111 111 70
133 130 79
120 119 73
117 117 73
130 129 75
124 124 84
137 135 83
122 124 73
140 138 88
135 134 78
141 140 85
124 125 82
153 150 93
145 142 84
144 141 83
144 141 83
148 144 86
156 152 90
149 146 80
154 150 86
143 140 77
157 154 93
156 152 82
168 161 93
157 153 86
157 153 89
155 151 87
148 146 87
157 154 80
173 166 93
158 153 73
169 162 91
161 156 85
169 163 90
172 166 97
177 168 103
172 164 95
164 160 79
167 161 88
171 165 95
160 155 87
168 162 82
174 168 88
172 165 87
167 160 90
163 157 90
185 175 99
176 168 90
171 165 92
174 167 98
171 164 75
174 168 91
173 166 91
168 161 90
167 161 80
162 157 84
175 169 91
173 167 70
171 164 91
165 159 80
166 159 82
167 160 79
162 156 79
163 156 82
167 161 80
165 159 84
165 159 85
164 158 75
163 155 84
170 164 85
159 153 79
163 157 85
169 162 84
162 156 80
170 162 87
157 151 68
164 157 82
157 151 77
153 149 72
161 155 77
160 155 77
149 143 64
157 151 74
157 151 72
152 148 58
154 147 70
147 141 62
142 137 56
158 151 79
154 147 70
150 143 80
143 138 58
151 144 66
154 148 56
131 126 58
158 150 68
132 127 56
134 127 53
144 138 53
128 128 42
176 196 0
172 194 0
169 193 0
171 191 0
177 200 0
172 194 0
177 200 0
177 199 0
174 199 0
170 194 0
175 198 0
175 199 0
176 200 0
178 201 0
175 199 0
175 198 0
178 201 0
178 202 0
173 196 0
177 200 0
176 200 0
178 201 0
173 198 0
173 196 0
178 201 0
177 201 0
170 194 0
178 201 0
179 202 0
176 199 0
174 199 0
176 200 0
177 200 0
174 198 0
176 199 0
174 198 0
173 196 0
181 204 0
176 200 0
178 201 0
173 198 0
174 199 0
168 192 0
173 197 0
174 198 0
174 198 0
172 197 0
173 196 0
172 196 0
172 197 0
175 198 0
172 197 0
172 196 0
177 199 0
182 205 0
174 197 0
178 202 0
173 197 0
177 201 0
178 201 0
172 197 0
170 193 0
173 197 0
171 196 0
174 199 0
174 198 0
175 198 0
174 197 0
177 200 0
177 201 0
176 199 0
173 196 0
174 198 0
174 199 0
176 199 0
177 201 0
170 193 0
173 198 0
175 198 0
175 198 0
175 197 0
175 199 0
177 200 0
172 196 0
175 200 0
175 198 0
174 197 0
173 197 0
174 197 0
175 199 0
177 201 0
165 189 0
174 196 0
174 197 0
176 199 0
174 198 0
179 201 0
176 200 0
173 198 0
171 195 0
175 197 0
178 200 0
169 194 0
174 199 0
171 194 0
175 199 0
176 200 0
175 197 0
177 201 0
168 191 0
174 197 0
173 197 0
170 194 0
170 194 0
170 193 0
174 197 0
169 193 0
170 193 0
170 194 0
171 195 0
171 195 0
173 197 0
174 196 0
169 193 0
174 197 0
170 194 0
172 196 0
141 166 95
57 90 152
58 93 161
60 95 164
60 94 158
61 96 167
61 97 169
60 97 173
61 96 164
61 97 170
61 97 167
61 98 173
62 98 166
62 99 178
63 99 173
62 98 177
62 98 176
62 99 177
62 98 173
62 98 171
61 98 177
62 99 176
61 98 174
62 99 175
62 99 176
62 99 176
62 99 178
62 99 174
62 99 176
62 98 176
61 98 176
63 100 178
62 99 174
61 98 174
62 98 176
61 98 179
63 99 173
61 98 170
62 99 178
62 99 179
62 99 176
63 99 173
63 99 173
62 99 178
62 98 176
62 98 178
61 98 179
62 99 180
62 98 179
62 99 178
62 98 176
62 99 172
61 98 179
61 98 172
61 98 178
62 99 178
62 98 179
62 99 178
61 98 175
61 98 176
61 98 180
60 97 179
61 98 180
62 99 178
61 98 177
62 99 179
62 99 180
62 99 177
61 98 180
62 99 172
62 98 173
62 98 174
61 98 176
61 98 178
62 99 178
61 98 176
61 98 178
61 97 176
62 98 179
62 99 180
61 98 177
61 98 175
62 99 175
61 98 178
62 99 180
63 99 179
62 99 175
62 99 178
61 98 178
62 99 176
61 99 178
61 98 176
62 98 177
62 98 179
62 99 179
62 99 178
62 99 176
61 98 178
62 99 176
62 99 178
61 98 178
62 99 178
61 98 174
61 98 174
63 100 178
62 98 179
62 99 178
61 98 178
62 99 176
62 99 178
62 99 174
62 99 176
61 98 173
62 99 172
63 99 174
62 98 178
61 98 173
62 99 174
63 100 177
62 98 178
62 99 176
62 99 173
63 99 174
61 98 176
63 99 178
62 99 178
62 99 178
62 99 178
62 98 175
62 98 174
61 98 168
61 98 172
62 98 178
62 99 177
62 99 175
62 99 175
61 98 172
63 100 172
61 97 169
61 98 172
62 99 178
62 99 170
62 99 176
62 99 168
61 98 168
60 97 172
62 98 169
62 98 171
61 97 170
62 98 169
62 99 174
61 97 169
62 98 171
61 97 167
58 93 153
60 95 158
60 95 160
61 96 153
58 93 162
57 91 158
57 90 153
69 83 96
65 71 54
69 76 57
83 88 65
107 107 72
98 101 59
104 105 68
110 112 75
119 120 79
105 106 73
95 99 66
110 111 69
130 129 85
134 133 80
105 107 66
116 118 73
127 126 78
130 129 79
115 116 74
144 141 81
139 135 89
123 124 70
131 131 77
124 124 70
152 149 91
152 149 88
143 141 81
149 146 94
164 158 93
151 148 90
144 142 89
150 145 86
147 144 82
163 156 89
158 153 81
148 145 77
151 148 84
165 160 85
166 160 93
160 156 84
163 157 93
157 153 82
158 154 80
164 159 92
162 158 80
168 162 87
165 160 96
170 164 94
163 158 87
164 159 81
164 158 85
168 163 87
174 166 97
168 161 87
173 166 91
159 155 90
175 168 99
174 167 90
168 161 90
164 159 87
163 158 82
167 161 82
165 160 77
170 164 89
163 157 79
169 161 93
170 164 80
173 166 91
168 162 90
169 163 88
164 158 79
164 160 79
163 157 79
164 157 87
164 159 87
168 161 85
167 162 84
170 164 74
170 163 85
164 158 80
154 148 72
161 155 84
166 158 75
153 147 75
163 158 72
153 148 77
166 158 90
166 162 79
157 151 79
168 161 70
157 151 74
150 144 66
156 150 72
159 153 72
153 148 64
165 159 77
158 150 75
160 154 75
145 140 68
141 136 53
148 142 68
146 140 58
135 130 53
142 136 56
147 142 64
141 136 62
139 133 64
142 136 56
146 138 68
140 136 51
132 126 56
153 159 56
177 199 0
173 196 0
173 192 0
180 200 0
175 198 0
174 197 0
174 193 0
171 195 0
175 199 0
177 200 0
177 201 0
177 201 0
177 200 0
176 199 0
173 197 0
175 199 0
178 202 0
171 196 0
173 197 0
176 200 0
172 197 0
175 199 0
176 200 0
181 203 0
176 199 0
176 201 0
175 200 0
177 201 0
175 199 0
174 198 0
174 197 0
176 200 0
181 204 0
177 201 0
172 196 0
179 203 0
174 197 0
175 198 0
179 201 0
173 196 0
174 198 0
172 196 0
180 203 0
175 198 0
177 200 0
174 198 0
175 198 0
175 198 0
174 198 0
172 195 0
174 199 0
175 199 0
174 197 0
171 195 0
181 204 0
175 200 0
177 200 0
175 198 0
175 198 0
172 195 0
172 196 0
176 200 0
172 197 0
176 199 0
171 195 0
175 198 0
176 199 0
174 197 0
176 200 0
175 198 0
175 198 0
179 201 0
171 196 0
175 197 0
167 191 0
175 199 0
171 196 0
178 201 0
174 198 0
171 194 0
172 197 0
170 193 0
174 197 0
175 199 0
178 202 0
175 199 0
174 198 0
173 197 0
173 197 0
176 199 0
172 195 0
171 194 0
177 200 0
177 201 0
177 199 0
171 194 0
174 197 0
170 194 0
174 198 0
173 196 0
172 196 0
175 199 0
177 200 0
173 197 0
167 191 0
173 197 0
176 200 0
177 200 0
178 200 0
176 199 0
177 200 0
172 196 0
174 198 0
176 200 0
170 194 0
169 193 0
175 199 0
175 198 0
173 197 0
171 194 0
172 196 0
174 198 0
174 197 0
168 193 0
171 193 0
172 194 0
170 193 21
92 120 137
59 93 161
60 94 159
60 95 167
60 96 164
61 97 167
61 97 166
60 97 173
60 97 170
61 98 175
61 97 172
62 98 171
62 98 174
61 98 171
61 98 172
62 98 175
62 98 177
61 98 175
62 99 176
61 98 176
62 99 177
61 98 169
62 99 178
62 99 176
62 99 176
62 99 178
62 99 178
62 99 178
62 99 177
61 98 174
61 98 174
61 98 179
62 99 176
63 100 178
62 99 176
62 99 178
62 100 178
62 99 175
62 99 180
62 99 178
61 98 177
61 98 177
61 98 176
62 98 173
62 99 176
61 98 178
62 98 174
62 99 178
61 98 174
61 98 178
62 99 178
61 98 178
61 98 180
62 98 178
61 98 178
61 98 177
62 99 171
62 99 178
61 98 177
62 98 175
61 98 177
62 99 180
61 98 177
61 98 178
62 99 178
62 98 176
62 99 180
62 99 180
62 98 179
61 98 174
62 99 176
62 99 180
61 98 176
61 98 176
61 98 172
61 98 180
61 98 178
62 99 179
61 99 180
61 99 180
62 99 180
62 99 177
62 99 174
61 98 176
61 98 176
62 99 176
62 99 176
61 98 174
61 98 176
62 99 178
61 98 171
61 98 175
61 98 179
61 98 180
62 98 176
62 99 178
62 99 179
61 98 175
62 98 177
62 99 178
61 98 170
62 99 178
62 98 176
61 98 176
62 99 173
61 98 176
62 98 174
61 98 180
62 99 177
62 99 180
61 98 173
62 99 178
61 98 178
62 99 176
62 99 172
62 99 176
63 99 176
62 99 180
62 99 176
62 98 176
62 99 178
62 98 176
61 97 171
63 99 173
61 98 174
63 100 176
62 99 179
61 98 174
62 98 172
62 99 171
62 98 176
62 99 178
62 99 180
61 98 178
63 99 173
63 99 172
62 98 179
62 99 174
62 99 178
62 98 172
62 99 174
61 97 164
63 99 175
61 98 168
62 98 169
63 100 176
63 99 168
61 97 173
61 97 166
60 97 167
61 97 170
60 97 173
60 95 160
60 96 167
60 96 163
62 97 170
59 94 162
61 96 165
58 92 154
60 95 164
56 90 156
54 83 134
72 77 55
101 102 70
76 81 60
88 92 65
88 93 64
97 100 67
94 96 61
114 114 73
99 103 68
88 93 63
108 111 72
99 104 70
109 111 72
127 127 75
125 125 82
128 128 76
132 130 84
127 126 75
132 131 81
127 127 72
129 129 77
132 131 76
135 133 79
136 135 70
134 133 84
139 137 81
138 137 86
149 145 83
154 150 81
155 152 81
150 148 88
171 165 96
155 152 89
153 150 81
159 154 90
159 154 88
155 150 88
155 152 84
154 151 84
159 155 93
152 148 77
164 159 87
156 152 80
164 159 94
161 155 91
167 160 90
163 158 85
163 158 80
161 156 83
156 152 85
171 165 85
167 162 88
165 159 86
171 166 89
172 166 88
163 158 80
172 165 87
172 165 87
159 154 79
164 159 84
168 161 89
164 157 84
169 162 86
171 164 82
162 156 84
158 151 79
174 166 94
174 167 95
171 164 87
167 160 88
161 155 75
166 160 90
173 166 84
163 157 74
166 160 82
169 161 87
164 157 75
158 153 82
158 152 77
159 151 77
169 162 90
165 159 84
163 155 74
159 152 70
169 161 79
163 156 90
151 145 68
159 154 68
155 149 64
161 154 75
157 151 74
155 149 74
151 145 70
154 148 70
153 146 68
149 142 70
148 143 74
162 154 70
142 137 60
147 141 60
157 149 70
147 142 64
140 136 60
136 130 62
142 136 60
138 134 60
142 136 45
138 131 64
116 110 51
123 117 48
162 177 32
178 199 0
172 194 0
176 199 0
179 200 0
173 194 0
177 198 0
179 201 0
175 199 0
173 197 0
174 198 0
170 195 0
175 199 0
176 200 0
173 197 0
167 192 0
176 200 0
177 201 0
178 201 0
176 200 0
174 198 0
174 199 0
174 198 0
174 199 0
177 201 0
177 201 0
175 199 0
174 199 0
173 196 0
174 198 0
177 201 0
174 199 0
173 198 0
177 200 0
179 202 0
176 200 0
176 198 0
177 201 0
175 199 0
176 200 0
176 199 0
176 200 0
178 202 0
175 199 0
175 198 0
175 198 0
176 199 0
176 199 0
175 199 0
168 193 0
174 197 0
168 193 0
173 197 0
171 195 0
178 200 0
172 196 0
177 200 0
174 198 0
179 200 0
173 197 0
177 201 0
173 197 0
174 199 0
171 195 0
172 196 0
175 199 0
172 196 0
175 198 0
177 201 0
175 198 0
175 198 0
170 193 0
176 198 0
174 199 0
177 200 0
167 190 0
169 193 0
175 199 0
175 199 0
177 200 0
175 198 0
165 189 0
173 197 0
171 195 0
171 194 0
171 194 0
173 197 0
174 196 0
176 199 0
169 192 0
174 197 0
168 192 0
175 199 0
178 200 0
174 198 0
170 193 0
171 196 0
170 194 0
175 198 0
170 192 0
174 197 0
176 200 0
166 189 0
173 197 0
174 199 0
178 201 0
170 194 0
172 196 0
175 199 0
169 195 0
174 198 0
178 201 0
173 196 0
172 195 0
178 201 0
171 195 0
176 200 0
177 198 0
170 194 0
176 198 0
168 191 0
170 194 0
180 202 0
176 199 0
171 194 0
172 195 0
170 194 0
139 163 100
57 91 158
59 94 153
59 94 160
60 96 162
60 95 160
59 95 158
60 96 171
61 97 174
62 98 170
61 98 171
60 97 165
62 98 175
61 98 168
62 99 177
63 99 176
61 98 176
63 100 177
62 98 177
61 98 172
62 99 172
62 99 177
62 99 174
61 97 172
62 99 174
61 98 179
62 98 176
61 98 176
62 99 176
62 98 171
62 99 174
61 98 177
61 98 176
61 98 179
61 97 174
63 99 176
62 99 178
61 98 177
62 99 178
62 99 178
61 98 177
61 98 174
62 99 177
62 99 179
62 99 173
61 98 178
62 99 180
62 98 177
62 98 178
62 99 180
62 99 178
61 98 173
63 99 177
62 99 178
62 99 178
62 99 180
62 99 177
62 99 177
61 98 176
63 99 177
61 98 173
62 99 177
63 99 178
61 98 177
61 98 178
62 99 178
62 98 174
61 98 180
62 99 176
62 98 179
61 98 176
62 99 176
61 98 179
61 98 174
61 98 176
62 99 180
61 98 174
62 99 178
62 99 173
61 98 178
61 98 176
63 100 178
62 99 178
62 99 180
61 98 177
61 98 174
61 98 176
62 99 174
62 99 180
61 98 175
61 98 176
62 99 180
62 99 176
62 99 176
62 99 176
61 98 177
62 98 176
62 99 174
62 99 178
62 98 174
62 99 180
62 98 177
62 99 176
62 98 177
61 98 178
61 98 176
63 99 177
62 99 176
62 99 178
63 99 176
62 98 179
62 99 176
62 99 178
62 98 174
62 99 178
61 98 174
62 99 178
61 98 174
62 99 178
62 98 170
62 98 176
62 99 176
62 99 177
62 98 178
62 99 180
61 98 174
61 98 178
63 99 176
62 99 176
63 99 174
62 99 176
62 99 178
63 100 174
62 99 177
61 98 172
62 99 172
61 98 172
62 99 168
63 99 172
62 99 176
63 100 168
62 98 174
62 99 176
62 98 169
62 99 176
61 98 170
62 99 178
62 98 168
61 98 173
61 98 168
62 98 172
61 97 167
60 97 168
60 96 165
60 95 163
61 97 161
61 96 167
59 93 156
59 94 164
57 90 152
57 91 158
58 92 158
56 89 153
79 92 111
72 79 57
84 87 62
102 103 66
97 99 67
81 87 64
98 100 64
95 97 61
99 101 56
110 112 68
123 123 75
129 128 80
109 109 70
126 125 69
133 132 78
126 125 72
133 132 77
123 122 66
134 134 80
125 125 77
142 139 85
128 128 73
136 135 73
132 131 80
142 139 87
148 145 73
158 153 83
144 142 84
156 152 84
138 137 80
155 152 85
144 142 77
139 138 76
145 141 87
151 148 84
152 148 80
159 154 85
152 148 80
166 159 84
158 155 80
159 154 86
167 161 94
165 161 84
166 161 88
171 163 90
166 160 84
166 160 80
155 151 81
160 155 79
160 156 77
171 164 91
164 157 84
168 161 88
165 158 85
164 159 91
159 155 80
162 157 82
159 154 83
170 163 91
165 159 77
173 165 93
168 162 77
163 158 86
170 164 93
175 167 90
168 162 84
170 163 91
163 157 77
165 158 82
167 161 79
164 159 77
169 163 80
157 151 84
169 161 88
165 159 79
167 160 84
171 164 80
166 160 82
159 152 70
168 161 84
157 151 74
170 162 77
170 163 85
145 140 66
152 145 72
166 158 85
156 150 66
159 153 77
165 159 75
158 150 74
153 145 72
164 158 82
167 160 82
150 145 70
147 144 53
157 151 72
151 143 77
144 138 62
146 140 62
155 148 70
151 144 70
144 137 66
134 127 62
145 139 66
147 140 64
138 134 51
144 138 56
133 128 53
129 124 48
110 107 39
178 198 0
177 199 0
176 197 0
171 190 0
173 193 0
172 192 0
173 195 0
174 196 0
177 199 0
178 201 0
176 200 0
175 198 0
177 201 0
177 202 0
178 202 0
175 198 0
178 201 0
172 196 0
175 196 0
172 195 0
175 199 0
182 204 0
171 194 0
178 202 0
176 200 0
178 202 0
180 203 0
177 200 0
175 198 0
172 195 0
177 201 0
176 200 0
178 202 0
175 199 0
176 200 0
175 200 0
174 198 0
177 201 0
173 198 0
177 201 0
176 200 0
176 200 0
174 197 0
175 199 0
177 200 0
175 198 0
177 201 0
174 198 0
174 198 0
174 198 0
175 199 0
175 199 0
173 198 0
176 200 0
176 199 0
178 202 0
176 199 0
175 200 0
179 201 0
175 197 0
175 198 0
176 201 0
174 198 0
176 199 0
178 202 0
166 190 0
177 200 0
174 198 0
171 195 0
175 199 0
174 198 0
169 192 0
175 199 0
171 195 0
177 201 0
171 196 0
173 197 0
170 195 0
175 199 0
172 196 0
175 199 0
175 200 0
171 195 0
173 197 0
171 194 0
173 197 0
171 195 0
173 196 0
174 198 0
173 195 0
175 198 0
178 201 0
179 202 0
174 197 0
172 195 0
177 199 0
173 197 0
173 197 0
174 197 0
178 201 0
174 196 0
171 195 0
172 195 0
167 189 0
172 196 0
174 197 0
173 197 0
174 198 0
171 195 0
171 193 0
176 199 0
165 188 0
168 192 0
175 198 0
173 196 0
170 195 0
172 195 0
173 196 0
166 190 0
178 202 0
174 197 0
165 189 0
175 198 0
173 198 0
175 198 0
170 194 0
168 192 31
62 93 152
59 94 159
60 95 167
60 95 161
60 96 167
61 97 164
61 97 171
61 97 172
62 98 169
60 96 163
62 98 175
61 98 175
61 97 169
62 98 172
62 98 166
61 98 170
62 98 174
62 99 174
62 99 178
61 98 176
61 98 172
63 100 172
62 99 178
62 99 180
61 98 178
62 99 180
62 98 172
61 98 172
62 99 178
62 99 174
62 99 176
63 100 176
61 98 174
62 99 180
61 98 174
62 99 178
63 100 178
62 99 176
62 99 179
62 99 180
62 99 178
62 99 180
62 98 176
62 99 174
62 99 178
61 98 176
62 99 175
62 99 174
61 98 176
61 98 177
61 98 171
61 98 176
62 98 175
61 98 176
62 99 177
61 98 177
62 99 178
61 98 175
62 99 176
62 99 179
62 99 176
61 98 176
61 98 178
62 99 177
62 98 174
61 98 179
61 98 174
62 98 178
63 100 176
61 98 178
61 98 174
62 99 180
61 98 176
61 98 176
62 99 176
62 99 176
62 99 174
61 98 177
62 99 176
62 99 176
62 99 178
62 99 178
61 98 180
62 98 176
62 99 179
61 98 180
61 98 178
62 99 176
63 99 176
61 98 176
62 99 178
62 98 178
62 99 176
62 99 180
63 100 178
62 99 178
61 98 177
62 99 180
61 98 176
62 98 174
62 99 177
61 98 171
61 98 178
62 99 176
62 99 180
62 99 178
63 99 178
61 98 178
61 98 176
61 98 176
62 99 174
62 99 178
62 99 178
63 99 176
62 99 180
62 99 174
62 98 176
63 99 178
63 100 176
62 99 178
61 98 176
62 99 178
63 99 176
62 99 178
63 100 172
62 99 176
61 98 175
62 98 176
62 99 176
62 98 174
62 99 176
62 98 175
63 100 178
61 98 174
62 99 173
63 99 176
62 99 176
62 99 174
62 98 173
62 99 178
62 99 172
62 99 172
63 99 175
61 97 166
62 99 166
62 98 167
62 98 166
61 98 170
62 99 170
61 97 169
63 99 176
61 98 171
61 97 170
62 98 171
62 98 165
61 96 164
60 96 155
60 95 165
60 96 158
60 95 158
59 93 155
58 93 159
57 90 151
52 82 133
89 91 60
99 100 69
80 84 56
109 110 68
103 104 68
115 115 71
107 106 66
101 103 66
106 110 64
105 107 74
116 116 67
117 117 71
120 121 75
106 110 67
109 111 68
120 120 74
128 127 78
132 130 78
145 142 86
121 120 74
144 141 82
128 128 81
140 137 75
148 145 86
153 151 88
139 136 86
147 145 82
139 138 79
155 151 81
147 143 78
143 139 80
158 152 88
153 149 86
157 152 86
159 154 82
155 152 81
166 161 91
145 143 73
149 145 91
154 151 80
168 162 92
168 161 88
158 154 81
155 151 78
164 157 91
164 157 86
160 156 76
158 153 84
167 162 85
163 157 80
171 165 87
167 162 87
166 161 89
169 163 82
177 170 94
171 165 84
172 165 87
170 164 85
165 160 79
167 160 86
167 160 81
168 161 82
161 155 82
173 166 92
166 160 87
169 162 77
167 161 91
157 151 82
171 164 84
160 157 75
166 158 77
165 157 82
170 162 84
158 152 66
164 159 77
159 153 77
159 153 74
171 163 88
166 159 82
164 158 74
164 158 82
167 161 75
169 162 79
167 161 80
158 151 75
156 149 68
161 154 77
165 159 79
167 159 79
163 156 77
152 147 68
151 146 66
154 148 66
145 140 60
156 152 60
145 139 66
147 142 56
133 128 56
151 144 70
143 136 58
138 134 56
124 120 51
146 139 66
145 140 56
146 141 48
138 133 53
120 116 51
115 109 39
136 139 36
174 199 0
177 196 0
174 195 0
176 198 0
179 200 0
173 196 0
177 200 0
171 193 0
176 194 0
177 200 0
177 201 0
176 199 0
175 198 0
176 200 0
178 201 0
174 198 0
173 198 0
178 202 0
176 200 0
175 199 0
177 201 0
175 199 0
174 198 0
173 197 0
170 194 0
176 200 0
176 199 0
175 199 0
171 195 0
179 202 0
175 199 0
174 198 0
177 201 0
172 197 0
176 199 0
173 197 0
176 200 0
178 201 0
173 197 0
173 197 0
178 201 0
177 200 0
175 199 0
178 200 0
176 200 0
175 199 0
178 201 0
173 196 0
179 203 0
175 199 0
170 196 0
173 197 0
179 202 0
175 198 0
175 199 0
182 205 0
177 200 0
174 198 0
174 199 0
172 196 0
176 200 0
174 198 0
171 194 0
169 194 0
174 197 0
175 199 0
177 201 0
180 203 0
168 192 0
177 200 0
176 200 0
178 201 0
169 193 0
174 198 0
173 196 0
171 194 0
171 195 0
177 201 0
171 195 0
172 195 0
176 200 0
176 200 0
176 199 0
175 199 0
169 193 0
171 194 0
171 195 0
176 198 0
168 190 0
174 196 0
172 196 0
170 193 0
176 200 0
174 198 0
176 200 0
173 198 0
175 198 0
175 199 0
173 196 0
177 200 0
175 198 0
170 193 0
174 197 0
174 198 0
177 199 0
171 194 0
175 197 0
170 194 0
172 196 0
171 194 0
171 194 0
173 195 0
172 196 0
171 195 0
173 197 0
172 195 0
171 194 0
168 192 0
172 196 0
172 195 0
178 201 0
169 191 0
174 198 0
169 192 0
167 190 0
174 197 0
123 147 114
57 90 144
60 95 161
60 95 157
61 97 161
61 96 153
61 97 169
60 96 165
62 98 172
61 97 166
61 97 168
62 98 173
62 98 173
62 99 171
61 98 171
61 97 168
61 98 174
62 99 176
62 99 176
62 98 164
61 98 170
62 99 179
61 98 177
61 98 172
62 99 176
62 99 174
61 98 174
63 99 172
60 97 170
62 98 175
62 99 177
62 98 172
62 99 176
63 99 178
61 98 174
62 99 178
61 98 180
62 99 180
61 98 172
62 99 178
62 99 177
61 98 178
61 98 180
63 99 180
61 98 178
62 99 180
62 98 179
62 99 178
62 99 170
62 99 178
61 98 175
60 97 174
62 99 180
62 99 177
61 98 175
63 99 180
63 99 178
62 99 177
61 98 180
61 98 174
63 100 180
61 98 180
62 99 180
61 98 179
62 99 180
62 99 176
61 98 177
63 100 180
61 98 175
62 99 178
62 99 177
62 99 178
61 98 180
62 99 180
62 99 176
62 99 180
62 99 180
62 99 178
61 98 178
62 99 176
62 99 176
62 99 179
62 99 178
62 99 179
62 98 175
62 99 180
62 99 173
61 98 180
61 98 177
61 98 178
61 98 178
62 99 179
62 98 173
62 99 172
62 99 179
62 99 180
61 98 172
63 100 174
61 98 174
63 100 178
62 99 180
62 99 172
62 99 180
61 98 178
62 99 180
61 98 179
61 98 176
61 99 176
61 98 180
62 99 179
62 99 176
62 99 178
63 99 177
62 99 170
62 99 176
62 99 180
61 98 176
62 99 176
61 98 176
60 97 173
61 98 169
62 98 175
62 99 176
62 99 178
63 100 178
62 99 175
64 100 175
61 98 175
62 98 174
61 98 177
63 100 174
61 98 172
62 99 180
62 99 174
61 98 172
62 99 177
62 99 175
62 99 180
61 98 174
62 99 176
62 99 173
62 97 165
63 100 174
62 99 174
62 99 174
63 99 172
62 99 170
62 99 178
61 97 170
61 97 163
61 97 164
60 97 168
61 97 170
61 98 162
61 97 168
62 99 174
61 96 162
62 97 164
61 97 167
60 94 161
58 92 157
61 96 161
59 93 153
57 92 157
58 91 158
65 82 101
104 105 70
82 85 58
75 82 55
82 88 57
105 105 59
100 101 67
89 93 62
106 108 67
99 100 62
117 119 80
112 114 72
110 113 68
135 133 74
125 124 67
111 113 76
130 130 78
127 127 69
123 122 78
121 121 76
131 130 78
132 131 78
137 135 80
155 150 88
125 123 74
136 135 82
140 136 73
160 155 82
138 136 71
151 147 83
147 143 84
155 151 82
157 153 88
152 148 86
148 145 77
156 152 86
148 146 81
157 151 80
147 143 75
163 158 89
168 161 93
158 153 84
161 155 87
156 152 87
165 160 72
157 153 78
154 151 82
159 154 86
166 160 84
161 157 76
168 161 86
160 155 80
156 152 76
174 167 96
172 165 85
162 156 80
168 162 80
167 160 88
167 162 77
166 160 75
171 164 77
163 158 82
165 159 73
165 159 77
167 161 82
166 161 77
163 157 77
167 161 80
162 155 74
169 161 85
163 157 82
166 159 80
149 145 72
170 162 90
173 167 90
161 156 75
164 158 80
158 152 68
168 160 75
167 160 75
170 161 88
154 148 72
160 154 75
164 157 79
153 149 68
159 152 62
158 152 66
146 141 62
148 141 72
144 139 68
149 141 70
148 142 58
160 153 68
145 139 62
144 138 60
151 144 72
152 147 60
143 138 56
155 147 60
143 136 62
128 124 45
137 131 66
135 130 60
126 122 51
133 128 62
118 114 51
144 138 64
120 116 51
152 165 16
175 197 0
177 199 0
176 199 0
174 195 0
177 199 0
177 198 0
172 192 0
172 193 0
172 192 0
175 199 0
175 200 0
176 200 0
181 204 0
181 204 0
175 200 0
178 201 0
177 201 0
175 199 0
177 201 0
176 200 0
177 200 0
171 194 0
176 200 0
177 200 0
177 200 0
176 199 0
175 199 0
176 199 0
176 200 0
173 197 0
177 201 0
178 201 0
178 202 0
176 201 0
173 196 0
174 197 0
177 201 0
174 198 0
174 199 0
175 199 0
175 199 0
173 197 0
176 199 0
175 197 0
172 196 0
172 197 0
178 201 0
173 195 0
178 201 0
174 199 0
176 199 0
176 198 0
176 199 0
176 199 0
175 199 0
177 201 0
176 200 0
171 195 0
176 200 0
175 200 0
173 198 0
173 196 0
179 201 0
174 197 0
174 198 0
173 197 0
177 200 0
169 193 0
172 196 0
174 198 0
172 197 0
174 198 0
177 200 0
173 197 0
175 199 0
173 197 0
173 197 0
177 200 0
177 200 0
174 198 0
173 195 0
178 202 0
170 193 0
176 199 0
176 199 0
174 198 0
172 196 0
173 196 0
172 194 0
176 200 0
177 200 0
175 198 0
176 199 0
174 198 0
175 199 0
174 199 0
174 197 0
177 200 0
173 195 0
176 200 0
173 196 0
164 188 0
168 191 0
172 195 0
177 199 0
174 199 0
169 193 0
178 199 0
173 197 0
176 199 0
171 194 0
174 198 0
177 200 0
173 195 0
166 189 0
174 197 0
170 195 0
175 198 0
169 194 0
172 197 0
172 195 0
172 196 0
168 191 0
172 194 0
170 192 0
167 190 44
80 108 140
58 92 150
59 94 158
61 96 166
61 97 174
60 95 159
61 97 168
61 97 166
61 97 169
61 97 166
62 98 171
61 97 173
62 98 171
62 98 172
61 98 177
62 98 173
62 99 171
62 98 168
61 98 172
63 100 175
62 99 176
61 98 175
62 98 177
63 100 178
62 99 178
61 98 172
61 98 172
61 98 172
62 99 173
61 98 173
62 99 178
62 99 176
61 98 172
62 99 174
61 97 173
62 98 174
63 99 174
62 99 174
61 97 172
61 98 171
61 98 176
61 98 176
61 98 179
62 99 178
63 100 176
61 98 176
62 99 176
62 99 173
62 99 175
63 100 176
62 99 176
62 99 180
61 98 176
62 99 178
62 99 175
62 99 179
62 99 176
61 98 178
62 98 175
61 98 176
60 97 176
62 99 180
62 99 177
62 99 180
61 98 172
63 100 179
61 98 177
61 98 174
61 98 178
62 99 178
62 99 178
62 99 176
62 98 177
61 98 179
61 98 178
61 98 179
62 99 178
62 99 177
61 98 179
62 99 176
62 98 178
62 99 176
62 98 178
62 99 175
64 101 176
63 99 176
61 98 174
62 99 179
61 98 173
62 99 178
62 99 176
62 99 176
62 99 177
63 99 178
61 98 176
61 98 174
63 100 176
62 98 179
62 98 175
61 98 178
62 99 179
62 98 173
61 98 176
62 99 174
61 98 178
61 98 178
62 99 176
61 98 178
61 98 179
61 98 173
60 97 172
61 98 177
62 99 176
62 99 177
62 98 174
62 99 178
62 99 176
63 99 180
62 99 180
63 100 174
63 100 178
62 99 174
62 99 176
62 99 173
62 99 175
62 99 174
62 99 178
63 99 173
62 98 174
62 99 178
63 99 175
61 98 176
62 100 178
62 98 171
62 99 175
61 98 174
62 98 168
61 97 160
61 98 178
63 100 167
63 99 179
62 99 176
62 99 176
62 98 165
62 99 174
59 95 164
62 98 172
61 97 168
62 99 174
62 98 164
63 99 168
63 100 174
62 98 170
61 98 175
62 98 172
61 98 166
62 98 173
60 96 165
61 96 163
61 96 170
60 96 166
60 96 163
60 95 151
60 93 153
57 90 144
58 86 135
67 72 57
96 97 62
85 88 58
67 75 55
83 87 58
105 107 62
92 96 56
117 116 66
99 100 63
119 120 73
123 121 76
108 111 64
125 125 76
126 124 74
111 111 69
143 141 76
128 127 77
141 138 83
121 121 72
123 123 72
128 127 69
133 132 67
137 135 70
127 126 73
146 141 77
149 145 92
143 141 81
153 149 86
145 141 81
151 146 83
146 143 84
148 145 78
145 141 82
159 154 83
153 149 84
158 154 79
172 166 95
159 153 84
162 157 81
163 156 93
165 159 86
165 159 86
170 164 87
160 153 82
160 156 75
151 148 81
168 163 81
161 154 72
166 159 84
166 159 94
169 163 91
159 152 77
172 165 90
167 162 84
181 173 97
162 156 79
168 162 78
163 156 87
161 154 76
171 164 81
163 157 85
164 158 86
160 156 84
163 158 76
163 157 82
157 153 80
170 164 77
174 165 77
174 166 91
159 153 75
166 159 80
168 161 80
166 159 79
162 155 82
159 153 58
160 153 75
168 161 87
153 146 79
158 151 68
160 154 70
155 150 79
165 158 84
142 138 64
164 157 79
156 150 74
160 155 68
161 154 72
153 147 75
155 149 72
153 146 62
145 139 66
158 151 70
145 139 64
150 143 62
146 140 62
145 140 60
155 148 68
149 143 58
140 133 53
155 149 64
145 139 60
149 143 58
125 121 48
133 128 53
140 133 60
128 124 51
122 119 32
163 183 0
174 198 0
177 197 0
174 197 0
175 196 0
168 189 0
176 200 0
176 198 0
174 196 0
174 193 0
175 199 0
175 199 0
179 202 0
177 200 0
173 196 0
177 199 0
174 198 0
174 199 0
181 204 0
180 203 0
178 201 0
179 202 0
179 202 0
176 200 0
175 198 0
171 196 0
177 200 0
177 200 0
174 199 0
176 200 0
172 196 0
173 197 0
169 193 0
176 200 0
174 197 0
175 198 0
174 198 0
179 202 0
175 198 0
173 198 0
177 200 0
175 199 0
179 202 0
180 203 0
173 196 0
181 203 0
179 203 0
171 195 0
173 197 0
171 194 0
172 195 0
176 199 0
175 200 0
171 196 0
176 200 0
175 199 0
177 201 0
179 202 0
170 195 0
167 190 0
177 200 0
174 198 0
179 202 0
175 197 0
178 201 0
178 201 0
172 196 0
173 197 0
176 199 0
174 198 0
171 195 0
176 198 0
171 195 0
174 199 0
173 197 0
174 197 0
175 199 0
174 199 0
174 197 0
171 196 0
174 197 0
175 198 0
172 196 0
179 202 0
169 192 0
173 194 0
171 194 0
173 195 0
172 196 0
167 191 0
174 198 0
172 196 0
169 193 0
177 201 0
170 194 0
170 194 0
176 199 0
172 196 0
170 193 0
174 197 0
175 198 0
170 193 0
178 200 0
173 197 0
169 193 0
171 195 0
171 194 0
173 196 0
170 193 0
176 198 0
173 196 0
170 193 0
167 190 0
172 194 0
169 193 0
175 198 0
171 196 0
172 196 0
171 195 0
173 197 0
167 191 0
167 190 0
167 190 0
169 193 0
173 197 0
171 194 0
127 151 100
57 90 149
59 94 160
59 94 164
60 95 157
61 96 167
62 98 168
61 97 165
62 98 173
60 96 165
62 98 177
62 98 173
62 98 174
61 97 166
62 98 173
62 98 172
61 98 170
62 99 176
62 98 174
61 97 166
61 97 167
63 99 171
62 99 174
61 98 172
62 98 165
61 98 172
62 99 178
62 99 178
63 100 176
62 99 175
61 98 176
63 99 172
62 99 176
62 98 176
62 99 176
62 99 179
62 99 176
61 98 176
62 99 178
61 98 178
62 98 174
62 99 178
61 98 180
61 98 176
62 99 177
62 98 178
62 99 178
62 99 176
61 98 176
63 100 176
62 99 175
62 98 176
61 98 174
61 98 179
62 98 174
62 99 172
62 99 176
62 98 176
61 98 176
61 98 174
62 98 173
61 98 176
62 99 176
61 98 178
62 99 178
61 98 176
61 98 178
61 98 174
63 100 180
62 99 176
62 99 179
62 99 176
62 99 179
62 99 176
62 98 174
62 98 176
61 98 174
61 98 175
62 99 174
61 98 174
61 98 173
62 98 176
62 98 176
62 99 176
62 99 178
61 98 176
62 99 178
61 98 174
62 98 174
63 100 178
62 99 180
62 99 176
61 98 174
62 99 179
62 99 176
61 98 175
62 99 180
62 99 180
62 99 180
61 98 176
61 98 170
62 99 180
61 98 174
62 99 175
63 99 178
62 99 178
61 98 170
62 98 179
61 98 178
62 98 176
62 99 174
63 100 178
61 98 173
62 99 178
62 98 168
62 99 177
62 98 174
62 99 173
62 99 178
63 100 178
62 99 174
62 99 175
62 98 172
62 99 178
61 98 172
62 98 172
63 99 175
61 98 180
62 99 176
62 99 176
62 99 174
62 99 173
62 99 176
62 98 174
63 99 170
63 100 176
61 98 176
62 99 176
62 99 176
61 98 169
62 98 169
62 98 172
62 98 166
62 98 174
62 99 178
62 98 176
63 99 170
61 98 174
61 97 168
61 98 173
61 98 172
63 99 172
62 98 170
62 98 173
61 97 160
61 98 170
61 98 170
62 98 170
62 97 164
61 97 161
58 92 147
61 96 163
60 96 164
59 93 160
60 95 160
59 93 158
57 90 147
64 82 118
81 84 53
82 86 56
88 93 64
105 107 67
93 96 61
88 92 63
100 102 54
106 107 67
120 118 75
96 100 52
119 119 66
115 115 67
120 120 71
103 105 61
121 121 68
127 126 63
118 117 72
133 131 74
119 118 74
136 134 73
139 136 79
141 139 75
138 135 81
145 143 89
141 139 79
145 141 72
151 146 85
152 146 75
153 149 80
146 143 82
156 151 83
145 143 79
156 152 82
150 147 80
154 152 79
162 158 93
159 153 86
152 148 76
156 152 82
166 160 87
151 147 78
167 160 92
160 155 78
167 161 90
162 158 77
165 158 79
161 156 86
166 159 80
157 152 73
170 164 90
160 154 72
172 165 88
169 163 87
159 153 82
161 155 79
164 158 80
159 154 80
170 162 77
166 160 82
171 162 92
165 158 77
169 162 84
166 160 84
169 164 81
173 166 90
163 156 77
159 155 70
172 165 82
166 160 77
170 164 77
159 153 77
168 160 79
170 162 82
162 156 75
161 155 72
161 156 70
163 157 79
164 159 75
164 157 74
169 163 74
167 161 74
160 153 75
155 150 72
151 145 66
152 146 64
164 157 70
148 142 56
158 153 70
148 144 62
153 146 72
159 152 74
152 145 70
138 132 51
146 141 62
150 145 56
146 139 60
127 123 48
155 147 66
140 135 58
141 135 64
122 118 56
140 135 48
144 140 53
119 115 45
131 125 56
117 118 36
176 198 0
171 193 0
176 197 0
177 198 0
176 198 0
173 196 0
176 199 0
182 202 0
174 196 0
171 193 0
178 201 0
178 202 0
175 199 0
178 201 0
177 200 0
175 199 0
175 199 0
178 202 0
171 196 0
174 198 0
174 198 0
179 203 0
178 202 0
174 198 0
177 200 0
174 199 0
173 197 0
171 196 0
177 201 0
177 200 0
175 199 0
175 199 0
176 199 0
171 195 0
175 200 0
174 198 0
178 201 0
174 199 0
177 199 0
175 198 0
178 202 0
179 202 0
174 198 0
174 198 0
174 198 0
171 194 0
177 201 0
173 197 0
174 197 0
170 194 0
167 191 0
171 194 0
177 201 0
175 199 0
175 198 0
171 194 0
171 197 0
176 200 0
172 195 0
175 199 0
171 195 0
175 198 0
174 198 0
178 200 0
180 203 0
171 195 0
176 198 0
174 198 0
178 201 0
175 199 0
175 199 0
178 201 0
171 195 0
170 195 0
176 199 0
179 203 0
173 197 0
174 197 0
175 198 0
171 195 0
173 197 0
170 194 0
172 196 0
169 193 0
175 198 0
173 195 0
174 198 0
174 196 0
174 198 0
178 201 0
174 198 0
171 194 0
173 197 0
173 197 0
172 195 0
171 197 0
177 201 0
174 198 0
173 196 0
166 190 0
171 194 0
173 199 0
171 194 0
170 195 0
174 196 0
175 198 0
171 194 0
178 202 0
176 197 0
170 194 0
171 195 0
170 194 0
173 197 0
175 198 0
174 198 0
174 199 0
177 200 0
174 197 0
173 196 0
172 196 0
174 196 0
168 191 0
173 196 0
169 193 0
168 190 0
167 190 43
66 97 152
59 93 160
59 93 159
61 96 166
61 97 169
60 96 161
62 98 168
62 98 171
60 96 163
61 97 171
62 98 175
61 97 171
62 98 174
61 98 170
62 98 173
62 99 176
62 98 173
63 99 169
61 97 175
61 98 173
61 97 171
61 97 173
61 98 174
61 98 178
62 99 180
62 98 176
62 98 176
62 99 176
62 99 179
61 98 173
61 98 174
62 99 175
61 98 178
62 99 176
62 99 177
62 99 176
61 98 174
61 98 177
62 99 174
61 98 176
62 99 178
61 98 178
61 98 174
62 98 174
62 99 178
61 98 172
61 98 173
61 98 176
62 98 178
62 99 178
62 99 176
62 99 180
61 98 179
63 100 174
62 98 175
62 98 175
62 98 175
62 99 176
62 99 177
62 98 176
61 98 177
62 98 176
61 98 175
62 98 176
62 99 172
63 99 179
62 99 178
63 99 177
61 97 174
62 99 178
62 99 178
61 98 176
61 98 174
62 99 178
61 98 170
62 99 174
62 99 174
61 98 174
61 98 177
61 98 178
62 99 180
62 99 178
62 99 174
62 99 178
62 99 178
63 100 180
63 100 178
62 98 178
61 98 176
61 98 176
61 98 174
62 99 178
62 99 178
62 99 178
60 97 172
63 100 178
63 99 174
61 98 178
61 98 174
62 99 180
62 99 179
62 99 178
61 99 178
62 99 178
61 98 177
62 99 180
62 99 174
61 98 170
62 99 174
62 99 176
61 98 171
62 99 176
61 98 173
62 99 177
62 98 174
61 98 171
61 98 178
61 98 176
62 99 174
62 98 173
62 98 172
62 98 175
62 99 175
62 99 178
63 100 178
62 98 168
62 99 176
62 99 176
62 98 166
63 99 170
63 99 168
62 98 168
61 98 169
63 99 174
63 99 178
62 98 174
61 97 176
63 99 170
62 99 171
62 98 174
62 99 177
61 98 172
61 98 176
62 99 171
62 98 171
61 97 167
62 99 172
61 97 160
62 99 171
61 98 170
62 99 176
62 99 176
62 98 167
62 98 169
62 98 172
61 97 165
61 96 164
61 98 168
62 98 167
61 96 166
62 98 156
61 95 161
60 95 158
61 96 152
60 95 161
60 94 155
58 92 155
54 85 143
92 96 76
89 92 56
97 98 64
96 97 56
101 102 57
96 98 59
106 106 64
110 111 67
110 109 58
118 118 67
109 110 61
125 125 64
127 124 70
125 126 76
123 122 70
104 107 65
118 117 63
112 114 61
133 133 74
130 128 68
137 135 74
129 127 64
128 128 77
142 140 82
153 149 79
149 145 79
149 146 77
144 141 81
133 131 73
133 131 73
161 157 85
153 149 84
160 155 80
161 154 83
154 150 88
167 162 84
162 156 85
151 146 82
157 152 78
149 146 76
159 154 84
165 158 88
168 161 83
152 148 76
155 152 91
162 156 87
163 157 80
159 153 79
162 157 82
165 159 79
171 165 88
163 157 83
163 157 86
169 162 82
161 157 70
167 161 84
168 161 75
168 160 85
161 156 76
158 153 70
173 167 84
167 161 87
175 167 90
163 158 82
167 160 80
168 163 77
166 160 82
175 168 87
166 161 75
164 159 70
165 157 75
166 160 84
160 153 77
162 155 80
161 154 77
159 154 64
159 152 72
152 145 68
163 156 82
165 159 70
161 154 62
149 145 64
152 147 66
158 151 74
168 159 75
161 155 75
154 148 64
155 150 66
147 142 58
155 150 64
142 138 56
153 147 66
151 145 72
131 126 51
149 143 64
161 153 77
145 138 60
130 126 51
140 134 51
145 140 58
130 125 56
139 134 48
130 125 51
128 122 51
130 124 51
160 172 36
170 190 0
173 195 0
176 200 0
176 199 0
174 197 0
173 193 0
174 196 0
171 195 0
176 196 0
173 196 0
174 198 0
174 197 0
172 197 0
169 195 0
178 202 0
176 200 0
173 198 0
176 200 0
172 196 0
175 200 0
178 201 0
173 197 0
175 199 0
174 198 0
174 198 0
180 202 0
172 195 0
178 201 0
177 201 0
176 200 0
177 202 0
173 197 0
178 201 0
177 201 0
176 199 0
176 199 0
176 200 0
173 199 0
172 195 0
177 200 0
175 200 0
181 204 0
178 201 0
173 198 0
174 198 0
179 202 0
175 198 0
174 197 0
171 195 0
173 197 0
174 199 0
177 200 0
177 201 0
172 196 0
175 198 0
174 198 0
171 195 0
176 198 0
172 197 0
179 201 0
177 201 0
178 201 0
172 196 0
174 197 0
178 201 0
177 201 0
175 198 0
175 199 0
175 198 0
174 197 0
171 194 0
171 196 0
176 200 0
174 197 0
180 203 0
175 199 0
177 200 0
176 200 0
173 197 0
169 191 0
177 200 0
172 197 0
173 197 0
173 196 0
171 194 0
173 197 0
169 193 0
167 191 0
173 197 0
172 196 0
173 196 0
175 198 0
174 198 0
169 194 0
174 198 0
173 195 0
171 194 0
172 195 0
171 195 0
176 199 0
172 196 0
174 198 0
171 195 0
167 190 0
172 196 0
171 193 0
173 196 0
173 197 0
170 194 0
173 197 0
172 196 0
173 197 0
171 193 0
169 193 0
174 198 0
169 191 0
175 199 0
171 194 0
172 197 0
169 194 0
173 197 0
168 190 0
174 197 0
171 193 0
175 199 0
127 152 102
58 92 152
59 94 164
60 95 161
61 97 165
61 96 169
61 97 166
61 97 169
61 98 165
63 99 171
62 98 171
61 98 160
63 99 163
63 99 170
62 98 170
60 96 168
62 98 170
61 98 172
62 99 170
63 100 170
61 98 172
61 98 176
62 99 178
62 98 176
61 98 170
62 99 172
62 98 175
61 97 172
61 98 178
61 98 173
63 99 174
62 99 178
62 99 178
62 99 176
62 99 179
62 98 172
62 98 174
62 99 176
62 99 176
61 98 178
63 99 178
63 99 180
61 98 176
61 98 175
62 99 178
61 98 177
61 98 174
62 98 174
62 99 178
61 98 174
61 98 175
62 99 176
62 99 178
61 98 176
63 100 178
61 98 172
62 99 176
61 98 174
62 98 179
62 99 179
62 99 174
62 99 170
62 99 178
61 98 176
62 98 174
62 99 178
61 98 169
63 99 178
61 97 176
61 99 176
62 99 178
62 99 176
63 100 177
62 99 172
62 98 174
62 98 174
62 99 178
62 98 164
62 99 174
63 99 175
62 99 180
61 98 178
61 98 176
62 99 173
62 99 180
62 99 176
62 99 180
61 98 170
62 98 176
61 97 164
61 98 176
62 99 179
62 98 178
62 99 177
62 98 174
62 98 174
62 98 174
63 100 179
62 99 176
62 99 176
61 99 175
62 99 176
62 99 179
62 99 174
61 98 173
60 97 172
62 98 179
63 99 178
62 98 178
62 99 172
63 100 176
62 99 178
63 99 176
62 99 176
62 99 172
63 99 176
62 99 179
62 99 175
61 98 176
61 98 180
62 100 167
62 99 178
62 99 173
62 99 174
61 99 176
62 99 176
63 100 178
62 99 173
62 98 170
62 99 175
61 98 171
62 99 178
62 99 177
62 98 169
62 98 176
63 99 174
63 100 178
62 99 168
61 97 166
61 98 163
62 99 176
61 98 169
62 99 178
62 99 171
62 99 171
63 100 174
60 96 164
62 99 174
61 97 170
62 98 171
62 98 170
62 98 166
62 98 167
61 98 165
63 100 171
61 97 171
61 98 167
61 97 162
61 97 168
62 98 170
62 97 162
62 98 166
60 95 159
60 95 154
60 96 165
61 96 159
60 95 165
59 93 156
55 87 145
71 90 116
76 82 51
87 90 59
92 93 59
89 92 56
92 95 55
99 101 59
106 108 63
85 89 63
111 111 60
113 115 63
120 121 63
124 123 62
123 122 68
113 115 66
116 116 66
125 123 72
130 127 66
129 126 73
134 132 75
138 136 72
125 124 62
142 139 77
144 143 87
141 139 69
149 145 86
140 136 83
148 145 69
150 145 68
147 144 78
157 153 81
148 145 75
159 154 84
151 148 78
140 137 71
158 154 77
150 147 82
158 154 78
154 150 76
158 154 71
166 160 90
155 150 70
139 136 74
155 150 73
162 156 75
163 157 84
161 156 67
160 155 84
168 161 79
147 143 70
162 157 84
165 159 79
169 162 88
166 159 80
162 155 80
172 164 85
162 156 72
162 156 71
167 161 75
165 160 78
157 152 72
165 160 75
174 167 75
161 154 75
156 150 73
171 165 79
163 155 79
157 152 72
159 153 77
172 165 72
170 163 85
153 147 58
166 159 80
150 144 66
166 159 79
154 147 75
166 158 77
154 149 66
148 142 58
165 159 79
164 157 84
143 138 60
156 150 68
158 151 66
155 149 74
158 150 77
157 151 62
148 143 70
153 147 62
151 145 68
154 148 66
142 136 66
140 135 58
150 143 68
140 135 53
144 139 56
146 139 64
144 139 60
143 138 56
144 137 64
132 127 56
145 139 60
134 128 56
126 121 42
125 120 45
170 191 0
175 195 0
171 192 0
175 196 0
175 197 0
177 199 0
176 197 0
175 194 0
174 197 0
173 195 0
175 195 0
170 194 0
175 199 0
179 202 0
170 194 0
179 202 0
181 204 0
177 201 0
179 202 0
172 197 0
176 200 0
176 200 0
178 202 0
173 197 0
180 203 0
171 195 0
171 195 0
175 198 0
173 196 0
176 200 0
174 199 0
175 198 0
175 199 0
177 202 0
174 198 0
176 200 0
176 199 0
173 198 0
177 200 0
176 200 0
174 198 0
177 199 0
176 199 0
174 198 0
174 198 0
180 202 0
178 201 0
178 200 0
179 202 0
175 198 0
179 201 0
170 195 0
174 199 0
173 197 0
173 198 0
177 201 0
176 200 0
174 198 0
175 199 0
172 196 0
174 198 0
171 195 0
177 200 0
177 200 0
176 199 0
175 198 0
175 199 0
173 197 0
173 196 0
171 194 0
178 201 0
179 203 0
173 196 0
174 197 0
171 193 0
175 197 0
177 199 0
170 193 0
174 197 0
174 199 0
171 194 0
176 200 0
168 191 0
172 196 0
175 197 0
178 201 0
170 194 0
173 197 0
172 197 0
171 195 0
173 198 0
175 199 0
175 199 0
178 201 0
172 196 0
175 198 0
173 195 0
176 198 0
175 198 0
175 197 0
171 193 0
174 198 0
166 187 0
173 197 0
172 195 0
164 188 0
175 199 0
173 196 0
171 194 0
162 186 0
171 195 0
168 191 0
167 190 0
173 196 0
173 197 0
174 196 0
174 195 0
170 191 0
167 189 0
170 194 0
174 197 0
166 188 0
173 197 0
164 185 0
167 192 0
172 196 21
66 96 148
57 91 153
59 94 168
60 95 154
61 96 157
62 97 170
60 95 158
61 98 165
62 98 175
61 97 162
61 98 172
62 99 168
63 99 175
61 97 166
62 99 174
62 98 170
62 99 169
62 98 173
62 98 172
60 97 174
61 97 171
62 99 176
61 98 176
63 99 173
62 98 176
61 98 174
62 98 170
62 98 173
62 99 176
63 99 179
62 99 174
61 98 172
61 98 171
62 99 174
62 99 176
61 98 174
62 99 176
61 98 172
62 99 170
61 98 170
61 97 172
62 98 171
62 99 177
61 98 174
62 98 172
62 99 176
62 99 180
62 99 177
62 98 176
63 100 180
62 99 178
62 99 174
62 99 178
63 100 172
62 99 176
62 99 176
62 99 178
63 99 175
63 99 178
62 99 180
62 99 176
62 98 174
62 99 179
62 99 179
62 99 176
61 98 178
63 99 178
62 98 174
62 99 176
62 99 177
62 99 172
64 100 176
62 99 178
61 98 178
62 99 174
62 98 177
62 99 178
63 99 176
61 98 172
62 99 178
62 99 176
62 98 174
62 99 178
62 99 176
61 99 178
63 100 180
61 98 173
62 99 178
63 100 173
62 99 176
61 98 174
62 99 178
62 99 178
62 99 176
62 98 177
62 98 174
61 98 175
62 99 174
61 98 177
62 99 174
62 99 176
62 98 174
63 100 180
63 99 176
63 100 177
62 99 176
62 99 169
61 98 173
62 98 171
64 100 170
62 98 177
61 98 172
62 98 174
62 99 174
62 99 175
63 99 180
63 99 180
62 99 176
61 98 174
62 98 171
63 99 175
62 99 178
63 100 174
62 99 174
62 99 174
61 98 172
62 99 177
61 98 161
62 99 178
61 98 174
62 99 172
63 99 177
62 99 177
61 97 167
61 98 173
61 98 169
62 99 174
62 98 170
62 99 176
62 99 173
62 99 174
63 100 177
61 98 172
61 98 173
61 97 165
61 98 174
63 99 176
62 98 169
63 99 167
61 97 165
61 98 165
62 98 168
62 98 172
62 98 170
61 97 163
62 98 170
62 99 172
61 97 164
62 98 171
60 96 167
62 98 164
62 98 165
60 96 160
60 96 165
60 95 159
61 95 162
59 93 149
57 90 156
57 90 153
59 87 137
91 93 55
81 82 53
75 79 51
96 98 49
99 100 49
94 96 60
93 96 58
88 90 55
106 107 63
119 116 58
100 103 58
107 108 61
126 125 76
121 120 75
127 126 75
138 134 80
129 129 59
132 130 74
137 134 71
129 127 66
148 144 72
140 137 77
140 138 77
152 147 83
148 144 75
135 131 71
134 132 73
138 136 72
137 135 72
150 146 76
150 147 69
151 146 76
149 145 74
145 141 67
143 139 71
160 154 82
147 144 70
157 152 84
158 153 84
159 154 86
166 162 84
162 157 77
153 149 68
153 149 75
165 160 86
173 166 83
160 153 84
169 163 84
156 151 70
159 154 79
156 152 72
167 161 85
169 163 85
170 163 84
160 156 80
166 159 80
164 157 82
156 150 68
171 163 87
169 162 84
168 160 84
166 159 78
168 162 80
161 155 70
160 154 72
167 160 80
158 152 72
167 160 75
164 159 80
165 159 79
170 163 77
168 162 82
153 148 66
165 159 72
155 148 75
166 159 82
162 156 80
163 157 77
164 158 72
164 158 72
156 148 72
159 152 75
161 154 74
153 147 70
161 154 70
158 153 75
162 154 77
153 148 74
155 149 66
150 145 60
154 147 62
160 152 75
143 137 60
144 138 62
146 140 53
135 130 56
147 140 56
140 137 56
133 128 60
145 139 58
125 120 48
135 130 62
131 125 51
132 142 39
169 189 0
174 194 0
173 194 0
175 198 0
174 195 0
173 193 0
175 199 0
173 195 0
176 196 0
174 194 0
175 195 0
176 200 0
174 198 0
179 201 0
177 201 0
177 200 0
178 201 0
172 197 0
174 199 0
173 195 0
176 200 0
176 201 0
175 199 0
177 200 0
178 202 0
173 197 0
173 198 0
177 200 0
174 198 0
177 200 0
170 195 0
176 200 0
176 198 0
178 202 0
177 201 0
177 200 0
175 199 0
176 200 0
177 199 0
176 200 0
176 199 0
170 194 0
175 198 0
178 202 0
175 199 0
174 198 0
174 198 0
175 198 0
175 199 0
179 201 0
177 200 0
170 193 0
170 194 0
172 197 0
175 199 0
175 198 0
173 197 0
175 200 0
174 196 0
171 194 0
178 201 0
172 197 0
172 196 0
174 197 0
166 190 0
173 197 0
165 190 0
177 200 0
172 196 0
171 195 0
170 194 0
170 195 0
177 201 0
168 192 0
177 200 0
177 200 0
177 200 0
176 200 0
179 202 0
168 192 0
175 200 0
169 193 0
170 195 0
176 198 0
177 201 0
170 193 0
176 200 0
174 198 0
173 196 0
175 198 0
174 198 0
177 199 0
171 195 0
170 194 0
174 198 0
178 200 0
177 201 0
172 197 0
174 197 0
169 193 0
171 193 0
176 199 0
172 196 0
175 199 0
170 193 0
174 197 0
173 197 0
171 195 0
171 194 0
175 197 0
172 196 0
168 193 0
170 192 0
171 194 0
164 187 0
168 193 0
168 191 0
179 202 0
171 193 0
178 200 0
171 193 0
168 191 0
172 195 0
175 198 0
174 196 0
134 158 99
57 90 151
59 94 155
60 95 163
59 95 161
61 97 168
60 96 164
61 97 167
61 97 167
62 98 169
62 98 171
61 97 166
61 98 171
62 99 175
62 98 168
62 98 168
62 98 172
62 98 174
61 97 166
62 98 172
61 97 164
63 99 170
62 99 175
61 98 174
61 98 172
62 99 174
61 97 158
62 99 174
62 99 174
62 98 176
62 98 174
63 100 177
61 98 174
61 98 174
62 99 180
62 99 176
63 99 174
61 98 174
62 98 173
62 99 179
62 99 170
62 98 170
62 98 172
62 99 176
62 99 177
62 99 170
62 99 176
62 98 177
63 100 174
62 99 176
62 98 175
62 99 172
62 98 174
62 99 178
61 98 173
61 98 177
62 99 176
62 98 174
61 99 176
62 98 176
62 99 176
61 98 172
62 99 179
61 98 178
61 98 176
61 98 175
62 98 174
62 99 178
62 99 180
62 99 178
61 98 174
61 98 176
62 98 168
62 98 173
61 98 174
63 100 176
61 98 172
62 99 178
62 99 176
62 99 180
62 99 178
62 99 178
61 98 177
62 99 174
62 98 175
63 100 178
61 98 180
61 98 174
62 99 178
61 98 176
62 99 176
61 98 176
62 99 173
62 99 178
63 99 176
62 99 175
61 98 176
62 98 176
61 97 166
62 99 176
61 98 174
61 98 168
62 99 176
62 98 175
62 98 176
62 98 172
62 98 176
62 99 178
61 98 172
62 99 176
62 99 179
62 99 176
62 99 174
62 99 170
61 98 174
62 98 176
62 99 176
62 99 173
63 99 180
61 98 173
63 99 178
62 99 174
63 99 174
61 98 176
62 99 180
61 98 174
62 98 173
62 99 178
63 100 172
62 99 172
62 98 172
63 99 176
61 98 175
62 98 175
63 100 178
62 99 172
63 100 180
63 100 177
62 98 174
62 98 167
62 98 174
62 97 165
62 99 172
61 98 170
62 98 170
61 98 168
61 98 174
62 99 172
62 98 168
62 98 172
62 99 163
61 97 161
61 98 170
62 98 163
61 97 169
62 98 170
60 97 163
61 98 156
61 97 167
61 97 157
62 98 162
62 97 164
62 98 171
62 98 171
63 98 171
61 98 168
60 95 150
62 98 168
60 94 153
59 93 155
56 87 142
65 82 111
88 91 53
88 91 55
98 102 52
94 97 55
92 98 55
95 97 61
79 84 49
99 102 64
103 105 58
116 115 65
113 115 66
130 128 73
131 130 80
111 113 70
132 131 72
134 131 74
137 135 73
115 116 62
131 128 60
153 149 85
144 143 76
143 140 75
115 116 75
137 133 71
143 138 72
137 134 71
143 140 60
142 141 66
142 139 69
144 140 78
150 146 73
157 152 84
149 144 72
149 146 77
157 152 83
160 154 88
153 150 77
160 155 80
150 146 77
161 155 84
171 163 95
161 154 80
158 153 79
151 148 64
166 161 90
164 159 76
170 164 81
156 149 72
164 159 74
170 164 79
174 167 82
170 164 84
142 137 65
159 154 60
156 150 74
170 163 80
159 154 71
162 155 80
172 164 83
159 153 75
162 155 70
172 164 85
169 163 79
161 154 74
163 157 74
162 155 75
160 153 72
160 153 74
161 154 74
166 159 79
163 157 77
152 146 70
153 147 64
162 155 68
164 158 72
152 149 62
155 151 58
146 140 64
156 152 62
149 143 58
159 152 60
152 145 72
156 150 66
157 149 72
155 150 64
155 149 62
141 137 53
156 150 64
152 147 64
149 142 64
157 151 60
144 138 56
134 130 51
149 143 64
134 128 48
141 137 51
123 118 36
129 123 51
124 120 53
134 129 48
125 121 48
124 118 51
146 159 0
177 198 0
174 193 0
172 192 0
174 194 0
176 198 0
175 197 0
175 199 0
172 192 0
169 190 0
173 194 0
174 197 0
172 198 0
174 198 0
179 202 0
176 199 0
173 197 0
175 199 0
174 198 0
173 196 0
172 196 0
176 200 0
173 197 0
172 196 0
180 203 0
173 197 0
176 199 0
173 197 0
176 199 0
171 195 0
177 200 0
174 197 0
177 201 0
175 198 0
178 201 0
174 197 0
176 199 0
175 200 0
179 202 0
180 204 0
180 203 0
173 198 0
176 200 0
177 199 0
168 193 0
171 194 0
174 198 0
174 197 0
180 204 0
170 195 0
178 202 0
177 202 0
172 197 0
178 202 0
175 199 0
179 203 0
177 200 0
176 199 0
173 197 0
175 199 0
175 199 0
176 199 0
176 199 0
169 192 0
173 197 0
171 195 0
176 199 0
175 198 0
180 202 0
172 196 0
171 195 0
175 200 0
174 196 0
174 198 0
170 194 0
170 194 0
174 197 0
171 196 0
172 196 0
177 200 0
171 195 0
170 195 0
178 200 0
176 200 0
174 198 0
172 196 0
176 198 0
169 194 0
176 199 0
170 195 0
175 198 0
171 195 0
164 188 0
168 190 0
171 196 0
171 196 0
176 199 0
171 194 0
176 199 0
171 194 0
173 196 0
173 196 0
173 197 0
168 191 0
171 193 0
173 197 0
175 199 0
169 193 0
174 197 0
178 201 0
173 196 0
176 200 0
167 191 0
177 200 0
173 198 0
168 192 0
172 195 0
177 200 0
177 200 0
180 203 0
176 200 0
174 198 0
172 196 0
166 189 0
174 197 0
177 200 0
80 107 135
57 91 149
59 94 160
59 94 157
62 97 171
61 97 158
62 97 168
61 97 169
61 97 165
62 98 165
60 97 169
61 97 169
62 99 172
62 99 164
61 98 160
62 98 166
61 98 170
61 97 156
61 98 170
62 98 170
62 98 172
61 98 169
62 99 172
62 98 169
62 99 174
61 98 171
62 98 172
61 98 175
61 98 169
62 99 175
62 99 176
62 98 169
63 99 174
62 98 167
61 98 176
62 99 171
62 99 176
62 98 174
63 99 176
63 99 178
62 99 178
62 99 177
62 99 173
62 99 173
62 99 178
62 99 176
63 99 176
61 98 172
61 98 178
63 99 174
62 99 178
61 98 173
61 98 177
62 99 174
61 98 176
61 98 170
62 99 165
62 99 174
62 99 174
62 99 176
62 99 177
62 99 176
63 99 175
62 98 173
62 99 178
62 98 174
62 99 178
62 99 178
62 99 175
62 99 178
62 99 178
62 99 177
62 99 174
62 99 180
61 98 175
63 99 176
61 98 176
61 98 178
61 98 168
61 98 173
62 99 172
62 99 176
61 98 176
61 98 175
62 99 178
63 99 180
62 98 177
61 98 178
62 99 176
63 99 174
62 99 179
62 99 173
62 98 176
61 98 167
62 99 177
62 99 176
62 99 174
61 98 172
61 98 172
62 99 178
62 98 172
62 98 172
62 99 173
62 98 172
61 98 178
62 99 176
62 99 178
62 98 178
62 99 178
62 99 176
62 99 165
62 98 174
62 99 172
64 100 174
62 99 172
63 100 176
61 98 172
61 98 176
61 98 176
62 99 172
61 98 172
62 99 178
61 98 174
62 99 176
63 99 172
61 98 170
62 99 179
62 99 176
62 99 176
61 98 169
62 98 168
61 98 170
61 98 168
62 99 176
62 99 174
62 99 171
62 99 177
62 98 174
62 99 173
63 100 174
62 98 172
63 100 174
62 99 166
63 99 173
62 99 176
63 99 169
61 98 171
62 99 174
63 100 180
63 100 178
63 99 180
62 98 164
62 98 170
62 99 172
62 98 170
63 99 170
62 98 154
62 99 172
62 99 170
61 97 161
62 98 172
62 99 169
62 97 165
60 95 158
62 98 168
60 96 154
61 97 168
61 96 160
59 94 157
58 91 152
57 90 155
68 91 134
74 78 51
92 93 50
89 91 48
92 96 51
91 95 57
77 83 55
103 103 57
107 107 56
107 109 61
121 120 65
106 105 58
135 134 68
125 123 65
126 126 74
127 127 66
125 124 69
123 122 70
133 132 65
137 136 70
126 124 65
140 137 65
139 137 74
143 141 81
148 145 72
135 133 72
149 145 74
144 140 76
149 144 76
149 145 80
161 154 82
157 152 82
162 156 84
161 156 74
158 153 81
145 142 60
153 148 77
162 156 78
167 161 91
150 145 80
157 152 78
161 154 74
159 153 75
162 157 81
161 155 76
156 151 80
165 159 75
158 154 80
159 153 65
159 153 72
166 159 76
167 160 84
167 161 80
171 164 87
161 154 77
163 158 84
165 160 83
162 155 75
169 162 74
159 152 72
167 161 66
153 146 68
151 147 60
168 161 90
160 153 77
154 148 66
155 149 62
155 150 72
153 149 70
164 157 77
152 147 72
162 157 79
162 155 66
161 156 74
158 152 74
163 156 77
148 141 68
152 147 60
162 155 75
151 146 64
156 151 68
154 147 66
152 147 58
147 142 68
158 152 64
153 147 62
150 143 58
154 147 68
157 151 72
147 142 62
149 142 66
147 141 58
147 140 58
149 144 60
133 129 42
141 135 60
140 134 53
135 129 56
144 138 51
133 129 39
125 120 42
122 116 45
126 124 36
176 199 0
172 193 0
174 195 0
173 195 0
171 191 0
175 197 0
173 193 0
175 196 0
180 200 0
178 198 0
173 192 0
172 193 0
176 201 0
178 202 0
176 200 0
172 198 0
167 192 0
176 198 0
173 198 0
175 198 0
174 199 0
173 196 0
177 200 0
177 201 0
173 196 0
175 200 0
178 201 0
173 198 0
173 197 0
173 197 0
173 197 0
174 198 0
171 196 0
173 197 0
175 200 0
175 199 0
174 198 0
172 195 0
173 196 0
175 198 0
170 195 0
171 196 0
173 197 0
177 201 0
177 201 0
174 197 0
169 192 0
172 195 0
174 198 0
174 198 0
176 200 0
177 200 0
176 199 0
172 196 0
174 199 0
168 193 0
174 197 0
175 199 0
173 197 0
173 196 0
169 194 0
177 200 0
174 198 0
173 196 0
175 199 0
176 199 0
178 201 0
167 191 0
175 199 0
178 202 0
169 193 0
177 201 0
174 197 0
174 198 0
177 200 0
177 201 0
166 191 0
173 197 0
176 198 0
174 198 0
171 194 0
169 193 0
173 196 0
175 199 0
174 198 0
177 200 0
171 196 0
169 192 0
174 197 0
177 200 0
168 191 0
168 193 0
170 195 0
175 198 0
173 196 0
176 199 0
168 192 0
174 198 0
172 195 0
171 194 0
173 196 0
178 201 0
171 195 0
171 194 0
175 199 0
175 198 0
172 194 0
175 198 0
166 188 0
168 191 0
170 193 0
175 198 0
168 191 0
166 190 0
171 195 0
170 193 0
171 195 0
171 195 0
174 198 0
172 196 0
170 194 0
168 191 0
170 193 0
173 195 0
170 193 0
149 172 76
55 88 142
59 93 153
59 93 147
62 97 156
61 96 165
60 96 160
60 96 152
62 98 169
62 98 171
60 96 162
61 96 160
62 99 170
63 99 174
63 100 170
62 99 168
61 97 168
62 98 170
61 97 161
62 98 166
62 99 174
62 98 168
62 98 168
64 101 176
62 99 168
62 98 174
62 99 172
61 98 176
62 98 172
62 98 167
61 98 172
62 98 172
62 98 172
61 98 171
62 99 172
61 98 172
62 99 174
62 99 178
62 99 178
62 99 174
62 99 176
62 98 172
62 98 172
62 99 175
61 98 173
62 99 174
62 99 175
62 99 176
62 99 173
62 98 171
61 98 174
61 99 175
62 99 178
63 99 174
61 98 172
63 100 180
62 99 178
61 98 176
61 98 176
61 98 174
61 98 180
62 99 176
62 99 176
62 99 178
62 99 178
62 98 177
63 99 176
62 99 179
62 98 174
62 99 174
62 99 178
62 99 178
63 99 178
63 99 178
61 98 179
63 99 176
61 98 174
62 99 176
61 98 176
62 99 178
61 98 177
62 99 174
61 98 172
62 99 176
62 98 178
62 98 177
62 99 176
62 99 174
62 99 178
62 99 172
62 99 176
62 98 173
62 99 176
63 100 178
62 99 177
62 99 177
62 99 176
62 99 177
61 98 178
63 100 178
62 99 175
62 99 176
62 99 178
63 100 174
62 99 176
61 98 172
61 98 172
62 98 177
61 98 171
63 100 180
62 98 176
61 97 173
62 99 172
62 99 178
61 98 171
62 98 174
62 99 171
62 98 173
63 99 178
61 98 174
62 98 172
62 99 169
63 99 176
61 98 173
61 98 174
61 98 170
63 100 172
62 99 178
62 98 175
63 99 171
62 98 174
63 100 174
61 98 172
62 99 170
62 99 180
62 99 171
62 99 166
62 99 172
62 98 167
62 99 169
62 98 171
61 98 176
61 98 172
62 99 174
62 98 170
62 99 171
63 99 174
62 99 171
62 98 168
63 99 169
62 99 174
62 99 161
62 99 172
63 99 172
63 99 165
61 98 169
62 98 169
61 97 165
62 98 171
63 99 173
62 98 166
62 99 164
61 97 167
62 97 164
63 98 164
62 98 169
61 96 165
60 95 160
60 96 165
59 94 151
60 94 163
58 92 156
56 89 143
82 89 79
89 91 55
91 93 54
92 94 55
100 102 49
117 116 64
109 108 66
105 106 57
122 122 64
103 104 51
107 109 57
106 108 56
124 123 68
107 110 53
102 103 64
121 120 65
127 126 62
105 105 52
132 128 64
141 138 73
124 123 55
131 130 63
138 136 62
126 124 68
137 134 62
136 132 66
126 125 65
145 142 73
162 156 85
140 138 68
149 145 75
155 150 73
142 139 73
163 158 81
165 160 77
151 146 70
159 155 66
159 153 80
156 151 74
158 153 67
164 158 76
166 158 87
154 149 77
152 146 75
160 154 78
165 158 77
157 152 83
164 159 70
170 162 82
164 157 74
158 153 62
166 159 91
151 146 74
163 156 80
162 156 72
171 164 75
163 156 82
162 155 80
163 157 75
161 156 74
159 152 70
166 161 74
167 161 75
170 163 75
156 151 75
163 157 70
173 166 85
161 154 62
164 157 70
162 155 75
167 161 72
159 154 72
161 155 70
157 151 70
168 161 75
152 146 64
159 153 68
159 154 62
149 143 58
155 149 68
145 140 62
145 139 62
145 142 51
154 149 62
148 142 53
148 143 60
134 128 53
154 147 70
144 137 56
148 144 48
143 139 56
140 134 51
144 137 53
140 136 58
146 138 58
143 137 51
136 131 53
149 142 62
133 128 48
137 131 56
142 135 68
157 166 32
171 191 0
172 193 0
173 195 0
171 192 0
168 187 0
174 194 0
173 194 0
171 193 0
173 197 0
169 191 0
174 192 0
181 203 0
176 199 0
174 199 0
172 197 0
177 200 0
170 194 0
176 200 0
172 197 0
173 197 0
178 201 0
179 202 0
175 198 0
175 199 0
174 198 0
175 198 0
178 201 0
175 198 0
178 201 0
176 200 0
173 198 0
177 201 0
178 201 0
173 196 0
174 197 0
177 200 0
178 202 0
175 198 0
175 197 0
179 200 0
175 199 0
173 197 0
172 196 0
174 199 0
176 200 0
171 195 0
178 201 0
171 195 0
166 190 0
174 197 0
178 201 0
176 199 0
175 199 0
173 197 0
177 200 0
171 194 0
174 199 0
174 197 0
171 194 0
172 195 0
175 199 0
176 201 0
174 197 0
173 196 0
172 196 0
177 200 0
174 197 0
172 197 0
171 195 0
172 196 0
169 193 0
170 194 0
168 192 0
177 200 0
173 196 0
174 198 0
177 200 0
171 195 0
174 197 0
171 194 0
173 198 0
174 198 0
171 195 0
175 198 0
172 196 0
176 200 0
172 195 0
174 198 0
166 190 0
175 199 0
172 196 0
169 193 0
170 193 0
170 193 0
175 198 0
179 203 0
169 191 0
175 199 0
174 197 0
173 197 0
171 194 0
168 192 0
175 198 0
171 196 0
168 192 0
172 197 0
173 197 0
172 195 0
173 196 0
168 193 0
170 194 0
168 192 0
172 197 0
172 196 0
168 192 0
175 198 0
170 193 0
173 196 0
169 192 0
169 192 0
169 191 0
166 190 0
170 193 0
164 187 0
173 197 0
109 134 120
58 92 153
59 93 150
59 94 156
61 96 156
60 96 164
61 97 168
61 97 165
60 96 165
62 98 165
62 98 173
61 98 172
63 99 172
63 99 178
62 98 168
61 98 170
61 98 163
61 98 170
62 99 168
62 99 173
61 97 168
62 99 175
62 99 168
63 99 170
62 99 172
63 99 176
63 99 178
61 98 166
62 99 178
62 99 173
62 98 176
62 98 171
62 99 173
63 99 178
62 99 171
62 99 173
62 99 178
62 99 178
62 98 172
62 99 175
62 99 176
62 98 174
62 99 175
61 98 175
61 97 174
62 99 180
62 98 174
62 99 176
62 99 174
61 98 176
62 99 176
61 98 176
62 99 175
62 99 180
62 99 174
62 99 172
63 100 174
62 99 176
61 98 178
62 98 174
62 99 176
62 99 176
62 99 176
62 98 170
61 98 167
61 97 173
62 99 173
62 99 174
61 98 172
62 98 174
62 99 173
63 99 176
61 98 178
61 98 176
61 98 176
62 99 177
62 99 176
61 98 176
62 99 174
62 99 178
62 99 174
63 99 176
62 99 177
62 98 178
62 99 176
63 99 178
61 98 177
62 99 176
62 99 176
62 99 178
62 99 173
61 98 176
62 98 176
62 99 176
62 99 175
62 98 170
62 98 175
62 99 178
62 99 180
61 98 177
61 98 177
62 99 178
61 97 171
63 100 169
62 98 173
61 98 172
61 98 174
62 99 178
61 98 175
61 98 172
62 99 176
61 98 173
62 99 178
62 99 178
61 98 172
61 97 166
62 99 170
62 99 176
62 98 173
62 99 175
62 99 172
62 98 175
62 99 170
61 98 176
63 100 180
61 98 169
62 98 172
62 99 176
62 99 171
62 99 172
63 100 178
62 99 176
62 98 172
63 100 173
61 98 169
63 100 176
61 97 168
62 99 175
63 99 170
61 98 172
62 99 172
62 98 170
62 98 165
61 98 171
62 99 171
62 99 178
62 98 170
61 98 164
62 97 161
62 98 176
62 98 176
62 99 168
62 98 165
61 98 159
61 97 166
62 98 172
62 99 167
59 95 150
62 99 170
61 98 166
62 98 168
61 97 156
60 97 158
61 97 156
62 96 159
62 98 167
61 97 169
61 97 172
59 94 156
59 93 158
60 95 163
58 91 154
56 88 138
61 81 102
80 85 49
88 91 50
87 90 53
92 94 49
92 93 57
110 110 58
105 106 65
116 117 70
121 119 64
95 97 59
119 120 55
100 103 55
140 136 69
125 125 64
114 115 67
124 124 65
132 130 63
132 129 70
126 125 68
143 141 67
137 134 68
137 135 65
149 144 72
152 147 71
149 145 66
139 136 76
134 131 69
146 143 70
145 141 74
146 143 71
151 147 72
152 149 76
147 142 68
154 149 73
147 143 75
152 147 76
146 142 68
158 152 76
161 156 70
156 150 67
156 151 71
159 153 76
156 153 74
157 151 71
151 146 64
165 158 72
170 162 81
162 156 72
160 155 70
162 155 80
165 158 82
162 157 79
164 158 80
156 150 73
164 157 76
166 159 80
157 151 68
164 158 76
158 152 75
159 153 64
170 162 80
162 156 68
171 165 77
159 153 77
161 154 79
149 143 68
164 157 66
160 154 66
152 146 62
160 154 74
151 146 60
154 149 64
159 153 62
156 150 68
157 152 68
155 149 66
157 152 68
148 143 60
155 149 70
158 150 68
156 150 62
153 145 74
143 137 60
137 132 60
148 143 56
150 145 64
149 142 74
152 147 60
138 134 60
137 132 51
151 144 66
140 136 56
130 126 56
121 116 48
134 130 45
138 133 53
138 133 58
128 124 39
127 121 58
115 115 36
172 190 0
176 196 0
171 193 0
171 194 0
175 197 0
172 195 0
176 197 0
171 192 0
174 196 0
174 195 0
167 188 0
172 194 0
171 192 0
176 198 0
170 194 0
176 200 0
175 198 0
177 201 0
179 203 0
177 201 0
175 199 0
172 195 0
175 198 0
173 198 0
171 194 0
173 197 0
173 197 0
177 200 0
175 199 0
176 199 0
173 196 0
175 198 0
177 200 0
179 202 0
179 202 0
173 196 0
172 197 0
169 193 0
175 199 0
174 197 0
174 198 0
174 197 0
176 199 0
175 199 0
171 196 0
177 201 0
174 199 0
173 198 0
178 201 0
172 196 0
174 199 0
169 193 0
178 202 0
175 198 0
176 199 0
176 200 0
172 196 0
175 198 0
170 195 0
172 196 0
172 196 0
172 196 0
174 199 0
176 200 0
174 199 0
170 194 0
180 203 0
175 199 0
176 200 0
175 198 0
174 198 0
173 197 0
171 195 0
175 198 0
175 199 0
171 196 0
171 195 0
171 195 0
171 194 0
171 195 0
175 199 0
173 196 0
172 196 0
170 194 0
169 192 0
178 202 0
173 197 0
176 198 0
169 192 0
172 194 0
175 199 0
174 196 0
173 196 0
172 195 0
172 197 0
173 195 0
168 190 0
176 198 0
164 188 0
175 200 0
173 194 0
167 191 0
168 193 0
170 191 0
174 198 0
174 197 0
171 195 0
171 196 0
171 195 0
171 195 0
174 198 0
171 195 0
171 195 0
171 194 0
171 195 0
176 199 0
171 193 0
173 197 0
171 196 0
172 195 0
170 193 0
171 193 0
169 193 0
171 195 0
178 199 0
167 191 41
66 96 143
57 90 150
60 95 161
60 96 167
60 96 157
61 96 168
61 96 161
60 97 166
61 97 165
61 97 171
62 98 167
62 99 173
62 98 171
62 98 172
62 98 170
62 99 170
61 97 164
62 98 174
61 98 172
62 98 166
64 100 174
62 99 174
63 100 176
60 97 170
63 99 174
62 98 165
60 97 166
61 98 171
63 100 172
61 97 168
62 98 169
62 99 178
61 98 173
62 99 178
62 98 168
62 98 175
62 99 174
62 99 175
62 99 172
62 99 178
62 99 176
63 99 171
61 98 170
61 98 173
61 97 170
62 99 172
63 99 174
62 99 176
62 99 176
62 99 176
61 98 174
62 99 179
62 99 169
62 98 173
61 98 174
63 99 178
61 98 179
62 99 171
62 98 178
62 99 176
63 99 177
62 98 171
62 98 176
62 99 171
62 99 176
62 98 168
61 98 172
62 98 176
61 98 167
62 98 172
61 97 164
62 99 173
61 98 176
62 99 176
62 99 180
61 98 172
61 98 176
63 99 172
62 99 178
62 99 174
63 100 175
63 100 172
61 98 173
62 99 174
63 99 176
61 98 176
62 99 177
62 99 174
61 98 170
62 99 166
61 99 177
60 97 174
62 99 180
61 98 175
61 98 176
62 99 174
63 100 170
63 100 176
62 99 180
62 99 178
63 100 176
61 98 167
62 99 174
63 99 173
62 99 178
62 99 174
62 99 176
63 99 175
62 99 173
62 98 166
63 99 173
61 98 171
63 100 176
61 98 169
62 99 176
60 97 176
62 98 172
61 98 171
62 99 176
61 98 172
61 98 173
62 99 176
61 98 166
61 97 168
62 99 170
61 98 171
61 98 178
63 99 172
63 99 178
63 99 176
63 99 174
61 98 174
61 98 169
61 98 172
62 98 169
61 98 169
62 98 173
62 98 165
61 98 171
62 99 167
62 99 171
63 99 174
62 99 175
61 98 167
62 99 173
61 98 166
61 97 164
63 100 176
60 97 172
61 98 163
62 98 169
62 99 163
63 99 170
63 100 176
62 99 172
63 100 174
62 99 170
63 99 169
62 98 167
61 97 162
63 99 162
61 96 155
62 98 162
62 98 169
62 97 162
62 98 167
61 97 163
59 93 153
62 98 162
60 95 156
60 95 157
58 91 144
58 90 142
55 87 140
92 95 61
99 99 46
89 92 55
92 94 47
103 103 51
108 108 61
114 113 54
98 100 49
104 105 65
99 101 52
108 107 60
107 109 48
129 129 78
119 119 59
114 114 62
124 122 66
133 130 65
131 130 64
123 122 66
137 136 71
147 145 66
131 128 72
134 133 64
120 120 52
144 141 81
145 143 74
145 142 73
148 145 72
142 139 62
151 147 69
142 139 62
163 157 88
142 139 65
143 139 67
160 155 76
161 155 80
153 148 79
155 149 70
157 152 75
164 159 78
146 142 64
148 144 69
145 141 68
152 148 66
163 158 77
154 149 75
171 165 80
164 158 77
157 152 72
158 153 76
165 159 80
155 151 75
160 154 68
161 155 63
168 162 74
160 154 64
167 160 74
157 152 53
163 157 78
155 149 69
156 151 68
162 157 72
165 159 68
165 158 68
158 150 64
164 157 80
158 150 72
157 150 64
161 154 75
161 153 70
160 152 75
161 153 79
161 153 68
155 149 70
155 147 74
141 136 48
157 149 64
163 156 75
159 153 62
160 154 68
157 149 72
133 128 51
160 154 75
147 142 60
156 150 53
155 148 62
142 137 48
153 147 64
141 136 53
148 142 64
139 133 60
149 143 48
125 121 42
137 131 58
127 121 56
133 128 48
136 129 60
138 133 42
129 124 53
138 145 39
171 191 0
176 197 0
169 191 0
172 193 0
171 192 0
177 199 0
174 197 0
176 197 0
177 196 0
171 193 0
175 197 0
176 199 0
169 190 0
176 200 0
175 198 0
175 199 0
176 199 0
180 202 0
172 196 0
173 196 0
177 200 0
171 194 0
175 198 0
170 194 0
173 197 0
173 195 0
167 191 0
172 196 0
178 201 0
172 197 0
176 200 0
172 195 0
172 196 0
173 196 0
176 201 0
175 199 0
176 199 0
173 198 0
172 194 0
173 197 0
174 197 0
171 194 0
176 200 0
173 197 0
173 198 0
173 197 0
175 199 0
176 199 0
176 200 0
173 197 0
177 201 0
167 191 0
171 196 0
176 200 0
175 198 0
172 196 0
178 201 0
178 202 0
174 198 0
173 197 0
176 199 0
175 197 0
174 197 0
168 192 0
173 196 0
172 195 0
172 195 0
171 196 0
173 196 0
171 196 0
174 197 0
173 196 0
173 197 0
172 196 0
174 198 0
174 197 0
174 197 0
169 193 0
176 199 0
175 198 0
173 196 0
170 194 0
171 195 0
170 193 0
174 198 0
175 199 0
173 196 0
174 199 0
171 194 0
182 203 0
175 199 0
170 194 0
173 195 0
175 197 0
174 198 0
168 192 0
175 199 0
175 199 0
173 198 0
175 199 0
168 191 0
174 198 0
168 192 0
171 194 0
169 191 0
166 189 0
174 197 0
174 198 0
168 191 0
176 200 0
165 187 0
170 193 0
171 193 0
175 198 0
163 186 0
175 198 0
173 195 0
170 194 0
174 196 0
174 195 0
172 195 0
174 197 0
170 195 0
171 196 0
173 198 0
155 179 72
57 90 153
59 93 147
61 96 165
59 93 156
61 96 158
59 95 165
63 99 169
59 95 165
61 97 162
61 98 167
61 98 168
61 97 162
62 98 164
60 97 169
61 97 158
62 98 166
62 98 172
60 97 166
62 98 172
61 97 171
61 97 162
61 98 170
62 98 173
62 99 174
62 98 169
62 98 173
61 97 168
63 99 170
61 98 167
63 100 178
62 98 171
62 98 166
61 98 170
62 99 169
63 99 177
62 99 174
62 99 170
62 98 176
63 99 174
62 98 170
62 99 175
62 98 174
62 98 175
62 98 174
62 99 178
63 99 180
62 98 172
61 98 169
62 99 178
61 98 174
62 98 176
62 99 174
62 98 172
62 99 178
62 99 174
62 98 177
62 99 176
62 99 175
62 99 175
63 99 176
62 99 173
63 100 180
60 97 170
63 100 173
62 99 176
61 98 173
62 98 172
62 99 174
61 98 172
61 98 172
62 99 178
62 98 174
62 99 178
62 99 172
62 99 172
62 99 172
62 99 176
62 98 174
61 98 169
62 98 173
63 99 176
61 98 170
62 99 174
62 98 168
64 100 174
62 98 172
61 98 172
62 99 178
62 99 171
61 98 174
63 100 178
62 99 179
62 99 171
62 99 177
62 98 172
62 98 166
61 98 176
63 99 171
63 100 178
62 99 175
62 99 172
63 100 171
61 98 172
62 98 170
62 99 171
62 99 176
62 99 174
62 99 176
62 99 174
63 99 178
61 98 177
62 98 166
62 99 176
62 98 174
62 99 174
61 98 173
62 99 174
62 99 178
61 98 171
61 98 170
62 99 176
62 98 170
63 100 171
62 99 175
63 100 172
62 99 172
62 99 176
64 100 178
62 99 168
61 98 171
61 98 168
61 99 175
61 98 170
62 99 169
62 98 174
62 99 170
62 99 169
62 99 172
62 99 168
62 99 170
62 99 172
63 99 173
62 99 175
62 98 174
62 98 158
61 98 171
62 99 178
62 98 163
62 99 172
62 99 170
62 99 171
61 98 166
62 98 174
62 99 174
62 98 170
61 97 165
61 98 164
61 97 168
62 98 164
61 97 158
61 96 167
63 99 159
62 98 167
61 97 166
62 98 162
62 98 165
61 97 153
60 95 151
63 98 163
61 97 165
61 95 155
60 95 159
59 92 155
55 87 139
68 82 84
92 93 35
90 92 48
97 97 59
121 120 59
98 101 45
116 114 61
104 105 57
129 125 67
111 110 59
118 117 66
112 112 60
107 107 49
116 117 56
128 127 61
132 130 62
120 117 56
133 130 77
124 123 69
143 140 62
134 131 71
133 132 70
139 136 74
138 135 72
147 144 71
144 141 71
138 136 67
142 140 60
146 143 64
151 147 71
146 140 74
151 147 73
159 155 74
153 147 63
143 138 68
154 150 71
146 143 66
155 150 73
152 147 66
155 149 57
149 144 69
154 149 80
159 153 83
150 144 71
163 157 75
165 159 78
159 152 63
157 152 78
158 153 71
151 146 60
158 154 74
163 156 77
161 156 73
157 151 70
160 156 64
160 153 72
164 158 75
166 160 79
166 159 79
165 159 68
161 155 70
155 151 53
160 153 66
146 140 62
165 158 79
160 153 70
163 156 80
160 155 74
157 150 72
150 145 58
158 151 68
164 158 66
165 159 72
154 149 56
161 154 74
162 156 75
144 139 56
153 144 66
158 152 68
152 147 58
156 150 72
153 146 72
144 141 51
158 150 72
149 144 64
154 147 68
150 144 53
156 149 72
134 130 45
131 127 51
128 124 48
145 140 56
149 142 58
136 131 48
141 135 53
119 115 36
122 118 42
121 117 42
126 123 51
165 183 16
174 196 0
178 197 0
172 193 0
177 197 0
170 190 0
172 194 0
173 194 0
169 188 0
173 193 0
173 194 0
173 196 0
173 194 0
173 196 0
175 199 0
175 199 0
176 200 0
176 199 0
175 199 0
176 200 0
177 200 0
173 198 0
174 197 0
175 198 0
176 199 0
178 202 0
176 200 0
177 201 0
175 199 0
173 197 0
179 202 0
176 198 0
171 195 0
173 195 0
178 201 0
176 199 0
176 199 0
174 198 0
174 198 0
175 198 0
170 195 0
176 200 0
179 202 0
175 200 0
173 197 0
177 199 0
175 199 0
173 197 0
174 198 0
170 194 0
176 200 0
176 200 0
171 195 0
174 198 0
176 200 0
177 201 0
174 198 0
176 198 0
171 194 0
174 197 0
171 195 0
175 198 0
168 193 0
172 196 0
172 196 0
173 197 0
175 199 0
174 197 0
173 195 0
172 196 0
177 201 0
171 193 0
177 199 0
168 192 0
172 197 0
176 199 0
173 196 0
165 189 0
175 199 0
174 198 0
179 203 0
176 200 0
174 198 0
176 198 0
174 196 0
175 199 0
169 193 0
171 194 0
172 196 0
174 198 0
177 199 0
173 197 0
169 193 0
177 201 0
173 196 0
172 196 0
175 198 0
173 196 0
176 199 0
171 195 0
171 195 0
174 199 0
172 196 0
169 192 0
171 195 0
172 195 0
175 199 0
167 190 0
171 195 0
177 199 0
168 191 0
174 197 0
168 191 0
171 195 0
173 197 0
174 198 0
171 195 0
172 194 0
169 191 0
165 189 0
172 195 0
175 198 0
164 188 0
166 190 0
173 195 0
167 190 0
84 111 130
58 92 155
59 94 157
61 95 161
61 97 161
61 96 167
61 96 155
61 97 159
61 97 171
62 99 173
62 98 168
61 97 164
62 98 171
61 98 168
62 98 170
62 98 166
61 98 168
62 98 164
62 98 171
62 99 165
62 99 177
61 98 171
61 98 166
62 98 174
62 99 173
61 98 172
61 98 175
61 98 169
62 99 171
62 99 170
61 98 176
61 98 170
62 99 172
63 99 173
62 98 174
62 98 172
63 100 175
62 99 174
61 98 176
61 98 176
63 100 180
62 99 172
61 98 176
61 97 168
62 99 175
63 99 179
62 98 174
61 97 173
62 99 173
62 98 176
62 98 170
62 99 174
63 99 176
62 99 178
62 99 173
61 98 176
62 99 175
61 98 171
62 99 174
61 98 169
62 99 174
62 99 176
62 99 176
62 99 176
61 97 170
63 100 176
61 98 178
63 99 172
61 98 171
62 99 165
62 98 171
61 98 172
63 99 175
61 98 166
62 99 176
62 99 172
62 98 174
62 98 177
62 99 176
62 98 168
62 98 173
62 99 176
62 99 176
62 98 170
62 99 174
63 99 175
62 98 171
61 97 175
64 101 176
63 99 173
62 99 170
62 98 174
62 99 175
62 99 175
62 99 173
62 99 175
63 99 174
62 99 174
62 99 175
61 98 176
62 99 176
62 99 173
62 99 178
62 99 172
62 98 170
62 99 168
62 98 171
61 98 173
63 100 176
61 98 178
63 100 178
62 99 174
62 98 171
61 98 174
62 99 175
62 99 178
61 98 174
61 98 171
62 99 171
63 99 174
63 99 170
60 97 166
62 99 172
62 98 174
62 99 174
62 99 173
62 98 170
63 99 172
62 99 170
63 99 163
61 98 165
62 98 174
62 99 171
63 100 176
62 99 175
62 98 167
63 100 174
63 99 174
61 98 171
62 99 174
62 99 175
62 99 168
63 99 180
62 98 170
61 97 165
62 99 167
61 97 174
61 98 172
63 99 173
61 98 175
61 96 159
62 98 171
62 98 164
60 97 162
62 99 176
62 99 164
62 99 174
61 97 174
62 98 164
62 98 167
63 99 159
62 99 162
62 98 168
62 98 167
62 97 167
62 97 162
61 97 162
59 94 154
61 97 167
59 95 153
61 96 159
61 95 160
60 94 154
58 90 147
58 92 152
72 93 129
86 90 47
84 88 48
95 96 46
90 92 48
109 109 58
101 102 47
97 99 49
111 110 55
114 113 61
114 113 57
126 124 67
116 116 69
131 128 62
115 116 53
139 135 73
128 125 66
127 126 60
124 123 62
133 130 60
138 134 69
148 143 63
147 143 68
136 132 73
140 137 68
126 124 60
136 135 61
142 138 56
156 151 74
147 143 66
133 133 61
159 153 76
152 148 71
153 149 81
151 147 69
162 156 74
160 153 74
156 152 70
151 146 61
154 151 70
157 152 70
162 157 77
153 148 66
154 149 78
159 154 67
164 158 75
157 151 68
161 156 66
161 155 73
166 159 80
158 151 77
160 153 70
166 158 80
162 155 76
158 152 70
159 154 73
166 159 74
150 144 64
172 164 72
163 157 65
156 149 68
156 150 60
163 157 75
164 157 74
158 152 70
154 149 62
156 149 66
163 157 64
171 162 77
162 155 66
152 147 56
150 144 51
155 149 68
161 153 72
156 152 66
159 153 70
144 140 60
156 149 64
162 155 68
150 143 58
151 146 53
149 143 48
143 139 45
154 148 64
150 143 56
144 139 53
148 142 58
148 144 56
138 133 51
138 132 51
144 140 53
144 138 51
140 135 53
126 122 36
131 126 42
127 121 48
127 122 48
136 132 42
145 151 36
171 193 0
165 179 0
172 192 0
171 192 0
170 189 0
168 189 0
176 198 0
167 188 0
174 195 0
174 194 0
171 191 0
180 202 0
169 190 0
175 195 0
172 196 0
173 198 0
173 197 0
170 195 0
174 197 0
177 201 0
179 203 0
172 195 0
178 202 0
175 199 0
177 200 0
171 194 0
174 198 0
173 197 0
174 197 0
171 195 0
175 199 0
172 198 0
177 201 0
169 194 0
169 195 0
172 194 0
170 195 0
173 196 0
173 197 0
176 199 0
171 194 0
174 197 0
178 201 0
177 199 0
173 196 0
171 195 0
176 200 0
168 192 0
175 198 0
174 198 0
173 198 0
171 194 0
172 196 0
175 199 0
174 198 0
176 200 0
168 192 0
175 199 0
174 198 0
176 198 0
176 199 0
175 198 0
174 198 0
176 200 0
174 198 0
171 195 0
175 200 0
176 198 0
170 193 0
174 199 0
172 195 0
174 197 0
171 194 0
177 201 0
174 197 0
172 195 0
176 200 0
172 194 0
170 194 0
174 198 0
173 197 0
170 193 0
171 195 0
170 194 0
171 195 0
171 194 0
177 200 0
171 194 0
172 196 0
168 192 0
170 193 0
171 196 0
171 194 0
175 199 0
173 197 0
175 198 0
170 194 0
173 197 0
171 195 0
170 193 0
169 191 0
169 194 0
174 197 0
174 197 0
169 194 0
168 191 0
171 195 0
163 186 0
173 197 0
170 193 0
168 192 0
168 192 0
171 194 0
170 194 0
170 194 0
167 192 0
176 199 0
170 194 0
173 196 0
171 194 0
177 199 0
169 191 0
170 194 0
175 198 0
172 194 0
156 180 45
56 89 146
59 93 158
59 94 154
60 95 150
61 96 163
60 95 158
61 97 160
61 97 163
60 96 168
62 98 170
61 97 165
61 98 169
63 99 167
62 98 174
61 97 164
62 98 170
62 99 172
62 99 165
63 99 172
63 99 174
62 99 176
60 97 167
62 99 170
62 99 167
61 97 169
62 99 174
61 98 168
63 100 172
62 99 179
62 99 174
62 99 174
62 98 169
63 99 170
62 98 174
61 98 174
63 99 174
61 98 170
62 99 178
62 99 169
61 97 162
61 97 168
62 99 176
62 98 172
62 98 177
62 99 175
62 99 176
61 98 171
61 98 174
62 99 176
62 99 176
61 98 176
62 99 174
61 98 177
62 98 174
62 99 176
61 98 176
61 98 176
61 97 162
62 99 178
61 98 174
62 98 167
62 98 172
61 98 172
61 98 165
62 99 174
63 99 179
62 99 176
61 98 177
62 98 176
62 99 178
61 98 173
62 98 174
62 99 172
63 99 178
62 98 178
61 98 172
61 98 178
62 99 176
62 99 174
62 99 175
60 97 164
62 98 175
62 98 174
61 98 166
62 99 176
62 99 178
61 98 174
63 99 174
62 99 176
62 99 170
62 99 176
61 98 174
61 98 171
61 98 168
63 100 180
61 98 172
61 98 175
62 98 172
62 99 175
61 98 176
62 98 174
61 98 175
61 98 174
63 99 174
62 98 166
61 98 173
61 99 175
63 99 176
63 100 178
61 98 174
63 99 176
62 98 176
63 99 176
62 98 170
63 99 176
63 99 174
62 99 166
61 98 170
62 98 171
61 98 174
62 99 171
62 99 172
62 98 172
63 99 169
63 100 174
62 99 176
61 98 176
62 99 173
62 99 173
63 99 176
62 99 168
61 97 170
61 98 172
61 97 161
63 100 176
61 98 163
62 99 167
62 99 172
61 98 170
62 99 171
61 97 169
62 99 176
63 99 170
62 99 171
62 99 165
62 99 176
63 100 176
62 98 163
61 98 166
62 99 170
62 98 167
62 99 169
61 98 176
62 99 171
62 98 174
61 98 164
63 99 166
62 98 175
61 96 163
62 99 168
62 98 168
63 99 168
63 99 166
62 98 174
62 99 170
62 97 166
62 98 164
62 98 171
63 98 164
59 94 153
58 93 154
60 95 158
60 93 153
60 95 162
58 92 154
56 88 145
89 92 59
92 93 45
104 103 47
95 97 45
92 96 54
94 95 52
103 104 56
100 103 44
107 107 58
124 122 52
123 122 61
111 113 50
124 123 56
131 129 72
132 129 65
130 127 63
128 125 63
125 125 62
132 129 70
141 138 72
147 142 71
133 130 60
137 133 69
137 134 65
147 143 73
152 148 72
145 140 71
131 129 59
130 128 66
146 143 63
153 148 68
148 144 71
147 142 65
154 150 75
153 149 75
141 137 60
160 154 74
165 157 80
156 151 75
150 145 71
150 145 69
155 150 65
153 149 70
163 154 77
162 156 79
159 154 68
156 150 74
164 159 74
166 158 77
161 155 71
164 157 74
161 155 75
160 154 75
167 160 80
158 153 70
151 146 61
159 152 79
168 160 82
161 155 62
160 154 70
155 150 62
147 143 64
156 149 62
158 153 60
148 143 45
153 148 56
154 149 74
152 148 56
156 150 74
167 160 74
157 150 72
155 150 58
155 149 62
149 144 62
150 145 56
160 153 72
153 148 70
132 128 53
160 154 60
147 139 45
155 150 62
152 146 68
146 141 60
149 143 56
130 125 53
138 133 58
149 144 58
134 130 48
141 136 48
137 132 45
149 143 48
135 130 51
136 131 48
138 133 51
131 126 45
118 115 32
116 111 42
168 186 22
174 196 0
171 192 0
176 198 0
172 193 0
172 192 0
174 195 0
175 195 0
170 192 0
169 189 0
175 196 0
175 198 0
172 191 0
171 192 0
172 194 0
175 200 0
180 203 0
175 199 0
177 199 0
170 194 0
173 195 0
174 198 0
172 197 0
174 199 0
177 201 0
172 196 0
176 201 0
176 199 0
172 196 0
173 197 0
174 198 0
177 200 0
178 202 0
176 200 0
171 195 0
174 197 0
169 194 0
173 197 0
175 199 0
175 198 0
178 201 0
173 196 0
175 198 0
175 199 0
172 195 0
175 198 0
176 200 0
173 196 0
174 197 0
172 195 0
169 193 0
175 198 0
172 195 0
169 191 0
173 196 0
170 193 0
172 195 0
184 205 0
171 196 0
174 198 0
175 198 0
174 197 0
174 198 0
177 200 0
174 197 0
173 197 0
173 195 0
171 195 0
177 200 0
172 195 0
172 195 0
175 199 0
174 198 0
176 200 0
171 195 0
179 202 0
173 196 0
168 192 0
174 199 0
175 200 0
172 196 0
173 196 0
173 196 0
174 197 0
177 201 0
168 192 0
176 199 0
173 197 0
172 194 0
176 198 0
173 197 0
173 196 0
174 198 0
173 197 0
171 195 0
175 198 0
173 196 0
172 195 0
176 198 0
173 198 0
171 194 0
166 190 0
172 196 0
167 192 0
167 190 0
167 191 0
170 195 0
173 196 0
171 195 0
171 194 0
170 193 0
176 199 0
173 196 0
159 182 0
168 189 0
173 195 0
167 190 0
173 195 0
169 191 0
170 192 0
173 196 0
172 195 0
172 195 0
167 190 0
170 194 0
168 193 0
134 157 95
59 93 151
59 94 153
59 94 159
60 96 155
60 96 159
61 97 166
61 97 163
61 97 167
61 97 165
61 97 164
62 98 169
62 98 164
61 97 167
61 97 166
61 97 164
62 98 174
62 98 172
62 98 175
62 99 174
61 98 172
62 99 173
62 98 169
62 98 167
62 98 176
62 99 173
62 99 172
62 99 171
61 98 173
62 98 174
62 98 165
62 99 176
62 99 173
62 99 173
63 100 175
61 97 167
62 99 176
62 98 172
62 99 172
61 98 174
62 98 173
61 98 171
62 99 172
62 99 169
62 99 180
61 98 174
61 98 172
61 98 172
62 99 178
62 99 178
60 97 175
62 99 178
63 99 172
62 99 172
62 98 178
62 99 178
62 99 176
62 99 178
61 97 169
62 99 178
62 98 173
61 98 167
61 98 174
62 98 173
61 98 172
62 99 176
61 97 164
61 98 172
62 99 178
62 98 175
63 99 178
62 99 168
62 98 170
61 98 178
62 98 170
62 99 178
62 99 177
61 98 170
62 99 178
63 100 180
62 99 174
62 99 177
62 99 176
62 98 172
62 98 169
62 98 174
61 98 177
62 99 176
62 99 177
62 99 177
63 99 177
62 99 178
62 98 170
61 98 174
62 99 178
62 98 174
62 99 176
62 98 174
62 99 176
61 98 176
61 98 172
63 100 178
62 99 178
62 99 174
62 99 178
62 99 175
62 99 176
63 99 174
62 99 178
62 99 174
63 99 168
62 99 176
61 99 171
62 99 174
62 99 176
63 100 176
62 98 178
61 97 169
61 97 174
61 98 166
62 99 174
63 99 172
62 99 174
62 98 171
61 98 174
63 99 174
61 98 176
62 99 172
61 98 169
61 98 165
63 99 174
62 99 173
63 99 173
62 98 167
62 99 169
62 99 176
63 99 174
62 98 174
62 99 174
63 99 174
63 99 172
62 99 175
61 97 153
62 99 176
62 98 169
62 99 173
61 98 174
63 99 171
61 98 161
63 100 165
62 98 166
63 99 169
62 98 172
63 99 167
62 99 171
62 98 163
60 97 165
62 98 172
63 99 173
63 99 169
61 98 168
61 98 168
63 99 165
63 99 170
62 98 167
62 98 166
61 97 156
62 99 166
62 98 163
61 95 158
61 97 157
60 96 160
61 97 158
60 95 145
59 93 150
57 90 143
56 88 144
81 91 91
92 95 51
94 95 56
98 99 48
109 107 50
120 118 52
102 102 53
98 100 49
114 115 53
116 114 53
116 115 55
103 105 45
127 125 69
117 117 59
119 119 60
135 132 66
115 114 61
133 131 65
123 122 54
127 125 56
145 140 70
135 133 67
141 137 76
147 143 67
131 129 57
143 140 68
148 144 67
151 146 72
145 139 74
146 142 72
141 138 57
156 149 67
150 144 74
155 150 74
154 149 69
150 145 63
153 149 64
153 149 70
147 143 64
149 145 66
153 149 73
156 151 65
161 154 71
149 145 62
150 145 67
153 147 75
158 152 66
162 157 68
151 145 60
162 155 66
151 146 62
158 152 70
153 147 58
160 155 68
153 146 65
157 151 70
163 157 67
146 141 48
153 147 72
160 154 70
149 144 60
170 161 74
163 157 64
162 156 68
161 154 70
162 155 64
147 141 62
157 152 66
157 152 58
153 146 66
160 153 68
156 151 60
160 154 70
162 155 74
157 151 72
140 135 53
151 144 68
151 146 60
152 147 60
145 138 60
144 141 42
145 140 58
138 133 56
139 134 56
154 147 53
138 132 58
148 144 51
141 134 51
124 118 51
134 130 51
138 134 39
132 128 51
121 117 45
131 126 45
129 124 39
137 131 48
146 157 28
167 183 0
171 191 0
167 189 0
172 188 0
168 187 0
172 194 0
172 193 0
172 193 0
174 193 0
171 191 0
169 188 0
173 195 0
180 202 0
172 194 0
174 195 0
177 200 0
182 204 0
174 198 0
176 200 0
178 201 0
175 200 0
173 198 0
176 199 0
179 203 0
174 198 0
175 199 0
174 198 0
176 200 0
174 198 0
178 202 0
173 198 0
175 198 0
179 202 0
177 201 0
176 201 0
174 198 0
174 199 0
176 200 0
175 198 0
174 198 0
179 202 0
169 194 0
175 198 0
175 199 0
182 205 0
173 196 0
170 195 0
179 202 0
171 194 0
175 199 0
174 197 0
177 200 0
172 197 0
169 193 0
172 196 0
180 203 0
173 196 0
177 200 0
175 197 0
173 197 0
171 194 0
173 197 0
172 196 0
172 197 0
174 198 0
171 194 0
178 202 0
176 198 0
178 200 0
172 195 0
174 197 0
176 200 0
177 200 0
170 194 0
170 193 0
177 200 0
177 201 0
174 198 0
168 193 0
168 192 0
174 198 0
172 196 0
173 196 0
176 200 0
178 202 0
164 187 0
167 190 0
171 195 0
171 193 0
172 196 0
174 198 0
169 192 0
175 199 0
172 196 0
169 192 0
173 197 0
166 189 0
173 198 0
174 198 0
173 197 0
174 197 0
172 195 0
169 193 0
172 194 0
173 196 0
167 190 0
170 194 0
172 194 0
166 191 0
171 194 0
174 197 0
168 193 0
172 195 0
170 193 0
165 189 0
172 196 0
179 201 0
174 197 0
170 192 0
164 189 0
175 198 0
168 193 0
173 195 0
173 197 0
170 193 0
179 201 0
81 107 116
59 92 151
59 93 150
59 94 148
59 94 162
62 98 173
60 96 154
61 97 163
62 98 171
61 97 163
61 97 164
60 96 160
62 98 175
63 99 178
62 98 172
61 98 166
61 97 164
62 98 170
61 96 165
61 97 166
62 99 171
62 99 167
61 97 171
63 100 176
62 99 173
62 98 166
63 99 169
62 98 171
61 97 169
62 98 174
60 97 172
63 99 173
61 98 171
63 99 169
62 98 172
62 99 172
62 99 170
62 98 176
63 99 174
61 97 171
62 99 176
62 99 174
62 99 178
62 99 176
62 99 174
62 98 170
63 99 178
61 98 172
62 98 176
62 99 176
62 98 168
61 98 177
62 98 169
62 99 176
61 98 176
62 99 173
62 98 176
62 98 175
62 99 176
62 99 173
62 99 173
62 98 173
62 99 176
62 98 172
62 99 178
61 98 170
62 99 170
61 98 168
61 98 172
62 99 173
62 99 176
62 99 169
61 98 175
62 99 174
61 98 172
61 98 173
62 99 174
62 99 165
62 99 178
62 98 172
62 99 179
62 99 173
62 98 174
62 98 175
62 99 174
61 98 178
62 98 170
62 99 176
62 99 174
63 99 171
63 100 174
62 99 174
61 98 174
63 99 179
62 99 179
62 99 175
61 98 176
62 98 174
61 98 174
63 99 178
61 97 170
62 98 174
61 98 174
63 99 176
62 98 167
61 97 166
62 99 175
62 99 174
61 98 178
63 99 171
62 99 176
61 98 173
62 98 170
62 99 176
62 99 178
62 98 174
62 99 163
62 99 172
61 98 172
62 99 176
64 101 176
62 98 171
62 98 176
61 98 176
62 98 174
62 99 172
61 98 171
63 100 176
62 98 172
62 99 166
63 100 171
61 98 165
61 98 171
62 99 165
63 99 169
62 99 178
63 99 172
61 98 167
62 99 172
62 99 166
62 99 172
62 99 172
62 98 172
63 100 172
63 100 174
61 98 169
62 98 167
61 97 167
62 99 172
62 99 167
63 99 168
63 99 172
62 98 172
63 99 175
61 98 166
62 98 163
62 98 167
61 98 170
62 98 170
63 99 172
62 99 169
63 99 164
62 98 168
62 98 170
61 97 161
62 98 168
61 98 171
61 97 163
61 97 158
61 97 169
62 98 165
61 96 159
60 94 146
59 94 159
60 95 163
58 92 152
58 91 154
63 86 128
70 73 36
97 98 44
90 92 50
97 98 55
104 105 54
86 89 53
108 106 58
105 107 49
102 104 52
112 113 64
120 120 51
132 129 62
139 135 65
133 131 69
119 116 68
132 129 61
126 124 57
123 123 59
123 121 59
118 119 57
134 132 63
141 138 61
147 141 70
148 143 73
133 129 64
138 135 63
144 141 60
145 142 56
139 136 68
144 140 57
136 132 52
158 153 74
150 145 72
150 145 69
152 147 76
160 154 76
140 137 66
163 157 74
151 146 66
143 137 66
154 148 66
144 141 60
155 149 72
149 144 67
155 150 68
165 159 73
161 155 72
158 151 72
161 154 77
163 156 72
154 149 53
155 150 64
159 153 72
155 150 64
164 158 77
153 147 72
170 164 53
158 152 70
149 145 56
164 159 77
159 154 64
166 158 64
153 146 70
155 149 62
154 149 64
156 150 53
153 146 68
154 148 62
152 146 58
146 140 56
151 147 62
157 152 58
156 150 64
155 147 66
153 148 60
159 152 62
158 152 62
151 144 64
133 130 48
147 143 53
154 147 60
142 137 56
144 139 39
151 145 62
142 136 60
129 123 39
128 124 45
136 130 53
124 121 45
132 126 51
125 121 42
142 136 51
125 121 45
141 135 39
121 119 39
168 185 0
170 191 0
171 189 0
170 191 0
174 197 0
171 190 0
175 197 0
169 189 0
166 187 0
173 196 0
174 195 0
171 191 0
173 195 0
167 187 0
177 199 0
174 197 0
180 203 0
177 201 0
178 201 0
171 195 0
174 198 0
179 202 0
175 198 0
174 198 0
174 198 0
177 200 0
173 197 0
172 196 0
174 197 0
171 195 0
174 198 0
174 197 0
177 201 0
178 201 0
177 201 0
175 198 0
177 201 0
177 201 0
173 197 0
173 195 0
173 198 0
173 198 0
176 198 0
176 199 0
177 200 0
172 195 0
173 197 0
171 196 0
172 195 0
172 195 0
169 194 0
167 192 0
169 193 0
173 198 0
175 200 0
169 194 0
175 198 0
167 192 0
172 195 0
170 193 0
175 199 0
171 196 0
172 196 0
177 200 0
179 202 0
175 199 0
176 199 0
174 198 0
175 198 0
173 197 0
176 199 0
173 197 0
173 197 0
173 198 0
172 194 0
175 198 0
171 195 0
170 194 0
174 197 0
172 196 0
172 196 0
177 201 0
170 194 0
167 191 0
176 198 0
176 199 0
168 193 0
172 197 0
175 199 0
172 195 0
173 196 0
172 194 0
170 193 0
173 196 0
173 197 0
174 197 0
170 194 0
175 198 0
165 190 0
169 193 0
170 192 0
165 189 0
173 194 0
170 194 0
164 189 0
170 194 0
173 195 0
169 191 0
172 195 0
171 195 0
175 196 0
176 200 0
167 190 0
170 194 0
173 196 0
167 189 0
170 192 0
170 192 0
170 194 0
171 194 0
166 188 0
167 190 0
175 199 0
175 198 0
171 193 0
168 192 0
161 185 32
61 93 141
59 93 152
59 94 153
59 94 157
60 96 161
60 96 150
59 94 156
62 98 172
60 96 159
61 97 160
62 98 171
61 97 164
62 99 171
63 99 171
61 98 166
62 98 170
63 99 172
63 99 176
62 98 174
63 100 178
62 98 169
62 99 165
62 98 172
62 98 172
63 99 175
61 98 172
62 98 161
62 99 170
62 98 170
62 99 172
61 98 170
62 99 176
62 99 174
61 98 176
62 99 174
61 98 167
62 98 167
62 99 176
61 97 168
61 97 166
62 99 172
62 99 172
63 99 178
62 99 172
62 99 175
63 99 176
61 98 173
62 98 179
61 98 169
61 98 172
62 98 174
62 99 174
62 99 176
62 98 179
63 99 178
62 98 176
61 98 169
62 98 173
62 99 172
64 100 178
62 99 174
63 99 178
61 97 177
61 98 169
61 98 174
62 99 173
62 98 173
61 98 174
63 99 176
61 98 173
62 99 176
62 99 176
61 98 174
61 98 170
61 98 176
60 97 166
61 98 174
63 100 178
62 98 173
62 98 177
62 99 175
62 99 172
62 99 178
63 99 178
61 98 174
62 99 171
62 98 161
61 98 173
62 98 171
61 97 159
62 99 173
61 97 163
61 97 170
62 99 176
62 99 175
63 99 171
63 100 178
60 96 168
62 99 178
62 99 174
62 99 173
62 98 172
62 99 174
63 100 173
62 99 174
61 99 172
62 98 169
61 98 174
62 99 176
62 99 172
62 98 168
62 99 176
62 99 175
62 98 171
61 98 173
62 99 178
62 98 166
63 100 169
63 100 171
61 98 178
61 97 172
61 98 173
61 98 169
63 99 173
62 99 169
62 99 178
63 99 179
61 97 164
62 98 172
62 99 174
63 99 175
63 100 174
63 100 176
61 98 170
61 97 169
62 98 174
62 99 173
63 99 170
62 98 174
63 99 176
61 97 164
63 99 168
62 98 172
63 100 165
63 99 171
62 98 174
61 98 168
62 99 167
62 99 170
62 98 163
62 99 169
63 99 170
62 98 168
63 99 166
63 99 172
60 96 159
62 99 168
60 97 161
62 98 169
62 99 166
62 98 165
62 98 167
62 99 170
62 98 166
61 98 164
62 99 166
62 98 164
61 97 166
61 97 167
63 98 162
63 98 164
58 92 144
60 95 151
61 96 160
60 94 158
59 93 152
57 90 145
53 84 139
94 95 51
92 95 45
112 110 53
114 112 49
97 97 37
106 105 49
101 102 45
123 119 56
104 106 48
101 101 36
111 112 54
113 113 52
107 108 57
132 129 54
119 117 57
138 133 59
125 123 61
135 131 44
116 115 57
127 125 54
148 144 65
132 129 58
128 127 63
146 141 72
131 128 61
138 135 72
140 135 64
140 137 62
141 138 49
154 150 75
141 138 69
147 143 70
149 143 72
147 144 64
147 141 60
147 142 78
147 142 63
153 148 67
157 151 73
154 149 57
157 152 71
156 150 69
153 148 69
158 152 75
153 147 65
160 153 77
152 146 62
159 154 75
151 147 60
161 154 66
158 152 59
141 139 54
161 154 66
160 154 64
157 152 60
165 157 74
158 153 58
159 153 70
157 151 62
163 156 74
157 152 60
147 143 51
159 153 70
152 146 60
160 154 70
151 145 62
158 150 72
143 138 53
148 142 51
153 147 51
153 146 64
151 146 58
144 139 64
155 147 75
156 150 60
148 141 64
160 154 62
145 140 62
150 142 60
150 144 58
147 140 45
135 129 56
150 144 56
131 127 53
140 134 56
140 135 53
140 134 45
128 123 51
138 130 51
138 132 56
124 120 39
140 134 36
131 126 42
126 120 51
150 160 22
174 193 0
173 193 0
175 194 0
172 193 0
174 194 0
177 197 0
171 193 0
166 185 0
173 193 0
173 194 0
178 197 0
173 193 0
172 192 0
167 186 0
173 194 0
172 193 0
174 198 0
174 197 0
177 201 0
175 199 0
176 199 0
177 200 0
172 195 0
175 197 0
178 201 0
173 197 0
165 191 0
173 197 0
177 201 0
176 199 0
175 198 0
176 199 0
175 199 0
176 200 0
171 196 0
172 196 0
174 196 0
172 195 0
174 197 0
174 198 0
173 197 0
172 197 0
174 197 0
176 200 0
176 199 0
174 197 0
174 197 0
170 193 0
170 194 0
174 198 0
175 197 0
177 198 0
173 196 0
170 195 0
171 195 0
174 197 0
172 197 0
176 198 0
178 201 0
174 197 0
177 200 0
176 200 0
175 199 0
175 199 0
180 203 0
176 200 0
167 190 0
169 192 0
171 195 0
173 197 0
168 192 0
167 191 0
172 195 0
174 196 0
169 194 0
173 196 0
171 196 0
172 195 0
176 199 0
169 192 0
171 194 0
176 200 0
176 200 0
172 195 0
171 195 0
177 201 0
170 193 0
176 199 0
171 196 0
176 200 0
171 195 0
169 194 0
174 198 0
173 198 0
170 194 0
174 197 0
171 195 0
167 190 0
171 194 0
176 199 0
171 193 0
173 196 0
175 198 0
172 194 0
168 192 0
165 188 0
174 198 0
177 201 0
172 195 0
175 199 0
170 193 0
169 193 0
167 192 0
169 192 0
171 193 0
171 194 0
168 191 0
163 188 0
165 190 0
173 197 0
171 194 0
171 195 0
176 199 0
169 193 0
172 195 0
167 190 0
134 158 84
58 92 159
59 93 152
61 96 162
60 95 157
60 95 162
61 96 155
62 98 174
61 97 156
61 97 166
62 98 167
61 97 169
59 95 149
62 98 166
61 98 166
62 98 168
61 98 164
61 98 166
62 99 164
61 98 169
62 98 171
62 99 172
62 98 175
62 99 173
62 99 172
62 98 168
63 99 167
61 98 171
62 99 172
61 98 167
62 99 169
61 97 169
62 99 172
62 98 170
61 98 169
62 98 172
61 98 174
62 99 171
61 98 169
64 101 176
63 100 176
62 99 178
61 98 175
62 99 178
62 99 174
61 97 172
62 99 176
63 100 175
62 99 178
62 98 172
61 97 171
61 98 176
61 98 174
63 99 176
62 99 178
63 99 172
61 98 173
62 99 173
62 99 173
62 99 178
61 98 174
62 99 178
62 99 177
62 99 176
62 98 172
62 98 174
62 99 171
61 98 178
61 98 172
62 98 174
60 97 172
62 98 170
62 99 176
63 99 179
62 98 172
62 99 174
62 99 178
62 99 173
63 99 176
62 99 176
61 98 172
63 99 172
62 98 168
62 99 173
62 99 176
62 99 176
62 99 176
62 99 172
61 98 168
62 99 177
63 99 175
63 100 174
62 99 175
61 98 165
62 99 176
62 98 167
62 99 171
62 99 176
62 99 173
63 100 180
62 99 172
62 99 176
62 98 169
63 99 173
63 99 172
62 98 172
61 98 174
62 99 174
62 99 171
61 98 172
62 99 171
61 98 172
61 98 169
63 99 173
62 98 174
61 98 171
61 98 174
63 99 168
63 99 173
61 98 170
60 96 163
63 99 176
62 99 178
61 98 175
62 99 175
62 98 170
62 98 172
61 98 173
62 98 169
61 98 169
62 99 173
61 98 161
62 99 177
62 99 168
63 99 170
61 98 171
63 99 168
63 99 177
63 100 176
62 98 174
62 98 174
62 98 169
62 99 176
62 98 168
62 98 170
61 98 169
62 99 166
63 100 174
62 99 165
61 98 167
62 98 169
62 98 166
61 97 161
62 99 167
62 98 167
62 99 167
62 98 166
63 99 174
63 99 169
61 97 159
61 97 163
61 97 166
61 97 161
61 98 167
62 98 166
62 98 156
62 98 168
61 97 168
61 97 156
63 99 170
61 97 162
61 97 164
61 97 155
61 97 153
61 95 150
58 92 150
58 91 149
58 92 150
57 90 155
77 85 90
113 112 55
96 98 41
86 91 40
114 113 49
113 112 32
103 104 38
115 112 57
105 104 48
122 120 52
115 115 59
116 115 44
124 123 51
113 112 58
119 119 62
123 121 62
133 129 57
137 135 56
119 118 56
129 127 55
126 125 57
137 135 51
130 127 60
136 135 53
147 141 66
147 144 69
137 136 61
140 136 66
149 145 69
157 152 68
151 145 68
148 144 69
138 135 60
144 139 68
147 143 66
154 147 77
149 145 59
148 143 62
161 154 70
155 150 58
149 143 72
153 149 54
160 154 69
149 145 62
154 150 60
166 160 73
157 151 66
157 151 66
164 157 70
165 158 74
147 140 62
154 148 60
155 150 61
166 159 75
160 154 66
161 154 66
157 150 64
164 157 74
149 144 53
149 146 48
163 156 70
156 149 64
144 139 60
152 147 60
151 145 62
152 145 60
142 136 48
141 137 48
148 143 53
161 156 68
154 147 53
157 151 62
157 150 72
158 152 64
136 131 60
149 143 60
146 141 60
131 125 56
145 139 48
137 131 56
136 128 56
151 144 66
154 145 60
123 118 39
141 137 39
129 125 32
135 130 51
116 110 39
125 121 45
129 124 42
123 118 22
130 125 45
127 121 42
119 118 42
170 189 0
166 185 0
175 197 0
172 193 0
172 194 0
173 193 0
169 189 0
169 189 0
170 191 0
172 192 0
171 191 0
175 196 0
175 196 0
175 195 0
173 194 0
172 193 0
176 196 0
177 200 0
173 197 0
170 194 0
169 192 0
175 197 0
174 197 0
175 199 0
174 199 0
177 200 0
177 201 0
176 200 0
174 196 0
174 197 0
178 200 0
174 199 0
173 196 0
171 196 0
170 195 0
177 200 0
173 197 0
178 202 0
176 199 0
176 200 0
171 195 0
173 197 0
177 199 0
176 200 0
172 196 0
176 198 0
175 198 0
167 190 0
176 200 0
175 199 0
174 197 0
175 199 0
177 200 0
171 194 0
169 192 0
170 194 0
172 196 0
169 193 0
176 200 0
169 193 0
175 199 0
176 199 0
176 197 0
172 197 0
170 193 0
175 198 0
172 197 0
174 197 0
169 194 0
177 199 0
169 193 0
171 195 0
176 199 0
172 197 0
167 191 0
177 200 0
169 192 0
174 197 0
178 200 0
174 198 0
173 196 0
172 196 0
173 196 0
168 192 0
172 196 0
172 195 0
171 193 0
169 191 0
173 197 0
166 189 0
171 194 0
168 191 0
169 194 0
171 195 0
171 193 0
170 193 0
173 196 0
177 200 0
177 198 0
177 200 0
170 195 0
177 201 0
173 197 0
172 196 0
177 200 0
171 195 0
172 195 0
168 192 0
173 196 0
166 187 0
175 198 0
166 189 0
174 197 0
166 189 0
167 191 0
167 190 0
176 199 0
174 196 0
170 194 0
167 192 0
171 194 0
175 198 0
167 190 0
170 193 0
171 194 0
169 193 0
174 198 0
120 143 103
57 91 154
60 95 159
59 94 146
61 96 160
61 97 152
61 97 163
60 96 166
61 97 171
60 96 162
62 98 166
62 98 161
62 98 175
62 98 166
61 97 161
61 98 170
62 98 169
61 98 176
61 98 168
62 98 170
61 98 165
62 98 172
61 97 164
61 98 176
62 98 168
62 98 168
61 97 170
62 99 171
62 98 169
62 99 178
62 98 174
62 99 172
62 98 174
62 99 172
61 98 176
62 98 171
61 98 173
61 98 172
63 99 170
62 99 173
63 99 174
63 99 174
61 98 176
62 99 176
62 99 171
61 98 170
62 99 176
62 99 176
62 99 174
63 99 175
62 99 176
61 98 169
62 98 165
63 100 178
62 99 176
63 99 176
62 98 171
62 99 176
62 99 178
63 99 171
63 99 176
62 98 174
63 100 178
62 98 164
62 99 175
62 98 171
63 99 176
63 100 172
63 99 176
62 99 176
62 100 174
62 98 175
61 98 174
63 100 176
62 99 176
61 97 168
61 98 172
62 98 169
61 98 172
62 99 175
62 99 169
63 100 176
62 98 169
62 99 174
61 98 171
62 98 176
62 98 176
61 98 167
61 98 174
63 99 176
62 99 178
63 100 174
62 99 173
62 99 174
62 99 168
61 98 174
61 98 172
63 99 177
63 100 171
63 100 178
62 99 176
62 99 171
61 98 173
61 98 167
62 99 172
63 99 176
62 99 170
62 98 170
63 100 174
62 99 178
62 99 174
63 99 173
62 99 174
61 98 173
62 99 174
62 99 168
61 97 158
62 99 177
61 98 170
63 99 165
62 99 171
62 99 172
62 98 172
63 99 178
62 99 176
62 99 173
62 99 176
63 100 169
63 100 176
62 98 167
62 99 172
62 99 173
61 98 171
61 98 165
61 97 170
62 98 170
61 98 166
61 97 168
62 98 169
63 100 176
61 98 167
61 98 166
62 98 174
61 98 169
62 98 171
62 98 167
63 99 174
61 98 169
63 99 173
62 98 166
62 99 162
62 99 169
62 99 176
62 99 166
61 97 158
64 100 162
62 99 164
62 98 160
61 97 168
63 99 171
63 100 168
62 99 168
62 98 161
63 99 167
60 96 161
62 99 172
61 97 164
61 96 145
62 98 163
60 96 152
63 99 164
62 98 162
61 96 157
60 95 155
59 94 139
60 95 161
59 93 143
59 94 151
58 90 142
71 90 113
103 104 30
103 103 46
79 82 45
117 114 55
107 108 53
113 111 56
108 108 48
104 104 35
109 109 43
131 129 60
125 124 55
104 106 46
136 132 68
118 117 57
124 123 48
139 133 57
126 124 60
137 132 61
143 140 68
128 125 61
129 127 52
142 139 64
135 131 56
138 135 60
135 130 56
127 124 61
141 137 62
134 131 58
144 141 62
147 142 67
145 141 59
155 149 71
147 142 73
150 145 67
146 143 62
150 146 64
148 143 64
156 149 67
156 151 72
155 149 74
155 149 62
151 145 65
157 152 63
158 153 64
162 156 69
157 152 64
161 155 73
153 148 56
142 138 47
155 150 64
152 146 56
154 147 68
154 150 56
159 152 74
153 147 58
159 150 72
156 151 53
154 148 62
164 158 72
152 148 51
149 144 60
155 149 53
157 150 62
157 151 58
162 154 68
153 148 64
155 147 66
152 146 58
147 141 51
146 140 56
157 150 62
135 130 56
147 142 56
157 151 64
153 147 53
153 146 39
147 142 58
150 143 60
127 122 48
135 130 45
150 145 51
149 143 62
140 134 48
138 132 51
140 134 56
141 135 56
142 137 42
127 122 42
121 116 39
131 126 42
144 138 53
127 121 48
151 161 22
175 194 0
175 196 0
165 185 0
175 198 0
172 190 0
172 190 0
172 191 0
173 195 0
174 195 0
172 190 0
172 194 0
176 196 0
176 196 0
169 188 0
169 189 0
166 185 0
181 201 0
172 197 0
177 201 0
173 196 0
177 200 0
176 200 0
177 200 0
177 201 0
176 199 0
173 198 0
176 198 0
171 194 0
169 192 0
175 198 0
173 196 0
175 198 0
178 201 0
176 199 0
172 196 0
176 198 0
175 199 0
172 196 0
177 202 0
172 196 0
175 198 0
174 196 0
175 198 0
174 198 0
174 197 0
174 198 0
176 199 0
180 203 0
176 199 0
173 197 0
176 199 0
179 202 0
176 199 0
171 195 0
175 197 0
175 198 0
178 201 0
174 196 0
174 198 0
174 199 0
170 195 0
172 196 0
168 193 0
169 193 0
172 197 0
170 193 0
172 195 0
172 195 0
167 191 0
170 193 0
168 192 0
172 196 0
174 197 0
177 200 0
170 194 0
175 198 0
174 198 0
169 193 0
168 192 0
177 200 0
168 191 0
176 199 0
174 198 0
175 199 0
168 191 0
172 195 0
171 194 0
166 189 0
170 194 0
169 192 0
174 196 0
174 197 0
175 198 0
173 197 0
174 198 0
164 187 0
169 193 0
174 197 0
174 197 0
172 196 0
174 197 0
174 197 0
175 198 0
162 185 0
170 193 0
171 194 0
171 194 0
170 193 0
172 195 0
166 189 0
173 196 0
175 198 0
164 187 0
177 200 0
167 192 0
171 195 0
174 197 0
166 189 0
168 191 0
168 190 0
169 193 0
166 191 0
169 193 0
171 194 0
167 191 0
171 193 0
168 190 0
66 97 148
60 94 145
59 94 150
59 93 150
62 97 158
60 96 161
61 97 157
60 95 159
62 97 160
61 97 167
61 97 166
61 98 168
60 97 163
62 99 163
62 99 170
63 99 168
62 99 171
61 98 167
62 99 175
62 99 173
62 98 166
61 97 168
62 99 174
62 98 171
63 99 171
61 97 161
61 98 176
62 98 170
61 98 169
61 98 171
63 99 172
62 98 165
62 99 176
63 99 177
63 99 171
61 98 167
62 98 173
62 98 170
61 97 170
62 99 174
63 99 178
60 97 171
61 98 167
62 99 176
63 100 171
62 99 176
62 98 172
62 99 178
62 98 172
61 97 166
62 99 176
62 99 176
61 98 172
62 98 171
61 97 169
62 99 175
61 98 172
63 100 176
63 99 173
62 98 169
63 99 176
62 99 178
62 99 167
62 99 176
62 99 178
61 97 165
62 98 172
62 98 162
61 98 177
62 99 178
62 99 177
62 98 174
61 98 170
63 100 173
63 100 171
63 99 177
61 97 167
62 98 176
62 99 176
62 99 176
63 99 174
61 98 172
62 98 173
62 98 178
61 98 176
63 100 174
62 99 177
63 100 176
62 99 180
62 99 175
62 98 173
61 98 174
62 99 171
62 98 170
61 98 172
64 100 171
62 99 176
63 99 172
62 99 174
62 98 174
62 99 176
63 99 174
62 99 176
61 98 171
62 99 174
62 98 172
63 100 178
62 98 170
62 99 180
62 99 175
62 99 176
63 99 169
62 98 175
61 97 167
61 98 176
62 99 170
62 99 174
63 100 176
62 98 168
62 99 173
60 97 171
63 99 174
62 99 173
62 99 171
62 99 162
62 99 175
61 98 166
62 98 172
61 97 166
62 99 167
61 98 169
61 98 171
62 98 170
62 99 173
63 99 176
63 99 173
61 98 172
62 99 170
62 98 163
62 99 169
62 99 172
62 98 171
62 99 162
62 98 165
63 99 172
61 97 161
63 99 170
62 98 169
62 98 172
61 97 165
62 98 159
62 98 169
62 97 161
62 99 178
61 97 165
63 99 161
63 100 174
64 100 170
61 97 163
61 98 165
63 100 165
61 98 163
62 98 166
62 98 169
62 98 163
62 98 163
61 97 166
62 97 170
61 96 165
62 98 170
60 96 149
61 97 156
62 97 158
60 95 151
60 95 155
58 92 146
61 95 157
60 94 154
57 90 152
59 85 124
100 101 41
90 93 47
117 113 52
99 100 45
103 101 43
95 96 43
112 110 49
104 106 45
113 114 61
119 117 47
109 109 45
123 123 53
127 125 56
135 133 60
126 123 52
126 125 48
132 129 57
130 128 43
141 137 63
140 137 64
129 127 54
134 131 63
141 138 66
122 123 45
125 123 47
142 139 58
149 144 62
144 140 64
147 142 62
158 154 67
154 149 67
147 141 63
153 148 70
156 149 74
144 140 60
157 152 60
146 141 60
153 149 70
154 148 66
146 142 59
154 150 59
163 158 68
164 159 62
154 149 63
153 147 58
158 151 75
155 150 57
167 159 66
152 147 51
146 141 59
155 149 63
163 156 66
155 149 64
154 148 60
166 159 77
153 146 68
147 142 62
158 152 66
152 147 60
156 147 58
145 141 58
164 156 70
159 153 66
148 142 51
145 140 53
146 141 48
160 151 68
149 142 56
150 143 58
158 152 62
158 151 74
143 136 42
153 146 60
148 143 48
143 137 53
134 129 42
146 142 48
151 143 64
150 143 51
128 124 39
137 131 51
142 137 42
137 130 48
147 140 58
137 132 28
138 131 53
133 129 36
140 134 51
130 123 56
138 133 45
122 116 45
134 137 39
176 197 0
171 187 0
173 194 0
169 189 0
175 196 0
166 186 0
171 188 0
173 191 0
168 187 0
173 191 0
174 195 0
175 194 0
174 193 0
169 190 0
173 193 0
170 191 0
170 191 0
172 193 0
176 200 0
177 201 0
178 202 0
171 195 0
174 197 0
176 199 0
178 202 0
175 200 0
178 201 0
173 197 0
174 199 0
174 198 0
178 201 0
176 200 0
174 198 0
172 196 0
177 200 0
176 200 0
175 199 0
175 198 0
173 197 0
178 201 0
172 197 0
173 197 0
177 199 0
173 196 0
180 203 0
172 197 0
176 200 0
175 197 0
170 195 0
176 199 0
170 194 0
166 189 0
174 198 0
174 198 0
174 197 0
171 194 0
175 198 0
172 195 0
171 195 0
177 199 0
171 195 0
173 196 0
176 200 0
172 196 0
177 200 0
172 195 0
176 200 0
169 193 0
169 192 0
172 196 0
168 192 0
176 200 0
173 196 0
174 197 0
174 196 0
174 198 0
173 197 0
173 196 0
169 194 0
174 196 0
173 196 0
171 194 0
175 197 0
170 194 0
173 197 0
171 194 0
172 196 0
174 197 0
172 196 0
174 198 0
172 196 0
167 189 0
172 196 0
174 198 0
168 192 0
172 196 0
171 195 0
173 196 0
170 193 0
174 197 0
173 195 0
169 194 0
169 192 0
170 194 0
166 189 0
176 200 0
171 193 0
170 192 0
165 190 0
176 199 0
178 200 0
171 195 0
172 195 0
177 199 0
167 192 0
171 195 0
172 193 0
175 198 0
168 191 0
172 195 0
173 197 0
164 188 0
166 188 0
165 189 0
172 196 0
163 187 0
174 197 0
150 172 56
56 89 146
56 91 144
59 94 155
60 94 152
61 96 157
60 95 153
60 95 156
62 98 158
61 97 164
62 98 171
60 96 157
61 97 163
62 98 172
62 98 161
61 98 168
62 98 166
61 98 172
60 96 167
62 98 166
62 98 170
61 98 172
63 99 170
62 99 170
61 98 168
62 98 169
61 97 161
61 98 174
61 98 171
63 100 173
62 98 166
63 99 168
62 99 170
62 99 172
61 98 168
61 98 172
61 98 169
63 100 177
61 98 169
61 98 172
61 97 164
62 99 176
62 98 171
62 98 173
63 99 172
61 98 174
62 98 174
62 99 172
61 98 174
61 98 173
63 99 176
61 98 172
61 98 175
62 98 174
61 98 170
61 98 172
62 99 173
61 98 174
62 99 172
63 100 176
62 99 176
61 98 173
62 98 179
60 97 165
61 98 173
61 98 173
62 98 176
62 99 175
61 98 174
63 99 171
63 99 176
62 99 176
61 97 172
63 100 176
62 99 174
61 98 175
62 99 178
62 99 176
61 98 171
61 98 173
62 98 166
62 99 174
60 97 165
62 98 174
62 99 172
61 98 176
62 99 178
62 99 178
62 99 172
61 98 174
61 98 170
61 98 172
62 99 173
63 99 174
62 99 172
63 100 173
63 99 168
61 98 172
61 97 165
61 98 174
60 97 168
62 99 171
62 99 173
61 98 174
62 99 178
62 98 172
61 97 169
61 98 167
61 98 175
62 99 178
63 100 169
62 99 176
62 99 174
63 100 176
62 98 162
62 99 176
62 99 173
62 98 171
63 100 174
62 98 166
63 100 178
62 98 159
63 99 175
61 98 168
62 99 171
62 99 171
62 99 173
62 99 180
63 100 171
61 98 167
62 99 173
62 99 172
63 99 172
62 99 171
62 99 172
62 98 166
62 99 167
63 100 176
63 100 172
62 99 178
62 98 176
61 97 161
62 98 168
63 100 172
62 99 169
61 98 167
62 98 166
62 99 173
63 99 169
62 99 176
62 99 171
63 99 167
62 99 171
61 97 167
62 98 167
61 98 163
61 97 159
62 99 162
62 99 165
62 99 163
62 98 163
62 98 167
60 96 158
62 98 165
62 98 160
63 99 170
61 97 156
61 97 154
62 98 168
62 98 168
61 96 156
61 96 158
61 97 164
57 91 134
60 96 162
60 95 156
60 95 156
59 95 159
60 94 154
55 87 144
55 88 143
91 96 86
108 106 54
111 108 39
99 101 44
115 114 56
96 97 43
111 109 49
115 113 55
115 112 44
99 101 43
103 103 48
117 116 46
124 122 64
139 137 57
115 113 55
132 129 45
135 132 62
132 129 55
111 108 46
137 132 66
119 117 38
134 130 57
138 134 54
132 127 67
134 132 62
147 142 62
129 127 56
150 145 57
143 139 64
137 134 59
147 143 71
153 147 72
141 137 44
146 140 60
152 149 76
154 149 72
144 141 53
148 144 61
157 151 65
157 150 66
149 143 68
147 145 48
162 155 79
147 141 67
159 152 66
146 139 54
159 154 54
162 156 66
145 140 60
145 140 60
147 141 53
156 151 64
139 135 53
156 151 58
156 150 60
161 154 69
156 150 60
153 148 69
146 140 62
158 151 70
155 150 60
155 151 53
151 144 64
155 151 64
158 152 64
154 149 64
164 158 70
152 148 56
151 146 56
139 135 39
143 139 48
141 135 53
139 134 51
152 146 60
142 136 48
140 135 42
139 135 51
141 134 53
141 135 58
141 136 48
148 140 58
134 129 39
140 136 22
138 133 48
139 133 45
129 124 32
127 121 39
124 120 39
131 126 48
121 115 45
116 113 42
167 184 16
171 193 0
169 188 0
170 189 0
175 196 0
172 190 0
169 189 0
169 189 0
168 190 0
171 192 0
165 183 0
165 185 0
172 193 0
169 189 0
172 190 0
173 197 0
173 194 0
165 185 0
174 190 0
173 196 0
174 198 0
180 203 0
175 199 0
174 197 0
175 199 0
174 198 0
177 201 0
177 200 0
171 195 0
176 200 0
174 197 0
177 201 0
174 198 0
173 196 0
176 199 0
173 197 0
170 195 0
175 199 0
172 196 0
171 195 0
175 199 0
176 200 0
175 200 0
176 200 0
173 197 0
171 195 0
175 199 0
176 200 0
173 196 0
171 195 0
172 196 0
172 196 0
173 195 0
173 196 0
171 195 0
175 198 0
173 198 0
168 192 0
175 197 0
174 197 0
171 194 0
175 198 0
174 199 0
171 195 0
174 197 0
173 196 0
174 196 0
172 195 0
173 196 0
169 192 0
174 198 0
174 197 0
174 198 0
173 197 0
172 195 0
179 202 0
178 201 0
174 199 0
173 196 0
172 196 0
176 199 0
174 198 0
178 200 0
171 194 0
169 195 0
170 193 0
175 200 0
174 198 0
160 184 0
175 197 0
175 198 0
171 195 0
173 197 0
173 197 0
172 195 0
171 195 0
170 195 0
166 189 0
175 199 0
177 200 0
172 193 0
171 194 0
178 201 0
170 191 0
175 199 0
174 198 0
173 196 0
174 198 0
167 191 0
177 199 0
168 192 0
171 194 0
170 192 0
167 190 0
174 198 0
171 194 0
167 192 0
171 193 0
167 190 0
172 196 0
174 198 0
168 192 0
165 185 0
167 189 0
172 196 0
174 196 0
172 194 0
173 195 0
131 155 90
57 90 136
60 95 160
60 95 142
61 96 153
60 96 160
62 98 156
60 97 159
61 96 169
63 99 167
62 98 168
60 96 156
62 98 172
60 96 156
61 98 168
62 99 172
62 98 164
61 96 164
62 98 171
62 99 172
61 97 161
62 99 170
63 99 178
62 98 168
62 99 171
61 97 163
62 99 173
62 99 171
61 97 166
62 99 174
61 97 166
63 100 169
62 99 166
62 99 174
61 98 172
62 98 167
60 97 170
62 99 173
62 98 170
61 98 175
62 99 176
62 99 174
62 98 169
61 98 164
62 99 170
63 99 174
62 98 173
62 99 175
63 99 174
62 98 172
61 97 167
62 98 176
63 99 178
62 99 173
61 98 171
61 98 176
63 99 175
61 98 172
62 99 173
62 98 171
61 98 176
61 98 172
62 99 173
63 99 172
63 100 174
62 99 176
62 99 171
61 99 176
61 97 175
62 98 169
62 99 166
62 99 174
61 98 178
61 98 174
63 100 172
62 99 175
62 99 172
62 99 176
62 99 173
62 98 169
63 99 166
62 99 171
62 99 171
62 98 174
61 98 171
62 99 176
61 98 165
63 99 174
63 100 174
62 99 170
61 98 172
63 100 171
63 99 178
61 98 167
61 98 171
62 98 170
61 98 172
62 99 176
62 99 169
61 97 165
62 99 167
62 99 178
62 98 170
63 99 176
62 99 177
61 98 172
62 98 170
63 100 173
62 98 164
62 98 169
62 99 174
62 99 177
61 98 169
63 99 176
62 99 171
62 99 173
62 99 171
62 98 172
62 99 173
62 99 166
61 98 167
62 99 172
61 98 168
62 99 175
63 100 176
61 98 169
62 99 177
62 98 170
63 99 171
63 100 173
62 99 173
62 99 163
62 98 170
62 98 167
61 98 168
62 99 169
63 100 165
62 99 172
62 99 172
63 100 169
63 99 162
62 99 171
62 99 172
62 98 163
62 99 168
62 98 163
62 98 159
62 98 168
61 97 165
62 99 169
62 99 167
63 99 170
62 98 169
62 99 171
62 98 169
62 98 167
61 97 161
63 100 169
62 99 171
61 97 167
63 99 163
62 98 164
61 97 163
62 98 170
62 98 163
61 98 167
62 99 174
63 99 162
61 97 160
63 99 162
62 97 158
61 97 162
62 98 167
62 98 156
61 97 159
59 94 155
60 95 148
60 96 159
60 94 152
56 89 134
57 89 148
87 93 79
92 94 46
98 99 41
97 98 45
119 116 34
72 77 42
110 111 56
112 112 45
116 116 51
118 116 47
117 115 49
116 115 48
135 133 62
120 117 56
140 135 61
124 123 57
131 129 56
113 113 52
135 132 58
134 130 58
133 130 49
140 136 70
142 137 67
134 132 47
138 134 57
144 139 52
143 139 62
146 141 68
129 125 60
135 132 59
144 141 51
147 142 59
148 143 60
150 146 63
160 152 66
153 149 60
150 144 57
144 140 61
159 151 75
143 136 58
147 142 65
151 146 66
146 141 64
158 152 71
144 140 48
141 134 63
155 149 68
162 157 66
148 143 48
147 142 53
160 153 66
165 159 75
154 147 56
155 148 68
157 149 60
158 151 66
153 147 60
158 153 62
162 156 60
154 148 58
148 143 62
147 142 58
158 152 60
150 144 56
151 147 53
156 150 51
146 140 48
144 138 48
154 150 51
158 152 68
147 139 62
148 142 53
138 133 45
145 137 62
144 138 45
150 144 53
143 139 51
144 139 53
142 138 51
144 140 36
135 130 48
144 138 58
139 133 48
117 111 36
141 135 42
143 138 42
144 139 48
141 136 45
114 110 28
131 123 42
157 167 32
170 191 0
174 195 0
175 196 0
173 193 0
170 187 0
172 191 0
176 197 0
174 194 0
176 197 0
172 192 0
174 193 0
166 185 0
174 194 0
174 194 0
172 193 0
165 185 0
167 187 0
174 194 0
173 194 0
176 200 0
176 200 0
176 200 0
175 199 0
177 200 0
177 200 0
178 201 0
171 196 0
172 195 0
173 196 0
170 194 0
174 198 0
178 201 0
174 198 0
168 192 0
173 196 0
173 198 0
174 197 0
175 199 0
177 201 0
170 194 0
173 197 0
172 196 0
172 196 0
170 193 0
179 202 0
174 198 0
175 198 0
181 203 0
175 198 0
172 196 0
175 198 0
171 195 0
172 196 0
174 197 0
174 197 0
175 199 0
172 196 0
175 198 0
175 199 0
176 200 0
174 198 0
174 198 0
173 197 0
171 195 0
173 196 0
174 198 0
173 196 0
174 198 0
174 198 0
177 200 0
167 193 0
171 195 0
174 198 0
170 194 0
173 197 0
170 193 0
176 198 0
172 195 0
179 201 0
174 197 0
174 197 0
171 195 0
168 192 0
172 196 0
168 193 0
173 197 0
172 195 0
172 196 0
175 196 0
167 190 0
169 193 0
166 188 0
169 191 0
168 192 0
171 194 0
172 195 0
169 192 0
169 193 0
174 197 0
170 194 0
170 192 0
174 197 0
172 196 0
174 197 0
173 197 0
171 194 0
170 194 0
177 199 0
171 194 0
170 194 0
169 192 0
172 196 0
173 197 0
164 189 0
170 193 0
167 188 0
165 186 0
173 195 0
169 192 0
170 194 0
166 190 0
168 193 0
166 188 0
169 192 0
171 195 0
168 190 0
164 187 0
171 194 0
105 130 119
59 93 148
59 94 162
60 94 144
61 96 161
61 96 156
60 95 159
60 96 163
61 97 164
61 97 166
61 97 161
61 97 159
61 97 160
61 98 161
61 98 168
62 98 172
62 98 159
63 99 172
61 97 162
60 96 156
62 99 171
62 99 170
62 99 174
62 98 172
62 98 168
63 100 176
61 98 180
63 99 174
62 99 172
64 100 176
62 98 164
62 99 170
62 98 167
61 98 164
62 99 176
62 99 178
63 99 162
62 98 172
61 98 167
62 98 174
62 99 173
62 99 172
62 99 174
63 99 171
63 100 178
62 99 170
62 98 171
62 98 167
61 97 170
62 98 172
61 98 169
61 98 174
62 98 176
63 99 174
63 99 178
60 97 167
62 99 172
62 98 174
62 98 176
62 99 174
61 98 163
62 98 174
62 99 178
62 99 171
62 99 173
62 99 174
61 97 165
62 98 168
62 99 178
63 99 174
61 98 176
61 98 175
62 99 170
61 98 173
62 98 168
63 99 178
63 99 174
62 99 176
62 98 178
62 98 171
62 99 171
62 99 176
60 97 169
62 99 174
61 98 168
63 99 176
61 98 169
63 100 178
61 97 172
60 97 167
63 99 169
63 100 172
62 99 172
62 99 169
60 97 175
62 98 162
63 99 174
62 99 176
62 99 174
63 100 178
63 99 173
62 99 170
62 99 172
61 98 174
62 99 175
62 99 173
63 100 170
62 98 168
62 99 172
62 99 178
62 98 172
62 99 171
63 99 173
61 98 174
62 99 168
63 99 171
62 99 171
62 99 177
62 98 172
62 99 174
63 100 148
61 97 162
63 99 176
62 99 171
62 98 167
62 99 174
62 98 170
61 97 167
62 98 173
62 98 166
62 99 179
62 99 170
62 98 170
62 99 174
61 98 166
62 99 174
62 99 167
62 99 178
63 99 167
64 100 178
62 99 172
62 98 162
62 99 171
62 99 169
62 99 174
63 99 174
63 99 169
62 98 164
62 99 167
61 98 169
63 99 169
62 99 165
62 98 165
62 99 168
61 97 158
62 98 170
62 98 172
62 99 172
61 98 165
62 98 165
60 96 159
62 98 167
63 99 162
62 99 165
62 99 163
62 98 162
62 98 162
62 98 163
60 96 159
63 98 164
61 97 156
63 99 168
61 97 158
61 97 159
60 94 153
62 98 165
62 98 168
59 95 149
60 94 156
58 92 151
59 92 147
71 88 96
101 102 40
99 100 45
113 111 43
91 90 35
99 101 49
111 110 45
100 101 43
109 107 43
119 118 51
107 108 50
112 111 44
113 113 44
137 133 55
126 124 63
128 125 58
136 132 60
128 125 64
119 117 44
116 113 32
134 130 56
141 136 58
133 131 59
133 131 34
138 134 60
142 138 50
135 131 45
152 146 64
146 140 66
138 135 59
143 139 53
149 144 60
136 132 64
155 149 63
149 144 69
146 143 48
148 145 64
156 149 66
152 146 62
155 149 65
148 145 41
159 153 67
148 143 56
147 143 53
147 141 61
158 152 61
137 135 36
153 147 61
141 136 56
163 156 64
153 147 48
157 152 62
140 136 56
154 147 64
143 137 58
159 152 66
152 148 53
154 147 58
158 152 66
146 140 58
152 146 51
136 131 45
142 136 56
154 149 53
147 141 48
136 133 39
144 139 48
151 144 56
151 144 62
152 147 53
134 129 48
146 141 48
152 146 60
146 141 53
129 122 48
142 135 51
139 135 48
145 139 45
143 139 39
143 138 45
142 137 51
141 136 42
130 125 45
143 137 45
132 125 48
132 128 32
129 122 36
127 124 42
116 109 39
137 137 36
172 193 0
172 193 0
173 194 0
167 185 0
171 190 0
169 190 0
161 178 0
173 192 0
172 191 0
173 194 0
171 191 0
168 186 0
170 191 0
174 194 0
170 190 0
177 200 0
174 195 0
174 194 0
171 193 0
168 190 0
174 196 0
177 200 0
177 201 0
173 197 0
174 198 0
175 198 0
173 197 0
177 199 0
171 195 0
171 194 0
172 197 0
175 199 0
174 198 0
177 199 0
175 198 0
180 202 0
175 198 0
173 197 0
171 194 0
174 198 0
173 197 0
174 198 0
176 200 0
174 197 0
170 194 0
176 200 0
171 195 0
172 195 0
173 198 0
174 197 0
171 194 0
172 196 0
174 198 0
175 199 0
179 203 0
174 197 0
172 197 0
176 200 0
175 199 0
173 198 0
172 196 0
173 197 0
171 194 0
177 201 0
172 196 0
181 204 0
176 200 0
176 200 0
169 193 0
175 200 0
171 196 0
177 200 0
176 199 0
178 202 0
171 194 0
175 198 0
170 194 0
171 196 0
173 197 0
174 197 0
175 198 0
173 195 0
170 193 0
179 200 0
177 200 0
172 196 0
174 197 0
171 194 0
169 194 0
167 191 0
176 198 0
171 196 0
173 197 0
174 198 0
171 194 0
171 196 0
166 191 0
165 189 0
168 189 0
169 194 0
170 193 0
175 198 0
167 191 0
171 194 0
172 195 0
172 195 0
170 194 0
173 197 0
168 191 0
167 190 0
174 196 0
168 192 0
172 196 0
171 194 0
165 188 0
175 197 0
166 190 0
166 190 0
177 199 0
166 189 0
166 190 0
173 196 0
164 187 0
168 190 0
165 190 0
169 192 0
168 191 0
167 190 0
167 192 0
66 95 130
59 94 155
57 92 143
59 94 150
60 95 151
60 96 160
60 95 142
61 97 157
62 98 166
61 97 162
62 98 164
61 97 166
61 97 162
63 99 167
63 99 168
62 98 168
61 98 163
62 99 174
62 98 164
62 98 174
62 98 169
63 99 167
61 98 172
61 98 167
62 98 165
61 98 170
62 98 165
62 98 174
62 99 171
62 98 170
63 100 173
61 98 175
61 98 168
61 98 168
63 99 169
60 96 165
61 98 169
62 98 170
64 101 174
61 98 174
62 99 172
62 99 171
62 99 167
61 98 178
62 99 171
61 98 169
62 99 166
63 99 166
63 99 173
62 99 177
62 98 174
62 99 173
61 98 174
61 97 164
62 99 174
62 99 173
62 99 172
62 99 176
63 99 169
62 98 174
62 99 174
63 99 172
61 98 169
62 99 176
61 98 167
62 99 174
62 98 169
62 99 178
62 99 171
62 98 172
62 99 175
61 98 164
62 99 174
63 99 171
62 98 168
62 98 165
63 99 176
62 99 172
62 98 172
62 99 173
62 99 176
63 100 176
62 98 175
61 97 171
61 98 168
61 98 159
62 98 170
62 98 169
63 100 176
62 99 173
62 99 168
61 99 174
61 98 173
61 98 171
62 99 169
61 98 165
62 99 176
62 99 176
62 99 170
61 98 171
63 99 173
63 100 174
62 99 171
62 98 168
62 98 178
62 99 174
62 99 169
62 98 171
62 98 170
61 98 175
62 99 174
62 98 172
64 100 174
61 98 166
61 97 163
62 98 167
62 99 173
62 99 175
61 98 166
62 99 169
62 98 172
63 99 172
62 99 170
62 98 168
62 99 173
62 98 170
61 98 161
63 100 171
62 98 169
62 98 167
63 99 170
62 99 172
62 99 172
63 100 176
63 99 169
63 99 171
62 98 161
63 99 176
61 98 170
61 98 170
62 98 163
62 98 165
62 99 172
62 98 169
62 99 173
61 98 161
62 98 169
62 99 176
63 98 162
62 98 169
63 99 169
63 99 171
62 98 169
62 99 167
62 99 171
63 99 171
62 98 168
62 97 165
62 98 166
62 99 168
63 99 165
61 98 158
62 97 165
63 99 166
61 98 160
64 100 155
62 99 160
62 98 156
62 98 160
61 97 170
62 98 165
60 95 156
61 97 157
61 96 157
62 97 157
60 95 151
60 95 155
59 94 145
57 91 145
59 93 148
58 92 147
62 89 127
87 89 39
113 112 37
108 108 45
96 97 40
117 114 31
97 97 41
114 112 46
108 107 48
119 118 53
123 120 43
117 115 49
101 100 41
114 112 49
141 134 61
122 120 49
127 123 49
123 122 36
124 123 48
118 116 47
134 131 54
132 129 47
128 125 61
139 137 57
140 137 57
125 123 49
138 135 57
133 132 53
144 140 43
143 139 64
135 130 57
126 123 44
128 127 44
138 133 57
145 141 62
139 135 58
156 150 68
137 134 44
152 147 67
148 143 53
157 151 60
151 144 59
161 156 66
153 146 62
148 142 56
150 144 59
152 147 49
151 146 56
144 139 53
154 147 66
150 148 28
150 144 42
151 145 58
147 141 64
157 150 51
151 144 58
166 159 72
161 154 56
143 137 58
143 139 53
155 150 45
151 145 58
161 155 58
156 150 58
152 147 56
139 135 51
149 142 42
141 137 36
143 139 48
151 146 48
138 133 48
132 128 48
142 138 45
149 144 56
151 145 56
144 139 45
154 149 51
138 133 36
124 120 48
142 136 45
134 126 51
135 128 53
136 130 56
149 143 42
130 124 48
127 122 42
134 130 32
120 114 39
115 112 28
164 181 16
171 192 0
166 186 0
172 190 0
169 189 0
167 186 0
165 180 0
167 184 0
163 180 0
174 192 0
175 194 0
168 185 0
168 186 0
176 198 0
170 192 0
167 189 0
171 189 0
170 190 0
173 196 0
176 193 0
170 191 0
173 197 0
171 195 0
175 197 0
177 200 0
178 201 0
175 199 0
175 199 0
173 196 0
169 194 0
174 198 0
170 194 0
177 201 0
175 200 0
173 197 0
171 195 0
177 201 0
175 199 0
178 201 0
175 199 0
174 197 0
177 200 0
172 197 0
172 196 0
170 194 0
177 201 0
175 200 0
177 200 0
173 198 0
180 203 0
172 196 0
174 198 0
180 203 0
182 206 0
175 199 0
172 195 0
178 202 0
171 195 0
173 198 0
181 205 0
177 201 0
176 201 0
177 202 0
175 200 0
179 203 0
172 196 0
179 203 0
175 199 0
172 197 0
178 202 0
173 197 0
176 200 0
174 198 0
173 197 0
179 202 0
177 201 0
173 197 0
175 199 0
178 201 0
174 198 0
170 193 0
172 196 0
174 198 0
171 195 0
173 197 0
174 197 0
174 198 0
176 200 0
172 195 0
171 194 0
173 196 0
177 199 0
172 196 0
169 191 0
170 195 0
174 197 0
171 194 0
174 197 0
174 197 0
169 193 0
171 195 0
171 194 0
169 191 0
175 198 0
172 193 0
169 193 0
177 199 0
170 195 0
166 189 0
175 199 0
175 198 0
170 193 0
168 193 0
162 186 0
167 190 0
171 194 0
172 194 0
175 198 0
174 198 0
166 190 0
167 190 0
174 196 0
168 191 0
173 196 0
167 190 0
169 192 0
161 185 0
165 186 0
173 197 0
156 177 61
57 90 146
58 92 147
59 94 154
59 94 151
60 95 157
61 96 159
61 97 161
59 94 152
61 97 166
61 98 164
63 99 172
61 97 164
61 97 166
62 99 164
60 96 160
61 97 163
61 97 162
61 98 168
62 98 168
62 98 162
62 99 167
62 99 174
60 97 164
62 98 168
63 100 178
61 98 178
62 99 172
62 98 167
62 99 178
62 99 174
60 97 174
61 98 166
62 98 172
63 100 176
62 99 167
62 99 173
62 98 169
62 99 173
63 99 178
62 98 170
62 98 164
62 99 175
63 99 172
61 98 167
62 99 168
62 98 169
61 98 174
63 100 172
62 98 176
61 98 170
61 98 172
62 98 171
63 99 174
62 98 162
61 98 174
62 99 173
61 98 172
61 98 170
62 99 172
63 99 170
63 99 173
62 99 168
61 98 172
61 98 167
62 99 169
63 99 176
61 98 170
62 98 167
63 99 170
61 98 180
62 99 174
62 99 171
62 98 172
62 99 174
63 99 176
63 99 179
62 99 172
62 99 172
61 98 175
63 99 178
62 99 176
62 99 172
62 99 180
62 98 170
61 98 176
62 99 173
62 99 169
63 100 169
62 99 172
62 99 174
62 99 167
62 98 169
62 99 176
62 99 174
63 99 176
63 99 179
62 99 171
63 99 169
61 98 168
63 99 177
61 98 177
62 99 172
62 99 174
62 99 178
61 98 170
62 99 174
63 99 178
62 98 176
61 97 172
61 97 171
62 99 174
63 99 171
62 98 168
61 98 173
63 99 165
62 98 165
62 99 172
63 99 172
61 98 174
63 99 173
61 98 174
61 98 169
62 99 178
62 98 173
62 98 169
61 98 166
62 98 167
62 99 171
61 98 167
62 99 174
62 99 167
62 98 174
62 99 176
63 99 176
62 98 165
61 98 163
62 99 172
62 99 174
62 98 174
61 98 162
62 98 169
62 98 167
63 99 163
63 99 170
62 98 167
63 99 168
62 99 169
63 100 168
61 97 159
61 98 166
61 97 160
63 99 162
62 98 162
61 98 167
62 98 163
60 97 156
62 98 163
61 98 166
61 97 159
63 99 165
63 99 175
62 98 165
62 99 167
63 99 165
62 98 156
62 99 163
62 98 161
61 97 163
63 100 162
60 94 154
63 99 162
62 98 166
60 96 150
61 97 160
60 96 157
60 95 161
61 97 156
61 95 148
60 95 149
59 94 148
57 90 144
57 88 140
99 100 50
114 109 33
112 110 44
106 106 44
107 108 46
87 88 40
128 125 53
109 107 52
122 120 46
99 100 47
136 132 50
115 114 38
123 121 56
108 109 41
117 115 48
140 137 44
117 115 48
134 131 39
138 134 59
129 126 61
120 117 39
115 115 52
135 131 58
133 129 57
126 123 50
149 145 57
160 153 65
135 129 58
143 139 59
142 137 55
154 147 63
133 128 55
148 144 57
138 135 47
154 149 62
146 142 52
140 135 47
156 150 70
157 151 57
144 139 47
143 139 57
150 145 56
150 144 73
156 150 62
146 142 51
150 145 57
152 146 58
157 151 62
156 150 60
154 148 70
146 142 49
156 149 65
147 143 45
151 145 56
153 146 58
157 151 60
155 149 53
161 154 58
149 145 62
148 143 45
148 141 51
153 148 53
157 150 48
144 139 42
139 133 45
140 134 58
141 137 39
149 144 45
150 143 58
144 137 51
140 134 42
137 131 53
137 133 39
144 137 51
145 140 45
130 123 39
134 130 36
136 129 48
134 130 32
134 128 32
135 129 42
132 128 32
128 122 36
126 120 36
126 122 36
119 114 36
106 102 16
151 163 28
167 186 0
169 188 0
170 187 0
168 189 0
165 183 0
170 186 0
165 182 0
171 193 0
167 180 0
170 188 0
161 182 0
168 187 0
164 180 0
174 195 0
172 191 0
168 188 0
173 193 0
173 194 0
172 193 0
172 192 0
166 186 0
172 196 0
178 201 0
170 194 0
175 199 0
175 199 0
171 195 0
178 201 0
168 191 0
177 201 0
173 197 0
178 201 0
174 198 0
173 196 0
174 198 0
174 198 0
172 195 0
173 197 0
173 197 0
170 193 0
173 197 0
178 201 0
180 204 0
175 198 0
178 202 0
175 199 0
180 204 0
175 199 0
179 204 0
177 201 0
180 204 0
181 206 0
180 205 0
178 203 0
176 200 0
179 203 0
182 206 0
177 201 0
177 200 51
182 205 51
181 205 62
185 210 36
179 203 36
182 207 51
185 208 51
178 203 0
182 206 0
188 213 51
176 199 51
185 211 0
180 204 0
168 193 0
174 199 0
179 203 0
183 208 0
176 200 0
171 195 0
178 201 0
178 203 0
174 198 0
177 200 0
171 195 0
179 203 0
175 199 0
176 200 0
172 196 0
173 197 0
171 195 0
173 196 0
167 190 0
171 194 0
169 192 0
171 194 0
173 196 0
176 199 0
171 195 0
170 192 0
174 197 0
171 196 0
164 189 0
168 192 0
173 196 0
165 189 0
170 194 0
171 194 0
174 198 0
170 192 0
174 198 0
166 189 0
171 193 0
169 191 0
164 187 0
166 191 0
171 194 0
170 194 0
171 195 0
172 196 0
176 199 0
170 193 0
173 196 0
169 193 0
174 196 0
168 192 0
167 190 0
176 198 0
166 189 0
169 190 0
169 191 0
175 197 0
147 171 64
57 90 148
58 93 146
58 93 157
61 96 165
59 95 154
60 95 159
60 97 163
61 97 159
60 95 162
60 96 160
61 97 163
59 94 148
61 97 168
61 98 167
63 99 166
62 98 170
61 97 166
62 99 174
62 99 169
61 98 174
62 98 168
62 99 176
62 99 172
60 97 159
62 99 166
62 98 173
62 98 172
62 98 170
61 97 165
63 99 166
62 98 169
61 98 170
62 99 171
61 98 174
62 98 176
62 99 173
62 99 167
61 98 169
61 98 167
62 98 169
64 101 175
61 98 168
61 98 168
62 99 173
62 99 170
62 98 169
62 98 174
63 99 173
61 98 172
62 98 171
62 98 172
63 100 167
64 100 176
62 99 173
64 100 176
62 99 172
62 98 172
62 98 173
62 98 173
61 97 166
62 98 172
62 99 176
62 99 177
62 99 172
62 98 171
62 99 174
63 99 176
62 99 172
62 99 174
61 98 174
61 98 160
62 99 172
62 98 174
62 99 165
63 99 173
62 98 171
63 100 175
62 99 176
62 98 168
61 98 172
61 97 167
60 96 163
62 99 178
62 99 178
62 99 175
62 99 169
61 98 174
61 98 173
63 99 167
62 99 167
61 98 172
62 98 175
63 99 169
62 99 168
62 99 167
63 99 171
61 97 168
62 99 176
62 99 176
61 98 170
61 98 174
62 98 170
63 99 173
62 99 173
62 99 169
63 100 178
62 98 168
62 98 170
62 99 176
62 98 174
62 99 173
62 98 174
63 100 172
60 97 167
61 97 165
61 97 160
63 99 168
61 98 166
62 98 168
62 98 167
62 99 172
62 99 173
63 99 175
63 100 176
62 98 168
61 98 169
62 99 167
62 99 180
61 98 168
62 98 172
64 100 174
62 99 170
62 99 165
62 99 169
63 99 171
63 99 169
62 98 174
64 100 169
61 98 168
63 100 171
62 99 174
62 99 171
61 97 166
62 98 168
63 99 170
62 99 169
63 100 177
62 98 163
61 98 163
62 98 169
63 99 154
62 99 168
62 98 162
62 98 164
62 99 167
62 99 167
62 98 161
62 99 169
60 97 167
63 99 167
63 99 170
61 97 163
61 97 163
62 98 160
62 98 163
62 99 159
61 97 165
62 98 164
62 98 154
63 99 164
61 96 158
63 99 166
61 96 154
61 96 155
59 94 151
60 96 146
59 94 149
60 94 146
59 94 155
60 94 142
58 92 141
56 89 144
96 101 83
102 102 42
94 96 40
103 105 47
104 104 44
105 102 34
90 90 34
112 112 35
123 121 53
122 120 40
105 104 34
110 107 34
122 120 42
112 112 54
124 122 53
133 130 51
127 126 40
146 141 53
127 124 44
139 135 55
140 136 66
147 141 59
137 135 53
127 126 52
140 136 54
145 141 60
139 134 60
152 146 64
150 145 62
137 133 52
151 145 48
140 137 48
148 143 61
157 151 61
156 150 64
150 144 64
156 149 71
138 135 47
140 135 49
156 151 52
138 134 36
143 139 42
141 136 53
152 143 60
146 140 49
155 150 58
161 154 58
143 138 52
149 142 58
152 146 60
141 137 48
148 141 58
150 145 56
151 145 53
145 140 51
147 140 60
154 148 58
152 144 60
143 137 51
149 143 58
153 146 53
155 150 53
142 137 51
143 138 53
150 143 62
145 140 45
138 133 48
148 141 53
144 140 48
145 138 45
137 131 42
144 136 48
138 132 58
134 127 51
131 124 45
138 133 42
129 123 39
142 137 42
128 122 39
130 124 45
130 125 39
117 113 36
129 125 39
129 124 42
126 121 32
135 130 45
143 152 22
168 185 0
174 194 0
167 185 0
170 188 0
169 189 0
170 189 0
172 192 0
173 192 0
165 184 0
175 194 0
170 188 0
172 185 0
173 191 0
170 190 0
171 192 0
169 189 0
166 187 0
177 194 0
172 191 0
168 190 0
172 190 0
168 189 0
172 196 0
174 197 0
175 199 0
174 197 0
170 193 0
178 201 0
173 196 0
172 197 0
176 199 0
172 197 0
175 199 0
175 198 0
171 195 0
165 188 0
176 201 0
175 199 0
176 201 0
176 199 0
179 204 0
182 206 0
175 200 0
182 207 0
175 200 0
179 203 0
180 205 0
184 208 0
182 205 62
179 203 36
185 208 80
185 207 88
193 214 130
186 207 102
190 210 135
192 213 135
186 207 120
181 202 114
190 209 140
192 211 144
190 209 135
188 208 130
189 209 135
191 211 153
195 214 157
195 214 161
194 213 153
195 214 165
198 217 149
190 210 140
189 210 140
185 206 120
186 206 125
184 205 114
191 215 72
185 206 125
187 207 114
185 208 95
176 199 36
177 200 0
175 200 0
175 199 0
176 200 0
187 210 0
176 201 0
176 201 0
169 194 0
175 199 0
174 197 0
177 201 0
175 199 0
171 194 0
174 197 0
169 193 0
166 188 0
170 195 0
175 198 0
172 194 0
175 199 0
172 197 0
169 192 0
162 185 0
172 195 0
171 196 0
171 194 0
168 192 0
170 194 0
171 194 0
171 196 0
168 191 0
174 196 0
169 193 0
172 195 0
171 195 0
170 194 0
167 189 0
172 195 0
167 189 0
163 185 0
165 188 0
173 195 0
170 193 0
167 190 0
168 191 0
168 193 0
166 189 0
168 193 0
168 191 0
169 193 0
170 192 0
131 155 98
57 90 142
58 93 149
59 95 148
60 96 158
60 96 156
60 96 155
61 97 170
62 98 165
60 96 158
62 98 157
61 98 170
61 97 166
61 97 158
61 98 164
62 99 169
62 98 166
62 98 169
62 98 161
63 99 166
61 98 174
61 97 164
61 98 169
61 98 165
61 97 160
61 98 169
62 98 172
61 97 155
62 99 164
60 97 163
62 98 177
61 97 165
62 99 174
62 99 163
62 99 167
62 99 174
61 98 166
62 98 175
63 99 176
60 97 167
63 99 173
62 98 168
62 99 171
62 99 174
62 99 174
62 99 176
62 98 171
61 97 172
61 97 171
61 98 163
62 99 174
61 98 167
62 98 172
62 98 172
62 99 176
62 99 171
64 100 175
62 98 172
62 98 174
62 98 173
63 99 178
63 100 178
63 100 171
62 99 173
61 98 168
62 98 172
61 98 170
63 99 171
62 99 173
62 98 166
62 99 167
62 98 175
62 99 169
61 98 170
63 100 176
61 98 175
62 98 169
62 99 178
62 98 168
61 97 167
61 97 161
62 99 171
60 97 174
63 100 178
62 98 168
61 97 168
62 98 172
62 98 173
62 98 174
63 99 172
62 99 174
63 99 174
62 98 169
61 98 168
62 98 172
62 99 171
63 99 171
61 98 166
62 99 170
62 99 170
61 97 167
62 98 174
62 99 174
63 100 176
63 99 168
63 99 167
62 99 172
61 98 169
62 99 175
62 98 161
63 99 175
62 99 177
64 100 174
63 100 165
62 99 173
62 99 173
62 98 173
61 98 169
62 99 168
62 99 176
62 99 174
62 99 171
62 99 172
62 98 161
63 99 174
62 99 176
62 98 170
61 98 168
62 98 164
61 98 172
62 99 173
63 99 166
62 98 170
63 99 176
62 98 164
62 98 165
61 97 163
63 100 171
60 97 165
62 99 165
61 97 165
62 99 168
62 98 160
62 98 163
61 98 165
62 98 168
63 100 165
62 98 167
61 97 157
61 98 165
61 97 161
62 98 168
62 98 170
62 98 167
63 99 167
64 100 176
64 100 167
63 99 167
63 99 167
62 98 163
62 98 170
62 98 165
63 99 165
62 98 154
62 98 161
62 98 159
61 97 162
61 97 161
61 97 153
61 96 157
62 97 168
61 96 160
62 99 160
60 94 146
62 97 152
62 98 162
61 96 160
60 95 138
61 96 162
57 90 144
58 92 138
60 94 154
57 90 145
78 91 94
105 102 34
91 89 28
110 110 39
97 97 27
110 108 37
102 99 40
114 113 46
110 110 45
107 105 37
125 122 45
118 117 51
131 127 58
118 116 52
118 114 45
123 120 49
124 122 48
139 136 43
132 129 55
119 117 45
139 133 60
130 126 52
135 131 53
130 126 46
136 132 59
122 120 36
141 138 48
144 139 57
145 140 57
137 134 53
138 135 58
137 132 54
142 137 52
138 135 56
128 126 34
143 139 58
149 143 58
157 151 63
155 148 64
152 145 56
140 136 49
156 149 65
138 133 51
139 134 57
140 136 53
152 144 53
152 147 42
150 145 56
142 138 42
154 148 58
155 150 45
156 151 48
141 137 39
157 150 66
145 140 45
152 146 56
137 132 45
144 139 45
147 142 53
147 142 48
152 145 60
152 147 58
139 134 39
151 146 48
141 136 53
135 131 36
160 153 60
136 131 28
132 128 42
138 131 39
130 126 39
149 143 45
148 143 45
146 140 53
122 116 36
130 124 45
132 125 39
135 130 42
134 128 39
145 138 42
138 131 42
138 133 45
125 119 42
103 97 22
129 122 42
116 116 28
169 186 0
164 178 0
165 182 0
166 185 0
170 189 0
172 188 0
169 189 0
172 191 0
172 194 0
169 187 0
164 180 0
169 187 0
170 188 0
171 192 0
170 191 0
167 185 0
166 184 0
179 199 0
170 188 0
175 197 0
172 190 0
172 191 0
172 193 0
176 200 0
172 196 0
171 193 0
171 196 0
176 199 0
174 198 0
176 200 0
174 198 0
174 198 0
173 197 0
175 199 0
169 193 0
177 201 0
177 200 0
176 200 0
177 202 0
182 207 0
176 202 0
177 201 0
178 203 0
181 206 0
179 201 80
182 205 95
186 207 125
184 204 114
187 208 125
192 212 144
188 208 130
186 207 130
192 212 149
193 213 153
191 211 135
185 206 114
190 212 120
195 215 161
187 206 120
187 207 114
193 212 149
188 209 108
187 208 125
185 206 114
187 208 114
188 210 114
180 202 102
188 210 108
182 205 102
183 204 108
184 205 114
180 203 102
185 207 108
191 211 130
188 209 125
187 208 130
187 208 135
192 211 135
192 212 140
188 209 130
187 207 135
183 205 108
190 211 114
184 205 114
182 205 80
178 202 36
172 195 0
176 200 0
177 201 0
182 207 0
177 200 0
177 200 0
177 200 0
175 199 0
180 203 0
175 198 0
174 197 0
174 197 0
171 195 0
170 194 0
170 192 0
166 189 0
175 199 0
170 194 0
172 196 0
169 192 0
174 196 0
176 198 0
174 197 0
171 194 0
162 186 0
171 194 0
169 193 0
166 190 0
166 190 0
165 189 0
170 194 0
171 194 0
165 189 0
169 191 0
164 187 0
169 193 0
169 192 0
163 186 0
167 192 0
165 188 0
168 192 0
168 191 0
167 188 0
169 192 0
164 187 0
116 141 110
58 93 159
59 94 153
60 95 146
60 95 155
60 95 151
61 97 164
59 95 161
62 98 159
61 98 158
61 98 175
62 98 162
61 96 157
61 96 157
62 98 168
61 98 158
61 98 170
62 99 168
62 99 168
61 97 166
63 99 172
61 97 170
62 98 161
62 98 174
63 100 169
62 99 173
62 99 165
62 98 170
60 96 167
62 99 168
62 99 168
61 98 163
60 96 165
62 99 172
61 98 166
63 100 171
62 99 165
63 99 172
60 97 168
62 99 167
62 98 167
62 99 177
62 99 168
61 97 162
61 98 170
61 98 170
62 98 158
62 99 171
62 99 177
61 97 168
63 99 171
62 98 169
62 99 171
61 97 167
63 99 174
62 99 173
62 99 174
62 98 173
61 97 167
62 99 171
62 98 174
62 98 172
62 98 173
62 99 176
62 99 177
62 99 172
62 99 176
62 99 175
61 98 174
62 98 173
62 99 172
61 98 171
62 99 172
62 99 171
62 98 169
63 99 175
62 99 173
62 99 176
62 98 175
61 98 176
63 99 173
62 99 173
62 99 172
62 98 163
62 99 170
61 97 169
61 98 167
62 99 176
62 99 174
63 99 169
62 98 174
61 98 172
63 99 169
62 98 170
62 99 176
62 98 165
63 99 172
61 98 167
62 98 173
63 100 173
62 99 169
62 98 172
62 99 172
62 99 178
61 97 156
62 99 165
62 99 174
62 99 174
61 98 170
63 99 177
62 99 161
61 98 175
62 99 174
62 98 164
62 98 163
63 100 171
63 99 173
61 98 173
63 100 169
62 98 169
62 98 161
60 97 167
61 97 169
62 98 168
63 99 175
63 99 172
62 99 162
63 99 169
61 97 154
62 99 171
62 99 174
61 98 163
63 99 175
64 100 171
62 98 165
62 98 172
62 98 165
62 98 164
62 98 171
62 99 163
62 98 152
62 99 157
62 99 161
63 99 170
62 98 173
62 98 167
62 99 167
62 99 170
62 99 171
61 98 165
62 99 171
61 98 163
63 100 171
62 98 163
64 100 169
61 97 164
62 99 171
62 99 171
63 99 173
63 99 171
62 98 165
62 98 159
63 99 170
61 98 157
61 97 166
62 99 163
63 99 155
63 99 167
62 98 159
61 97 160
62 98 162
61 97 160
62 98 164
60 95 156
61 96 149
61 97 162
60 96 155
62 98 165
61 96 159
59 94 153
60 94 157
57 91 144
58 90 145
73 92 119
105 103 32
96 93 38
115 111 41
99 100 25
110 108 42
106 104 34
100 101 27
114 113 36
105 105 39
107 105 28
118 115 30
115 113 38
94 95 32
140 135 32
135 130 39
126 125 38
126 125 39
136 130 54
139 134 57
139 134 54
120 120 37
144 141 51
138 132 47
136 130 48
146 142 57
147 142 65
141 138 38
155 148 60
153 147 62
144 140 58
149 144 62
148 143 45
152 145 64
153 147 51
148 142 68
150 144 59
148 143 41
139 134 36
149 144 48
138 133 49
147 142 49
146 141 57
145 140 56
155 150 48
146 142 53
142 136 48
146 141 48
152 147 39
153 149 51
141 135 53
156 150 51
147 141 51
148 143 45
135 131 45
150 145 48
150 144 58
161 155 62
152 146 51
147 141 56
137 133 32
145 140 53
142 136 53
147 141 58
147 142 56
135 130 36
143 136 60
133 129 39
130 127 39
146 139 48
139 134 56
143 135 51
144 138 48
136 132 48
128 123 36
132 126 42
140 136 42
135 129 39
120 115 28
125 118 45
108 105 32
127 122 42
137 132 39
110 107 22
124 127 22
159 173 0
166 184 0
166 182 0
179 197 0
172 192 0
163 181 0
173 195 0
167 179 0
170 188 0
166 182 0
165 182 0
175 194 0
165 182 0
171 189 0
170 189 0
171 191 0
165 188 0
174 193 0
171 191 0
173 193 0
170 190 0
167 188 0
172 192 0
174 190 0
176 200 0
173 196 0
177 201 0
176 200 0
174 197 0
174 198 0
179 202 0
170 193 0
175 198 0
178 203 0
173 198 0
174 198 0
176 201 0
176 200 0
176 201 0
176 200 0
183 206 80
179 202 88
188 210 114
189 209 135
190 210 125
185 206 120
191 211 149
187 207 120
188 208 120
183 205 114
189 210 125
186 207 135
188 209 130
187 209 114
190 211 135
192 212 153
191 212 114
186 208 125
187 209 120
189 210 140
188 210 114
191 212 125
187 208 130
183 205 108
189 211 130
179 203 80
186 208 108
187 209 114
192 214 114
185 207 114
184 206 95
180 203 88
187 208 125
192 213 144
186 208 125
183 204 120
189 210 130
182 203 114
184 207 88
184 206 102
184 207 114
189 209 130
188 208 130
183 204 130
191 211 140
186 207 120
183 204 125
187 208 114
187 206 130
184 205 120
181 205 72
178 203 36
182 205 0
177 201 0
176 200 0
175 200 0
177 201 0
176 200 0
175 199 0
177 200 0
173 195 0
161 186 0
173 195 0
171 193 0
172 196 0
172 195 0
174 198 0
171 195 0
174 197 0
164 186 0
175 198 0
171 194 0
175 199 0
165 190 0
169 192 0
169 192 0
168 191 0
171 195 0
172 196 0
170 192 0
168 192 0
167 190 0
173 197 0
168 191 0
164 185 0
169 193 0
164 187 0
170 193 0
170 192 0
169 193 0
174 197 0
165 187 0
87 114 130
59 93 149
59 94 155
60 95 144
58 92 151
61 97 159
61 97 160
61 96 161
61 97 165
61 96 154
62 98 166
60 96 154
61 97 163
62 98 163
60 96 156
61 97 162
61 98 168
60 96 162
62 98 165
62 99 174
60 97 168
63 99 170
62 98 170
62 98 172
62 98 170
62 98 168
61 98 165
62 99 169
62 98 170
61 97 158
61 98 169
62 99 172
61 97 166
61 98 171
61 97 161
63 100 172
61 98 168
62 98 173
63 99 175
63 100 170
62 99 176
62 98 174
63 99 173
59 95 167
62 99 174
63 99 169
62 98 163
61 97 166
62 99 173
62 98 169
62 99 177
62 99 173
63 99 170
61 98 166
62 98 167
62 99 175
62 98 170
62 98 171
60 96 166
63 99 176
63 100 173
61 98 170
61 98 167
61 97 170
62 98 166
61 98 171
63 99 169
61 97 166
62 99 173
62 98 168
61 98 169
62 99 175
62 98 171
61 98 170
62 98 165
62 98 175
61 98 176
62 99 172
62 99 174
61 97 161
62 98 176
61 98 176
61 98 169
61 97 161
62 98 166
61 98 171
61 98 166
61 98 165
62 98 166
62 99 170
62 98 166
61 98 172
62 98 174
61 98 174
62 99 174
62 98 171
61 97 165
61 98 168
63 99 169
62 98 176
61 98 170
62 99 178
61 98 175
63 100 169
63 100 172
63 99 176
62 99 166
63 99 172
62 99 173
61 98 165
62 98 174
63 100 180
62 99 177
63 100 171
62 99 169
61 98 173
62 99 170
61 97 164
62 99 173
62 99 173
63 100 173
62 99 167
62 98 170
63 100 178
63 100 170
62 99 169
61 97 158
61 98 171
61 98 160
61 97 164
62 99 174
62 98 172
62 98 172
62 98 168
62 99 166
61 98 170
62 99 172
62 98 164
62 99 175
63 99 173
62 99 170
62 99 174
62 98 167
62 98 170
62 99 167
63 99 163
63 99 169
62 98 167
62 98 163
62 98 162
61 98 165
64 100 171
61 98 171
63 99 171
61 97 161
63 99 167
60 97 150
61 98 165
62 99 167
62 98 157
61 97 163
62 99 164
62 97 158
63 99 161
62 98 165
62 98 159
62 98 163
61 97 156
63 100 168
63 99 158
62 98 160
63 99 170
61 96 160
61 96 154
61 96 156
63 99 166
60 95 147
61 96 155
60 95 157
60 95 159
58 92 143
57 90 125
58 91 147
66 89 117
84 85 31
101 101 40
104 105 30
110 109 30
109 109 34
104 100 37
102 99 31
119 115 24
118 114 41
121 117 47
125 122 46
111 110 24
121 118 47
121 120 47
123 120 39
120 117 48
118 117 38
124 123 44
136 132 52
126 121 46
132 127 51
145 140 62
123 121 46
134 131 41
145 139 57
143 139 59
132 127 47
145 139 43
136 131 60
136 133 47
127 124 34
133 130 28
141 137 53
146 141 57
145 140 61
140 136 45
145 140 58
147 141 53
137 134 46
150 143 53
144 138 48
144 138 56
151 146 59
144 139 48
135 130 42
152 147 49
138 132 51
144 140 39
133 130 36
152 146 48
149 143 48
148 143 62
147 142 45
153 146 48
148 144 51
155 149 64
136 131 51
148 142 45
144 138 53
140 134 39
144 138 51
144 139 45
146 140 42
144 140 45
151 144 60
138 132 42
145 139 56
142 138 39
148 142 58
146 140 48
140 134 45
139 134 39
139 133 42
133 130 32
128 123 22
135 129 48
131 127 28
120 114 28
112 107 36
129 125 39
122 117 36
124 119 39
122 119 28
148 161 16
161 175 0
169 185 0
164 182 0
169 188 0
171 189 0
172 192 0
167 184 0
163 180 0
169 188 0
168 186 0
170 188 0
168 184 0
168 185 0
167 184 0
172 189 0
164 184 0
178 197 0
174 192 0
169 188 0
169 190 0
169 186 0
170 192 0
172 194 0
169 189 0
173 196 0
175 199 0
175 198 0
178 201 0
178 202 0
175 200 0
175 200 0
179 202 0
177 201 0
179 204 0
181 205 0
180 205 0
183 205 80
191 212 120
191 211 135
190 210 135
195 214 161
192 212 140
186 207 114
192 212 135
186 208 102
187 208 120
186 207 108
187 209 130
189 210 135
185 206 102
184 207 125
184 207 95
189 211 125
184 207 88
191 212 130
185 207 114
185 208 102
184 206 108
185 208 114
187 211 95
184 207 102
188 210 114
190 212 140
188 211 88
186 208 72
182 205 80
188 210 120
186 207 108
189 212 114
185 208 88
186 210 95
184 207 102
183 206 80
189 211 114
192 213 125
181 205 72
188 211 120
189 211 125
185 208 80
188 210 125
181 204 80
186 207 125
187 209 125
183 204 102
188 209 95
183 204 120
186 208 130
189 210 135
186 206 114
183 204 114
188 208 114
196 215 153
189 209 125
189 209 108
182 205 72
170 193 0
171 195 0
176 200 0
177 200 0
165 189 0
183 208 0
172 195 0
174 197 0
169 193 0
175 197 0
167 189 0
170 192 0
176 198 0
175 197 0
173 196 0
170 193 0
163 185 0
172 194 0
172 196 0
164 187 0
173 198 0
167 190 0
176 198 0
166 190 0
165 189 0
169 191 0
176 200 0
169 192 0
175 200 0
164 187 0
166 191 0
167 189 0
164 188 0
171 194 0
171 193 0
165 187 0
160 182 32
57 89 135
58 92 136
60 94 155
61 96 159
61 97 156
60 95 147
60 95 151
62 98 162
60 95 152
61 97 162
62 98 150
61 97 150
61 97 170
62 98 171
61 96 154
62 99 166
62 99 169
61 97 162
61 97 166
62 99 165
61 97 164
62 99 174
62 99 166
61 97 167
62 99 172
62 98 174
61 98 163
62 99 169
62 99 166
62 98 165
62 99 168
63 99 174
62 98 163
62 98 161
61 97 165
62 99 169
61 98 168
62 99 169
62 98 167
60 97 150
60 96 168
61 98 169
62 99 174
61 98 166
62 98 171
63 99 166
61 98 165
62 98 171
63 99 165
62 98 170
62 98 174
61 96 166
62 99 172
61 97 165
62 99 174
62 99 165
62 99 173
62 98 172
62 98 176
62 98 171
62 99 172
61 98 171
61 98 173
61 97 170
62 98 171
63 100 178
63 100 167
62 99 165
61 98 168
62 98 172
61 97 167
62 99 174
61 98 168
63 99 174
62 98 166
62 99 174
63 99 173
61 98 174
62 98 173
63 99 168
62 98 172
61 98 164
62 99 176
62 98 166
62 99 170
62 99 172
64 101 164
62 98 171
61 97 168
62 98 168
63 99 171
62 99 174
63 99 174
62 98 170
62 98 163
62 99 170
63 99 171
61 97 164
62 99 175
63 100 176
62 99 175
62 98 161
61 98 169
62 99 176
62 98 167
62 98 162
63 99 174
62 99 170
62 98 172
62 99 170
62 98 166
62 99 172
61 97 167
63 99 178
63 100 165
63 100 171
62 99 168
62 99 169
62 98 166
62 98 166
63 100 173
62 98 167
62 98 170
62 98 165
62 98 170
62 98 161
61 98 172
61 98 161
61 97 170
61 98 161
63 99 178
61 97 169
62 98 168
62 99 171
61 97 163
63 99 169
62 99 167
62 99 167
62 98 171
62 98 163
62 99 168
62 98 167
62 98 163
61 98 160
62 99 157
62 98 167
61 97 162
63 99 169
63 100 165
62 99 161
63 99 171
63 98 161
62 99 169
63 100 169
62 98 163
63 99 163
62 98 159
63 99 167
62 98 161
62 99 173
62 98 157
63 99 161
62 98 156
63 99 159
62 99 170
61 97 164
63 100 172
62 98 157
62 98 158
61 96 150
63 99 164
62 98 154
60 95 155
62 99 166
62 99 158
60 95 152
61 96 145
59 94 146
61 95 151
60 95 150
59 93 142
60 94 149
56 89 133
55 86 135
96 97 26
97 97 36
95 96 25
110 107 35
101 101 49
116 114 46
115 111 31
106 105 26
125 121 44
116 116 30
117 116 28
120 116 34
116 116 23
120 118 41
118 117 45
120 118 36
137 133 48
120 118 44
120 117 44
126 124 30
139 135 53
139 134 46
115 116 34
137 134 42
139 137 36
130 129 32
127 124 43
146 142 53
142 136 36
144 138 48
128 124 44
154 148 67
144 137 48
149 144 49
153 148 48
137 133 48
159 151 65
145 139 51
149 143 60
146 140 52
153 148 60
140 135 39
146 141 58
140 136 48
144 138 48
141 138 48
140 133 53
153 147 45
138 133 45
141 138 48
120 117 22
144 139 36
149 142 48
147 142 56
138 133 28
148 141 58
141 136 45
145 140 48
144 139 42
147 141 58
139 133 48
153 147 60
117 115 42
138 133 45
155 149 58
126 121 28
132 127 39
144 139 45
130 125 48
132 128 32
136 131 36
134 129 39
133 128 39
128 123 28
141 136 36
133 127 39
128 123 45
131 125 32
133 129 42
124 119 36
122 119 28
102 98 16
142 153 28
158 177 0
167 185 0
167 188 0
165 182 0
170 189 0
166 184 0
171 188 0
165 181 0
172 194 0
163 182 0
175 195 0
167 186 0
170 190 0
166 185 0
160 178 0
162 179 0
163 182 0
171 187 0
175 194 0
175 193 0
175 196 0
172 193 0
169 190 0
169 188 0
169 186 0
174 196 0
173 198 0
178 201 0
179 203 0
174 199 0
178 203 0
174 198 0
181 205 0
176 198 62
188 212 72
181 204 80
192 213 135
193 212 157
187 208 125
190 210 140
190 209 130
189 210 125
183 204 135
184 206 130
188 210 114
187 209 130
180 204 88
194 215 144
189 211 114
185 208 108
188 210 125
185 207 72
187 210 108
185 208 95
187 209 114
187 209 95
192 214 108
186 209 108
183 207 80
191 213 120
180 204 62
189 212 120
193 215 120
189 213 72
189 211 102
198 220 135
186 209 95
187 211 102
190 212 114
190 212 102
189 212 114
188 212 80
187 209 114
187 212 88
189 212 102
185 209 80
189 210 120
189 212 95
188 211 114
183 207 95
185 208 88
189 211 72
192 214 120
190 211 120
191 213 130
188 210 114
184 206 114
187 209 102
189 211 120
186 207 125
191 212 135
191 211 135
188 210 120
180 200 120
186 208 114
188 207 144
180 202 108
183 205 102
186 208 102
182 206 51
178 202 0
176 200 0
177 200 0
173 198 0
172 197 0
171 196 0
176 198 0
167 192 0
174 197 0
165 189 0
165 188 0
169 192 0
169 193 0
166 189 0
172 195 0
169 193 0
173 196 0
168 190 0
166 190 0
171 195 0
172 195 0
167 189 0
174 196 0
169 192 0
165 189 0
171 194 0
167 189 0
171 194 0
165 188 0
164 188 0
165 188 0
171 194 0
151 174 61
54 86 133
58 92 141
58 93 141
61 96 162
59 94 144
60 95 151
61 96 155
61 97 171
61 97 150
62 97 161
60 96 154
61 97 157
61 97 158
62 98 160
61 97 162
61 98 167
61 98 157
62 97 162
62 98 167
62 98 159
62 98 173
62 99 174
62 98 167
60 96 160
62 98 171
63 99 172
62 99 169
62 98 166
62 98 169
62 98 171
62 98 167
62 98 168
62 98 172
63 100 167
62 99 170
60 97 172
62 99 175
62 98 170
62 99 172
63 99 167
62 98 169
62 99 171
63 100 174
62 98 172
62 99 166
61 98 178
62 98 167
63 100 166
61 97 163
62 98 171
61 98 173
62 99 169
60 97 166
62 98 173
61 98 163
60 97 156
61 98 171
61 98 174
62 99 171
62 99 172
62 98 167
62 98 165
62 99 172
62 98 172
62 99 174
62 99 170
62 99 170
62 99 170
61 98 173
61 98 165
62 98 172
63 99 169
61 98 175
63 99 178
63 100 179
63 99 176
62 98 173
61 98 169
61 98 166
62 99 173
63 99 173
63 100 175
61 98 168
62 98 172
61 98 171
60 97 173
62 99 167
62 99 172
62 98 169
61 98 169
61 98 170
62 99 173
63 99 169
62 99 172
62 99 175
63 99 175
62 99 167
62 99 165
63 99 173
61 97 163
62 99 165
63 99 174
63 100 172
62 98 168
62 98 164
63 100 167
61 97 170
62 98 167
64 101 180
62 98 167
62 99 170
62 98 169
62 98 172
61 97 165
61 97 167
62 99 167
63 99 163
61 97 164
62 98 169
62 98 163
63 99 170
61 98 172
62 99 170
61 98 169
63 100 173
62 98 162
63 100 167
63 99 174
62 99 170
62 99 165
62 99 168
62 98 172
62 98 165
63 100 173
63 99 163
62 98 163
61 98 168
61 97 162
63 99 172
61 97 166
62 98 167
62 99 162
64 100 171
63 99 169
62 99 167
62 98 161
63 99 169
61 98 162
62 99 175
61 98 163
62 99 174
61 98 161
62 99 172
61 98 155
63 100 176
62 99 170
61 97 158
63 99 167
62 98 165
62 98 163
62 98 161
61 98 159
62 98 162
62 98 162
62 98 165
62 98 161
62 99 160
63 100 167
63 99 164
62 98 160
63 99 164
61 96 148
61 97 154
63 99 166
62 99 156
61 97 155
62 97 154
62 98 157
61 96 149
60 95 149
60 94 150
59 92 138
58 90 141
56 88 129
99 102 57
94 93 13
97 99 23
105 104 20
92 92 33
102 101 44
101 102 34
115 112 36
105 105 31
113 111 29
107 107 42
121 119 42
128 123 48
126 123 38
139 135 47
124 120 54
123 120 49
129 125 56
117 115 41
139 134 47
131 128 44
128 124 44
134 130 44
133 130 51
128 125 44
131 129 30
138 133 44
138 134 36
147 143 48
141 135 58
146 140 57
144 139 42
146 141 42
137 132 48
140 137 45
146 139 51
140 133 53
147 141 60
146 140 53
153 145 66
149 142 64
145 138 48
144 139 49
138 134 42
143 139 51
145 140 48
140 136 39
143 137 48
139 135 32
146 140 45
154 148 42
147 141 48
140 135 42
149 145 42
131 127 42
145 139 51
143 138 36
146 140 42
142 136 45
131 126 39
137 131 42
144 137 45
133 128 32
139 133 45
118 115 32
140 134 45
137 130 53
146 140 48
132 128 36
125 120 28
136 130 36
124 120 36
138 132 28
140 135 36
126 122 36
125 122 32
128 123 32
138 134 28
120 115 22
98 93 36
99 94 22
144 151 22
168 188 0
170 185 0
174 192 0
168 182 0
173 191 0
172 191 0
167 183 0
166 185 0
169 187 0
170 186 0
167 186 0
167 186 0
171 190 0
168 183 0
174 192 0
174 194 0
168 187 0
170 190 0
170 189 0
171 189 0
170 190 0
173 191 0
173 192 0
171 192 0
169 192 0
173 191 0
174 198 0
175 200 0
177 200 0
173 198 0
185 209 0
186 210 51
183 206 72
186 207 102
188 207 125
185 206 135
191 212 135
189 210 135
189 209 140
187 209 125
186 208 120
185 207 102
179 203 80
185 208 88
182 205 80
188 209 125
184 207 102
190 213 108
186 209 108
188 210 102
183 207 72
186 209 88
188 212 95
185 209 72
191 214 114
191 213 114
188 212 102
189 212 95
191 214 95
192 216 72
190 216 72
191 215 88
190 214 95
190 214 108
188 211 95
193 217 102
189 214 80
192 215 102
188 211 102
196 220 95
193 217 102
191 216 62
189 213 102
187 212 88
187 211 95
190 215 72
188 212 95
186 209 88
186 210 88
187 211 95
184 208 88
190 214 88
189 212 102
184 208 51
187 209 114
186 209 88
183 207 88
186 209 62
187 211 102
191 212 114
185 208 95
189 212 114
190 212 114
182 204 102
188 208 140
187 209 114
181 203 102
190 211 125
182 203 108
183 203 114
182 204 108
187 207 130
180 201 108
181 205 36
175 200 0
171 195 0
179 204 0
174 198 0
171 194 0
170 194 0
171 195 0
174 197 0
169 193 0
167 190 0
174 196 0
170 194 0
161 184 0
169 192 0
170 194 0
158 181 0
166 189 0
165 188 0
171 194 0
174 197 0
166 190 0
170 194 0
174 196 0
167 189 0
167 190 0
161 184 0
167 192 0
172 194 0
164 186 0
137 160 70
56 90 139
58 93 151
59 93 153
60 95 157
60 96 156
61 97 155
61 97 163
60 95 163
61 97 161
61 96 158
61 96 159
60 95 156
61 97 159
62 98 170
61 97 163
61 98 163
63 99 163
62 99 174
62 98 159
61 98 170
61 97 170
62 98 169
61 98 165
61 98 164
61 97 165
60 96 157
62 98 163
62 98 166
61 97 165
60 96 164
62 98 165
61 98 165
63 98 166
61 97 163
60 97 167
62 99 167
61 98 167
60 97 167
61 97 163
63 99 170
61 98 172
61 97 168
62 98 175
63 100 167
62 98 163
62 98 171
62 98 174
62 98 172
62 98 170
61 97 175
62 98 165
63 100 177
61 98 169
63 99 172
62 98 172
62 99 176
61 97 167
63 100 171
62 99 172
62 99 172
62 98 167
63 100 175
62 98 171
61 98 172
63 100 171
62 99 169
62 99 165
62 99 172
61 98 175
61 98 171
61 98 165
63 100 173
62 98 170
62 98 170
63 99 167
62 98 163
62 99 173
61 98 172
63 100 174
62 98 173
63 99 170
63 99 172
62 98 165
62 99 176
61 97 163
62 99 174
63 99 176
62 99 173
62 98 164
62 98 170
61 97 164
61 98 167
63 99 172
62 98 163
62 99 175
62 99 169
62 98 174
62 98 169
63 99 169
63 99 171
63 99 176
63 99 169
63 100 171
61 97 163
62 98 173
62 98 167
62 99 170
62 98 170
63 99 172
62 99 169
62 99 171
61 98 168
62 99 169
62 99 176
62 98 168
63 99 165
61 98 168
62 99 172
62 99 167
62 99 173
63 100 173
62 99 172
62 99 178
63 100 175
62 99 169
61 98 171
62 99 171
62 98 165
62 98 165
63 99 171
63 99 166
62 99 176
62 99 171
62 99 166
63 99 171
63 99 172
62 99 158
62 98 169
63 99 163
62 98 169
62 98 161
62 99 169
62 98 161
63 100 167
62 99 168
62 98 168
64 100 169
63 99 167
62 99 172
62 99 165
63 99 159
62 99 167
61 96 158
63 99 166
62 98 153
62 98 161
62 98 161
63 100 161
62 98 164
62 98 162
60 96 159
63 99 169
62 98 160
62 99 163
63 99 167
62 98 165
61 98 165
63 99 163
63 99 162
61 97 154
62 97 154
61 97 148
62 97 162
60 96 152
60 95 141
62 98 156
62 98 159
60 96 150
62 97 164
59 94 146
61 96 146
58 92 149
57 90 133
55 87 138
99 105 74
93 93 20
105 106 32
106 106 28
112 109 39
104 103 22
118 115 48
122 119 36
116 112 32
115 112 22
115 114 28
142 137 39
114 110 39
124 122 39
130 127 39
127 123 42
120 118 30
134 129 44
128 125 41
130 126 44
132 128 36
126 124 36
138 135 48
132 130 44
131 127 57
120 117 44
143 137 45
141 137 42
118 116 30
128 124 36
137 133 45
139 133 36
149 144 47
133 130 42
143 138 45
145 141 39
153 147 60
138 135 37
138 135 39
145 139 47
149 143 44
151 145 42
142 135 60
136 132 42
132 128 36
139 135 49
141 136 49
145 140 51
137 131 42
140 134 48
144 140 39
151 145 48
139 134 45
146 140 56
136 132 42
145 139 48
132 126 39
137 132 42
138 135 32
140 134 42
149 141 56
141 134 48
135 131 48
138 133 39
125 120 36
129 124 39
133 128 39
134 128 42
134 129 45
133 126 36
142 135 39
136 129 45
132 126 42
125 120 39
124 118 36
114 111 28
119 115 36
135 129 36
128 123 32
113 108 22
136 142 0
162 178 0
162 180 0
153 167 0
172 190 0
168 186 0
173 191 0
173 189 0
169 188 0
162 179 0
170 188 0
164 181 0
170 188 0
170 190 0
169 186 0
170 189 0
166 185 0
168 185 0
172 191 0
172 193 0
171 189 0
176 196 0
170 186 0
166 185 0
173 192 0
172 192 0
171 189 0
171 192 0
174 199 0
177 201 0
182 207 0
182 206 51
190 211 130
186 207 108
195 214 153
187 208 120
184 206 114
192 213 125
193 213 144
186 208 120
184 207 102
181 204 88
191 213 130
188 210 114
189 212 108
183 208 72
189 212 108
186 210 72
185 209 72
189 212 108
186 209 95
189 211 114
189 214 95
189 214 95
190 214 80
191 216 80
190 213 95
188 212 72
190 214 95
196 220 108
193 217 95
194 218 95
193 218 88
193 218 80
193 218 80
191 216 72
196 219 102
198 223 88
197 223 95
188 213 102
192 218 72
197 222 72
191 215 80
194 220 72
190 214 62
191 216 102
189 215 72
198 221 102
191 215 88
195 219 130
194 220 80
191 216 80
189 212 102
190 216 72
189 214 62
191 216 80
191 215 114
186 210 72
189 212 95
188 212 80
189 212 114
180 204 88
183 206 62
181 205 72
189 212 95
186 210 108
188 210 114
187 210 102
190 211 125
191 212 130
179 203 80
183 204 102
187 208 130
187 209 120
187 206 135
190 210 144
185 207 102
181 204 80
175 198 36
177 202 0
182 205 0
171 195 0
169 191 0
166 190 0
165 188 0
176 199 0
166 188 0
166 189 0
175 197 0
175 198 0
173 196 0
169 192 0
169 191 0
167 187 0
168 191 0
170 192 0
171 194 0
173 197 0
168 191 0
168 191 0
168 192 0
173 196 0
171 195 0
173 196 0
175 198 0
130 153 77
57 90 148
60 94 151
61 96 152
58 93 146
59 94 148
61 97 157
60 96 163
61 96 155
61 97 159
60 96 156
63 98 158
61 97 156
62 98 170
62 98 166
60 95 155
60 95 152
61 98 163
62 98 167
61 98 164
61 97 168
60 97 164
60 95 162
62 98 167
62 98 169
62 98 160
61 98 167
62 99 171
62 99 175
62 98 170
61 98 160
63 99 166
61 98 174
61 98 167
61 97 172
61 98 173
62 99 175
61 98 163
63 99 176
62 98 167
62 98 174
63 99 170
62 98 171
62 99 162
62 98 167
63 99 165
62 99 176
60 96 163
62 98 169
62 99 172
61 98 175
60 97 161
62 99 169
62 99 170
63 99 174
62 98 172
61 98 173
63 99 174
62 99 178
62 98 168
61 98 166
61 98 171
62 98 168
61 98 163
61 98 164
62 99 176
63 100 174
62 99 172
62 99 165
62 99 174
61 98 172
62 98 168
62 98 174
62 99 177
61 98 174
62 98 169
63 100 169
61 97 164
62 98 165
62 98 174
63 99 176
62 99 173
62 98 160
63 99 175
62 98 169
62 99 176
62 99 171
62 99 169
63 99 165
61 98 176
63 100 173
61 98 172
61 97 165
62 99 172
61 97 166
63 100 173
63 99 174
60 96 163
62 99 174
62 98 167
62 99 172
62 99 169
62 98 172
62 99 167
62 98 168
62 99 172
62 99 171
62 99 169
62 98 165
61 98 169
63 99 174
61 98 173
62 99 168
62 98 171
62 98 171
61 98 163
62 99 177
61 98 173
62 98 170
61 98 166
62 98 163
63 99 168
63 99 163
62 98 163
61 98 162
62 99 167
63 100 174
62 99 165
61 97 166
62 99 168
62 98 168
63 100 176
61 97 167
60 97 166
62 99 173
62 98 162
63 99 173
61 97 152
64 100 169
63 100 169
61 98 167
63 99 167
62 98 163
63 99 166
62 99 169
62 98 155
62 98 168
62 98 168
62 99 172
61 98 161
63 99 163
63 98 164
64 100 174
62 98 163
63 99 160
64 100 173
62 98 155
62 98 169
63 99 154
63 99 158
62 98 163
61 98 150
62 99 163
60 97 153
63 99 165
61 98 162
62 98 168
62 99 163
60 95 154
61 97 157
62 98 165
62 99 163
61 97 154
62 97 160
62 97 160
63 100 166
61 96 156
62 98 160
60 96 153
61 96 149
60 94 159
58 92 143
58 92 144
59 92 136
56 88 138
67 82 96
127 122 34
108 106 30
89 88 31
119 117 51
95 95 20
101 103 30
105 104 28
127 123 28
96 95 21
119 117 41
113 111 26
115 114 36
121 118 38
116 114 37
117 116 36
125 124 47
107 106 35
129 126 41
126 121 47
141 135 39
127 123 42
125 121 41
127 123 30
136 134 47
142 135 47
134 129 48
139 134 44
129 127 37
132 127 45
141 136 41
125 120 37
140 135 44
134 131 36
138 132 44
143 136 51
143 137 39
146 141 45
148 143 53
139 135 41
160 155 53
139 134 45
150 142 53
137 132 48
161 153 62
139 134 51
131 127 36
151 144 51
142 136 51
146 142 39
137 130 48
145 140 51
131 126 39
142 138 48
142 138 36
150 143 45
145 141 36
139 134 22
142 135 48
134 127 53
145 139 45
143 139 51
128 124 32
130 125 28
149 143 53
124 120 22
132 126 42
147 143 39
141 135 51
134 128 42
138 133 36
142 135 45
136 132 39
122 117 36
135 129 39
127 124 32
122 117 42
112 106 22
113 110 28
146 156 22
155 166 0
172 185 0
164 179 0
160 175 0
168 186 0
169 186 0
171 189 0
169 188 0
172 187 0
165 184 0
168 189 0
161 178 0
171 191 0
169 188 0
167 183 0
164 181 0
170 186 0
173 192 0
170 188 0
167 187 0
169 188 0
171 189 0
172 191 0
168 185 0
174 193 0
167 184 0
165 186 0
172 191 0
185 208 51
192 213 120
187 208 130
188 207 135
183 205 108
183 206 108
187 209 125
189 210 135
189 211 130
185 207 102
184 208 102
187 209 130
186 208 80
181 204 114
190 212 114
189 212 114
192 215 95
185 208 72
193 215 135
192 215 95
187 210 62
202 225 88
193 217 88
189 212 80
191 215 51
196 220 72
193 218 80
194 218 95
193 219 51
190 214 102
202 227 108
199 225 102
195 217 125
196 217 140
205 226 161
202 222 161
210 231 157
215 235 184
207 227 181
221 239 201
210 229 191
208 227 188
212 232 173
212 231 184
215 233 194
205 224 184
208 230 161
211 231 169
212 232 184
210 231 149
196 220 102
203 226 135
194 220 108
202 226 80
194 219 88
189 213 72
199 224 95
189 213 108
191 216 88
191 215 88
189 212 102
193 216 120
192 216 88
183 207 72
187 211 80
202 224 144
187 212 80
182 205 51
186 209 95
182 206 72
188 209 95
191 213 114
187 210 80
188 209 108
186 206 120
189 210 108
184 206 114
181 204 72
183 204 120
190 209 140
184 203 120
188 210 102
179 203 0
179 202 0
169 193 0
171 194 0
179 203 0
177 201 0
167 191 0
170 192 0
168 191 0
161 184 0
166 189 0
173 196 0
173 197 0
165 189 0
169 192 0
170 192 0
173 196 0
163 184 0
168 191 0
170 192 0
172 196 0
168 192 0
169 192 0
169 192 0
166 189 0
126 150 103
58 91 138
58 92 138
60 95 158
60 95 144
60 95 152
61 96 156
60 95 162
61 97 157
61 96 153
61 97 157
62 98 158
62 99 158
63 99 174
62 98 164
61 97 155
61 97 160
61 97 165
61 97 167
61 97 161
60 96 166
62 97 161
62 99 171
62 98 166
62 98 159
60 96 158
61 97 168
61 98 167
61 98 172
62 98 169
63 99 171
63 99 175
62 98 168
61 98 171
62 98 171
61 97 173
61 97 159
61 98 166
61 98 169
61 98 167
62 99 170
62 98 169
62 99 169
60 96 161
62 99 166
62 98 163
63 99 169
61 98 175
62 98 171
63 100 173
61 98 165
61 97 166
62 99 173
61 98 170
62 98 173
62 98 169
62 98 173
61 98 172
62 99 170
61 98 169
62 98 170
62 99 166
62 99 172
62 98 172
62 99 167
62 98 171
61 98 161
63 99 174
62 99 173
63 99 166
61 98 171
63 99 175
62 99 172
61 98 169
61 98 174
61 98 170
62 98 176
61 98 170
61 98 171
62 98 159
61 98 169
63 99 174
62 98 174
62 98 168
63 99 170
62 98 171
62 98 161
62 98 170
61 98 170
63 99 169
62 98 170
62 99 166
62 99 169
63 100 174
62 98 167
64 100 174
61 98 165
62 98 172
62 98 163
61 98 169
62 98 173
63 99 169
63 99 163
61 98 170
61 98 173
61 98 169
62 99 165
63 100 169
61 97 161
63 100 171
61 98 165
63 99 171
63 99 170
62 98 161
62 98 166
61 98 169
62 99 174
62 99 170
63 99 170
62 98 165
61 98 169
63 99 172
63 99 168
61 98 163
61 97 170
61 98 169
63 99 174
62 98 167
62 98 159
62 98 168
62 98 155
64 101 170
61 98 168
62 99 171
61 97 166
62 98 169
63 99 171
61 97 165
61 98 159
61 97 158
63 99 159
62 99 171
62 98 161
62 98 165
61 97 164
62 98 161
61 98 166
62 99 170
61 97 161
62 99 171
62 99 167
62 98 165
61 98 165
61 96 159
63 99 161
62 98 159
62 98 156
63 99 167
61 98 159
62 99 165
61 97 161
61 97 162
61 97 165
62 98 156
61 97 159
61 97 153
63 98 169
63 100 176
64 100 171
63 99 173
61 97 157
61 98 150
62 97 161
61 97 161
62 98 162
61 97 149
62 98 160
62 97 160
61 95 152
61 96 151
59 93 144
58 92 145
60 95 158
58 91 143
56 87 134
91 101 96
105 102 38
94 94 32
112 110 22
108 107 18
117 115 40
98 98 30
109 107 28
114 112 33
110 109 36
114 111 44
124 120 44
131 128 37
120 119 42
124 121 28
125 120 41
128 126 36
120 117 37
126 122 39
124 119 45
124 122 27
128 123 45
132 129 36
146 141 49
139 134 58
130 124 44
130 125 47
136 130 39
130 125 32
125 122 44
143 139 41
142 137 51
133 129 42
130 126 48
133 129 45
123 120 44
143 137 53
139 133 51
138 134 37
150 145 45
134 129 45
150 143 48
143 136 51
150 143 42
142 137 48
153 149 49
134 130 39
150 144 45
138 133 45
127 124 28
121 119 22
137 133 22
133 127 48
129 125 36
152 147 45
142 136 53
152 145 51
130 124 36
126 121 28
135 129 39
124 119 32
123 120 28
141 135 39
136 133 39
148 142 28
136 131 36
126 121 42
126 121 28
142 137 42
135 129 48
124 119 36
136 129 42
120 115 39
138 131 48
126 121 28
113 109 22
128 122 36
112 106 32
129 133 16
173 189 0
168 185 0
162 180 0
165 181 0
168 185 0
170 183 0
169 186 0
159 172 0
165 181 0
157 174 0
168 185 0
165 184 0
173 191 0
169 186 0
170 190 0
166 182 0
169 187 0
169 187 0
170 188 0
173 192 0
171 188 0
174 191 0
172 191 0
175 193 0
164 182 0
169 189 0
177 198 0
165 184 0
175 195 0
193 213 125
195 215 149
186 206 135
188 208 130
191 212 135
189 211 102
188 209 120
180 204 80
188 210 120
184 208 72
191 213 108
193 215 120
192 214 125
189 212 108
187 211 80
186 211 80
189 212 80
186 211 80
193 218 72
190 214 80
185 209 62
194 219 88
196 221 72
200 225 36
201 225 120
207 230 125
216 235 194
220 238 191
214 230 226
217 231 237
222 236 245
219 233 245
220 234 250
219 233 245
221 235 248
222 235 250
219 233 250
222 236 253
223 237 255
219 233 245
222 236 253
220 234 245
220 235 250
220 234 248
224 237 255
222 236 253
223 236 255
223 236 253
223 236 255
223 236 255
222 236 253
219 232 248
221 234 253
222 237 240
214 230 217
207 224 198
211 230 169
207 227 173
193 218 95
198 224 72
190 215 62
192 219 72
194 218 72
194 219 62
192 215 95
191 215 108
191 214 102
190 214 80
192 215 108
195 217 114
184 208 36
187 209 95
182 207 80
182 205 80
184 208 95
190 211 120
190 211 125
188 210 102
192 212 130
193 213 130
181 203 108
186 208 125
190 208 125
177 198 72
176 199 62
171 197 0
171 196 0
167 192 0
174 198 0
174 198 0
174 197 0
169 194 0
167 191 0
168 191 0
166 188 0
167 190 0
171 194 0
167 191 0
173 196 0
167 192 0
163 187 0
172 193 0
168 191 0
173 196 0
159 183 0
169 193 0
167 191 0
115 138 108
56 89 136
59 93 151
58 92 144
60 95 154
60 95 149
64 100 159
60 95 158
60 96 160
61 97 147
61 97 164
62 98 158
60 96 162
61 96 162
61 98 163
61 96 154
61 98 167
61 97 164
61 97 162
61 98 169
61 97 163
61 97 168
61 97 164
60 95 156
62 98 165
62 98 158
62 98 164
62 98 159
62 98 171
62 98 161
62 98 172
61 97 154
61 97 158
62 98 163
62 98 163
61 97 159
61 98 167
63 100 176
62 99 175
63 100 173
62 98 174
63 99 173
61 98 163
61 98 170
61 97 161
61 98 165
63 99 173
62 99 172
62 99 167
62 99 176
62 99 171
62 99 169
61 97 164
61 97 171
62 98 170
63 100 170
62 99 168
62 99 169
62 99 171
62 98 168
62 98 159
62 98 172
62 99 169
62 99 176
62 98 170
63 99 171
62 99 175
62 98 174
61 98 161
61 97 167
61 97 165
63 100 175
62 98 166
62 98 165
62 98 170
62 99 165
62 98 161
61 98 165
62 98 168
62 98 166
61 97 158
63 99 165
61 98 167
62 98 174
61 97 159
62 99 170
63 100 173
62 98 168
61 98 166
61 98 173
63 99 169
63 100 173
63 99 174
62 98 167
62 98 167
62 98 166
61 97 170
61 98 167
62 98 165
62 99 170
61 98 163
62 98 165
64 100 177
63 99 169
61 97 164
63 99 163
62 98 169
63 99 177
63 99 168
62 98 171
63 99 163
62 99 172
62 99 169
62 98 178
62 98 168
62 98 163
62 98 170
62 98 168
62 99 170
61 98 167
62 99 169
62 98 172
63 100 169
62 98 160
62 99 174
62 99 173
61 97 157
62 98 170
64 100 171
62 98 168
63 100 173
62 99 172
61 98 169
63 99 164
62 98 159
62 98 170
63 100 168
63 99 165
61 98 165
62 98 159
63 99 171
60 97 157
61 97 168
61 97 163
62 99 166
63 99 159
63 99 167
62 98 165
63 98 160
61 97 152
62 98 167
60 96 150
62 99 161
62 98 173
62 99 161
62 98 166
63 100 169
63 99 171
62 98 161
63 99 159
62 97 157
63 99 161
62 99 167
61 97 168
61 97 158
63 100 163
62 98 169
62 98 161
62 98 160
63 99 163
63 100 165
61 97 156
62 98 156
61 97 158
61 97 158
61 96 164
60 96 155
62 97 152
62 98 153
59 95 151
61 96 154
62 97 167
58 92 138
58 92 147
57 90 149
75 93 119
85 85 20
90 91 16
106 103 34
89 88 18
97 97 32
110 108 23
105 105 32
120 116 39
112 109 23
112 109 30
116 113 23
131 126 36
99 98 28
114 109 37
112 110 23
123 120 42
127 121 39
118 115 36
127 123 34
125 122 51
138 131 48
135 131 32
124 122 29
137 133 34
127 124 28
134 132 19
133 129 41
128 126 30
123 119 41
129 124 34
132 128 34
136 132 22
136 133 30
136 133 41
142 137 48
129 126 32
134 129 52
120 117 28
132 128 42
131 127 42
147 142 45
147 141 42
133 129 36
139 134 39
145 139 48
133 127 39
142 137 48
141 134 39
142 138 36
133 128 32
129 126 36
145 140 51
126 119 42
135 132 36
140 135 45
138 134 45
137 132 42
139 135 32
143 138 45
138 131 45
139 130 48
130 127 42
134 129 32
125 119 32
132 127 42
141 135 36
128 122 39
126 121 45
123 119 39
123 117 39
123 120 32
95 92 28
129 123 32
121 116 36
103 100 16
103 97 36
139 144 16
163 177 0
172 190 0
170 187 0
171 186 0
167 179 0
154 171 0
169 184 0
168 183 0
171 185 0
167 185 0
165 184 0
175 193 0
167 182 0
172 190 0
163 180 0
167 182 0
162 179 0
170 188 0
176 196 0
172 191 0
166 182 0
161 180 0
174 192 0
172 190 0
166 184 0
171 190 0
168 188 0
171 187 0
168 186 0
169 189 0
193 213 144
185 206 120
190 210 140
187 208 108
186 208 130
191 211 130
185 209 88
188 211 114
188 210 114
193 216 114
186 211 72
193 217 108
192 216 108
192 215 130
191 215 95
187 212 36
190 216 62
203 227 72
195 220 88
195 218 108
209 235 108
207 228 169
218 234 226
220 235 237
222 235 250
222 235 253
220 233 248
222 235 250
222 236 255
221 235 250
223 236 253
221 235 250
220 235 250
220 235 253
219 233 245
219 234 248
221 235 255
222 236 255
220 235 253
218 233 245
220 235 253
222 236 255
220 234 250
222 236 255
220 234 250
222 236 255
220 234 253
220 235 253
222 236 253
221 235 253
220 234 250
220 234 248
221 235 253
221 235 248
222 236 253
223 237 255
219 233 248
220 234 248
221 235 248
218 232 234
214 231 204
211 228 204
202 223 157
202 227 114
191 217 62
194 220 95
193 217 62
189 213 80
188 213 51
187 213 80
186 210 102
186 210 80
187 210 88
191 214 102
193 214 140
187 211 88
184 207 108
192 215 102
189 211 108
186 207 108
187 208 102
190 210 130
185 207 95
183 204 125
191 211 135
185 207 95
183 206 88
176 200 0
175 197 0
174 199 0
175 199 0
174 198 0
172 196 0
162 186 0
175 197 0
173 197 0
170 194 0
160 184 0
172 196 0
169 193 0
164 187 0
171 194 0
155 178 0
173 196 0
167 189 0
171 195 0
165 190 0
102 128 119
57 89 138
58 93 141
60 95 150
60 95 147
60 95 148
61 97 161
61 96 149
60 96 153
60 95 143
61 96 153
62 98 158
61 97 161
61 97 162
62 98 160
62 98 163
60 95 160
61 96 153
61 97 158
62 98 166
61 97 161
62 99 168
60 95 163
63 99 166
62 98 167
63 99 169
60 96 158
62 98 163
63 99 173
62 98 167
61 98 169
61 98 163
61 98 171
62 99 167
62 99 170
61 97 160
61 98 169
62 99 174
63 99 165
62 99 173
60 97 162
63 100 168
63 99 170
61 98 161
61 98 168
62 98 165
61 97 158
63 99 171
61 98 168
61 98 161
61 97 166
62 99 173
61 97 168
61 98 169
62 99 174
61 97 166
62 99 172
61 98 175
61 98 164
63 100 175
63 99 174
61 97 163
62 98 170
62 98 173
62 98 169
61 98 169
62 99 167
62 99 172
62 99 170
63 99 174
61 98 168
62 98 168
63 99 171
62 99 174
61 97 168
62 98 170
63 100 174
62 99 169
63 100 169
62 98 166
62 99 164
62 99 172
62 99 171
62 98 168
62 99 172
62 99 168
62 98 165
63 100 169
62 99 178
61 98 169
63 99 172
62 99 171
62 98 165
61 98 169
62 99 174
63 100 175
63 100 171
62 98 173
62 99 169
62 99 166
62 98 163
62 98 169
61 97 161
63 100 165
63 99 173
63 99 165
61 98 159
62 99 170
62 99 167
62 99 169
63 100 176
62 99 168
62 99 178
62 98 161
63 99 171
62 98 166
60 96 158
63 99 175
62 98 172
63 100 167
63 99 165
63 99 163
62 99 169
62 99 178
62 99 173
61 98 163
63 99 169
62 99 175
62 98 167
61 97 155
63 99 163
62 99 173
63 100 173
63 99 166
62 99 173
62 98 163
63 99 170
61 98 168
63 99 169
63 99 161
62 99 167
61 97 155
62 98 161
63 99 170
62 98 163
61 96 160
62 98 165
63 100 163
63 100 171
63 99 161
62 97 161
62 99 168
61 97 156
62 99 169
63 99 152
62 99 167
62 99 163
61 98 159
63 100 159
62 98 159
60 96 150
62 98 165
63 99 171
62 99 153
63 99 169
62 98 167
62 98 158
62 98 161
62 98 164
62 99 152
60 96 152
63 99 164
61 97 152
62 98 160
62 98 164
61 97 154
61 97 152
62 96 158
61 96 149
61 96 155
61 96 153
58 91 142
60 94 154
59 93 156
57 90 136
60 80 109
101 100 26
95 96 19
106 103 16
117 116 27
106 106 30
107 104 30
102 101 20
124 119 30
119 116 25
120 117 34
110 108 22
119 114 34
119 116 35
114 112 27
114 113 26
122 118 24
106 103 26
131 127 32
120 117 27
117 116 34
114 111 22
128 124 32
134 130 30
119 116 32
130 126 39
141 136 55
125 120 35
145 140 52
125 121 41
128 122 41
134 129 42
140 134 39
133 130 36
143 137 45
129 124 44
136 132 39
136 131 45
137 133 32
140 136 37
135 129 36
141 134 36
132 128 48
144 139 45
128 124 39
140 136 36
136 131 36
131 128 28
138 133 32
128 124 39
131 125 28
134 131 28
139 136 36
138 133 39
139 130 51
139 133 45
142 137 45
135 132 42
147 142 45
137 134 32
124 118 32
137 132 39
122 118 42
134 129 39
124 118 22
134 128 32
130 125 22
143 138 39
131 125 32
116 110 16
118 112 32
132 123 28
104 99 28
123 120 32
113 108 42
114 109 32
135 141 16
171 187 0
166 182 0
169 184 0
158 171 0
166 184 0
165 178 0
164 178 0
167 184 0
171 191 0
167 187 0
173 191 0
161 177 0
169 184 0
170 186 0
170 183 0
169 188 0
165 182 0
171 188 0
167 182 0
171 190 0
176 196 0
159 178 0
164 181 0
169 186 0
169 188 0
164 181 0
164 182 0
166 183 0
173 194 0
168 186 0
171 191 0
187 209 125
188 210 108
183 205 102
188 211 102
189 211 120
190 212 88
187 210 108
187 210 95
188 212 95
188 211 72
190 214 95
195 219 108
192 216 72
196 220 80
194 220 88
205 230 95
203 224 161
210 230 181
218 233 231
220 234 248
222 236 250
219 233 240
221 235 253
221 235 253
220 234 248
223 236 255
221 235 253
220 234 248
220 234 250
217 232 245
219 234 250
218 234 250
218 233 250
218 233 248
220 234 253
217 233 250
221 235 255
219 234 250
220 234 248
220 235 255
216 232 242
217 233 248
220 235 255
218 234 250
221 235 255
217 232 245
218 234 253
220 235 255
218 233 250
218 234 250
219 234 253
219 234 250
219 234 248
217 232 242
220 235 253
221 235 253
218 233 248
219 234 248
222 236 255
223 237 253
221 235 250
223 236 253
220 235 248
221 235 248
219 234 237
218 235 214
209 231 153
194 217 95
196 221 51
191 216 80
196 221 95
190 215 80
189 213 95
194 217 102
189 213 72
188 211 95
188 211 95
188 212 88
188 210 108
193 214 120
182 204 80
186 208 95
190 212 130
188 208 114
186 208 114
194 213 144
186 206 114
186 206 125
187 210 62
180 205 0
177 201 0
171 195 0
172 195 0
178 203 0
175 199 0
167 189 0
162 186 0
166 190 0
175 198 0
170 192 0
167 192 0
162 185 0
169 191 0
165 188 0
173 196 0
162 185 0
169 191 0
96 121 115
57 90 140
59 94 147
59 94 148
60 95 149
60 95 148
61 96 153
62 98 155
61 97 153
60 96 158
61 97 159
60 97 163
60 96 165
61 98 162
60 96 159
61 97 156
61 96 159
62 99 159
61 97 164
61 97 165
61 97 159
60 97 168
62 99 165
63 99 174
62 98 166
62 98 167
62 98 167
62 99 167
61 97 159
61 97 163
63 99 168
62 98 172
61 98 170
62 98 167
61 97 162
62 98 167
62 98 165
62 99 173
62 99 165
62 98 169
61 97 164
63 99 171
61 98 164
62 99 173
61 97 161
61 97 168
61 98 167
61 97 166
62 98 165
62 99 174
61 97 163
62 98 165
62 98 162
62 99 171
61 98 171
62 99 173
61 98 167
63 100 168
61 98 157
63 99 159
61 98 161
62 99 173
62 98 165
61 97 169
62 98 167
62 98 170
63 99 173
62 99 167
61 98 173
61 98 166
62 99 175
62 98 159
62 99 170
62 98 167
61 98 167
62 98 171
62 99 171
63 100 176
63 99 174
62 99 163
63 99 170
62 98 159
63 99 165
63 99 168
62 99 174
63 100 174
63 99 164
61 97 162
62 99 168
63 99 159
62 98 168
62 98 166
61 98 163
62 98 172
62 98 159
62 98 173
63 99 175
62 99 166
62 98 165
62 99 160
62 98 169
62 99 176
62 99 172
62 98 175
61 98 165
62 98 169
62 98 169
62 99 165
62 98 164
62 99 168
62 98 161
63 99 170
62 98 166
63 100 173
63 100 167
62 98 160
62 99 162
63 99 162
63 99 168
63 99 169
63 99 170
62 98 161
63 99 165
63 99 169
62 99 163
62 98 170
61 98 167
64 100 171
62 99 167
63 99 171
62 99 169
62 99 171
62 99 171
62 99 156
61 97 154
63 99 170
62 98 169
62 99 174
64 101 171
63 100 166
62 99 167
62 98 167
63 99 169
63 99 169
63 99 161
62 99 173
61 98 167
61 97 155
62 98 165
64 100 172
62 98 166
62 98 170
62 97 152
62 98 166
62 97 160
62 98 159
61 97 161
62 98 154
61 97 161
62 98 163
61 96 156
61 97 157
62 99 168
61 97 157
61 97 150
62 99 166
61 97 154
61 97 157
62 99 168
63 99 164
63 99 162
62 98 156
62 97 150
63 99 166
62 98 158
62 99 160
60 96 147
61 96 158
62 98 155
60 95 153
61 96 153
59 94 143
59 94 155
59 93 140
57 90 135
69 90 105
87 89 20
105 103 28
94 92 28
97 99 25
100 97 23
100 99 25
118 115 32
113 110 16
106 104 32
132 128 30
112 108 27
113 112 27
119 116 32
124 119 35
126 122 44
127 124 30
121 118 28
131 128 41
123 119 36
127 123 42
140 136 22
139 133 45
118 113 16
121 116 39
126 122 41
153 150 51
127 124 32
131 127 28
136 132 36
137 132 48
141 136 52
125 120 32
124 120 32
122 117 28
125 122 36
129 128 20
138 135 36
128 122 28
124 120 32
134 129 36
145 139 48
148 143 56
142 136 45
134 131 36
136 130 28
129 127 22
135 130 28
132 126 39
135 129 51
127 122 22
143 139 42
131 127 42
126 123 36
139 134 36
144 138 42
133 130 16
145 141 39
129 123 36
137 132 28
128 124 36
122 119 16
127 123 28
127 120 36
138 135 22
130 125 39
130 123 36
138 133 36
122 118 28
124 119 36
122 118 22
130 123 32
111 105 28
109 105 0
108 104 32
143 149 28
163 177 0
161 175 0
165 180 0
158 172 0
168 182 0
170 190 0
165 178 0
161 176 0
166 182 0
169 185 0
166 184 0
162 179 0
173 192 0
167 184 0
173 188 0
164 180 0
168 184 0
164 179 0
172 189 0
169 185 0
170 188 0
163 184 0
172 186 0
167 187 0
168 182 0
162 181 0
165 182 0
167 186 0
168 186 0
172 192 0
170 191 0
168 185 0
186 209 88
188 210 80
189 212 95
186 209 80
184 207 88
184 208 95
191 214 120
194 219 88
189 214 72
190 215 62
192 216 72
187 211 80
200 223 135
205 226 169
215 231 220
223 236 253
219 234 248
221 235 250
217 231 248
220 234 245
220 234 250
218 233 245
221 235 253
219 234 250
218 233 245
220 235 253
220 235 255
218 233 248
218 233 248
218 234 253
218 234 250
219 234 255
217 233 248
217 233 248
216 231 248
218 234 253
216 232 248
218 234 250
218 233 250
219 234 253
217 233 250
218 234 253
218 234 255
219 234 255
217 233 250
219 234 255
217 233 250
216 232 245
218 234 255
217 233 248
217 233 253
219 234 253
218 234 255
217 233 248
217 233 245
219 234 250
217 232 248
219 234 250
216 231 245
220 235 253
222 236 255
222 236 255
218 232 245
221 235 250
220 235 248
219 233 245
222 236 255
218 233 231
214 231 214
210 229 181
204 226 114
193 217 95
189 215 102
186 212 62
191 215 108
191 215 72
193 215 102
189 214 88
188 212 80
191 214 95
187 211 95
188 210 95
187 209 114
182 205 72
185 206 108
181 204 114
186 207 125
185 207 114
186 205 125
183 204 125
184 207 62
171 194 0
173 197 0
171 195 0
172 195 0
165 189 0
169 194 0
163 188 0
168 191 0
161 185 0
169 191 0
166 191 0
167 191 0
165 189 0
168 192 0
163 187 0
158 182 0
78 104 111
58 92 146
59 93 147
59 94 157
60 95 150
60 96 158
61 97 155
60 95 151
60 96 154
61 96 157
59 94 154
62 98 164
63 98 162
60 96 158
60 96 152
61 97 159
60 96 164
62 98 169
59 95 155
61 97 154
62 98 160
62 98 162
61 97 166
62 98 171
60 96 159
62 99 168
60 97 162
62 98 163
62 99 160
62 99 169
62 98 166
62 99 165
61 97 165
61 98 171
62 98 172
62 99 174
62 98 160
61 97 168
61 98 167
60 97 167
62 99 172
62 99 165
61 98 167
61 97 156
62 99 172
61 98 171
61 98 169
62 99 172
61 98 173
62 98 169
62 99 176
61 98 165
62 98 170
62 99 167
61 98 167
62 98 171
62 99 160
62 98 168
62 98 161
63 99 169
63 99 176
62 99 172
63 99 176
63 99 175
62 99 171
60 96 159
63 99 178
62 98 170
61 98 163
62 99 176
63 100 167
62 98 165
61 98 168
62 99 169
61 97 168
61 97 161
63 99 168
61 98 163
62 99 171
61 98 165
62 99 173
62 98 167
62 99 172
61 98 167
63 100 163
63 99 171
63 99 172
62 99 175
62 98 167
62 99 169
61 98 166
63 99 172
63 99 167
63 100 174
60 97 160
62 98 164
62 98 167
62 99 167
63 99 170
63 99 170
62 99 168
62 98 167
63 100 171
62 99 171
61 97 166
62 98 165
62 98 164
63 100 176
61 98 168
62 98 169
62 98 160
62 98 161
64 100 168
63 99 169
62 98 168
62 98 176
62 98 168
61 98 165
62 99 169
62 98 162
62 99 160
62 99 165
61 98 166
62 98 162
61 97 161
61 97 168
62 99 163
63 99 170
63 100 165
64 100 172
60 96 162
63 99 166
63 99 169
63 98 161
60 96 157
61 98 164
62 98 167
63 100 165
62 98 162
62 99 169
62 99 165
61 97 158
63 99 159
62 98 166
62 99 166
61 97 161
62 98 167
63 99 167
62 98 161
63 99 169
62 98 165
62 98 161
61 97 155
63 99 169
62 98 163
63 99 163
62 97 156
61 97 156
62 98 166
61 97 158
62 98 165
63 99 166
64 100 170
63 99 168
62 98 155
63 99 172
62 98 162
61 97 156
62 98 163
62 97 160
61 97 159
61 97 161
62 97 164
62 97 158
63 99 164
61 97 154
60 96 154
59 95 143
62 98 157
61 96 152
59 93 147
58 92 150
60 95 153
58 91 149
57 90 138
64 88 111
106 104 0
103 102 20
105 101 19
102 99 27
104 102 10
108 106 16
107 105 29
103 102 20
120 115 36
100 98 16
123 119 28
122 120 32
111 110 12
117 114 25
131 127 34
112 109 33
133 128 47
120 116 38
119 115 16
131 128 30
125 123 30
120 115 7
116 113 22
121 118 32
108 107 11
132 126 37
125 122 36
134 131 32
137 132 39
135 132 25
124 120 36
134 130 47
133 125 42
131 127 28
144 140 36
128 125 36
129 125 28
142 137 28
130 124 39
145 140 42
129 125 32
142 137 32
138 134 45
134 129 32
140 136 42
140 135 42
138 134 36
115 112 28
136 133 22
127 123 39
139 134 39
128 125 22
140 137 32
137 133 36
120 115 22
124 119 28
140 135 39
130 125 32
126 124 22
133 128 45
140 133 36
130 126 16
122 118 22
139 133 36
134 129 39
130 125 32
119 114 22
127 122 36
121 116 22
119 115 22
121 117 16
122 116 32
124 121 28
136 144 16
160 175 0
168 186 0
162 177 0
164 177 0
166 179 0
156 171 0
167 184 0
167 183 0
166 179 0
164 177 0
173 189 0
160 174 0
168 185 0
166 180 0
166 180 0
174 191 0
166 180 0
170 189 0
161 177 0
173 192 0
165 181 0
162 175 0
167 185 0
167 185 0
167 187 0
169 188 0
171 190 0
168 185 0
171 189 0
169 186 0
170 189 0
167 188 0
170 189 0
187 209 102
191 214 95
182 207 72
187 211 80
191 215 95
190 214 120
191 215 88
192 216 102
196 222 80
202 224 130
207 227 165
218 234 228
220 234 245
221 235 250
222 236 253
221 235 250
220 235 250
222 236 255
220 235 250
219 234 250
220 235 253
217 232 245
217 233 248
216 232 242
220 235 250
218 234 250
217 233 250
214 231 245
216 232 253
216 232 248
216 232 250
213 230 237
215 232 248
215 232 250
217 233 253
216 233 253
215 231 248
216 232 253
217 233 253
216 233 250
216 232 250
217 233 255
215 232 250
216 233 253
214 231 242
216 233 250
217 233 253
216 232 248
216 233 250
217 233 253
218 234 253
218 233 253
216 232 248
218 233 253
216 232 250
216 232 242
217 233 253
215 231 250
219 234 248
219 234 255
219 234 250
220 235 253
219 234 250
218 233 248
221 235 253
221 235 253
222 236 255
222 236 253
223 236 253
220 234 250
223 237 255
215 231 226
209 230 165
202 225 125
192 218 72
195 221 88
192 216 102
198 222 72
187 211 88
188 210 114
190 213 80
187 212 72
184 207 95
190 212 88
187 209 88
188 210 88
186 207 108
182 202 108
187 206 125
187 208 120
185 205 130
184 205 108
176 199 36
180 205 0
172 196 0
171 196 0
157 182 45
128 152 98
136 161 92
156 180 53
164 186 31
168 192 0
171 194 0
164 186 0
165 189 0
176 199 0
162 185 0
79 107 135
59 92 149
60 95 163
61 96 158
61 97 159
61 96 169
61 96 158
63 98 159
61 96 152
60 96 156
61 97 145
61 97 164
61 97 161
62 98 167
62 98 168
61 97 166
61 97 152
62 98 163
60 96 158
61 97 166
61 97 166
62 98 167
61 97 161
60 96 161
59 95 161
61 96 161
63 99 163
61 98 171
61 97 168
62 99 169
60 96 159
61 97 168
61 97 158
62 98 171
61 97 167
61 97 161
61 97 162
62 98 170
62 98 170
60 96 166
61 97 167
61 98 165
63 99 175
61 97 163
61 98 171
62 98 171
61 98 166
62 98 161
62 99 169
62 98 167
61 98 161
60 96 165
63 99 167
61 98 165
62 98 173
63 99 173
62 98 161
61 97 163
63 100 174
62 99 169
63 99 169
61 98 166
62 99 171
61 98 162
63 99 174
62 99 172
61 98 169
61 98 161
63 99 171
61 98 161
61 98 171
61 98 168
62 98 175
62 98 169
62 98 167
62 98 174
61 98 165
62 98 162
62 98 173
62 98 166
62 98 154
63 99 172
62 98 163
61 98 167
61 97 156
62 99 167
63 100 172
62 98 159
63 99 171
60 97 165
62 98 165
62 98 165
60 96 163
62 98 160
62 98 167
61 97 164
61 98 167
63 99 171
63 99 170
61 97 155
60 97 155
63 99 172
63 99 174
61 98 167
63 99 170
62 99 178
62 99 172
63 100 174
62 98 172
62 99 171
62 98 167
62 98 165
63 100 167
63 99 171
62 99 175
63 100 163
63 100 171
62 98 160
62 99 172
63 99 171
63 100 170
61 98 172
62 98 161
61 97 169
62 99 157
62 98 168
62 99 171
62 99 171
63 100 167
62 99 173
63 99 167
62 99 166
63 100 160
63 99 171
63 100 170
62 98 171
61 98 170
61 98 157
62 98 171
63 99 169
63 99 167
63 99 166
62 99 167
62 98 159
62 98 156
63 99 167
63 99 163
63 100 173
62 99 163
62 99 167
61 98 161
62 98 162
62 98 153
61 97 163
62 99 158
62 99 167
63 100 160
61 97 153
61 97 154
61 97 155
63 99 161
62 98 159
62 98 167
62 98 159
63 98 167
62 98 161
61 97 164
61 96 148
62 98 161
60 96 154
61 98 161
63 99 166
62 98 164
60 96 154
61 97 156
60 94 158
60 95 150
61 96 152
61 97 153
62 98 145
60 95 151
60 95 142
61 96 149
58 92 140
57 89 133
58 86 128
93 92 0
98 97 12
103 101 16
85 87 12
122 118 22
115 112 34
105 103 13
118 115 5
110 107 32
109 107 29
100 97 28
111 110 28
105 104 19
115 113 37
134 127 42
122 118 20
120 116 22
125 120 42
116 112 32
124 119 38
118 114 32
141 137 37
115 113 22
126 123 16
130 125 28
117 115 0
115 113 22
123 120 11
123 120 16
130 127 22
130 125 36
138 131 42
142 136 32
134 127 39
136 131 27
133 130 28
131 126 39
142 136 42
143 138 39
134 128 42
131 127 32
119 116 32
125 120 32
120 115 16
124 120 36
141 136 36
128 122 42
126 120 32
123 118 36
142 136 36
136 132 22
121 113 36
134 128 22
134 128 39
126 124 28
133 129 39
130 125 22
125 119 28
124 120 16
130 123 32
125 118 22
126 122 28
122 118 28
125 120 16
127 122 32
119 115 36
128 121 32
129 125 22
108 104 16
116 111 32
120 114 32
123 118 32
146 157 0
166 181 0
158 171 0
166 181 0
158 172 0
161 177 0
163 180 0
167 182 0
158 171 0
165 181 0
160 174 0
168 185 0
169 186 0
156 167 0
165 183 0
170 183 0
171 189 0
163 177 0
164 178 0
172 190 0
168 183 0
170 192 0
172 188 0
170 186 0
170 188 0
168 183 0
169 183 0
167 185 0
170 188 0
173 191 0
173 191 0
170 189 0
166 183 0
166 185 0
171 190 0
192 216 120
187 212 80
195 218 108
189 215 72
200 223 108
192 216 88
195 219 108
209 231 169
220 236 217
223 236 253
223 236 255
220 235 250
220 234 248
220 234 248
220 235 253
217 232 250
216 232 242
219 234 250
218 233 250
218 233 250
217 233 250
217 233 253
217 233 250
217 233 253
216 232 250
217 233 255
213 229 240
216 232 250
217 233 253
216 233 253
216 232 250
214 231 250
214 231 250
215 232 253
214 230 248
213 230 248
216 233 255
215 232 250
214 231 250
214 231 250
213 230 248
213 230 242
216 233 253
214 232 250
213 231 248
213 230 250
215 232 253
215 232 253
217 234 253
214 231 248
216 232 253
216 232 253
216 232 253
217 233 253
217 233 253
216 232 250
215 232 248
218 233 253
215 232 248
217 233 248
216 232 248
219 234 253
218 233 250
218 233 250
219 234 253
220 234 250
219 234 250
221 235 253
219 234 248
220 235 250
221 235 250
221 235 253
223 237 253
222 235 250
217 232 231
204 225 165
187 211 51
187 212 80
200 224 88
195 218 108
188 213 72
187 212 51
188 210 88
189 213 88
194 216 114
182 206 72
181 206 80
179 203 72
185 206 108
185 207 108
177 200 88
183 204 95
187 206 140
178 199 95
178 201 36
175 199 0
138 161 81
133 157 94
124 149 111
127 152 109
130 154 95
127 151 104
156 179 41
174 197 0
168 192 0
166 189 0
168 191 0
54 86 123
57 91 138
59 93 147
59 93 144
60 95 145
61 96 158
61 96 152
61 97 153
61 97 158
61 97 157
63 100 172
62 99 168
60 97 166
60 96 156
62 98 167
62 98 164
61 98 167
62 98 165
62 98 158
62 98 158
62 98 167
61 97 168
62 99 163
59 95 159
62 98 160
59 95 161
61 97 166
62 98 161
61 97 164
62 99 165
61 97 162
62 99 174
62 98 167
61 98 170
61 97 165
62 99 165
61 98 166
61 97 161
62 99 167
61 98 168
61 97 166
62 98 165
62 99 176
61 98 167
60 97 164
61 97 167
62 98 163
63 99 172
62 98 167
62 99 167
61 98 165
62 98 162
62 98 168
62 98 164
61 98 169
61 98 167
61 98 173
62 99 172
62 98 166
61 97 164
62 99 168
61 98 169
62 98 173
62 99 176
62 98 176
63 99 172
62 98 173
62 99 170
61 97 165
62 99 167
62 99 174
62 99 170
62 99 171
61 97 170
62 99 172
64 100 171
61 98 165
61 98 169
61 97 164
62 98 165
63 99 175
61 97 166
62 99 173
63 99 174
61 98 167
62 99 168
62 99 173
62 98 167
62 99 171
64 100 165
62 98 164
61 97 168
62 99 168
61 97 161
63 99 171
62 99 174
61 97 157
62 99 169
60 96 162
62 98 165
62 99 167
63 100 172
62 98 167
63 100 165
61 97 163
62 98 169
63 99 171
63 100 176
61 98 167
63 99 167
63 100 178
62 98 170
62 99 167
63 100 176
62 99 163
62 98 167
63 99 170
62 98 167
63 99 171
63 99 171
62 98 157
62 98 167
63 99 165
62 98 167
62 98 167
62 98 166
62 99 170
63 99 167
63 99 170
62 99 159
62 98 163
63 99 161
62 99 167
62 98 159
62 98 165
62 99 165
60 96 159
63 99 169
62 98 169
62 98 161
61 97 165
62 99 171
62 99 165
62 99 169
64 101 167
63 99 163
62 98 163
63 100 165
62 98 159
62 98 163
63 99 163
62 98 172
63 99 163
64 100 165
61 97 151
61 98 163
62 98 166
63 99 159
62 98 163
63 100 173
61 98 156
62 98 164
62 97 157
62 99 163
60 96 153
61 98 163
62 98 158
64 100 163
62 97 154
62 99 174
62 98 166
61 96 159
62 98 156
62 97 156
61 97 152
60 95 152
62 97 150
59 94 135
63 98 156
62 97 161
61 95 146
60 95 149
60 95 148
59 93 147
59 93 154
58 88 126
97 97 12
103 102 11
97 96 15
110 109 19
94 92 16
109 107 27
107 103 25
98 94 16
107 104 11
124 120 36
115 112 22
106 102 22
109 107 19
134 129 28
117 114 25
106 105 0
127 121 34
117 114 16
109 105 15
127 122 28
123 120 41
132 127 38
134 130 36
124 120 41
129 127 32
123 117 36
128 125 25
130 127 32
113 108 16
118 114 30
131 128 28
130 126 30
125 120 32
133 130 22
131 125 42
132 126 39
134 126 32
139 134 39
138 134 16
131 125 28
120 117 22
132 127 37
124 119 36
131 127 16
133 127 32
133 129 39
119 115 16
132 128 22
131 128 28
121 116 32
123 117 22
136 131 22
132 125 42
144 137 36
122 113 28
133 127 36
123 117 22
135 130 36
123 116 16
116 111 16
124 118 28
131 126 39
126 120 36
125 119 28
124 119 36
120 115 16
138 132 45
116 111 32
116 108 28
115 110 22
118 114 22
159 170 16
159 174 0
162 175 0
156 169 0
165 178 0
170 185 0
171 189 0
156 170 0
169 185 0
162 179 0
162 175 0
166 184 0
158 172 0
162 174 0
168 183 0
159 176 0
170 186 0
167 182 0
170 185 0
165 182 0
158 172 0
167 184 0
165 179 0
170 188 0
175 192 0
164 180 0
166 184 0
158 171 0
167 185 0
166 181 0
169 188 0
168 187 0
173 191 0
165 182 0
172 191 0
169 188 0
190 215 72
187 213 62
198 224 62
192 216 88
205 225 161
215 231 226
221 235 250
221 235 250
222 235 250
221 235 253
221 235 250
217 233 248
219 234 253
219 234 253
220 234 253
218 234 253
217 233 250
217 233 250
218 234 255
217 233 250
214 231 248
215 232 242
217 233 253
215 232 248
216 233 250
215 232 248
215 232 255
213 231 250
214 232 250
215 232 250
215 232 253
213 231 250
211 230 242
214 232 253
213 231 248
213 231 253
212 230 248
215 232 255
214 231 253
215 233 248
214 231 250
212 230 248
212 229 245
213 231 253
212 230 242
214 232 255
214 231 255
214 232 253
216 234 253
213 230 248
212 230 245
214 232 245
215 232 250
214 231 250
214 232 248
216 232 255
215 232 250
216 233 253
215 232 245
215 232 250
216 232 250
217 233 253
218 233 253
216 232 248
217 233 250
217 232 250
217 233 250
217 232 248
220 235 253
219 234 253
220 235 253
221 235 253
219 234 242
220 234 250
221 235 250
223 236 253
219 234 234
208 226 191
207 230 140
197 222 51
195 220 80
195 220 72
188 213 72
187 211 62
184 208 72
183 205 72
187 210 102
192 214 108
186 209 88
185 206 108
182 204 108
183 206 95
185 207 114
187 207 120
183 203 120
181 203 88
153 177 62
147 171 80
145 170 86
135 161 96
137 161 85
134 159 106
114 139 121
144 167 74
163 187 32
164 188 0
157 180 0
56 88 135
59 93 151
60 94 147
58 93 139
61 97 162
61 97 152
61 96 148
60 95 137
59 95 150
60 96 154
61 98 164
61 96 145
61 97 143
61 96 162
61 97 162
61 97 156
60 96 150
62 98 162
61 97 160
61 97 162
61 98 161
60 96 165
62 99 171
62 98 166
62 98 166
62 98 165
61 98 170
62 98 166
62 98 163
61 98 170
62 98 159
62 98 166
62 99 175
61 98 163
62 99 167
61 98 168
61 98 165
61 96 166
63 100 167
62 98 165
61 97 167
62 98 165
61 97 158
62 98 165
63 99 171
61 97 161
62 99 171
62 99 161
62 98 170
61 98 166
61 97 163
62 99 165
62 98 166
62 98 165
63 99 169
62 98 167
62 99 165
62 98 167
62 98 165
62 99 171
62 98 167
61 98 175
61 97 164
62 98 164
63 100 169
62 99 173
60 97 156
62 99 161
61 98 163
63 99 158
61 97 161
62 98 165
61 98 168
63 99 176
63 99 174
60 96 162
64 100 169
62 99 167
62 98 169
62 99 174
62 98 163
62 98 169
62 99 169
61 98 164
63 100 165
63 99 171
63 99 170
62 98 163
62 98 168
62 99 171
63 99 172
62 99 171
62 98 167
62 98 163
62 98 165
62 98 172
62 98 169
62 98 170
62 98 169
61 97 167
62 99 169
62 98 173
62 99 164
61 97 161
62 99 165
63 99 170
60 97 161
62 98 167
61 97 164
62 98 170
61 97 167
63 99 170
62 98 162
62 99 169
62 98 161
62 98 167
62 98 169
63 99 171
61 97 157
62 98 169
62 98 165
62 99 175
61 98 162
60 97 160
62 98 171
62 99 165
62 98 163
62 98 168
62 99 169
63 99 169
63 100 174
62 99 162
61 97 163
62 99 167
62 99 167
62 99 161
62 98 154
62 98 167
61 97 150
62 99 167
62 98 162
62 99 172
63 99 157
62 98 163
62 98 168
63 100 165
63 99 169
61 98 162
61 98 164
62 99 171
62 99 165
62 98 159
62 98 153
63 99 170
63 99 163
63 99 161
61 97 161
62 98 161
62 98 154
62 98 165
62 98 153
62 99 167
62 98 165
63 100 171
63 99 163
63 100 165
62 98 164
62 98 158
62 98 165
64 100 165
63 99 163
61 96 150
62 98 157
62 98 166
62 98 158
61 97 154
60 95 146
63 98 152
61 96 151
61 96 155
60 95 142
60 94 151
60 95 147
59 93 137
57 90 141
57 89 136
103 99 19
104 101 10
106 104 15
94 95 19
95 95 19
101 100 5
110 109 20
100 98 25
102 99 28
128 125 19
110 108 30
104 102 27
101 100 25
112 108 19
109 107 22
111 107 22
115 111 25
118 114 32
116 113 22
110 107 22
119 118 25
128 122 36
131 125 28
124 118 28
126 122 22
129 124 37
128 124 22
130 124 28
132 127 42
123 119 32
120 116 19
122 119 34
137 134 28
140 136 30
132 126 28
123 118 32
126 122 32
136 132 36
127 124 22
147 141 32
126 122 16
142 136 42
130 125 32
128 123 28
126 121 22
134 128 32
136 132 36
143 138 28
135 130 28
122 116 36
138 132 32
142 133 42
141 136 42
126 121 42
135 131 22
134 130 42
132 125 32
129 125 39
138 131 28
129 122 16
132 126 28
131 126 42
134 127 39
114 110 0
111 105 28
121 116 32
120 114 16
131 126 22
113 107 28
137 144 22
165 175 0
156 168 0
159 171 0
163 179 0
164 173 0
163 179 0
162 176 0
161 173 0
169 179 0
166 179 0
166 183 0
170 187 0
170 184 0
157 170 0
162 178 0
158 177 0
160 177 0
163 179 0
172 188 0
167 185 0
167 182 0
166 186 0
170 186 0
171 189 0
164 182 0
165 181 0
163 178 0
170 186 0
169 188 0
166 186 0
166 183 0
161 181 0
172 191 0
166 182 0
169 186 0
167 186 0
166 185 0
198 224 72
192 215 120
210 230 177
221 237 237
221 235 250
222 235 250
218 233 245
221 235 250
222 236 255
221 235 255
219 234 250
217 233 245
216 232 245
216 232 248
219 234 255
217 233 253
216 232 250
216 232 250
216 233 253
215 232 248
216 233 255
216 233 255
215 232 253
213 230 248
214 231 250
215 233 250
214 231 250
213 231 250
214 231 255
212 231 248
212 230 245
212 230 250
213 231 253
213 230 250
213 231 255
211 230 245
213 232 245
210 229 248
213 231 253
212 231 242
212 230 253
212 231 255
212 230 250
212 230 253
212 230 253
213 231 255
211 229 250
212 231 253
212 231 250
213 230 253
212 230 248
215 234 248
212 230 250
213 231 253
213 231 250
214 231 253
213 231 248
215 232 253
214 232 253
212 230 245
214 231 250
217 234 248
216 232 250
216 233 250
217 233 250
218 234 255
216 232 253
219 234 255
217 233 250
218 234 253
220 235 255
217 232 245
217 232 245
220 235 250
220 234 248
221 235 248
220 234 250
220 233 248
222 235 248
211 229 204
202 225 120
195 220 88
193 217 80
198 222 108
198 224 72
196 218 120
189 213 72
195 217 108
191 212 125
181 205 80
186 209 95
183 204 108
186 208 114
181 202 114
177 199 95
190 211 130
171 192 93
147 171 93
151 173 73
138 161 94
151 173 80
131 156 104
124 149 116
121 144 100
112 138 118
148 173 69
163 187 32
56 88 139
57 90 138
56 90 133
59 93 145
60 95 146
60 95 147
60 96 152
60 96 156
61 97 157
61 98 164
61 97 169
60 95 151
61 97 165
60 96 165
62 99 156
61 97 167
62 98 170
62 98 171
63 99 170
62 99 174
60 96 155
62 98 161
61 97 156
63 99 172
62 98 171
61 98 165
61 97 166
62 98 171
62 98 170
61 98 172
62 98 169
61 98 168
62 98 170
61 98 168
60 97 170
61 98 168
61 97 167
62 99 166
62 99 174
62 99 166
62 98 169
61 97 158
61 97 159
62 99 172
62 99 169
62 99 171
61 98 169
60 96 167
62 99 171
62 98 165
60 97 164
60 96 160
63 100 178
62 98 167
62 98 163
63 100 172
62 99 169
63 100 173
62 99 169
63 99 168
62 99 173
63 99 172
62 98 158
62 98 168
62 99 169
62 98 168
61 98 172
62 99 170
62 98 163
62 99 173
63 99 163
62 99 174
62 98 169
62 98 165
62 99 167
61 98 163
62 98 165
62 98 165
62 98 168
62 98 168
62 99 165
61 98 176
62 98 159
63 99 167
62 98 171
63 99 172
61 97 158
61 98 169
63 100 157
61 98 166
62 99 170
62 98 167
61 98 168
62 98 172
61 97 159
61 97 163
62 98 159
61 97 161
61 97 167
62 98 165
61 97 163
64 100 167
62 99 164
62 99 172
61 97 157
62 99 169
63 99 170
62 99 174
62 98 170
61 97 165
62 99 169
61 98 157
62 99 161
61 98 164
61 98 165
62 99 170
62 98 165
62 98 152
63 99 168
63 100 167
62 98 163
61 97 156
62 98 164
63 99 167
62 98 167
63 99 172
61 97 161
62 99 165
63 99 172
61 97 163
61 97 162
63 99 169
63 99 171
62 98 165
62 99 166
62 98 163
62 98 161
62 98 156
62 98 170
63 100 171
62 98 154
63 99 165
62 98 156
62 98 163
63 100 172
62 98 155
62 99 167
61 98 158
61 97 157
62 98 161
62 98 153
63 99 163
62 98 163
61 97 164
62 98 161
62 98 167
62 98 167
62 98 157
62 99 168
62 98 160
62 98 159
62 98 155
62 99 169
60 96 137
62 98 157
62 98 165
61 97 158
61 97 158
62 98 152
62 99 155
61 96 146
62 98 163
62 98 158
63 99 156
60 95 156
62 98 166
62 98 158
63 98 154
60 95 141
60 94 149
61 95 152
60 94 148
57 91 136
61 95 146
55 87 126
55 86 126
105 103 31
88 87 11
104 100 19
111 109 19
103 102 5
93 94 0
110 106 16
101 99 11
115 111 25
103 102 22
122 119 22
107 105 19
101 100 11
112 110 30
106 104 22
116 111 30
107 104 28
116 114 28
124 121 30
110 107 22
114 108 30
112 107 0
123 120 36
138 133 36
128 123 36
125 124 22
114 112 16
138 132 32
129 125 36
123 120 34
128 124 28
123 118 22
130 124 28
123 117 39
130 125 32
132 128 32
123 117 22
140 136 32
115 111 16
132 128 28
124 120 32
130 125 32
131 126 22
130 123 36
124 120 16
119 113 32
137 130 32
139 131 32
120 116 16
131 125 28
125 122 16
125 122 28
140 135 32
123 117 36
130 127 32
137 131 36
132 126 32
136 128 36
114 109 22
124 119 16
128 122 22
136 130 32
103 99 16
114 110 16
117 112 22
116 112 32
117 111 32
127 120 36
148 151 22
155 161 0
160 170 0
164 177 0
166 179 0
156 168 0
165 175 0
172 188 0
152 164 0
164 179 0
162 173 0
160 173 0
163 182 0
166 180 0
162 175 0
160 177 0
169 183 0
167 183 0
154 169 0
162 178 0
169 185 0
159 175 0
167 184 0
171 188 0
167 182 0
169 183 0
170 185 0
174 187 0
170 187 0
161 175 0
175 195 0
170 187 0
168 187 0
166 186 0
167 185 0
163 181 0
164 184 0
165 183 0
171 191 0
216 232 220
220 234 242
222 235 250
221 235 250
219 233 250
218 233 242
220 234 253
218 233 248
220 235 255
217 233 248
216 232 248
217 233 250
216 233 250
217 233 253
215 232 250
216 232 253
216 233 255
213 230 248
215 232 250
215 232 250
215 232 253
214 232 253
214 231 253
213 231 253
212 230 250
212 230 248
213 231 253
212 230 253
210 229 250
212 230 250
212 231 255
212 230 255
211 230 253
212 231 255
212 231 255
213 231 255
212 230 255
211 230 253
212 230 255
212 230 255
211 230 255
212 230 255
211 230 255
211 230 255
212 230 255
212 230 255
212 230 255
212 230 255
213 231 255
212 231 255
212 230 253
213 231 255
213 231 253
212 231 255
213 231 255
214 232 253
213 232 248
213 231 255
213 231 253
214 232 253
213 231 253
213 231 248
211 229 240
214 231 253
214 231 250
215 232 250
216 232 253
214 231 245
214 231 245
217 233 253
218 233 250
219 234 255
218 233 250
220 235 253
218 233 248
218 233 245
220 235 250
220 235 250
222 236 253
221 235 250
219 233 245
217 234 214
209 234 130
197 220 62
192 218 51
189 214 88
188 212 88
187 212 72
190 214 80
185 209 62
188 212 95
181 206 51
186 209 114
186 208 108
186 206 114
187 208 114
166 189 74
150 174 81
146 171 85
133 159 99
151 174 75
146 171 79
134 159 95
125 151 118
130 155 109
113 139 138
115 141 114
56 89 140
59 93 148
59 94 153
60 95 146
60 95 149
60 95 149
61 97 157
61 97 161
61 96 156
61 98 164
60 95 148
61 97 152
61 97 163
59 94 155
62 98 161
61 97 163
61 96 156
61 97 162
60 95 157
62 98 157
61 97 164
61 97 153
61 97 159
61 98 163
61 96 151
61 97 160
63 99 169
62 98 165
63 99 171
62 98 162
62 98 163
62 99 171
61 97 163
60 96 155
61 97 161
61 97 168
60 96 160
63 99 165
62 98 159
61 98 173
61 98 169
61 97 165
63 99 176
62 98 172
62 99 161
62 98 167
62 98 170
63 99 168
61 97 158
61 97 163
61 97 161
62 99 173
62 98 170
62 99 167
62 99 167
62 98 160
63 100 171
62 98 174
61 97 162
63 99 176
60 96 167
63 99 176
62 98 172
63 99 161
62 98 168
62 98 160
62 99 169
62 98 159
60 96 164
62 99 171
63 99 172
61 97 163
62 99 174
62 98 165
62 99 166
63 100 174
63 100 160
62 98 166
63 100 171
63 99 172
62 98 167
62 98 167
63 99 167
63 99 169
61 97 155
63 100 174
63 99 172
62 98 157
61 97 167
63 99 167
63 99 169
62 98 167
63 99 165
61 97 167
61 97 162
61 98 174
62 99 162
62 99 170
64 100 169
63 100 173
62 98 168
63 99 167
64 100 172
61 99 169
62 98 169
62 98 167
63 99 163
61 97 161
62 98 173
62 99 168
62 98 155
61 98 166
61 98 162
62 98 169
62 98 169
62 99 161
61 97 163
62 99 172
63 99 167
63 100 176
63 100 163
62 99 169
62 99 159
62 98 166
61 97 155
63 100 164
62 99 167
62 98 167
62 99 171
62 98 163
60 96 150
62 98 157
62 99 165
61 98 165
61 97 164
62 98 163
62 99 170
62 98 161
62 99 161
63 99 159
63 99 164
61 97 152
62 98 162
62 98 167
60 96 156
63 99 167
63 99 165
63 98 153
62 98 165
62 98 164
61 97 151
63 99 165
61 98 163
61 98 159
61 97 163
62 98 158
62 99 165
61 98 161
61 97 165
62 99 170
62 97 157
62 98 160
62 99 161
62 97 162
63 99 171
62 99 160
62 98 159
61 98 159
61 97 154
61 96 154
61 97 148
62 98 164
62 97 152
59 95 143
62 98 158
61 97 141
62 97 144
61 96 156
62 98 161
60 95 149
61 96 157
58 92 146
58 91 131
57 91 138
57 89 130
56 87 127
82 81 42
107 104 16
100 97 0
90 90 0
92 91 16
100 95 19
112 109 16
107 105 19
100 98 5
115 112 19
109 108 0
115 113 16
111 109 22
87 86 0
107 104 22
119 116 20
117 114 16
120 115 32
116 115 30
124 119 28
124 120 16
108 106 16
123 117 19
130 126 0
127 121 39
119 115 16
105 101 16
122 117 11
133 129 32
127 124 36
115 112 0
130 123 28
126 121 28
144 140 22
132 128 28
124 122 22
123 120 22
118 113 0
118 112 0
131 124 36
128 122 36
128 125 0
134 129 32
141 135 36
133 127 32
120 114 28
125 121 28
127 122 22
138 134 32
135 128 36
127 123 28
125 121 36
141 134 36
108 105 16
130 124 28
139 132 36
131 126 22
132 127 22
130 125 16
113 109 16
114 109 28
113 110 28
129 122 22
122 115 22
114 108 16
121 118 22
121 117 22
163 175 0
162 172 0
158 170 0
169 184 0
163 173 0
152 161 0
166 181 0
162 173 0
161 174 0
166 181 0
166 177 0
155 170 0
158 168 0
169 183 0
164 177 0
163 178 0
169 182 0
165 182 0
169 188 0
170 184 0
166 183 0
168 185 0
157 172 0
156 174 0
167 184 0
162 179 0
168 187 0
171 190 0
158 174 0
171 186 0
167 188 0
172 188 0
164 184 0
170 184 0
170 188 0
171 187 0
172 191 0
158 179 0
164 183 0
168 188 0
222 236 250
221 235 253
221 235 253
219 234 248
221 235 255
219 234 253
219 234 253
219 234 253
218 233 253
216 232 248
217 233 250
216 232 253
215 232 250
216 232 253
214 231 248
215 232 250
214 231 250
213 230 253
213 231 245
212 230 250
213 231 255
213 231 253
212 230 255
212 230 253
213 231 255
212 230 255
210 228 250
211 230 255
212 230 255
211 230 255
212 230 255
212 230 255
211 230 255
211 230 255
211 230 255
211 230 255
211 230 255
210 229 255
210 229 255
211 230 255
210 230 255
211 230 255
210 229 255
211 230 255
211 230 255
211 230 255
210 230 255
212 230 255
211 230 255
212 230 255
211 230 255
211 230 255
211 230 255
212 230 255
212 230 255
213 231 255
212 230 255
212 231 253
213 231 253
214 232 253
214 232 253
213 231 253
213 230 250
214 232 253
213 231 242
214 231 250
216 233 253
215 232 253
214 231 245
216 232 250
215 231 248
217 233 253
218 234 255
216 232 248
218 234 253
219 234 253
219 234 253
217 233 245
221 235 250
219 234 248
221 235 253
220 234 242
222 235 250
214 234 191
199 224 108
197 223 51
192 217 80
196 221 114
190 215 88
189 214 62
181 207 62
185 208 80
181 203 72
185 208 95
184 207 108
175 197 97
175 197 87
146 170 82
147 170 87
149 174 79
146 169 91
145 169 66
154 178 83
146 170 87
138 161 101
139 163 98
131 157 107
107 133 136
72 103 142
60 94 153
60 94 147
60 95 149
59 95 157
59 94 159
59 95 151
61 96 154
60 96 161
60 95 146
58 93 146
61 96 152
60 96 150
61 97 161
61 97 156
62 98 157
63 98 163
60 96 157
59 95 141
61 98 169
60 96 154
62 98 163
62 98 167
62 99 161
62 98 159
62 98 167
62 99 173
61 98 163
62 98 163
62 99 165
62 98 161
61 97 159
62 99 169
60 97 170
62 99 179
61 97 160
63 99 169
60 97 165
61 98 165
62 98 159
61 97 155
62 99 171
62 98 162
62 98 171
63 100 171
61 98 161
61 98 169
60 97 160
61 98 169
61 98 164
62 98 174
62 98 163
61 97 158
61 98 166
62 99 171
62 98 167
62 98 159
63 100 169
62 99 169
63 99 166
62 98 166
64 100 175
62 98 169
62 98 161
62 98 167
62 98 165
63 99 167
61 98 166
62 99 168
61 98 162
62 98 162
62 99 164
62 98 169
61 97 164
63 99 170
62 99 165
63 99 168
62 98 172
62 98 167
63 100 167
62 98 169
62 98 162
63 100 173
63 99 174
62 98 174
61 98 165
62 98 159
61 98 152
63 99 163
63 100 171
63 99 168
61 98 158
61 97 165
61 98 164
63 99 165
63 99 173
63 99 167
62 99 169
61 98 159
61 98 165
62 98 157
63 99 172
63 99 166
63 100 163
63 100 174
62 99 176
62 99 165
62 98 167
62 98 163
63 100 169
62 98 161
62 99 165
62 98 163
63 99 169
63 100 169
63 99 163
61 97 167
62 98 163
61 97 161
62 98 163
62 98 166
62 98 162
64 101 169
62 98 160
61 97 154
60 96 156
62 98 168
63 99 164
62 98 167
63 99 163
62 99 166
62 98 170
62 98 167
63 100 159
63 99 163
63 99 171
61 98 157
63 99 165
62 98 165
63 99 173
62 98 164
61 98 161
62 98 163
62 99 165
63 99 167
61 97 163
61 97 157
62 98 164
62 98 148
62 98 159
62 99 165
63 99 169
62 99 167
61 98 167
62 98 161
61 97 154
61 97 162
64 99 163
63 99 157
63 99 165
62 98 165
62 98 152
62 99 167
62 98 144
63 99 164
63 99 167
63 99 156
61 97 154
61 97 156
62 98 158
60 95 144
63 99 154
62 97 156
61 96 141
60 96 155
62 98 158
60 95 141
62 97 153
60 96 144
62 98 154
60 94 144
60 95 147
59 93 135
55 88 123
52 83 123
82 82 23
109 105 0
99 95 10
105 104 10
90 89 12
109 106 22
107 103 25
113 110 22
102 99 0
108 106 22
106 104 0
84 83 0
112 111 0
119 117 22
122 118 19
112 107 32
115 113 22
109 105 25
116 111 19
126 120 0
109 105 0
108 103 22
109 106 0
112 109 22
104 102 11
114 111 0
121 118 32
111 107 16
126 120 32
130 126 28
124 122 16
123 119 32
130 128 16
121 118 25
128 124 16
130 125 22
123 120 16
128 122 22
132 128 16
116 112 16
124 118 28
118 115 16
124 119 22
118 115 16
121 117 16
134 128 36
129 123 28
128 122 28
124 116 28
123 118 22
135 129 22
125 120 39
125 120 28
122 117 0
124 117 22
128 123 36
115 111 22
108 106 16
115 112 28
126 118 32
121 113 32
99 94 0
115 111 0
115 108 32
124 116 28
136 139 16
157 166 0
152 160 0
156 168 0
153 164 0
156 165 0
155 165 0
156 168 0
171 187 0
169 179 0
165 179 0
157 166 0
159 171 0
160 173 0
165 176 0
163 178 0
161 175 0
168 185 0
161 178 0
165 180 0
161 178 0
165 183 0
165 181 0
169 183 0
169 187 0
169 186 0
172 189 0
165 181 0
164 184 0
165 180 0
160 175 0
171 189 0
169 189 0
167 183 0
166 183 0
169 186 0
170 189 0
166 184 0
170 187 0
166 184 0
170 187 0
173 192 0
220 234 248
221 235 255
216 232 242
218 233 250
218 234 253
217 233 250
216 232 245
217 233 253
217 233 253
216 233 250
215 231 250
215 231 250
212 230 245
213 231 250
213 231 248
212 230 248
214 231 255
212 230 250
213 231 250
216 235 250
212 231 255
212 231 255
212 231 255
211 230 255
211 230 255
212 230 255
212 230 255
211 230 255
210 229 255
210 229 255
210 229 255
210 230 255
210 229 255
210 229 255
210 229 255
209 229 255
209 229 253
209 229 255
210 229 255
209 229 255
209 228 255
208 228 255
210 229 255
210 229 255
209 229 255
210 229 255
209 229 255
209 228 253
210 229 255
209 229 255
210 229 255
210 229 255
209 229 255
210 230 255
211 230 255
211 230 255
211 230 255
211 230 255
211 230 255
213 231 255
213 231 255
212 230 253
213 231 255
214 232 250
213 231 253
213 231 250
214 232 248
214 231 253
214 232 250
214 231 248
216 233 255
216 232 250
216 233 250
216 233 245
216 232 248
215 231 240
217 233 250
219 234 250
220 235 255
219 234 250
219 234 248
219 233 245
221 235 250
222 236 250
218 233 240
215 233 204
205 229 108
194 220 80
197 222 80
192 216 51
191 216 72
187 212 36
185 210 80
163 185 118
128 151 154
121 141 178
101 125 158
94 118 158
65 97 151
63 96 130
89 117 144
92 120 132
131 156 104
146 171 91
144 168 86
127 153 108
134 159 104
115 142 116
109 137 133
77 107 140
60 94 149
59 93 146
59 94 140
60 96 147
59 94 153
60 96 152
61 97 154
61 97 158
62 97 152
61 97 154
60 95 152
59 94 144
62 98 162
62 98 150
61 97 161
60 96 160
61 97 159
60 97 161
61 97 161
58 94 149
61 98 170
60 96 155
61 97 160
61 97 161
62 98 168
61 97 157
62 98 155
61 97 161
62 98 164
60 96 160
61 97 154
63 100 165
62 99 166
61 98 168
61 97 163
60 96 165
62 99 161
62 98 170
61 97 160
62 99 171
61 97 164
62 98 167
62 98 167
61 97 168
61 97 165
62 98 174
62 98 155
63 99 169
62 99 169
62 98 164
62 98 163
60 96 151
62 99 176
61 97 160
63 99 173
62 98 167
63 99 169
63 100 171
63 99 168
62 98 171
62 98 167
61 97 161
61 98 169
62 98 169
62 99 172
63 99 168
61 98 176
63 100 165
62 98 166
62 99 167
62 98 172
61 98 169
62 98 157
62 99 169
62 99 167
62 98 164
62 98 166
62 98 163
62 98 172
61 98 165
61 98 165
62 98 170
62 98 165
61 98 169
61 97 158
62 98 165
62 99 170
62 99 162
62 98 163
61 97 152
62 98 170
62 98 166
62 98 165
62 98 164
62 98 167
63 99 170
62 98 168
64 100 165
61 97 161
62 98 165
63 99 173
63 99 169
63 99 171
62 99 169
62 98 165
63 100 169
62 99 169
62 99 163
62 98 157
61 98 166
62 98 167
62 98 167
62 99 171
63 99 159
63 100 157
62 99 163
61 97 160
62 98 163
63 99 167
61 97 159
63 100 165
62 99 167
63 99 166
62 99 171
61 98 169
63 99 167
63 100 169
63 99 164
63 99 167
63 99 174
61 98 160
61 97 148
62 98 163
61 98 163
62 98 159
62 99 171
63 99 167
62 99 165
61 98 164
62 98 156
62 98 167
63 99 161
62 99 167
61 97 160
62 98 157
63 99 160
61 97 156
61 97 161
61 98 165
62 98 163
62 98 155
61 98 159
63 99 165
63 99 165
62 98 169
62 99 156
60 97 156
62 98 153
63 99 165
63 99 161
61 97 155
61 96 159
63 99 161
62 99 159
62 99 157
62 98 158
61 97 157
61 97 154
62 98 154
62 98 157
62 98 158
62 97 150
62 98 158
61 97 150
61 96 146
64 99 162
58 92 142
61 95 151
63 98 142
60 95 157
59 93 152
56 88 134
55 86 124
102 98 16
106 104 22
109 106 16
107 103 0
109 106 0
117 112 16
109 104 10
88 86 19
104 101 0
97 94 22
117 113 0
109 107 30
122 115 11
115 112 16
113 109 0
117 113 0
115 112 19
108 103 0
118 115 19
122 116 25
116 110 16
123 119 16
126 122 22
116 112 16
104 102 23
111 108 28
126 122 32
126 120 30
106 101 16
119 113 36
107 104 0
121 117 28
114 112 16
127 123 0
113 109 32
129 124 28
121 116 22
123 119 16
112 111 28
128 122 28
110 106 22
128 121 22
131 127 28
133 127 32
131 125 22
116 114 0
137 132 32
125 120 16
132 125 32
126 121 22
106 102 22
118 112 28
129 122 28
121 118 16
112 107 16
110 104 16
116 112 22
120 112 28
99 96 16
123 118 16
116 110 32
109 107 16
109 103 16
129 126 28
143 149 16
154 161 0
157 170 0
159 170 0
160 169 0
159 171 0
163 177 0
165 179 0
172 184 0
156 172 0
158 169 0
164 181 0
159 170 0
164 181 0
159 172 0
166 181 0
170 182 0
170 186 0
162 178 0
165 178 0
162 178 0
162 177 0
165 179 0
172 186 0
161 176 0
160 176 0
171 184 0
169 186 0
162 177 0
167 184 0
170 192 0
165 182 0
159 176 0
171 189 0
167 182 0
170 187 0
162 179 0
164 181 0
173 192 0
168 183 0
168 188 0
166 185 0
168 190 0
220 235 255
217 233 248
219 234 250
217 233 253
216 232 248
217 233 248
215 232 250
215 232 250
216 233 253
215 232 255
214 232 255
213 231 248
216 233 253
213 231 250
212 230 250
212 230 255
212 231 255
212 231 255
212 230 255
212 230 255
212 230 255
212 230 255
211 230 255
210 229 255
210 229 255
210 229 255
209 229 255
209 228 253
210 229 255
209 229 255
208 228 255
209 229 255
209 229 255
206 227 245
209 229 248
209 228 250
208 228 240
201 222 223
207 227 226
197 217 211
207 226 234
199 218 217
205 224 228
209 228 231
206 226 234
207 226 228
204 223 220
208 227 231
206 225 231
205 225 234
206 226 234
203 221 231
209 228 245
210 229 253
207 226 250
209 229 255
209 229 253
210 229 250
210 229 255
211 230 255
211 230 255
212 230 255
211 230 253
212 230 255
213 231 255
212 231 255
213 231 255
212 230 250
214 232 253
213 231 250
214 232 248
215 232 253
214 232 255
216 233 253
215 232 248
216 232 253
216 232 250
217 233 248
219 234 255
219 234 253
219 235 253
219 234 250
219 234 250
218 232 245
222 236 250
222 236 250
221 235 245
219 238 198
201 225 114
191 215 88
188 213 62
192 217 72
156 179 120
87 113 153
91 118 167
107 131 170
98 123 158
117 139 176
85 113 159
68 100 140
71 103 144
68 101 150
59 93 150
76 105 137
97 124 137
128 151 101
132 158 96
144 168 93
131 155 98
118 144 126
103 130 123
63 97 139
59 94 153
62 97 154
60 95 141
61 97 152
61 97 158
62 98 159
60 96 157
61 97 151
60 96 151
61 96 165
62 99 163
60 95 157
63 99 165
61 97 166
60 96 158
60 96 159
62 97 165
60 97 170
59 95 164
60 96 162
60 96 150
62 98 165
62 98 159
61 97 165
59 95 153
61 97 163
62 98 166
60 96 156
61 97 162
62 99 157
62 98 170
62 99 165
61 97 161
62 98 163
62 98 169
62 98 171
62 98 161
60 97 165
61 98 164
62 98 161
63 99 170
61 97 161
62 99 171
64 100 172
62 99 170
63 99 168
63 99 172
62 98 163
62 98 167
62 98 167
62 99 172
63 98 162
61 98 170
62 98 161
63 99 172
62 99 169
61 97 166
62 98 170
61 97 162
62 99 165
62 98 167
62 99 172
61 97 167
62 98 163
62 98 168
61 98 163
62 99 168
61 98 172
61 97 167
63 100 169
63 100 169
63 99 168
61 98 169
61 97 156
62 98 171
63 99 169
62 99 172
62 98 167
62 98 173
61 97 162
62 98 170
61 97 160
62 99 163
61 98 161
62 99 166
62 99 170
62 99 165
63 99 163
62 98 170
63 99 172
62 99 173
62 98 165
62 99 167
61 98 161
63 99 161
61 97 161
62 98 169
63 100 167
62 99 176
63 99 163
61 97 161
62 98 165
62 99 166
61 97 163
62 99 158
62 98 161
61 97 165
62 99 163
62 98 169
61 98 167
63 99 164
62 99 171
63 100 171
63 100 169
61 98 165
62 98 163
62 98 165
63 99 174
61 97 165
62 99 164
62 99 167
63 99 167
63 99 160
62 98 172
62 98 165
63 99 163
61 98 163
62 98 159
62 98 162
62 98 157
63 99 167
62 98 165
62 98 163
62 97 161
62 98 169
62 98 157
63 99 165
62 99 168
62 98 165
63 100 165
61 97 159
63 99 164
63 99 165
63 99 153
61 98 148
63 99 162
62 98 159
61 97 152
59 95 152
62 98 162
61 97 159
61 97 152
62 98 155
61 97 160
62 98 165
63 99 159
61 97 152
63 99 159
63 99 159
63 98 159
61 97 156
62 97 157
61 97 148
62 97 154
61 97 148
62 98 156
61 96 156
62 98 152
61 96 152
62 97 158
63 98 156
63 99 158
61 96 153
61 97 142
60 95 149
60 94 140
60 94 146
59 93 141
60 94 148
57 90 143
54 86 122
103 100 22
93 90 0
95 94 0
113 108 10
91 89 0
105 101 0
107 105 3
111 108 0
100 98 0
117 112 0
110 107 5
106 103 0
126 121 0
109 105 16
89 89 11
110 107 16
104 101 0
119 114 10
115 111 0
114 110 16
114 112 0
114 109 22
114 108 28
100 97 0
126 122 22
119 117 0
111 107 22
118 115 16
132 127 22
122 117 16
131 127 16
113 110 0
116 111 22
132 128 22
126 120 32
125 120 28
126 121 32
115 113 22
122 117 16
124 119 16
123 118 0
124 118 16
130 125 36
124 119 16
124 118 16
123 121 22
127 119 32
139 130 28
127 124 28
127 121 28
124 120 28
123 116 22
129 123 16
126 123 28
112 107 28
111 107 16
123 118 0
112 108 16
107 102 16
120 114 22
126 121 32
114 108 22
121 120 22
150 157 0
152 159 0
153 163 0
146 154 0
153 158 0
161 171 0
152 161 0
165 176 0
158 169 0
161 174 0
157 169 0
158 172 0
156 168 0
166 182 0
165 172 0
170 184 0
164 175 0
166 183 0
163 173 0
165 181 0
166 182 0
158 173 0
165 178 0
169 185 0
166 182 0
166 183 0
171 189 0
160 170 0
166 183 0
162 178 0
170 186 0
166 185 0
166 181 0
167 186 0
163 181 0
163 178 0
168 184 0
162 180 0
165 179 0
170 187 0
174 191 0
170 187 0
171 192 0
164 181 0
219 234 255
218 234 253
216 232 250
216 233 253
213 231 245
214 231 248
215 232 253
216 233 250
216 233 253
214 232 250
214 231 255
211 230 245
212 231 253
212 230 253
211 230 255
212 230 255
211 230 255
211 230 255
210 229 255
211 230 255
210 229 255
210 229 255
209 229 255
210 229 255
209 229 255
209 229 255
204 224 248
206 226 240
205 224 234
203 222 234
204 224 226
203 223 217
202 221 198
199 218 188
200 219 194
209 227 228
197 217 188
197 218 184
200 220 184
202 221 184
201 221 201
202 222 204
204 223 191
200 220 194
199 218 198
204 222 214
201 221 191
202 222 201
194 213 191
204 222 207
202 221 201
200 220 194
204 223 201
197 218 184
199 219 181
205 225 201
205 224 220
206 225 226
205 224 231
204 224 226
208 227 250
210 229 253
210 229 255
211 230 255
212 231 255
211 230 255
212 230 255
213 231 255
214 232 250
212 231 255
213 231 248
214 232 250
212 230 248
214 231 250
214 231 250
215 232 255
215 232 250
213 230 245
217 233 253
217 233 250
217 233 250
220 235 255
220 234 253
219 234 253
221 235 253
221 235 250
221 235 248
221 235 248
220 234 245
204 224 157
202 227 62
195 220 84
125 148 159
93 120 162
92 119 165
108 132 164
84 113 160
122 145 187
105 130 171
64 98 148
77 108 154
64 98 154
76 108 148
76 108 144
72 104 154
63 96 145
79 110 150
125 149 109
142 166 83
134 159 113
130 155 114
107 133 124
81 112 155
60 95 147
60 96 152
60 95 150
59 94 145
61 97 145
58 93 159
62 97 162
61 97 160
60 96 151
60 95 155
61 97 163
60 95 161
61 97 158
61 97 158
60 96 164
61 97 169
59 94 159
61 97 149
62 98 163
61 97 153
61 96 150
60 97 161
61 97 162
61 97 156
60 96 161
61 97 162
62 99 167
62 98 152
62 99 168
62 98 161
62 97 172
61 98 167
61 98 161
62 98 161
61 97 157
61 98 159
62 98 165
62 99 163
63 99 169
61 97 161
60 96 154
61 98 160
62 98 155
62 97 165
61 98 168
62 99 178
61 97 158
62 98 167
62 98 165
62 99 163
61 98 166
61 97 163
62 98 167
62 99 165
61 98 157
62 98 167
62 98 169
63 99 162
63 99 169
63 99 169
62 99 172
63 99 167
62 98 171
62 98 171
61 97 160
63 100 171
63 100 167
63 99 170
61 97 165
63 99 164
62 98 165
62 98 171
62 98 171
62 98 167
62 99 168
61 97 167
62 98 161
61 97 165
61 98 165
62 99 165
61 97 148
61 98 161
63 99 167
63 100 167
62 98 168
63 100 165
63 99 164
63 100 176
62 99 169
62 98 171
62 98 166
61 96 159
63 99 165
63 99 167
61 98 163
62 99 169
61 98 162
63 100 174
61 98 169
63 99 165
63 99 160
62 98 164
63 99 169
61 98 161
62 98 168
63 100 165
63 99 166
63 100 167
62 99 163
62 99 165
62 99 169
61 97 160
61 98 167
62 98 167
62 99 172
61 97 155
63 99 159
62 98 161
62 98 169
61 97 160
64 101 172
62 98 168
62 99 167
63 99 162
62 98 160
61 97 161
62 98 165
62 99 168
63 99 159
62 97 164
61 97 153
64 100 171
63 99 165
62 98 163
61 96 162
60 97 165
62 98 167
62 98 164
63 100 169
61 97 157
61 97 159
62 99 163
62 98 165
62 98 165
62 98 169
62 98 161
62 99 159
63 99 159
62 98 157
62 99 155
62 98 162
61 98 158
63 99 163
63 100 169
62 98 161
62 98 155
62 98 159
62 98 159
61 97 156
61 97 150
63 99 158
60 96 146
62 97 148
62 98 154
62 98 163
62 97 146
62 98 151
61 96 150
62 98 150
61 97 152
60 95 148
61 97 136
59 93 135
60 95 148
61 97 155
60 95 135
59 93 143
59 93 140
56 89 132
55 87 126
88 88 11
101 99 10
83 80 0
89 87 11
99 94 0
98 93 0
103 99 0
102 97 0
108 102 0
114 108 16
113 110 11
105 101 0
101 96 5
110 107 0
112 107 0
122 117 10
99 97 16
117 113 0
119 115 22
125 120 0
110 107 28
107 102 16
124 118 16
113 109 28
115 113 22
118 113 11
119 115 0
127 123 16
113 108 22
121 115 22
124 121 16
129 125 16
124 119 16
110 105 22
119 114 16
110 107 22
115 112 0
126 124 22
116 111 0
113 107 22
109 108 16
117 112 16
125 122 22
124 119 28
96 91 16
127 123 0
109 105 0
125 119 22
123 117 22
121 116 22
111 107 0
118 113 0
105 99 32
118 111 16
108 102 22
115 110 28
114 107 36
103 99 22
111 105 22
87 81 22
131 133 0
149 156 16
159 168 0
148 157 0
158 164 0
165 177 0
156 163 0
159 167 0
161 172 0
154 164 0
152 164 0
161 173 0
161 172 0
159 173 0
166 180 0
164 176 0
161 174 0
171 187 0
168 181 0
162 175 0
165 178 0
161 173 0
165 181 0
168 182 0
166 182 0
165 179 0
153 167 0
168 184 0
167 185 0
167 184 0
163 175 0
164 180 0
167 182 0
162 178 0
171 187 0
164 181 0
161 179 0
169 186 0
166 184 0
170 189 0
172 189 0
162 178 0
162 179 0
161 177 0
168 187 0
171 188 0
169 187 0
217 233 255
215 232 248
216 232 253
215 232 253
214 231 248
214 231 253
213 231 248
213 231 255
213 231 253
212 230 250
213 231 255
213 231 255
212 230 253
209 229 253
212 230 255
210 229 253
210 229 255
211 230 255
209 229 255
209 228 255
209 229 255
208 228 255
206 226 240
207 227 231
205 224 220
207 226 217
204 222 220
203 221 211
205 224 204
205 223 204
199 218 201
199 219 184
202 221 201
206 225 204
203 221 217
206 224 204
198 218 181
208 225 226
201 220 198
202 221 198
211 228 223
206 223 204
212 229 231
204 222 211
206 223 217
205 223 214
209 225 211
209 226 217
198 216 181
213 229 231
200 218 198
204 221 207
203 222 201
203 221 204
199 217 181
201 220 194
201 219 201
200 219 201
202 222 198
202 222 194
204 223 207
201 219 198
202 221 214
209 228 223
207 225 242
210 229 253
211 230 255
211 230 255
212 230 255
213 231 255
212 230 253
214 231 255
213 231 255
212 230 253
214 231 255
213 231 245
213 230 245
214 231 250
217 233 255
215 232 245
216 233 253
216 232 250
217 233 250
220 235 255
221 236 248
220 234 248
221 235 253
221 235 250
221 235 253
224 237 255
219 235 226
184 206 128
80 108 162
91 118 170
84 113 167
100 126 167
103 128 177
116 140 179
131 153 192
78 109 165
68 101 157
70 103 149
75 107 155
68 101 152
65 99 147
66 100 155
71 103 150
65 99 149
85 113 130
119 145 108
129 152 108
111 139 125
106 134 113
84 115 138
59 94 137
60 96 151
60 95 155
60 95 155
60 95 154
60 96 164
62 99 161
61 97 153
61 96 157
62 98 166
61 97 157
62 98 161
60 96 155
59 96 164
60 96 159
61 97 164
62 99 163
59 95 156
59 95 144
61 98 161
59 95 149
61 97 166
61 97 159
62 97 170
62 98 165
62 98 161
60 96 162
59 95 161
61 97 167
62 98 170
61 97 162
61 97 159
63 99 165
60 96 159
62 98 171
60 96 152
62 98 170
62 98 167
62 99 170
61 98 171
60 96 156
62 99 168
61 97 165
62 98 168
61 98 171
61 98 172
63 100 168
62 98 165
61 97 165
62 98 163
62 99 169
61 97 154
62 98 161
62 98 168
61 98 171
61 97 163
63 99 170
63 99 165
63 99 171
62 97 163
61 97 164
62 99 165
63 99 175
62 98 160
63 99 169
61 98 165
62 98 158
61 98 164
64 100 161
60 97 163
63 99 165
61 97 160
61 97 161
63 99 172
63 99 165
61 98 155
61 97 160
62 99 175
62 99 173
63 100 172
61 97 167
62 99 167
61 98 170
62 99 167
63 99 171
62 98 164
63 99 167
62 99 167
61 98 156
61 97 161
62 99 167
62 99 171
60 96 161
62 98 157
63 99 163
63 99 169
62 98 166
62 99 162
62 98 158
63 99 167
61 98 155
61 98 165
62 98 170
61 98 159
62 98 161
63 99 157
63 99 167
62 99 165
62 98 161
62 98 164
62 98 169
63 100 173
63 99 167
63 99 160
62 98 167
62 98 157
61 98 161
63 99 164
64 100 161
62 99 157
63 100 165
61 98 159
62 98 165
61 97 155
63 99 167
61 98 159
62 99 163
61 98 166
62 99 169
62 99 168
63 99 165
62 97 157
62 98 163
62 98 163
61 98 157
62 99 165
62 98 155
61 97 155
62 98 158
62 98 161
63 99 166
63 100 166
61 98 161
61 96 148
62 99 165
62 97 152
62 98 155
63 99 167
61 96 152
62 98 150
62 98 158
61 97 155
62 98 157
63 99 163
62 98 148
62 99 154
60 96 157
61 98 161
62 99 163
62 98 160
62 98 159
61 97 156
60 95 147
64 99 163
62 97 159
60 96 156
62 97 158
61 96 152
61 96 152
62 97 158
60 95 152
61 96 161
61 96 151
60 95 142
60 95 154
61 96 155
60 94 133
59 92 145
57 89 139
100 96 0
102 100 0
103 100 5
122 118 0
115 109 0
88 85 0
95 88 19
90 86 0
98 94 0
105 102 0
107 102 0
92 90 0
99 97 0
107 103 0
98 95 0
121 117 16
116 113 0
114 108 16
115 112 16
100 95 0
123 115 22
108 104 0
110 107 0
100 94 16
116 113 16
114 108 0
115 110 16
121 117 0
111 107 16
114 110 22
121 115 22
119 113 16
123 118 22
107 104 0
107 101 0
117 112 28
126 119 16
123 120 16
120 115 22
124 118 22
130 124 28
108 106 0
125 118 22
118 113 22
114 107 16
129 123 16
130 124 22
117 112 16
120 113 32
122 118 16
117 112 22
113 106 16
119 111 28
129 122 28
92 87 16
111 106 0
111 105 16
112 106 22
100 94 16
145 146 28
142 149 0
152 157 0
156 167 0
152 159 0
154 160 0
160 167 0
155 167 0
155 164 0
151 157 0
161 175 0
162 176 0
159 171 0
165 177 0
161 170 0
167 183 0
155 167 0
167 182 0
160 173 0
165 180 0
163 174 0
161 170 0
161 173 0
169 185 0
164 179 0
157 172 0
166 180 0
166 182 0
170 185 0
160 172 0
170 185 0
169 183 0
161 180 0
165 182 0
169 189 0
168 186 0
171 188 0
169 190 0
171 189 0
173 189 0
166 184 0
169 187 0
169 183 0
167 187 0
171 190 0
165 184 0
176 193 0
168 184 0
215 232 250
216 233 255
215 233 248
213 231 250
214 231 253
213 231 250
214 232 253
213 231 255
213 231 255
213 231 255
212 230 255
211 230 255
211 230 255
210 230 255
211 230 255
209 229 255
209 229 255
209 229 255
208 228 245
204 225 226
199 219 204
205 225 207
199 219 173
206 225 201
203 223 188
208 226 211
204 222 201
206 224 211
204 222 211
198 215 201
209 225 220
201 219 198
205 221 220
210 226 223
209 225 214
211 227 220
208 225 220
205 223 207
211 226 226
211 227 231
207 224 220
207 224 217
208 224 217
212 227 228
211 226 226
215 230 237
206 222 207
218 232 240
207 224 223
212 228 226
209 225 220
206 222 217
213 229 231
207 223 217
213 229 234
212 227 220
212 228 223
206 224 214
199 216 194
199 217 194
205 222 207
207 224 220
197 217 188
200 220 184
200 220 188
200 219 188
198 217 201
210 229 237
210 228 245
211 230 255
212 230 255
212 230 255
212 231 255
214 231 255
215 232 255
214 232 250
212 230 250
213 231 250
215 232 250
215 232 245
216 232 250
216 232 250
216 233 248
215 231 245
217 233 250
219 234 253
218 233 250
221 236 253
219 233 253
223 236 255
223 237 253
173 189 218
80 109 169
86 115 169
96 123 167
89 118 174
105 131 180
88 117 173
89 118 172
93 121 168
77 107 166
63 97 151
66 101 168
72 105 158
69 103 149
64 99 153
66 101 153
58 94 144
61 97 157
65 99 156
91 119 138
111 136 121
126 152 114
126 149 96
96 124 144
63 98 145
62 99 164
60 96 144
58 93 146
60 96 143
61 97 156
59 95 154
60 96 163
61 97 157
61 97 153
61 97 155
62 98 161
62 98 159
60 96 159
61 96 160
61 97 170
60 96 152
61 97 163
62 99 174
62 98 163
62 98 163
62 98 167
63 99 165
60 96 167
60 97 162
63 99 158
61 98 166
62 98 171
61 98 162
61 97 156
61 97 156
61 97 163
61 97 159
60 95 157
61 96 154
62 98 161
61 97 163
62 98 159
62 98 159
62 98 159
62 98 166
63 99 161
61 97 161
62 99 169
61 98 167
62 98 163
62 98 168
62 98 157
61 97 168
61 98 167
62 98 168
61 97 163
62 99 161
62 98 160
61 98 162
62 98 166
61 97 161
63 100 163
62 98 161
62 98 169
62 98 164
62 99 169
62 98 162
62 98 167
62 98 162
61 97 168
63 99 167
62 99 170
61 96 152
62 98 163
61 97 161
63 100 168
62 98 161
62 98 169
61 98 174
62 98 159
62 99 163
61 97 163
63 99 171
62 98 165
61 98 161
63 99 176
62 98 167
62 98 162
61 98 165
63 100 161
62 99 163
63 99 169
61 97 159
63 99 167
62 99 167
62 98 172
62 99 166
61 97 162
62 99 169
63 99 168
63 99 169
63 99 171
61 98 161
62 98 161
63 99 171
62 99 168
62 99 165
62 99 167
63 99 169
61 98 165
62 98 166
63 99 165
61 98 161
62 98 165
61 98 157
62 98 160
63 99 169
64 100 166
63 99 169
62 98 157
63 100 173
60 96 160
62 98 159
61 97 164
63 100 163
63 99 163
63 99 158
62 98 170
62 98 158
63 99 165
61 97 150
62 99 163
63 99 167
62 98 154
62 98 159
62 98 158
61 98 158
62 98 167
63 100 159
62 99 162
62 98 153
62 98 162
63 99 162
63 99 161
62 98 154
62 98 159
62 98 169
62 97 159
61 97 153
62 98 163
60 95 151
63 100 168
61 97 158
63 99 162
62 99 165
62 98 160
61 97 166
61 96 144
62 99 165
63 98 159
62 98 160
62 98 155
62 98 161
62 98 152
61 97 156
61 96 155
63 99 156
60 96 144
59 93 132
61 97 152
62 98 148
61 96 152
60 96 141
61 96 147
62 97 149
62 97 153
60 95 150
61 95 152
59 94 149
59 92 143
59 93 149
53 83 115
98 95 0
89 83 0
88 85 0
111 105 0
92 89 0
87 84 0
104 99 0
93 89 0
100 96 10
97 94 0
109 105 0
99 96 0
101 98 0
110 107 0
112 108 16
105 101 0
116 112 0
119 114 0
112 108 0
110 105 0
114 108 22
116 112 16
90 88 16
109 106 0
105 99 16
114 111 22
126 119 16
117 115 16
113 110 16
117 111 16
121 115 16
123 116 22
101 97 0
105 100 16
115 109 16
110 105 16
113 110 16
117 111 16
129 122 22
135 128 22
123 118 22
110 105 16
116 110 22
122 116 16
124 116 32
117 111 28
108 101 0
126 120 16
119 112 28
117 110 28
112 106 16
118 113 0
111 106 0
114 109 22
125 121 16
117 113 22
118 114 32
134 134 28
155 163 0
150 160 0
149 154 0
160 171 0
150 152 0
157 166 0
157 165 0
155 161 0
157 166 0
156 166 0
160 170 0
152 158 0
155 162 0
168 180 0
156 168 0
163 179 0
156 169 0
162 174 0
162 174 0
163 175 0
166 178 0
163 182 0
154 167 0
165 180 0
166 180 0
162 177 0
167 184 0
168 181 0
168 186 0
166 185 0
168 181 0
165 182 0
153 168 0
157 174 0
161 175 0
166 182 0
165 181 0
166 182 0
165 183 0
169 188 0
163 178 0
164 178 0
169 188 0
173 188 0
169 187 0
166 181 0
169 187 0
168 185 0
171 187 0
215 232 253
214 231 253
212 230 250
213 231 248
211 229 250
213 231 253
213 231 253
212 230 255
211 230 255
211 230 255
209 229 255
210 229 255
209 229 255
210 229 255
207 227 250
207 226 240
195 216 204
202 221 211
202 222 181
201 220 204
204 223 204
201 221 198
202 220 198
210 226 220
205 222 207
213 229 226
207 223 214
204 221 214
207 224 214
211 227 223
211 227 228
209 226 223
209 225 231
217 232 242
209 226 220
211 226 226
213 228 228
201 219 194
211 229 188
202 221 173
197 216 169
199 219 173
197 219 173
199 219 173
202 221 177
199 219 165
203 224 165
206 225 181
201 224 140
205 228 149
207 226 184
203 223 169
205 225 191
201 220 177
207 226 198
216 233 223
204 220 220
213 229 223
210 227 220
205 222 214
209 224 220
202 220 194
199 217 201
205 223 201
201 219 201
206 224 211
201 220 201
199 218 188
201 220 198
204 222 191
202 221 207
204 224 220
211 230 255
212 230 255
213 231 255
213 231 255
213 231 253
213 231 248
214 232 250
215 232 253
215 232 250
216 233 255
216 233 255
216 232 250
217 233 255
217 232 245
219 234 253
219 234 250
220 235 253
221 235 253
220 234 248
179 195 217
90 117 159
84 114 170
87 116 171
77 109 173
102 129 177
97 125 181
105 132 158
97 124 170
97 124 167
60 96 157
71 105 149
67 100 156
69 103 165
62 97 154
70 102 150
64 99 156
61 96 144
66 100 162
59 94 148
67 100 148
86 114 141
135 160 100
121 146 116
101 129 136
65 100 163
60 95 141
60 95 154
60 95 151
61 97 156
61 96 163
60 96 151
63 99 169
60 96 165
60 95 153
61 96 151
60 95 155
62 98 167
60 95 144
60 96 151
60 95 157
63 99 174
60 96 155
61 96 150
61 97 154
62 98 166
60 95 156
62 99 174
60 96 158
61 97 167
60 96 166
62 98 163
61 98 169
62 98 160
62 99 171
61 97 155
61 97 153
60 96 153
63 99 169
62 98 168
63 99 169
63 99 169
63 99 173
62 99 165
63 99 171
63 100 169
61 98 167
63 99 167
61 97 163
61 97 162
63 100 172
60 96 160
61 98 165
61 98 163
61 97 168
62 98 170
62 98 159
62 98 159
63 99 154
62 98 167
61 97 157
61 97 166
61 97 159
63 99 169
61 97 166
62 98 160
63 100 169
61 97 167
62 98 160
62 99 165
62 98 174
62 98 169
64 100 169
62 99 161
62 99 165
63 99 171
61 98 163
61 98 161
63 100 165
63 99 165
63 100 167
62 98 157
61 98 158
62 98 170
62 99 170
62 99 167
62 98 165
62 98 165
63 99 155
63 100 176
63 99 158
62 98 161
60 97 153
63 99 162
63 99 173
62 98 167
61 98 169
62 99 169
62 98 161
62 98 159
62 98 159
63 99 163
62 98 150
62 98 160
61 97 160
62 99 164
62 98 160
62 99 168
62 99 159
62 98 163
61 98 160
62 98 160
63 99 161
63 99 163
62 98 163
63 99 163
62 98 159
61 97 163
63 99 163
62 99 164
62 97 150
62 99 160
60 96 159
61 98 172
63 99 160
62 98 156
60 96 151
62 98 170
61 98 163
62 97 159
61 97 157
63 99 163
64 100 165
61 98 154
63 99 161
63 99 165
63 99 159
62 98 157
61 97 167
61 98 161
62 98 155
62 98 162
61 96 157
63 99 156
62 98 158
62 98 151
62 99 167
63 99 169
61 97 157
63 99 163
62 98 158
62 99 162
62 99 164
63 99 165
62 98 161
63 99 156
62 98 161
63 99 156
60 96 148
62 97 153
60 95 146
60 96 148
63 99 159
63 99 159
63 99 159
61 97 161
60 94 152
60 96 148
62 98 149
61 96 154
62 97 154
62 97 152
60 96 152
62 97 149
62 98 159
59 93 133
61 96 142
60 94 142
58 91 111
57 90 119
55 88 125
60 82 110
115 112 0
94 88 0
105 98 0
95 93 0
99 97 0
95 92 0
108 103 0
110 107 0
98 95 0
105 102 0
101 97 0
98 94 0
108 104 0
107 102 0
102 99 0
122 114 0
118 114 0
104 98 0
114 108 16
130 124 0
104 99 0
105 102 0
110 105 0
101 96 0
103 101 0
120 114 22
113 109 0
99 97 0
110 105 16
124 119 0
98 94 16
119 110 16
108 101 0
118 113 16
110 107 0
118 112 16
114 109 0
117 111 0
126 119 0
124 116 16
110 104 0
111 105 22
119 114 0
119 114 0
111 109 0
123 117 16
115 107 22
117 110 28
121 113 16
107 103 16
95 90 16
123 118 28
101 94 0
96 89 22
112 107 22
123 125 0
144 150 0
152 158 0
146 149 0
159 164 0
156 167 0
149 159 0
147 155 0
144 151 0
146 149 0
160 167 0
159 172 0
151 155 0
155 167 0
163 174 0
158 170 0
156 167 0
161 173 0
163 175 0
162 176 0
161 172 0
166 181 0
168 183 0
163 175 0
165 177 0
161 172 0
161 174 0
168 186 0
150 162 0
167 183 0
162 179 0
154 165 0
162 179 0
163 179 0
168 182 0
168 185 0
162 176 0
170 187 0
167 180 0
164 176 0
159 176 0
173 192 0
160 177 0
169 187 0
160 176 0
160 176 0
167 179 0
170 190 0
166 182 0
169 188 0
170 189 0
167 186 0
214 231 250
213 231 253
213 230 253
213 231 253
211 229 253
213 231 255
212 230 255
211 230 255
210 229 255
210 229 255
209 229 255
207 228 250
207 226 237
203 223 220
197 216 191
203 222 198
203 222 191
202 222 204
207 224 223
200 218 201
205 223 211
204 222 207
207 224 211
209 226 220
208 224 211
212 227 231
216 230 231
211 227 228
214 229 234
213 230 214
200 220 188
208 228 161
204 225 157
197 221 108
193 217 108
189 214 51
193 220 88
193 219 72
196 222 95
189 214 95
190 216 62
190 216 51
194 219 51
191 218 72
186 211 80
194 219 72
197 222 62
188 214 95
189 215 95
190 215 88
195 220 72
187 211 88
187 212 72
185 211 62
183 208 62
194 219 62
184 209 95
194 219 80
193 216 125
188 211 125
194 216 130
202 221 188
204 222 184
211 228 214
215 230 234
208 223 217
206 223 220
206 224 217
205 223 204
204 222 211
202 221 191
203 221 198
200 220 181
202 221 217
204 223 223
212 231 253
212 230 255
213 231 255
214 231 255
212 230 248
213 231 248
215 232 255
216 232 253
216 233 253
216 232 245
215 231 245
218 233 248
220 235 255
218 233 250
221 235 255
220 235 253
195 211 233
86 114 174
78 109 169
93 122 175
90 120 172
89 119 168
95 123 176
91 119 172
77 109 169
98 125 178
71 104 158
65 100 157
64 99 152
65 101 167
70 104 158
68 102 151
67 102 160
68 102 150
68 103 151
65 99 147
61 96 160
59 93 143
66 100 150
111 137 111
124 149 109
93 120 122
64 99 155
58 93 148
61 96 154
59 94 155
60 95 156
61 97 162
61 96 159
61 96 160
61 97 156
62 98 160
60 96 156
62 98 169
61 97 164
61 97 155
61 97 159
61 97 162
60 96 156
62 98 159
61 96 158
63 99 163
62 98 165
61 98 163
61 97 170
62 99 160
62 98 169
60 96 164
62 98 163
62 99 171
62 98 165
61 97 158
62 98 166
60 96 148
61 96 163
61 97 159
61 97 159
62 99 165
61 98 164
61 98 170
62 98 161
61 97 164
62 99 176
62 98 165
62 98 169
61 98 157
61 98 167
61 97 163
61 98 165
61 97 172
61 97 163
62 99 167
62 99 170
61 97 154
60 96 159
62 99 165
60 96 156
62 98 166
62 98 165
61 98 164
60 96 155
62 99 169
62 98 169
62 99 161
62 98 164
62 98 169
62 98 166
61 98 155
62 98 167
62 99 165
62 98 171
62 98 161
62 98 165
61 98 167
62 99 163
61 98 165
62 98 167
62 98 155
60 96 154
62 98 173
62 98 167
63 100 167
63 99 169
62 99 167
63 99 168
62 98 157
63 99 165
62 98 163
63 99 163
61 98 166
63 99 167
62 98 165
61 97 150
61 97 157
62 98 159
62 99 180
62 98 167
61 96 154
63 99 171
61 97 153
63 99 168
62 98 163
64 100 161
63 99 159
61 97 152
63 99 168
62 98 157
63 99 161
62 98 173
62 98 166
63 99 161
63 99 168
62 98 165
64 100 169
62 98 158
62 98 153
63 100 169
62 98 167
62 98 168
61 97 156
62 98 165
62 99 173
63 99 167
61 97 162
62 98 166
61 97 157
61 98 159
62 98 153
62 98 163
62 98 161
61 97 153
63 99 163
62 98 165
62 98 167
62 98 159
63 100 170
63 99 161
63 99 163
61 97 156
62 99 155
61 97 152
62 98 155
61 97 150
64 100 174
65 101 167
61 98 159
62 99 165
61 97 158
62 98 151
61 97 158
63 99 165
61 97 150
62 98 156
63 99 161
60 96 141
60 96 141
61 97 150
62 98 161
62 99 167
61 97 161
62 98 146
63 98 152
61 96 159
61 97 162
62 97 152
61 96 141
61 96 154
61 96 150
60 94 147
61 97 149
61 96 140
60 94 139
61 95 140
60 94 139
59 92 141
59 93 150
56 89 123
56 84 131
96 93 0
88 86 0
95 92 0
92 85 0
100 96 0
109 103 0
89 87 0
103 99 0
89 85 0
94 92 0
112 106 0
93 91 0
107 102 16
117 112 0
111 102 0
106 101 0
102 99 0
116 110 0
111 105 0
104 97 0
117 113 16
110 103 0
109 104 0
109 102 16
119 112 16
104 100 0
117 113 16
102 99 0
106 103 0
120 113 0
112 107 16
127 121 36
109 105 0
111 106 16
98 92 16
108 99 0
105 101 0
109 106 0
112 106 16
115 110 28
113 107 0
117 110 0
128 122 16
114 107 16
124 118 16
110 105 16
104 97 22
108 100 16
117 108 16
117 110 22
116 107 22
123 114 16
110 107 16
136 138 16
160 167 0
144 150 0
149 157 0
155 164 0
150 157 0
148 156 0
150 158 0
154 166 0
161 170 0
154 165 0
150 158 0
152 159 0
154 165 0
154 164 0
159 171 0
160 169 0
165 176 0
162 173 0
159 172 0
168 182 0
155 168 0
155 166 0
153 168 0
163 174 0
163 179 0
159 171 0
167 181 0
155 173 0
158 172 0
163 180 0
163 178 0
164 182 0
157 170 0
167 184 0
172 190 0
165 182 0
169 183 0
169 187 0
168 185 0
161 177 0
168 187 0
164 181 0
169 186 0
166 181 0
167 185 0
168 187 0
163 182 0
163 181 0
173 193 0
169 187 0
171 190 0
170 188 0
166 187 0
212 230 248
212 230 253
212 230 255
211 230 255
210 229 253
210 229 255
210 229 255
210 229 255
209 229 255
210 230 250
205 225 217
203 222 207
203 222 194
200 220 188
198 217 194
208 225 217
205 222 217
205 223 211
202 221 204
206 223 204
209 225 220
214 229 237
208 224 220
205 222 201
208 225 207
206 226 173
193 216 140
193 217 120
192 217 88
189 214 72
186 213 62
191 216 51
181 206 88
189 214 62
190 215 62
192 217 102
186 212 72
195 220 88
188 213 88
190 215 62
182 207 62
187 212 72
188 214 80
192 217 95
187 210 88
184 209 62
188 212 51
187 212 88
185 211 72
190 215 51
189 213 72
191 215 88
195 219 120
188 212 72
184 208 72
192 217 95
184 209 80
190 214 80
186 211 51
187 212 51
187 211 62
193 218 51
192 217 62
193 217 108
192 216 88
192 214 130
203 224 173
208 227 194
204 222 207
205 222 211
206 224 214
204 222 201
205 223 204
208 226 201
204 223 194
206 225 207
202 220 211
210 228 242
213 231 255
213 231 255
214 231 255
212 230 250
213 231 253
215 232 255
215 232 253
218 234 250
216 232 250
216 232 248
219 234 255
218 233 250
216 231 246
206 221 242
65 97 161
86 115 175
94 122 183
82 112 171
98 124 180
83 114 166
88 117 171
99 126 183
113 138 188
108 134 176
66 101 158
69 103 158
70 104 161
63 98 161
69 104 164
66 101 155
70 104 153
65 100 154
65 100 154
65 100 148
66 101 156
65 98 150
59 94 156
90 117 133
114 141 122
101 130 136
69 103 160
60 96 160
58 93 146
61 96 154
59 94 147
61 97 163
61 97 160
61 97 156
59 94 153
60 96 152
62 98 156
61 98 165
59 95 162
60 96 159
60 96 151
59 95 151
59 95 148
62 99 168
61 97 161
62 98 162
61 97 166
61 97 159
61 97 163
61 97 165
61 97 166
63 99 167
62 99 169
62 98 168
61 97 157
62 99 159
62 98 169
63 99 172
60 95 162
63 99 167
60 96 157
61 97 163
61 97 162
62 99 171
61 97 160
61 97 160
61 97 166
63 99 159
62 98 164
60 97 160
60 96 160
62 98 171
62 98 161
62 99 155
62 98 167
63 99 175
61 98 170
62 99 173
63 99 164
62 98 153
62 98 163
62 97 159
63 99 161
61 98 165
63 99 175
62 98 163
62 99 174
61 98 168
62 98 171
63 100 167
63 99 172
61 98 159
62 98 172
62 99 163
61 97 139
62 98 159
62 99 168
62 98 165
61 98 157
62 98 165
61 97 166
63 99 163
63 99 161
62 98 167
62 99 176
61 98 161
62 98 163
61 97 166
63 99 168
62 99 168
61 97 160
62 97 163
62 98 161
63 99 167
63 99 168
62 98 158
62 97 161
62 99 163
62 99 164
62 98 159
63 99 169
62 97 152
61 97 163
62 99 165
63 99 167
61 97 157
63 99 163
62 98 157
62 98 165
62 99 166
63 99 167
62 98 167
63 99 174
62 98 161
63 99 165
62 98 167
62 99 170
62 98 158
61 98 161
62 99 159
60 95 148
62 99 170
62 98 165
62 98 170
62 98 156
62 98 167
62 98 173
62 98 165
63 99 158
62 98 159
62 98 159
61 97 155
61 97 158
62 98 163
63 99 159
62 98 152
64 100 159
61 97 155
62 98 167
62 98 162
63 100 169
62 98 157
62 98 163
62 98 156
63 99 158
63 99 157
63 98 159
63 99 165
63 99 173
62 99 155
61 97 146
61 97 153
62 99 153
62 98 153
62 98 159
61 97 146
62 98 146
62 98 167
61 97 150
60 95 134
62 99 154
63 98 155
61 96 152
63 99 153
63 99 157
62 98 157
62 97 152
60 95 144
62 97 150
62 98 154
61 96 156
62 98 151
61 96 147
62 96 150
60 94 140
59 94 144
60 95 150
61 95 143
59 93 137
56 88 133
71 91 109
90 86 0
88 86 0
98 93 0
98 89 0
91 87 0
90 86 11
84 78 0
107 103 11
102 99 0
96 92 0
86 83 0
101 99 0
108 104 0
113 108 0
95 93 11
113 109 0
106 102 0
101 97 0
123 118 0
107 99 0
118 113 0
92 86 16
102 97 16
111 107 0
100 95 0
112 105 22
101 95 16
113 107 16
120 115 16
109 104 0
101 98 0
99 93 0
80 76 0
108 104 0
114 109 0
110 106 0
93 91 16
101 95 16
112 109 0
104 99 0
113 107 16
121 115 22
114 106 0
91 87 0
92 88 16
113 105 16
106 100 0
107 101 16
110 103 0
100 96 0
111 105 0
135 142 16
139 145 0
135 138 0
145 149 0
146 149 0
143 150 0
146 152 0
151 157 0
158 162 0
148 154 0
147 153 0
163 172 0
141 149 0
165 177 0
152 160 0
159 169 0
166 177 0
156 164 0
157 169 0
151 160 0
156 166 0
162 175 0
167 178 0
155 165 0
154 163 0
161 174 0
154 164 0
155 167 0
163 176 0
165 177 0
164 177 0
162 179 0
169 185 0
163 177 0
164 176 0
167 181 0
164 176 0
172 190 0
175 192 0
158 175 0
159 174 0
171 188 0
169 186 0
165 184 0
164 182 0
163 178 0
169 186 0
171 191 0
163 179 0
163 179 0
169 185 0
174 192 0
166 184 0
169 186 0
172 191 0
169 189 0
212 231 255
212 230 255
210 229 255
211 230 255
211 230 255
209 229 255
208 228 253
208 227 237
205 225 211
210 228 223
202 222 181
200 220 188
198 217 194
203 221 207
205 222 204
199 218 188
213 229 231
204 222 207
216 231 234
211 226 220
206 225 188
198 219 140
195 217 140
192 218 80
196 221 51
188 213 72
188 213 88
195 220 102
188 213 120
188 214 72
191 217 88
185 211 62
184 208 88
189 214 120
184 209 62
187 212 95
186 211 95
193 217 51
192 217 72
183 208 88
184 209 36
185 209 72
187 212 62
189 212 72
179 204 51
182 207 51
180 206 36
182 207 72
185 210 80
184 209 88
190 213 108
188 212 80
183 208 62
185 209 62
185 211 72
189 213 36
189 213 88
188 213 72
184 209 80
189 214 62
182 207 62
184 211 72
189 214 95
184 208 72
194 219 62
191 215 102
181 204 62
191 215 51
192 218 88
196 219 130
195 216 140
196 216 169
204 219 191
204 221 194
203 221 201
203 222 201
205 222 214
194 213 191
205 224 194
209 227 228
210 228 250
214 231 255
216 234 253
214 231 253
214 231 250
215 232 253
214 231 248
215 232 248
217 233 253
215 231 251
220 235 255
212 227 248
102 126 177
78 109 179
66 100 161
90 119 181
67 101 165
73 105 159
80 111 177
88 117 174
68 102 166
93 121 177
102 129 175
69 103 157
68 101 158
61 98 161
61 97 150
65 100 162
67 100 141
61 97 156
69 103 156
66 101 159
65 99 158
64 98 150
65 100 161
66 101 159
83 112 140
106 132 130
124 149 119
80 110 147
58 93 136
60 95 146
61 98 167
61 98 164
61 96 156
60 95 151
61 97 153
61 96 144
62 98 161
60 96 166
59 95 144
61 98 169
61 97 162
62 99 167
59 95 153
63 99 162
61 97 150
61 97 159
61 97 163
60 96 155
59 95 158
60 96 150
61 97 163
60 96 152
61 97 163
61 97 166
61 97 163
60 96 150
60 97 169
61 97 159
62 98 163
61 97 159
62 98 162
62 98 163
62 98 161
61 98 161
61 97 160
62 99 172
61 97 152
62 99 165
62 98 152
64 100 173
62 98 170
61 98 166
62 98 166
61 97 157
60 96 163
61 98 161
60 96 159
61 98 165
61 98 167
63 99 163
62 98 159
62 99 169
61 97 163
62 98 159
61 96 153
59 95 157
61 97 161
62 98 163
61 98 162
62 99 174
61 97 160
60 96 155
62 98 165
61 98 169
63 100 167
62 99 163
62 98 165
62 99 167
64 100 173
62 98 164
61 97 157
62 98 162
62 98 156
61 97 155
60 97 166
62 98 162
63 99 170
62 98 168
63 99 169
62 98 160
62 98 159
62 98 164
61 97 156
62 99 159
62 98 161
62 98 167
62 99 165
63 98 155
64 100 165
64 100 167
63 99 165
62 99 170
63 99 163
63 99 163
61 97 148
63 99 172
63 99 163
63 99 161
61 98 163
62 98 166
62 98 164
60 96 144
62 98 166
62 99 159
62 98 159
61 97 158
62 98 167
61 98 156
61 97 154
63 100 166
62 98 163
63 99 167
63 99 159
63 99 165
63 99 171
62 98 169
63 99 159
61 97 148
63 99 165
62 98 165
63 99 157
62 98 163
61 97 150
60 96 141
61 98 163
64 101 168
62 99 163
61 97 153
61 97 153
61 97 158
62 98 160
62 98 158
62 98 157
61 97 158
62 98 159
63 98 153
62 99 159
63 100 167
61 97 154
63 99 159
62 98 161
61 97 163
63 99 158
63 98 161
62 98 160
62 98 164
61 97 146
62 98 146
61 97 150
61 97 152
61 97 148
63 98 161
62 98 139
60 96 150
60 95 143
62 98 154
62 98 148
61 96 142
61 96 151
61 96 134
60 95 143
60 95 147
62 97 155
62 97 140
60 95 151
60 94 144
58 93 141
60 95 157
56 89 126
58 90 142
73 87 92
90 86 0
88 84 0
74 71 0
99 92 0
79 76 0
99 93 0
83 82 0
86 83 0
98 92 0
97 89 0
118 113 0
95 91 0
113 106 0
104 98 0
94 87 0
94 92 0
116 108 0
95 92 0
100 95 0
109 106 0
101 96 0
111 107 0
108 102 0
116 112 0
109 105 0
117 111 16
110 107 16
87 84 0
107 100 0
107 102 0
124 118 0
119 113 0
110 104 16
118 111 16
96 89 0
103 98 0
111 105 16
110 107 0
122 114 16
100 95 0
102 96 0
116 110 16
107 101 0
102 95 0
108 103 0
97 91 16
113 108 0
113 108 16
128 128 0
134 136 0
144 148 0
150 155 0
136 141 0
152 157 0
155 162 0
155 158 0
139 141 0
149 155 0
150 154 0
152 159 0
149 155 0
150 158 0
162 174 0
149 158 0
155 167 0
142 149 0
160 173 0
157 166 0
164 174 0
158 172 0
159 169 0
159 171 0
158 168 0
158 170 0
154 164 0
152 162 0
151 161 0
156 171 0
161 170 0
163 180 0
161 174 0
164 185 0
165 181 0
162 178 0
169 187 0
159 173 0
157 173 0
162 177 0
161 177 0
169 185 0
172 189 0
167 186 0
159 176 0
166 184 0
170 187 0
161 176 0
167 184 0
169 187 0
171 187 0
164 179 0
170 188 0
167 185 0
167 186 0
168 184 0
168 187 0
169 187 0
172 191 0
211 230 255
211 230 255
210 229 255
210 229 255
209 229 255
203 222 226
205 224 211
198 219 181
202 222 194
203 222 201
207 224 214
208 225 220
213 229 223
211 227 223
207 224 217
211 227 231
206 224 207
207 226 177
196 219 114
189 213 120
185 211 51
187 212 80
192 216 80
195 219 72
193 219 80
184 209 80
189 215 80
190 214 62
179 204 80
187 212 62
183 209 62
183 208 36
187 211 62
181 205 80
183 209 62
192 215 72
185 210 95
182 207 51
184 208 72
187 213 88
185 211 80
181 205 62
185 209 62
186 211 80
183 208 72
187 212 51
185 210 62
183 208 62
184 209 72
187 211 72
190 215 72
189 214 62
189 214 80
185 210 36
180 206 72
186 211 51
185 211 80
186 209 72
177 202 36
183 209 88
183 208 80
175 199 72
185 210 72
191 215 51
186 209 80
182 207 88
186 211 36
183 208 72
186 211 80
186 212 72
185 210 36
181 205 62
187 212 80
194 217 135
209 229 173
202 220 184
207 224 207
201 219 191
200 219 191
202 221 194
201 220 188
206 224 228
211 230 248
214 232 255
214 231 253
214 231 250
215 232 248
216 233 250
215 231 254
215 231 250
212 228 251
215 230 252
163 180 216
78 108 177
70 103 165
88 117 175
88 117 177
84 114 176
98 125 178
90 119 183
80 111 170
69 103 170
81 112 163
61 98 166
72 106 169
70 104 161
73 106 162
67 101 168
75 107 150
61 97 159
62 98 163
76 109 146
71 104 149
65 99 162
66 100 160
66 101 160
63 97 145
58 93 155
109 136 119
114 141 111
76 107 148
61 96 157
60 95 153
61 97 157
61 97 164
60 96 147
60 96 160
60 95 154
61 97 155
58 93 147
61 96 157
61 97 156
61 96 148
61 97 167
60 96 167
60 96 161
60 97 167
61 98 167
61 97 161
61 97 159
62 98 169
61 97 161
60 97 157
61 98 159
61 98 170
62 99 160
61 97 164
60 96 161
61 97 167
62 99 163
62 98 167
59 95 155
62 98 169
61 97 166
60 97 167
61 98 159
62 98 164
59 95 152
61 97 162
63 99 171
60 96 155
61 98 163
61 98 165
62 99 170
61 97 163
62 98 169
61 97 160
62 98 165
62 98 161
62 98 165
61 97 161
62 99 161
62 99 169
62 98 165
61 97 157
63 99 168
62 99 169
62 98 166
63 99 172
62 98 153
63 99 174
62 98 163
62 99 164
61 97 155
61 97 161
60 96 160
62 98 163
62 98 154
62 98 167
61 97 164
60 96 149
63 99 169
61 97 146
62 98 150
62 98 155
61 97 161
62 98 167
62 99 161
62 99 167
62 98 167
62 99 171
62 99 172
62 98 165
61 97 151
60 96 155
62 99 163
61 97 150
61 97 166
62 98 153
62 98 159
62 99 161
62 98 167
63 99 167
62 98 156
62 98 163
61 98 165
62 98 173
63 99 165
61 97 165
62 98 167
61 96 149
61 97 163
61 97 159
61 97 152
62 98 165
63 99 165
63 99 167
64 100 167
65 101 171
61 98 154
63 99 163
62 98 162
62 98 162
62 98 154
63 99 171
62 98 160
61 97 164
62 99 159
61 97 154
63 100 165
61 98 155
64 101 175
62 98 163
62 98 162
62 98 153
62 98 164
62 99 164
62 98 153
62 98 163
61 97 153
61 98 162
62 98 163
63 99 167
63 99 167
61 97 155
62 98 160
62 98 165
62 97 159
62 98 153
62 98 157
62 97 150
60 96 145
61 97 150
61 97 148
61 97 155
62 98 153
62 98 157
62 98 152
61 97 157
62 97 146
61 97 152
61 97 150
62 98 159
62 98 152
61 96 150
62 98 156
62 98 157
61 96 145
60 95 147
60 95 146
62 97 152
61 96 150
61 96 143
61 96 154
60 95 150
59 94 140
59 93 115
61 96 148
59 93 140
58 91 146
58 91 134
56 87 127
72 84 99
79 72 0
78 74 0
107 100 0
103 96 0
103 95 0
91 85 0
92 87 0
99 93 0
92 86 0
86 79 0
106 101 0
91 88 0
82 80 0
89 84 0
97 89 0
93 87 0
93 89 0
105 100 0
95 90 0
104 97 0
118 113 0
98 95 0
92 91 0
107 104 0
100 90 0
104 96 0
107 101 0
100 95 0
102 98 0
99 94 16
100 91 0
96 88 16
100 94 0
96 91 0
100 96 0
108 102 0
113 106 0
88 82 0
119 113 0
90 85 0
115 108 0
106 98 0
81 76 0
94 86 16
94 90 0
113 107 0
122 121 0
146 149 0
142 146 0
137 137 0
150 154 0
142 146 0
141 143 0
154 163 0
138 142 0
159 168 0
148 153 0
152 160 0
147 155 0
158 166 0
152 161 0
165 178 0
145 147 0
149 152 0
161 171 0
153 164 0
161 166 0
156 168 0
162 171 0
158 170 0
158 170 0
158 169 0
160 169 0
161 173 0
149 163 0
152 160 0
160 173 0
155 168 0
163 176 0
150 158 0
160 172 0
168 178 0
164 176 0
155 167 0
164 177 0
164 172 0
157 166 0
161 178 0
165 179 0
163 180 0
167 184 0
163 178 0
163 181 0
153 168 0
160 178 0
167 182 0
168 185 0
163 176 0
162 177 0
171 189 0
171 190 0
167 184 0
175 191 0
160 177 0
169 185 0
171 190 0
169 188 0
211 230 255
210 229 255
211 230 250
202 222 220
201 221 198
206 224 214
204 223 204
207 225 211
202 220 211
202 218 201
210 226 220
206 222 214
209 225 217
211 230 194
203 222 173
198 221 120
189 215 72
194 218 72
191 218 36
191 215 51
188 214 80
187 213 80
185 210 72
187 212 80
186 210 88
187 212 51
185 210 102
186 211 51
187 211 88
184 209 0
183 207 80
183 207 72
184 209 62
182 205 88
184 208 51
183 208 80
188 213 51
187 211 80
182 207 62
185 210 62
181 206 102
184 208 62
189 213 80
181 206 88
185 209 108
183 208 36
175 200 72
180 204 36
186 211 51
178 203 51
180 204 88
183 207 51
183 208 80
189 213 88
184 208 72
188 212 72
178 203 72
182 208 80
187 210 72
183 209 36
186 210 72
181 205 51
183 207 72
190 215 108
181 206 80
186 211 80
188 212 95
184 210 72
182 207 80
192 217 80
189 214 102
186 211 80
186 210 62
188 213 80
182 208 80
189 214 36
193 217 95
198 220 144
201 218 191
209 225 211
201 219 188
195 214 177
199 219 169
209 227 228
211 229 240
213 231 253
213 231 250
213 230 254
211 228 250
214 231 254
206 223 245
210 226 250
185 202 230
65 98 169
88 117 177
101 128 186
60 97 173
87 116 175
84 114 176
79 110 181
69 103 171
72 105 175
107 132 186
73 106 168
62 98 170
61 97 168
65 101 160
61 98 165
65 101 159
69 103 155
61 98 169
72 105 157
70 104 158
68 103 163
64 97 141
63 97 139
59 94 151
61 96 155
68 100 148
93 121 143
104 132 135
76 108 134
60 96 155
60 96 150
60 96 158
61 97 160
58 93 145
59 95 153
60 96 164
61 97 145
62 98 155
62 98 155
61 98 168
60 95 156
61 97 159
62 98 169
62 98 166
62 98 167
60 96 157
61 97 164
60 96 152
59 95 164
62 99 169
60 96 154
63 100 165
60 96 166
62 98 161
62 99 161
62 99 167
63 99 171
61 98 163
60 96 160
62 99 171
62 98 169
61 97 169
61 98 167
61 98 168
62 99 166
61 97 159
61 97 148
62 98 163
61 97 157
61 97 161
62 97 154
61 97 163
62 99 165
61 97 152
62 98 165
61 97 159
62 98 163
61 97 157
62 99 170
62 98 157
62 99 174
61 97 166
63 99 163
62 98 155
61 97 157
62 98 167
63 99 165
62 99 167
62 98 157
62 98 165
61 98 156
63 99 171
62 99 173
62 98 162
63 100 163
62 98 168
62 98 165
62 99 169
63 99 159
61 97 158
62 98 172
63 99 155
62 98 162
61 97 157
62 98 159
62 98 155
62 98 155
61 98 167
61 97 148
62 99 165
62 98 162
62 98 165
62 98 163
62 98 171
62 98 167
62 99 165
63 99 169
61 97 158
63 99 165
61 98 164
62 99 165
61 97 154
62 98 155
63 99 168
62 98 152
63 99 165
61 97 159
62 98 165
63 99 163
61 98 169
61 97 162
62 98 156
63 100 169
62 99 167
62 98 165
63 99 166
61 97 156
63 99 154
62 98 161
61 98 167
63 99 169
62 98 150
62 98 161
62 99 164
63 99 161
62 98 162
62 99 167
61 97 153
61 96 146
63 99 164
62 99 161
63 99 161
62 98 153
62 97 158
63 99 167
62 98 155
61 97 156
63 99 165
61 96 143
62 98 160
62 98 158
63 100 155
61 97 159
62 98 157
61 97 155
63 99 159
63 98 163
63 100 159
62 98 148
62 98 155
61 97 145
62 97 155
62 98 159
60 95 139
62 98 161
62 98 144
61 98 157
62 98 153
59 94 148
61 96 146
61 98 153
62 98 155
64 99 161
63 99 159
61 96 151
61 96 146
60 97 156
62 97 146
60 94 140
61 97 149
61 96 147
60 95 133
60 95 147
61 95 142
58 92 112
61 95 142
59 93 144
59 92 143
54 85 118
69 76 62
88 81 0
86 80 0
87 80 0
82 78 0
84 77 0
79 74 0
89 84 0
91 84 0
91 84 0
92 87 0
80 76 0
97 89 0
91 88 0
95 89 0
93 87 0
108 100 0
100 94 0
85 79 0
96 93 0
99 94 0
98 93 0
98 91 0
117 111 0
94 89 0
107 97 0
105 99 0
99 93 0
100 96 0
113 108 0
101 92 0
107 103 0
110 102 0
91 85 16
94 86 0
76 70 0
96 91 0
113 107 0
97 89 0
97 91 22
103 94 16
103 95 0
96 90 16
110 104 0
127 126 0
142 145 0
133 135 0
150 151 0
137 140 0
146 152 0
131 134 0
150 156 0
144 150 0
144 150 0
150 158 0
154 158 0
160 169 0
144 146 0
151 162 0
153 160 0
149 154 0
160 168 0
147 159 0
153 163 0
158 171 0
157 168 0
149 156 0
161 171 0
150 155 0
150 158 0
147 157 0
157 166 0
166 179 0
167 181 0
161 174 0
157 171 0
167 185 0
158 172 0
166 184 0
156 169 0
150 162 0
164 178 0
161 173 0
158 171 0
167 183 0
166 183 0
164 177 0
170 185 0
163 180 0
166 183 0
159 173 0
163 177 0
167 184 0
158 174 0
161 178 0
165 180 0
169 187 0
163 180 0
157 171 0
169 184 0
166 183 0
162 179 0
170 191 0
156 172 0
167 187 0
166 184 0
172 189 0
172 189 0
204 225 234
203 223 214
201 221 194
204 223 204
204 223 201
210 227 223
207 224 214
204 221 198
208 224 211
207 223 217
208 226 204
200 221 144
196 219 108
189 214 80
193 218 72
189 214 88
185 211 62
187 212 72
188 214 114
178 204 62
192 217 51
186 211 72
185 208 72
181 206 72
189 214 88
181 206 0
185 209 80
184 208 62
182 207 51
177 201 51
182 207 72
187 211 72
184 209 36
184 208 51
186 210 80
186 210 62
183 208 80
185 209 62
176 202 80
182 206 80
184 210 95
181 207 62
182 207 51
177 203 72
181 206 62
187 212 72
183 208 62
187 211 72
178 204 88
185 211 95
182 207 36
182 206 36
180 204 88
177 202 51
183 207 95
181 207 80
182 207 72
181 205 102
186 210 108
181 206 72
180 205 51
184 208 62
184 207 80
181 207 51
183 207 80
182 206 72
183 209 80
180 205 51
185 209 95
183 208 51
185 210 72
186 211 88
186 210 62
191 217 80
178 202 80
187 212 80
184 209 72
186 210 72
193 218 51
204 228 102
198 216 173
206 224 198
209 226 220
198 216 184
200 219 181
203 222 211
213 230 250
213 230 254
215 232 255
214 231 253
214 230 252
209 225 249
211 227 249
104 129 183
72 105 174
73 106 180
84 114 180
73 106 168
84 115 176
77 109 167
84 114 178
94 122 178
68 102 164
75 108 177
74 107 167
62 99 164
63 99 169
62 96 160
62 98 167
67 101 163
62 98 167
60 96 155
66 101 163
63 97 150
60 96 157
66 99 146
71 104 156
61 96 158
74 107 152
73 105 151
71 103 150
106 132 128
84 115 142
61 96 156
61 97 158
62 98 157
59 94 151
60 96 161
59 95 143
61 97 161
61 97 152
61 97 167
61 97 168
59 94 151
60 95 159
61 98 164
61 97 159
62 98 165
62 98 172
60 96 147
60 96 159
60 95 147
61 97 159
61 97 159
62 98 161
61 97 155
60 96 155
61 97 162
60 96 158
62 98 157
60 96 163
62 98 162
62 99 167
62 98 159
62 98 170
61 97 162
62 98 162
61 97 161
62 98 162
61 97 152
61 98 161
61 97 167
61 97 161
61 97 161
62 98 158
62 98 159
60 95 161
60 97 148
62 98 163
63 99 167
62 98 167
61 97 157
60 96 152
63 99 170
62 98 167
62 98 161
61 97 157
61 97 148
63 99 164
63 99 163
62 98 167
61 98 163
61 97 158
62 98 165
62 98 162
62 98 165
62 99 166
63 99 167
62 98 169
63 99 169
63 98 165
62 98 169
62 98 165
60 96 142
62 98 153
63 99 163
61 98 163
61 97 159
61 98 162
60 97 158
62 98 165
61 98 161
63 99 167
62 98 161
63 99 161
62 98 159
63 98 168
61 97 157
61 97 163
62 98 161
62 99 165
61 97 153
63 99 170
62 99 167
62 99 163
62 98 166
61 97 155
62 99 165
62 99 163
62 99 159
62 98 165
63 99 162
63 99 157
62 98 161
61 97 156
62 98 164
62 99 161
62 98 155
61 97 156
63 99 163
61 97 157
64 100 159
62 99 169
63 99 165
62 99 163
63 99 149
61 97 159
60 96 153
63 99 167
62 98 167
61 97 153
62 98 150
62 99 157
61 96 144
62 98 163
63 99 155
64 100 163
62 98 155
61 97 153
63 99 161
61 97 150
62 99 160
62 98 153
61 97 155
62 99 157
60 96 153
61 97 150
63 99 158
64 100 159
62 98 158
61 97 161
63 99 163
61 97 154
61 97 152
61 97 158
61 96 151
61 96 146
62 98 157
62 98 157
62 98 155
62 98 148
61 98 157
62 98 159
61 97 141
62 98 156
59 95 139
60 95 131
60 95 136
61 96 134
62 98 150
62 97 144
62 98 147
63 98 148
58 93 138
60 94 133
61 97 159
61 96 144
60 95 141
59 93 138
59 93 142
58 91 141
56 87 122
71 80 69
76 70 0
90 83 0
99 91 0
77 71 0
107 98 0
76 70 0
82 74 0
103 97 0
102 96 0
89 84 0
107 101 0
82 76 0
85 82 0
105 96 0
80 74 0
89 84 0
112 104 0
100 95 0
70 63 0
100 93 0
94 88 0
75 69 0
89 82 0
91 84 0
95 89 0
109 105 16
94 86 0
108 100 0
90 84 0
94 89 0
102 94 16
96 88 0
101 94 0
107 99 0
99 93 16
104 96 16
116 108 0
94 89 0
106 101 16
124 124 0
134 131 16
130 134 0
139 144 0
131 129 0
150 155 0
142 144 0
124 125 0
148 149 0
141 147 0
148 152 0
144 149 0
146 153 0
144 148 0
148 153 0
149 156 0
145 147 0
156 166 0
153 159 0
148 155 0
150 160 0
162 171 0
155 168 0
141 147 0
151 155 0
158 165 0
157 170 0
162 173 0
151 160 0
160 173 0
163 172 0
156 168 0
154 167 0
153 162 0
167 176 0
155 166 0
158 169 0
155 167 0
164 177 0
165 181 0
168 182 0
163 177 0
164 179 0
158 173 0
156 169 0
164 177 0
156 169 0
164 178 0
164 177 0
167 184 0
166 182 0
170 187 0
168 182 0
166 182 0
167 182 0
173 190 0
162 181 0
155 170 0
171 185 0
169 187 0
161 178 0
164 181 0
165 183 0
170 187 0
171 189 0
163 179 0
168 187 0
172 192 0
203 222 198
201 220 188
202 221 194
204 221 204
204 221 223
212 227 217
211 227 223
210 226 220
206 224 181
195 217 120
196 223 95
186 211 80
187 212 62
189 213 51
185 211 51
188 213 72
187 212 62
187 212 80
180 205 36
183 209 72
185 210 51
182 208 102
184 209 72
183 208 62
185 210 51
179 205 72
178 203 51
183 208 72
187 213 62
184 208 62
185 209 51
178 203 72
184 208 51
182 207 51
187 211 80
178 202 51
179 204 72
182 206 62
183 207 80
179 204 51
177 203 80
187 211 95
181 205 51
183 207 36
180 205 72
182 205 62
183 208 80
177 201 102
184 209 80
182 207 80
179 204 51
180 205 36
181 205 88
177 201 80
178 202 36
183 208 80
181 206 80
178 202 51
183 208 88
182 205 72
181 204 72
182 207 88
185 209 88
179 204 80
185 209 62
183 207 72
183 207 88
187 211 51
181 205 62
184 207 80
183 207 88
182 208 72
183 209 88
179 204 0
186 210 95
185 209 88
185 210 80
188 212 88
184 207 72
182 206 62
189 212 51
188 214 102
197 220 135
205 222 211
202 219 194
206 223 204
193 212 178
189 207 209
200 218 245
204 222 248
216 232 255
214 230 254
217 233 255
141 161 204
86 115 181
83 113 181
67 101 172
68 103 173
74 107 174
74 107 172
74 107 173
90 119 184
79 110 174
75 108 180
90 119 181
69 103 172
61 98 166
60 97 158
62 98 164
62 98 169
62 98 164
65 100 163
65 100 150
61 97 164
67 102 168
61 97 159
73 105 151
73 106 152
60 95 156
65 100 152
67 100 153
70 101 136
105 131 125
95 122 139
59 95 166
59 94 139
61 97 159
59 95 151
60 96 156
60 96 156
61 97 156
59 94 162
62 97 160
62 98 165
61 98 161
61 97 158
61 96 160
61 97 154
62 98 164
63 99 174
60 96 164
62 98 171
62 98 157
61 98 163
60 97 158
61 97 151
61 97 161
60 96 153
59 94 156
60 96 157
62 99 169
62 98 152
60 96 152
60 95 151
61 98 167
63 99 167
62 98 163
62 98 161
61 97 156
61 98 166
64 100 157
60 95 162
62 99 163
63 99 170
63 99 161
61 98 159
62 97 151
61 97 164
62 98 162
62 99 170
62 98 161
62 98 165
61 97 156
62 99 163
63 100 163
63 99 165
62 97 168
62 98 168
62 98 168
62 98 165
62 98 162
62 98 162
62 97 155
62 99 167
61 97 169
64 100 168
62 98 162
63 99 164
61 97 161
62 98 155
60 96 159
63 99 159
63 100 163
62 98 165
62 98 159
61 98 161
64 99 161
61 97 163
63 99 160
63 100 169
61 98 169
62 98 167
62 99 165
63 99 167
61 97 161
62 98 155
61 97 163
63 99 167
62 98 152
61 97 159
63 98 155
61 97 152
60 96 148
62 98 154
62 99 165
61 98 153
62 99 161
63 98 155
62 98 163
62 98 164
61 97 161
64 100 165
62 98 165
62 97 152
62 98 165
61 97 155
62 98 168
61 97 148
61 97 153
62 97 155
63 98 155
62 98 163
63 99 165
63 99 165
64 100 172
63 99 159
63 99 169
62 98 158
63 99 162
61 97 161
62 97 152
61 97 163
63 99 161
62 97 159
62 98 157
61 97 153
63 99 163
61 97 159
63 99 171
62 98 160
61 98 152
61 97 157
62 97 162
62 98 155
62 98 164
62 98 157
61 97 154
62 98 164
60 95 142
62 98 155
61 96 146
62 98 154
62 99 159
62 98 165
61 97 154
63 100 160
61 97 157
62 98 146
60 96 146
63 99 167
60 95 154
61 97 158
63 100 169
63 99 165
60 96 148
62 98 162
61 96 141
61 96 129
60 95 131
61 97 152
61 96 148
62 98 152
62 98 150
60 95 152
62 97 153
60 95 147
61 96 148
59 93 141
57 90 124
58 91 126
56 88 115
54 85 118
90 94 49
118 120 0
107 108 0
92 84 0
91 84 0
95 91 0
95 87 0
78 69 0
73 67 0
90 80 0
89 83 0
79 71 0
98 90 0
87 80 0
103 95 0
83 75 0
78 75 0
97 90 0
89 84 0
101 95 0
86 80 0
77 70 0
87 83 0
109 100 0
81 75 0
95 86 0
89 82 0
99 92 0
89 79 0
82 79 16
99 91 0
89 80 16
95 89 16
87 80 16
108 104 0
94 89 0
106 102 0
124 121 0
126 126 0
132 129 0
138 137 0
119 117 0
139 141 0
141 147 0
136 141 0
146 152 0
135 136 0
143 150 0
145 147 0
151 156 0
143 148 0
137 138 0
151 160 0
137 139 0
147 157 0
155 164 0
140 141 0
159 166 0
141 145 0
153 157 0
138 145 0
138 144 0
157 163 0
152 162 0
151 157 0
155 166 0
158 166 0
148 156 0
159 171 0
151 158 0
156 168 0
158 167 0
164 178 0
161 175 0
164 178 0
167 180 0
164 174 0
166 179 0
162 174 0
163 177 0
164 179 0
161 174 0
167 184 0
163 179 0
170 182 0
171 186 0
169 183 0
158 174 0
170 188 0
171 188 0
162 177 0
160 177 0
169 185 0
163 179 0
162 177 0
158 170 0
167 182 0
159 175 0
164 179 0
168 185 0
165 181 0
167 185 0
168 183 0
165 185 0
171 190 0
165 182 0
164 184 0
167 186 0
200 219 181
206 224 214
209 226 220
208 224 214
206 223 207
202 219 204
200 222 149
191 216 88
189 213 102
187 212 72
194 219 51
185 211 80
187 212 62
182 207 51
188 214 72
185 209 80
185 211 80
186 210 62
182 207 80
181 206 36
185 210 62
182 206 72
183 208 95
185 210 62
182 207 51
183 208 80
183 208 95
186 209 88
185 208 72
179 204 95
181 206 88
181 205 51
183 209 72
181 206 72
184 208 62
178 203 80
179 205 62
184 208 51
180 205 36
180 205 88
179 203 72
183 207 95
181 205 62
179 204 62
179 203 62
177 200 62
175 198 0
174 199 62
178 203 80
184 207 51
177 202 36
184 208 88
179 203 108
183 207 36
180 205 51
181 206 88
178 202 62
174 198 36
182 205 0
172 196 72
179 202 80
183 207 62
177 202 80
185 208 36
185 209 80
179 203 36
183 207 62
180 204 62
183 206 51
184 208 72
181 206 72
181 205 88
181 206 62
183 207 72
178 203 51
182 204 62
182 206 72
185 209 36
184 209 95
175 199 36
182 206 88
185 210 80
188 213 95
192 216 95
196 219 135
187 206 171
151 172 156
151 173 153
154 175 175
185 203 217
210 228 252
211 228 253
211 228 250
200 217 244
64 97 170
72 105 173
87 117 185
83 113 177
79 110 176
68 102 170
80 111 176
79 111 180
74 106 177
62 98 172
86 116 179
85 115 181
60 96 164
62 99 168
61 97 166
62 98 167
59 96 153
62 98 169
62 98 164
66 102 160
71 104 157
74 106 159
64 99 151
59 95 155
61 97 154
63 98 157
65 99 161
63 97 149
75 106 135
107 134 118
77 107 154
58 92 148
61 96 147
60 95 164
61 97 156
60 96 156
61 97 160
61 97 161
61 97 163
61 97 152
60 95 153
62 98 158
61 97 161
59 95 149
62 98 157
61 97 159
62 98 167
60 96 158
60 95 154
60 96 154
60 96 156
61 97 156
60 96 156
61 97 161
59 94 156
61 98 152
63 99 161
62 98 169
60 96 141
60 96 158
60 96 152
60 96 153
61 96 150
62 98 164
62 98 166
61 98 148
63 100 175
62 98 167
62 98 158
60 96 154
61 96 158
64 100 174
62 98 157
62 98 160
61 98 161
61 97 161
63 100 161
63 100 169
62 98 164
64 100 161
62 98 151
62 98 157
62 99 171
62 98 156
61 96 142
61 98 163
61 97 155
61 97 157
61 96 151
63 99 165
62 98 163
62 99 168
62 98 157
63 98 163
62 99 161
61 97 165
62 97 156
61 98 162
63 99 165
62 98 167
62 98 162
63 99 171
61 97 161
61 97 162
62 98 163
61 97 152
63 99 161
61 97 156
63 99 161
62 98 171
62 98 167
62 98 163
63 99 167
61 97 153
62 99 161
61 98 157
62 98 159
62 98 163
62 98 162
62 98 167
62 98 159
62 99 168
60 96 159
61 96 153
62 98 159
62 98 162
61 97 163
62 98 161
63 99 169
63 99 161
62 98 158
62 98 161
62 99 159
62 98 159
62 98 161
62 98 165
62 98 161
64 100 163
63 99 155
61 97 162
62 98 161
63 98 158
62 99 171
63 99 159
62 99 159
62 98 161
62 98 167
62 97 152
61 97 152
62 98 153
63 99 161
61 97 153
62 99 165
63 99 159
62 99 161
62 99 155
60 96 148
64 100 165
62 98 157
63 99 154
61 96 152
63 98 152
62 97 150
62 97 161
62 98 144
63 99 163
62 99 149
63 99 159
62 98 155
61 97 144
60 95 153
61 96 137
62 99 157
61 96 147
62 98 158
61 96 157
62 97 157
61 96 142
62 98 146
60 95 146
60 95 146
64 100 165
62 97 150
63 99 152
62 98 146
61 96 141
61 96 148
62 98 154
61 96 145
60 95 142
60 94 138
61 96 143
60 95 150
60 95 145
59 93 131
60 94 132
57 90 134
55 87 123
109 110 23
110 107 0
85 86 0
111 113 0
97 93 0
90 86 0
118 118 0
116 111 0
104 102 0
101 98 0
88 76 0
76 68 0
74 67 0
83 79 0
81 73 0
105 98 0
82 73 0
86 78 0
85 77 0
92 83 0
84 78 0
94 87 0
91 83 0
90 82 0
107 98 0
110 103 16
110 105 0
96 88 0
109 103 0
102 94 0
123 123 0
122 117 0
133 131 0
127 125 0
134 130 0
127 127 0
123 120 0
134 135 0
133 135 0
148 147 0
136 139 0
141 144 0
141 143 0
134 136 0
133 133 0
135 135 0
151 154 0
157 164 0
128 127 0
136 138 0
146 151 0
144 151 0
141 141 0
151 158 0
136 134 0
147 156 0
147 151 0
146 154 0
152 159 0
151 155 0
151 161 0
157 165 0
158 168 0
150 156 0
158 169 0
161 171 0
156 164 0
142 150 0
162 176 0
159 169 0
165 177 0
155 164 0
158 173 0
157 167 0
162 176 0
152 163 0
153 163 0
158 170 0
162 174 0
160 173 0
162 175 0
157 169 0
159 174 0
166 181 0
159 175 0
160 177 0
162 176 0
164 183 0
166 183 0
161 175 0
167 182 0
171 189 0
171 189 0
159 174 0
165 179 0
169 186 0
162 179 0
162 179 0
164 179 0
165 184 0
178 197 0
169 187 0
159 177 0
165 182 0
168 186 0
169 187 0
164 179 0
162 181 0
206 223 204
213 227 228
211 226 228
211 228 217
202 223 140
187 212 80
189 214 88
182 208 72
188 214 62
185 210 36
182 207 72
186 212 88
185 211 80
182 208 36
184 206 88
184 209 80
183 209 88
184 208 36
186 210 62
184 208 95
181 206 51
186 209 51
185 209 102
180 205 72
181 206 108
182 207 88
183 209 80
177 202 72
178 203 62
183 207 72
176 200 72
177 202 62
183 207 72
181 206 72
181 204 80
184 208 72
179 203 62
180 204 72
181 206 62
180 205 72
180 204 95
180 205 88
181 205 51
180 204 51
184 208 62
181 206 80
179 203 72
179 204 80
179 202 36
180 205 88
182 206 80
174 198 51
180 205 62
175 200 72
183 206 51
177 202 0
177 202 95
180 205 72
179 203 72
182 205 62
178 203 62
180 205 62
179 202 36
180 206 95
185 209 88
180 203 36
182 207 88
181 204 88
178 202 95
187 210 72
180 204 62
180 204 88
183 206 72
174 198 80
182 207 95
182 206 72
185 210 95
185 209 62
180 205 62
181 205 80
182 205 51
185 210 36
181 205 36
189 215 72
186 211 0
155 179 98
117 142 149
133 158 124
116 142 158
97 125 152
138 161 166
196 213 238
207 224 249
205 222 246
120 142 193
66 100 173
88 118 187
83 114 182
74 107 175
73 106 177
73 106 175
87 117 178
67 102 170
79 111 177
62 99 166
79 111 177
68 101 168
63 100 167
60 96 163
62 98 165
61 98 171
66 102 159
62 98 159
62 98 168
70 103 160
69 102 150
59 95 146
67 101 155
60 96 154
70 104 153
73 105 148
62 98 159
61 97 158
73 105 149
94 123 138
80 112 152
61 96 156
58 93 141
59 95 152
59 94 146
61 96 154
60 95 149
61 97 157
61 97 164
61 97 146
61 97 160
62 98 161
62 98 155
61 97 158
60 95 153
63 99 166
61 97 164
60 96 156
61 97 157
61 98 159
62 98 164
61 97 150
63 99 148
61 97 163
61 97 156
60 96 158
61 97 162
61 97 160
61 97 161
61 97 166
62 99 174
61 96 159
61 97 159
61 98 166
62 99 166
62 98 166
61 98 160
62 98 163
62 98 159
61 97 152
61 98 155
62 99 166
62 98 165
62 98 163
61 97 159
61 98 159
61 97 153
62 98 161
61 98 165
63 99 163
61 98 157
62 98 159
62 99 156
62 98 159
61 97 155
62 99 161
62 98 167
61 96 157
62 99 161
62 98 159
63 99 168
61 98 161
62 98 163
62 98 159
62 98 164
62 98 166
62 98 165
62 98 163
61 98 158
62 98 167
62 99 171
62 99 167
62 99 148
63 99 169
62 99 152
63 99 159
62 98 163
63 99 160
62 98 168
62 98 154
63 99 165
61 98 165
63 99 170
62 98 157
62 99 163
61 98 164
62 98 159
62 98 159
61 97 155
63 100 159
63 99 153
63 99 161
62 98 159
63 99 160
62 98 165
63 99 164
62 98 168
62 98 161
63 98 158
63 99 161
61 97 159
63 99 169
62 98 165
60 96 155
62 98 160
62 98 169
62 99 165
63 99 162
63 99 166
61 97 155
62 98 163
62 98 157
62 98 157
62 98 157
64 100 165
61 97 148
62 99 165
63 99 165
62 98 157
61 97 144
62 99 157
62 98 146
61 97 158
62 98 163
62 98 160
63 100 159
63 99 153
62 98 156
62 98 148
62 98 156
63 99 167
62 98 159
63 99 157
62 98 155
61 97 152
61 96 145
62 97 159
63 99 165
62 98 155
62 98 161
62 98 155
61 97 157
63 99 157
63 99 160
60 95 134
62 98 152
61 96 141
64 99 161
62 98 159
59 94 149
62 97 147
62 98 152
61 97 152
62 98 148
64 100 170
61 96 150
63 99 160
61 96 139
60 96 143
61 95 139
60 95 154
60 95 144
56 89 117
59 92 134
59 92 135
58 92 139
68 91 118
100 100 0
96 99 0
106 112 0
88 81 0
115 118 0
103 97 0
104 95 0
99 95 0
104 99 0
106 109 0
123 122 0
103 98 0
97 93 0
108 105 0
133 131 0
105 100 0
105 108 0
113 105 0
121 117 0
108 103 0
102 102 0
118 112 0
123 119 0
121 119 0
124 125 0
115 108 0
116 116 0
111 108 0
124 125 0
123 119 0
133 134 0
124 125 0
146 148 0
123 120 0
119 121 0
127 128 0
126 127 0
132 132 0
142 139 0
134 136 0
130 133 0
137 139 0
126 122 0
139 142 0
139 139 0
133 133 0
139 138 0
147 152 0
144 150 0
150 151 0
145 148 0
144 153 0
145 149 0
144 152 0
141 146 0
167 175 0
158 168 0
145 148 0
141 147 0
152 161 0
150 158 0
147 155 0
154 161 0
153 165 0
140 152 0
145 155 0
161 176 0
148 157 0
161 175 0
152 161 0
158 167 0
156 166 0
159 173 0
157 167 0
155 166 0
166 178 0
150 165 0
162 174 0
157 170 0
164 177 0
163 176 0
167 183 0
153 166 0
170 187 0
171 185 0
167 181 0
158 176 0
159 178 0
164 179 0
167 184 0
165 181 0
167 180 0
168 184 0
158 174 0
165 181 0
165 181 0
161 178 0
158 173 0
168 186 0
172 189 0
163 177 0
170 188 0
166 185 0
168 183 0
167 183 0
169 184 0
165 183 0
166 186 0
212 229 223
206 225 177
193 216 130
193 221 62
188 214 102
190 213 80
185 210 88
191 215 62
188 213 80
181 205 88
185 210 95
185 210 95
183 208 62
186 211 88
177 201 72
181 206 72
187 211 36
183 208 102
184 209 62
180 203 62
181 205 62
180 204 62
182 207 51
181 205 72
181 205 51
182 207 51
179 202 80
183 206 72
179 202 51
178 202 62
183 207 80
181 206 80
180 205 88
179 203 80
180 204 36
186 209 51
179 203 80
182 206 72
180 204 80
181 204 80
180 204 88
181 207 95
181 206 80
179 203 72
177 202 88
177 200 51
180 204 62
181 205 72
175 199 72
179 205 95
177 202 88
179 202 88
174 199 36
176 202 80
180 205 72
180 204 72
180 204 51
178 203 72
176 201 51
181 205 88
181 204 72
187 210 80
181 204 62
178 201 72
183 208 102
183 207 88
181 204 80
178 202 62
180 205 72
180 204 72
179 205 88
179 203 51
182 206 51
181 206 80
185 209 88
186 209 120
181 204 51
185 210 102
184 207 102
187 211 80
182 206 88
181 206 80
184 208 62
182 207 72
185 209 62
142 167 98
110 135 128
127 151 168
125 150 151
134 158 152
104 131 155
94 123 167
147 168 193
207 224 250
177 196 228
65 99 171
91 120 182
79 110 180
88 118 179
79 111 180
74 107 177
79 111 175
74 107 174
84 114 176
85 116 180
89 118 180
85 115 172
62 98 168
62 99 168
60 96 165
63 99 169
61 97 160
61 98 158
60 96 150
62 98 163
62 98 165
72 105 156
68 103 150
63 99 162
64 99 148
68 102 153
67 102 162
64 99 154
59 94 144
58 93 143
87 118 145
73 106 155
60 96 148
61 96 147
60 96 161
58 93 149
59 94 142
59 94 160
60 96 148
60 96 151
58 94 152
60 96 148
61 97 151
62 99 161
61 97 159
61 97 156
60 95 152
61 97 165
60 96 156
62 98 167
59 95 150
62 98 163
61 97 158
61 98 161
62 98 157
61 97 148
61 97 156
62 99 168
61 97 166
62 98 161
62 99 162
62 98 165
62 98 163
62 98 161
62 99 161
63 99 168
63 99 167
61 97 160
60 97 161
61 97 159
62 99 169
62 98 162
61 97 161
61 97 154
60 96 161
61 97 162
61 97 162
62 98 164
62 98 161
63 99 163
60 96 156
61 97 161
61 97 157
61 97 162
63 99 156
61 97 161
63 100 157
63 99 168
62 98 159
61 97 157
62 98 157
62 99 161
62 98 167
62 98 159
62 98 163
61 97 162
62 98 155
63 99 154
62 98 168
63 99 159
62 98 167
62 98 165
62 98 163
63 99 173
61 97 157
63 99 165
62 98 159
61 97 157
61 97 159
63 99 170
62 98 158
61 98 154
61 97 154
61 97 149
62 98 159
62 98 161
61 97 152
64 100 161
62 98 161
62 98 166
62 99 169
61 97 150
62 99 162
61 97 161
62 99 171
61 97 155
63 99 148
62 99 165
61 97 156
62 98 160
62 98 158
63 100 165
63 99 167
61 97 160
62 98 165
62 97 152
63 99 163
62 98 163
61 96 159
62 98 157
62 98 153
62 98 152
62 97 148
61 96 159
62 98 155
61 97 153
62 99 161
62 98 159
63 100 155
62 98 150
62 98 154
63 99 159
62 98 159
64 100 153
61 96 148
62 98 159
61 96 152
61 97 148
63 99 161
61 97 150
61 97 157
62 99 174
62 98 155
62 98 154
62 98 154
62 97 142
63 99 161
61 97 156
62 98 155
61 97 146
62 97 150
61 96 144
63 99 157
64 99 159
62 98 148
61 97 154
61 97 144
62 97 139
61 97 152
62 98 150
62 98 158
62 97 157
61 96 141
61 96 147
63 98 150
62 97 150
61 96 158
60 95 136
62 98 148
60 95 142
60 95 133
61 95 146
59 93 133
59 93 138
58 91 141
56 88 129
71 91 120
86 83 0
103 105 0
99 100 0
110 110 0
108 111 0
90 89 0
90 88 0
125 127 0
114 113 0
110 111 0
107 111 0
119 121 0
136 134 0
100 95 0
107 105 0
110 104 0
130 130 0
112 115 0
120 120 0
109 107 0
127 126 0
113 109 0
116 111 0
98 95 0
105 102 0
116 112 0
127 127 0
118 115 0
127 125 0
126 126 0
133 131 0
122 117 0
117 118 0
122 123 0
118 115 0
136 141 0
139 138 0
122 119 0
134 133 0
133 134 0
136 133 0
144 151 0
123 119 0
140 143 0
149 152 0
146 153 0
144 149 0
150 156 0
139 142 0
141 141 0
153 161 0
152 158 0
157 168 0
154 161 0
152 159 0
148 155 0
154 159 0
149 157 0
151 157 0
160 172 0
144 155 0
163 175 0
160 166 0
145 154 0
159 168 0
161 172 0
159 170 0
155 163 0
164 172 0
162 175 0
151 159 0
160 172 0
163 177 0
160 172 0
162 175 0
153 165 0
159 171 0
161 174 0
165 178 0
155 165 0
160 177 0
167 177 0
169 187 0
158 171 0
167 181 0
161 177 0
163 177 0
172 186 0
161 174 0
162 177 0
163 182 0
164 178 0
161 178 0
171 188 0
164 183 0
164 178 0
161 176 0
163 176 0
172 188 0
164 177 0
168 183 0
172 190 0
162 180 0
167 185 0
160 176 0
169 188 0
166 184 0
161 178 0
192 216 125
193 218 80
192 217 80
183 208 88
192 217 62
184 209 72
186 212 80
192 217 102
186 211 62
185 210 62
189 213 88
185 209 72
183 208 102
185 211 95
185 210 51
182 206 72
183 208 36
182 206 51
176 200 51
179 203 51
190 212 62
176 199 62
184 208 88
181 206 80
185 209 95
174 200 80
179 204 51
179 203 72
181 206 72
181 206 108
178 202 80
177 202 72
184 208 102
181 205 51
177 202 72
179 204 80
178 203 51
180 205 80
181 206 88
180 204 72
181 205 95
174 199 36
178 203 62
176 201 36
179 204 80
179 200 72
181 206 95
181 206 95
175 200 51
180 204 62
175 199 62
177 199 36
181 206 62
177 202 88
179 204 72
176 201 80
175 198 51
178 202 80
177 202 72
174 198 72
178 203 72
181 206 80
177 201 51
171 196 88
178 202 80
176 199 51
177 202 72
178 201 95
177 201 72
175 201 95
183 206 88
177 202 62
180 203 62
183 206 51
179 203 36
179 203 51
178 203 51
173 197 62
181 205 62
179 203 80
182 206 72
181 207 72
185 209 72
179 203 62
182 206 62
147 171 112
113 139 155
117 143 152
113 140 142
100 127 142
137 162 118
120 145 164
116 141 146
113 138 166
183 202 226
105 129 186
73 106 173
73 106 176
73 106 177
73 106 176
61 98 170
73 107 179
67 101 178
69 103 176
89 118 172
80 111 174
107 133 191
79 111 179
61 97 166
61 97 167
63 99 169
61 98 165
62 98 165
60 95 150
61 98 160
60 96 163
61 97 156
70 102 144
67 101 152
69 102 152
61 97 155
60 95 143
60 96 160
74 106 153
60 96 162
70 102 149
65 97 136
82 113 152
59 95 150
61 97 150
61 97 150
61 97 143
60 96 145
61 97 161
61 97 160
61 97 160
60 96 153
61 96 141
61 98 163
62 98 159
60 95 153
61 97 153
61 97 156
59 95 152
60 97 157
62 98 152
62 98 165
61 98 159
61 97 157
62 99 161
61 96 160
60 96 145
61 97 156
62 98 164
61 97 162
62 98 164
60 95 146
61 97 159
60 97 157
60 96 153
62 98 154
59 95 154
61 97 157
61 97 151
63 99 162
60 96 148
62 98 161
62 98 161
59 95 155
60 95 147
62 98 157
62 98 166
62 99 166
62 99 165
63 99 159
62 98 160
63 99 163
60 96 150
62 98 165
62 97 154
61 98 164
63 98 151
63 98 165
62 98 159
62 98 162
62 98 166
61 97 161
61 96 152
61 97 161
61 97 157
62 98 165
62 98 163
63 99 161
62 98 162
62 98 162
63 98 162
62 98 152
63 99 167
62 98 159
63 99 159
62 98 167
62 97 161
61 98 157
62 98 155
62 98 165
61 98 167
62 98 160
61 98 157
62 98 161
63 99 161
62 98 146
63 99 159
63 99 171
62 98 167
61 97 158
62 98 164
62 98 155
61 97 153
61 98 155
62 98 164
63 100 167
61 96 155
62 98 158
62 99 163
63 100 169
62 99 165
63 99 159
62 98 157
62 98 163
63 99 169
62 98 155
62 98 159
61 97 153
62 98 165
62 98 161
61 98 163
61 97 139
63 99 165
63 99 170
62 98 152
63 100 163
63 99 167
62 99 157
61 98 159
62 98 159
61 97 144
62 98 158
61 97 148
63 99 155
61 97 154
63 100 155
63 99 165
61 97 146
62 99 162
61 96 155
63 99 156
62 97 155
62 98 157
62 98 162
60 95 150
62 97 154
62 98 155
61 97 149
61 97 150
62 98 159
61 97 153
63 98 157
61 97 150
62 97 146
63 100 149
61 97 150
60 96 153
63 98 154
63 98 159
63 99 164
62 97 144
62 98 154
62 98 148
63 98 156
62 97 148
62 97 154
61 96 145
62 98 140
59 94 134
61 96 155
61 95 138
61 96 142
63 97 156
58 91 129
56 89 134
56 89 128
79 93 88
113 114 0
109 108 0
111 116 0
114 115 0
101 100 0
102 97 0
114 115 0
102 101 0
98 96 0
114 117 0
121 125 0
94 89 0
127 128 0
94 91 0
113 110 0
125 126 0
113 117 0
116 117 0
119 118 0
101 99 0
117 117 0
125 127 0
119 116 0
116 115 0
120 121 0
141 140 0
102 99 0
129 125 0
122 121 0
138 142 0
124 122 0
122 120 0
139 143 0
129 127 0
135 135 0
140 140 0
135 141 0
127 127 0
136 140 0
132 133 0
132 136 0
130 129 0
142 144 0
138 137 0
141 146 0
139 145 0
152 160 0
153 161 0
130 133 0
138 143 0
146 150 0
143 143 0
143 151 0
153 158 0
144 152 0
148 154 0
142 144 0
157 165 0
152 161 0
149 159 0
150 163 0
156 169 0
163 171 0
160 167 0
158 166 0
155 165 0
153 164 0
155 163 0
157 166 0
161 172 0
156 171 0
159 171 0
158 163 0
162 177 0
149 159 0
155 164 0
158 170 0
161 172 0
157 167 0
171 187 0
162 173 0
163 179 0
155 168 0
159 173 0
160 173 0
161 176 0
163 177 0
165 177 0
163 177 0
166 186 0
176 189 0
159 174 0
162 182 0
162 179 0
168 182 0
161 179 0
152 166 0
161 176 0
161 179 0
164 179 0
160 177 0
161 179 0
165 181 0
170 187 0
159 174 0
172 189 0
167 184 0
166 183 0
191 215 72
182 207 51
187 213 80
188 213 72
186 211 80
181 205 72
184 209 51
181 206 95
182 206 62
185 211 62
180 204 72
185 209 95
180 205 62
184 208 88
183 207 95
181 207 51
183 208 102
183 208 88
185 209 80
174 199 62
183 208 62
177 201 51
180 204 72
181 205 62
179 204 88
178 202 80
181 205 80
178 204 62
181 205 51
185 209 36
177 203 72
181 207 72
180 204 80
180 205 72
184 207 62
177 202 51
176 200 72
176 200 51
178 201 80
175 198 51
177 200 72
176 202 88
182 207 72
177 202 62
176 200 80
177 200 80
182 206 62
179 203 62
182 206 62
177 202 72
177 201 62
180 205 120
179 202 72
177 201 72
180 204 62
176 201 36
177 202 51
179 203 80
181 205 80
177 203 62
170 194 80
173 199 62
181 204 62
177 201 62
178 201 62
180 205 72
178 203 62
179 203 72
179 202 62
182 207 62
172 196 51
179 203 102
182 205 88
177 200 62
181 205 72
181 204 72
181 204 95
178 201 80
175 201 72
186 209 88
185 208 72
174 199 51
179 203 36
179 203 72
176 199 62
162 187 85
105 131 131
89 118 146
116 142 146
111 138 151
112 138 151
111 137 161
121 146 174
123 148 143
103 130 164
110 135 172
67 101 170
73 105 178
88 118 188
68 103 179
73 106 178
68 103 173
88 117 179
94 123 185
80 111 174
79 110 178
62 98 167
80 111 177
73 106 168
61 98 170
67 102 165
62 98 167
62 99 174
60 95 163
61 97 163
60 96 144
61 97 167
61 97 156
68 102 154
66 100 156
64 99 151
65 100 152
68 101 162
60 96 158
61 97 155
61 96 148
60 94 147
83 112 135
58 94 140
59 93 144
59 95 144
62 98 168
60 96 147
61 97 159
59 94 156
63 99 167
62 98 161
61 97 154
61 96 146
62 97 157
61 96 151
62 98 157
59 94 142
60 96 167
61 96 153
61 97 153
61 97 159
61 97 156
62 98 162
59 95 146
59 94 136
62 98 163
60 96 167
62 98 153
62 98 161
60 96 152
62 98 159
61 97 165
61 97 155
62 98 168
61 97 157
61 97 155
61 97 154
60 95 151
61 96 159
61 97 157
62 98 159
61 97 157
61 97 163
62 98 156
61 96 159
62 98 167
62 98 163
62 99 161
61 96 157
61 98 161
62 98 155
62 98 161
62 98 162
62 99 164
63 99 160
61 97 159
62 98 163
62 98 160
62 98 159
62 99 169
61 98 161
62 98 161
61 97 158
62 98 158
62 99 159
64 100 169
62 99 163
63 99 155
61 97 156
62 98 154
62 98 162
62 99 163
62 98 157
62 98 159
62 99 156
61 97 159
63 100 161
61 98 162
62 98 153
62 97 152
62 98 155
60 97 150
62 97 158
62 98 164
61 97 155
62 98 161
63 100 165
63 99 163
62 98 165
62 99 167
62 97 146
63 99 169
62 98 163
61 97 161
63 99 168
62 98 159
62 98 167
62 99 167
61 97 153
62 98 155
63 99 165
63 99 157
64 101 165
62 98 158
62 98 157
62 98 151
63 99 165
63 99 159
62 97 158
61 96 141
62 97 164
62 98 157
63 99 151
64 100 163
62 98 150
62 98 148
62 98 155
61 97 150
61 96 152
62 98 161
62 98 155
62 98 160
62 97 154
61 98 142
61 97 144
62 98 159
62 97 154
60 96 158
61 97 152
64 100 167
61 97 148
62 99 152
63 99 157
62 98 151
62 98 159
62 98 159
61 97 148
61 97 154
62 98 155
61 97 159
63 99 148
60 95 141
64 99 161
61 97 143
61 96 148
61 97 148
61 96 146
61 96 139
60 95 148
62 97 156
62 98 159
61 97 141
59 94 143
61 95 148
61 96 139
59 94 143
59 94 128
60 95 132
62 97 145
59 93 135
60 94 141
59 93 134
57 89 124
57 89 130
56 89 123
85 94 65
124 124 0
115 119 0
107 106 0
129 132 0
101 100 0
123 121 0
97 94 0
97 101 0
99 98 0
112 107 0
110 107 0
114 112 0
110 108 0
115 112 0
112 111 0
114 117 0
129 132 0
118 117 0
117 116 0
105 104 0
113 108 0
121 120 0
123 125 0
126 127 0
124 121 0
125 124 0
135 134 0
121 120 0
129 128 0
133 137 0
128 128 0
125 132 0
119 116 0
133 135 0
140 141 0
142 144 0
142 145 0
133 137 0
131 127 0
142 148 0
151 154 0
130 128 0
137 140 0
135 138 0
157 161 0
151 159 0
144 148 0
142 148 0
156 164 0
157 161 0
163 168 0
152 163 0
141 148 0
150 156 0
157 167 0
155 163 0
159 169 0
161 169 0
158 169 0
152 162 0
162 172 0
148 156 0
156 168 0
154 162 0
151 158 0
160 168 0
153 162 0
159 170 0
155 163 0
151 161 0
166 181 0
150 160 0
166 178 0
151 163 0
162 177 0
148 155 0
163 177 0
160 173 0
163 178 0
158 170 0
168 186 0
159 172 0
158 173 0
158 170 0
164 181 0
152 167 0
160 173 0
157 168 0
164 181 0
169 182 0
162 176 0
164 183 0
166 181 0
162 176 0
164 181 0
167 183 0
170 186 0
165 180 0
173 189 0
166 184 0
164 181 0
165 183 0
166 185 0
178 198 0
163 181 0
166 183 0
166 181 0
163 182 0
186 211 51
188 213 80
179 204 102
185 210 62
185 209 80
178 203 36
183 207 88
186 209 51
180 206 62
182 207 88
183 208 36
181 205 80
185 208 72
179 204 80
180 205 88
183 208 62
181 204 51
185 209 72
178 203 62
181 205 108
178 203 51
176 201 80
184 207 72
180 204 72
178 202 88
183 209 80
181 205 62
182 206 80
176 201 102
180 205 88
179 204 62
181 204 72
182 206 108
179 204 72
181 205 102
180 205 88
180 203 51
178 202 36
175 199 62
170 195 51
185 208 80
175 199 88
179 203 102
175 199 36
178 204 102
178 202 80
181 204 88
180 204 88
181 205 102
173 198 62
175 200 72
178 203 88
176 201 62
179 204 80
175 200 62
174 199 62
175 200 0
174 197 36
179 203 95
181 204 80
180 205 80
180 205 130
176 200 80
181 205 95
179 202 62
179 202 80
179 204 88
173 197 62
179 203 51
179 203 80
181 205 0
183 206 72
178 202 95
179 202 80
180 204 62
185 207 80
179 202 62
178 203 51
178 203 72
179 204 72
178 201 72
179 203 62
180 204 80
178 202 62
182 206 80
180 203 84
122 146 122
123 147 150
106 133 129
129 153 143
112 138 152
100 127 152
128 152 155
127 152 156
131 155 163
119 145 154
100 129 160
78 110 173
87 117 184
73 106 176
73 105 176
79 111 176
74 107 181
74 107 177
68 102 171
89 118 182
94 123 183
79 111 174
75 108 178
65 100 161
63 99 164
63 99 174
62 99 165
62 98 169
61 98 161
62 98 162
61 97 160
60 96 157
60 96 154
62 98 165
64 99 158
76 108 145
70 104 150
71 104 151
70 105 148
63 97 144
61 96 149
60 95 160
75 107 153
64 99 150
62 97 161
59 95 156
61 96 156
62 97 157
59 95 150
61 97 152
61 97 164
59 94 140
62 98 167
60 96 150
60 96 151
60 96 155
60 96 141
60 96 149
63 99 167
62 98 157
61 97 150
61 97 155
59 93 146
62 98 158
60 95 158
61 97 165
61 97 157
63 99 161
60 96 152
61 97 165
62 98 165
61 97 159
62 99 163
61 98 165
59 94 153
63 98 164
61 97 161
62 98 159
63 99 168
61 97 162
61 97 159
61 97 156
61 97 163
61 97 161
60 96 157
61 98 167
62 98 163
61 96 150
62 98 165
61 97 150
61 98 150
63 99 165
60 95 150
62 98 161
60 95 147
63 99 161
62 98 154
62 98 163
62 98 159
61 97 157
61 97 157
62 98 155
62 99 154
62 98 163
62 98 165
61 97 155
63 100 165
62 98 161
61 97 166
61 97 160
60 97 161
62 98 161
63 99 163
63 99 165
62 98 159
62 99 162
62 98 160
61 97 154
61 98 159
62 99 148
61 97 155
62 98 155
61 98 154
61 97 150
62 98 162
61 97 165
62 98 163
63 99 161
63 98 155
63 99 157
62 99 163
62 99 161
62 98 157
62 98 153
63 98 160
62 98 167
61 98 161
62 99 161
63 99 161
62 97 157
62 97 153
62 98 157
63 99 165
60 97 155
63 99 157
62 98 157
63 99 158
61 96 146
62 98 159
62 98 152
62 98 157
62 98 165
63 99 167
62 97 144
62 97 157
63 99 151
61 96 146
62 98 153
61 97 150
62 98 154
61 97 156
62 97 155
62 98 159
62 98 161
62 98 153
62 98 150
61 97 157
61 97 150
61 97 144
61 97 144
62 98 148
61 97 142
62 98 148
60 95 155
62 98 150
63 99 161
60 96 146
61 96 134
63 98 155
63 99 148
63 99 159
61 97 150
62 98 153
59 93 134
59 94 127
62 98 153
62 98 157
61 96 152
63 98 150
62 97 146
62 98 150
61 97 148
59 94 129
61 96 139
62 97 146
60 95 143
61 96 138
61 96 155
62 97 142
58 91 130
58 92 135
60 94 141
57 90 137
56 90 123
56 87 127
118 119 59
105 108 0
105 103 0
120 123 0
99 100 0
112 110 0
114 112 0
122 118 0
112 114 0
112 116 0
112 108 0
121 122 0
118 121 0
120 119 0
109 110 0
106 105 0
119 120 0
115 116 0
117 117 0
130 134 0
106 105 0
120 117 0
116 120 0
128 129 0
128 129 0
115 114 0
123 126 0
126 128 0
126 127 0
139 142 0
109 104 0
121 120 0
129 134 0
128 131 0
121 120 0
127 125 0
131 133 0
126 126 0
129 131 0
133 138 0
152 156 0
140 143 0
141 139 0
137 142 0
126 130 0
145 154 0
154 164 0
138 141 0
145 152 0
141 147 0
151 157 0
141 149 0
145 153 0
138 143 0
152 159 0
151 159 0
146 156 0
146 150 0
153 162 0
152 160 0
150 162 0
161 171 0
144 151 0
162 169 0
146 156 0
163 176 0
157 165 0
154 165 0
159 170 0
152 163 0
164 173 0
167 180 0
164 176 0
165 177 0
147 159 0
158 172 0
157 170 0
162 175 0
157 169 0
164 176 0
164 178 0
162 178 0
161 175 0
164 178 0
164 181 0
159 174 0
162 177 0
158 170 0
166 181 0
158 175 0
165 182 0
158 175 0
164 177 0
164 181 0
159 176 0
168 182 0
159 174 0
169 186 0
169 186 0
172 186 0
168 186 0
167 187 0
166 186 0
166 183 0
157 172 0
162 178 0
169 186 0
166 182 0
168 189 0
179 204 62
183 208 51
182 208 62
186 211 36
185 210 95
180 205 80
179 204 72
182 206 72
185 209 72
178 202 80
179 203 62
182 206 51
178 203 72
178 203 72
179 205 80
180 204 80
179 203 62
181 206 108
179 203 62
182 207 72
176 200 51
179 203 36
175 200 72
180 203 88
177 201 36
183 208 88
179 205 102
176 201 88
179 203 88
178 202 62
176 202 114
176 201 36
176 201 62
174 199 62
173 197 36
180 204 88
175 199 62
176 200 51
174 199 95
179 202 95
177 201 80
174 198 36
173 197 72
177 201 62
175 199 36
175 200 80
178 203 80
174 197 51
176 199 62
178 202 102
181 205 72
178 202 88
172 196 36
176 201 95
177 200 36
178 201 36
175 199 88
174 200 36
173 197 72
174 198 72
174 199 80
177 201 62
177 201 62
177 201 62
179 202 72
179 203 80
184 208 102
177 201 80
177 199 62
180 202 72
171 195 95
174 197 95
179 201 88
180 205 95
177 202 62
175 198 80
175 198 62
177 201 80
180 205 88
177 201 51
179 202 62
175 199 72
177 201 62
180 204 51
181 204 62
177 201 88
119 144 120
110 135 153
91 120 146
97 125 131
114 140 158
108 135 156
105 131 143
131 155 163
128 153 151
102 130 163
120 145 146
102 130 156
85 116 175
83 114 184
73 106 178
78 109 179
74 107 175
62 99 174
74 108 170
69 103 176
79 111 178
79 110 171
87 117 176
79 110 173
60 96 155
62 99 166
62 99 167
60 96 161
60 95 164
61 98 167
62 98 163
60 97 157
62 99 168
60 96 154
62 98 167
68 102 155
70 102 160
74 106 153
64 98 137
59 95 152
75 107 149
72 105 152
61 96 153
71 103 128
59 94 147
59 94 139
60 96 155
60 96 148
58 93 147
55 89 140
60 96 159
61 97 144
61 96 147
59 95 157
61 97 155
59 94 153
59 95 147
59 95 150
59 94 146
61 97 158
62 99 159
60 96 152
60 96 155
63 100 159
62 98 166
60 96 155
63 99 172
61 97 156
61 97 167
62 98 154
62 98 153
61 97 161
61 97 156
62 98 167
61 97 164
61 98 161
62 98 161
61 97 146
61 97 159
62 98 151
62 98 166
60 96 148
63 99 160
61 96 157
60 96 154
62 98 157
61 97 155
61 97 159
62 98 153
60 96 160
62 98 163
61 97 159
62 99 157
63 99 165
63 99 157
62 98 163
61 97 159
62 98 155
62 98 159
63 99 157
63 99 163
60 97 150
62 98 158
61 97 170
62 97 165
62 98 156
62 98 165
61 98 159
63 99 161
62 98 163
62 98 153
61 96 143
62 98 163
62 99 163
62 98 157
64 101 159
63 99 152
62 98 157
62 99 160
61 97 152
62 98 160
61 97 154
62 98 157
61 97 155
61 98 150
62 99 159
62 98 155
62 97 146
62 98 159
62 99 155
61 97 156
63 100 165
61 97 159
60 96 153
61 97 150
63 99 161
62 98 169
60 96 154
61 97 157
61 98 161
63 99 157
60 96 146
64 101 163
63 99 160
62 98 163
61 97 164
60 95 152
61 97 148
62 98 159
62 98 157
62 98 165
62 99 150
63 99 165
62 98 156
62 98 157
62 98 159
61 98 157
62 98 146
62 98 165
63 99 153
62 98 163
62 98 153
61 96 148
63 99 154
61 96 145
62 99 163
62 98 159
62 98 156
63 98 161
62 97 159
63 99 162
61 97 152
62 97 141
61 97 146
62 98 156
61 98 152
64 100 146
60 95 154
62 98 148
62 98 162
62 98 150
62 98 148
61 96 144
60 95 147
63 99 152
62 98 157
61 97 154
63 99 148
61 96 148
62 98 148
60 96 141
61 96 134
62 97 152
62 97 146
62 97 146
58 93 126
61 96 136
60 94 142
61 95 142
60 95 135
60 94 132
59 93 136
56 89 126
57 90 126
63 90 112
122 123 0
114 115 0
117 119 0
112 114 0
116 120 0
119 120 0
116 118 0
106 105 0
107 109 0
129 127 0
123 126 0
127 131 0
99 101 0
92 94 0
120 121 0
114 118 0
111 110 0
118 122 0
123 120 0
129 128 0
121 125 0
106 108 0
127 128 0
90 91 0
125 124 0
134 136 0
130 128 0
126 127 0
127 129 0
143 147 0
129 132 0
114 111 0
135 138 0
131 129 0
118 119 0
138 144 0
151 156 0
125 129 0
142 147 0
131 132 0
119 118 0
136 137 0
150 159 0
137 139 0
148 151 0
138 141 0
146 157 0
145 149 0
131 137 0
152 164 0
162 170 0
148 153 0
148 149 0
155 160 0
143 150 0
148 151 0
156 163 0
156 164 0
156 162 0
152 161 0
147 158 0
140 149 0
140 148 0
159 170 0
155 165 0
155 164 0
158 171 0
147 154 0
167 179 0
158 169 0
149 161 0
158 170 0
149 158 0
154 164 0
159 173 0
159 169 0
153 166 0
165 178 0
149 158 0
167 183 0
152 163 0
163 176 0
163 175 0
160 173 0
164 179 0
166 179 0
165 181 0
163 175 0
162 179 0
161 175 0
168 182 0
159 172 0
162 178 0
167 184 0
166 182 0
169 186 0
160 177 0
164 178 0
156 170 0
166 181 0
172 191 0
162 175 0
168 183 0
175 190 0
167 185 0
165 185 0
158 174 0
166 185 0
167 187 0
186 211 102
184 208 51
186 212 72
186 211 88
185 208 102
184 208 88
179 204 62
180 204 51
181 206 36
175 201 80
182 206 80
180 205 72
182 206 36
182 206 62
179 204 108
183 207 88
175 200 102
179 204 80
182 206 72
177 201 80
176 199 62
179 203 51
179 204 62
175 200 51
174 200 62
179 204 36
175 199 80
177 202 72
175 199 80
174 198 51
183 207 95
179 204 80
180 204 72
183 208 51
180 204 62
178 201 51
178 202 72
176 199 72
175 199 51
174 199 80
177 203 88
180 204 88
175 198 62
175 200 80
177 202 51
176 201 80
177 202 72
179 203 62
179 204 108
181 204 88
173 197 80
174 198 72
177 202 102
180 202 62
171 195 36
170 195 72
175 200 36
172 196 80
170 195 62
177 201 88
181 205 62
172 196 72
169 191 72
177 201 62
183 208 114
174 199 72
176 200 88
179 203 95
178 202 80
176 199 72
170 194 62
179 203 95
180 206 114
179 203 36
175 200 80
174 198 80
172 195 62
177 199 88
176 201 80
179 202 36
176 200 36
181 204 51
180 204 72
178 201 72
181 205 51
181 205 72
156 180 96
96 123 141
106 133 165
91 120 144
97 125 154
102 129 148
99 126 155
101 128 152
114 140 150
106 134 148
114 141 159
107 134 141
89 120 160
107 133 157
67 102 172
79 111 185
73 107 181
62 98 174
79 111 181
88 118 182
73 105 163
73 106 170
80 111 177
93 121 178
69 103 172
62 99 164
61 97 157
61 96 170
61 98 166
62 99 169
62 98 165
59 95 159
60 96 162
60 96 161
60 95 156
65 100 150
71 103 151
64 100 160
72 105 153
68 101 147
61 97 156
66 100 153
57 92 147
64 98 149
74 106 143
61 97 155
60 95 148
60 95 155
59 95 144
61 97 164
59 95 153
60 96 139
60 96 156
61 98 155
60 96 149
61 97 155
61 98 164
62 98 159
61 97 156
58 93 157
61 97 154
61 97 160
61 96 153
62 98 157
61 98 163
61 97 162
62 99 165
62 98 158
61 97 160
62 98 162
60 96 156
62 99 160
61 97 155
61 97 153
61 97 143
62 97 159
62 98 165
61 97 162
62 99 161
61 97 156
61 97 164
61 98 161
63 99 165
62 98 153
62 98 161
60 96 149
61 97 155
62 98 154
61 97 154
62 98 161
64 99 165
61 97 166
61 97 164
62 98 165
62 98 170
62 99 157
60 96 159
62 98 156
62 98 150
61 96 150
61 98 160
60 95 137
62 97 162
62 98 165
62 98 161
62 98 164
61 98 154
63 99 165
63 99 170
61 97 157
62 99 169
62 98 167
61 98 156
62 98 161
61 97 156
63 100 161
61 97 163
61 97 152
63 99 161
63 98 156
62 98 161
62 98 159
61 97 157
62 98 148
63 99 161
62 98 157
63 100 165
63 99 163
62 99 159
61 96 153
61 97 153
62 98 157
61 97 160
62 98 157
63 99 159
60 96 146
61 97 156
62 98 159
63 99 163
62 98 159
62 98 157
62 98 148
62 98 159
60 95 143
61 97 153
63 99 152
62 98 152
62 97 150
63 98 161
60 95 145
62 98 161
63 99 165
63 99 163
62 98 149
61 97 148
61 97 158
61 97 145
62 98 163
63 99 161
62 98 152
64 100 167
61 97 146
61 97 146
61 96 153
61 97 150
62 98 149
62 98 157
62 98 150
62 98 157
62 98 161
61 97 148
62 98 161
61 97 137
61 96 141
62 97 146
62 99 161
62 98 150
61 97 146
61 97 144
63 99 159
61 96 135
62 97 147
59 94 146
62 98 157
62 97 150
62 98 156
60 96 148
62 98 154
62 97 150
61 97 150
61 95 150
62 98 145
59 94 141
60 96 141
61 95 134
60 95 142
61 96 140
60 95 149
60 94 133
61 96 146
60 93 134
58 92 136
58 91 123
55 86 120
82 102 100
126 133 0
121 126 0
114 117 0
117 119 0
109 112 0
114 117 0
100 105 0
125 132 0
111 114 0
88 91 0
115 115 0
132 132 0
117 118 0
113 112 0
107 111 0
132 137 0
123 128 0
114 115 0
113 115 0
121 123 0
126 131 0
108 106 0
118 119 0
105 102 0
119 116 0
118 123 0
125 129 0
129 129 0
132 132 0
132 134 0
136 141 0
137 141 0
135 141 0
132 136 0
131 132 0
123 124 0
132 133 0
134 139 0
139 144 0
133 139 0
126 127 0
121 128 0
145 147 0
151 155 0
149 155 0
148 154 0
142 146 0
140 143 0
146 153 0
138 145 0
157 164 0
139 144 0
144 149 0
144 150 0
136 142 0
149 158 0
151 160 0
154 158 0
154 160 0
143 151 0
149 154 0
142 146 0
133 143 0
147 154 0
155 166 0
149 159 0
159 172 0
157 167 0
151 164 0
158 167 0
152 163 0
158 168 0
158 168 0
160 174 0
144 158 0
167 177 0
163 173 0
156 170 0
165 176 0
159 172 0
168 186 0
163 178 0
157 170 0
157 168 0
163 179 0
155 171 0
157 172 0
158 168 0
172 183 0
158 172 0
159 178 0
157 173 0
173 189 0
166 184 0
156 169 0
164 180 0
167 185 0
158 173 0
169 186 0
164 181 0
167 185 0
160 179 0
166 181 0
173 190 0
169 184 0
170 189 0
160 180 0
165 184 0
168 187 0
184 208 62
181 205 51
184 209 108
184 209 95
181 206 51
186 210 62
179 203 72
182 207 72
184 208 51
180 205 80
176 201 62
175 200 36
182 206 72
176 200 62
181 204 51
182 206 88
177 201 88
175 200 51
177 203 108
177 202 62
178 202 72
181 205 88
174 198 36
180 204 72
176 202 72
175 201 102
179 203 51
176 200 62
175 199 80
178 203 36
173 196 51
176 199 72
176 201 72
179 202 72
176 198 36
176 201 62
173 197 72
174 198 62
176 200 51
179 204 80
176 202 80
177 201 62
176 200 80
173 197 62
180 204 51
177 202 95
175 200 95
176 199 62
173 197 88
172 198 62
181 205 80
179 201 72
174 198 51
179 203 88
178 202 88
175 199 80
174 198 36
174 198 95
179 203 72
171 194 51
176 201 88
175 200 62
171 196 36
177 200 80
174 199 88
174 198 72
177 200 88
180 204 95
177 201 80
175 198 114
174 198 62
177 201 102
176 200 51
179 203 88
171 195 51
177 201 62
177 199 62
175 200 51
182 206 108
169 193 36
178 202 80
180 205 80
179 202 51
171 195 62
177 201 62
178 201 95
165 187 0
106 131 153
100 128 160
95 123 147
80 110 145
105 132 154
111 136 134
117 144 156
106 132 157
100 129 142
110 137 146
107 133 151
112 139 148
113 140 152
77 110 167
78 111 176
67 102 178
68 102 177
68 103 176
89 119 178
84 114 174
84 115 184
93 122 182
80 111 169
85 115 179
61 97 165
62 98 167
62 98 170
62 98 165
61 98 168
62 98 171
62 98 155
61 98 171
61 98 162
61 97 163
71 104 158
60 96 171
68 102 151
69 103 155
71 104 157
75 106 144
64 99 146
69 102 147
70 103 147
71 103 140
63 96 145
61 97 152
61 96 153
61 96 139
59 94 147
60 95 157
61 96 154
61 97 158
59 95 165
62 97 159
62 97 157
59 95 142
61 97 156
61 98 154
62 98 160
63 99 163
61 97 152
61 97 150
62 98 162
60 95 159
61 97 164
62 99 163
60 96 152
62 98 153
62 98 155
62 99 161
62 99 165
62 98 161
61 97 161
63 99 160
62 98 167
61 97 162
61 97 159
62 98 158
63 99 163
61 96 162
62 98 165
61 97 156
60 96 158
61 97 159
62 98 161
61 97 160
62 98 161
61 97 161
62 98 163
62 98 162
63 99 161
61 97 146
63 99 165
62 98 161
61 97 150
62 98 150
62 98 169
62 98 155
60 97 152
63 99 163
61 97 152
62 97 156
61 97 146
62 98 162
60 96 146
60 96 136
62 98 161
64 100 161
61 98 162
62 98 163
61 96 148
63 99 159
62 98 161
62 98 167
61 97 154
61 97 155
62 98 159
61 97 152
62 98 157
62 99 158
64 100 165
62 99 163
61 97 152
61 97 161
63 100 163
61 97 153
63 99 161
62 98 163
62 98 152
62 98 154
63 99 167
63 100 165
62 98 156
62 98 155
61 97 146
62 98 161
64 100 169
62 98 165
62 98 150
62 98 161
63 99 163
62 98 162
63 99 159
62 98 165
62 98 152
62 99 167
61 97 163
62 98 158
62 98 161
61 97 141
60 96 146
62 98 153
62 98 155
62 97 147
63 99 153
62 98 150
61 97 158
62 98 154
63 99 163
63 99 163
62 98 159
61 97 161
60 95 144
61 97 157
63 99 150
62 98 150
61 97 150
61 97 152
61 96 148
60 96 145
61 97 157
63 99 155
60 96 149
61 97 157
63 99 150
63 99 150
62 97 142
63 99 152
61 97 152
63 99 146
63 100 155
60 95 137
62 97 141
61 97 137
61 97 152
62 98 153
61 96 137
63 98 155
61 96 134
59 94 137
62 97 145
61 96 136
61 96 139
60 96 152
59 94 131
61 96 147
61 95 145
61 96 136
59 92 133
59 93 130
57 91 126
57 91 131
58 91 131
88 97 81
109 111 0
127 135 0
103 105 0
110 110 0
111 118 0
138 145 0
113 118 0
112 117 0
114 120 0
127 129 0
126 127 0
118 123 0
116 117 0
140 145 0
130 137 0
124 124 0
117 116 0
134 135 0
124 127 0
126 131 0
120 119 0
115 116 0
120 121 0
117 121 0
126 126 0
137 137 0
114 116 0
129 126 0
133 135 0
129 134 0
138 144 0
121 123 0
131 134 0
121 123 0
135 140 0
127 133 0
127 129 0
136 143 0
130 134 0
144 146 0
126 131 0
143 148 0
126 126 0
147 153 0
129 132 0
133 142 0
135 140 0
150 158 0
142 145 0
164 176 0
144 152 0
153 160 0
137 144 0
146 153 0
150 158 0
158 170 0
151 160 0
157 164 0
142 151 0
145 153 0
165 176 0
139 147 0
151 159 0
154 165 0
149 161 0
147 156 0
151 162 0
148 159 0
158 170 0
159 167 0
161 174 0
160 168 0
156 173 0
158 170 0
162 176 0
159 173 0
159 175 0
157 171 0
158 172 0
167 182 0
160 175 0
154 166 0
169 183 0
155 170 0
164 183 0
170 186 0
162 175 0
165 182 0
158 170 0
156 171 0
154 167 0
159 171 0
159 178 0
159 174 0
161 177 0
165 183 0
153 168 0
168 186 0
163 181 0
162 178 0
174 189 0
161 177 0
162 179 0
162 177 0
159 174 0
169 187 0
165 183 0
169 190 0
172 189 0
184 207 62
184 208 51
182 207 62
183 207 95
175 201 80
184 208 80
177 203 72
183 206 88
183 207 62
179 202 36
179 202 36
179 203 80
178 204 80
179 205 80
179 202 62
177 201 80
181 206 80
180 205 88
172 198 95
184 208 80
180 204 51
178 203 88
175 199 51
174 198 62
174 199 80
179 204 62
174 199 51
174 197 62
180 204 95
178 203 62
173 197 80
178 202 62
179 204 95
175 200 108
174 198 80
172 198 80
175 198 95
172 196 62
174 199 72
178 203 108
175 197 51
173 197 51
179 204 102
174 196 0
181 204 36
172 197 62
173 197 95
177 202 51
175 200 72
177 201 80
178 202 62
175 199 62
176 199 51
176 199 62
177 200 36
178 201 72
176 200 72
172 197 80
176 201 114
175 199 80
174 200 72
176 201 72
174 199 80
175 199 62
176 200 88
176 200 80
177 202 88
175 200 88
179 203 72
177 199 88
172 197 72
173 196 62
177 201 72
177 201 95
172 195 88
177 201 80
172 196 72
176 198 62
174 199 62
179 203 72
174 198 51
182 205 72
173 196 36
175 200 72
177 199 62
178 201 51
174 196 80
136 160 115
94 122 157
116 142 155
95 123 140
100 128 158
94 122 157
113 139 167
108 135 165
120 144 164
98 125 135
104 132 155
109 137 145
93 123 158
91 119 161
89 119 166
76 109 174
79 110 182
69 104 174
62 99 171
80 112 172
85 115 172
69 104 174
79 110 170
74 107 169
62 99 179
61 97 170
60 97 164
61 97 160
66 102 169
62 98 168
62 99 165
63 99 165
61 97 167
61 98 164
61 97 155
62 98 151
67 102 150
68 102 156
65 100 159
60 96 150
61 97 144
78 109 142
67 99 139
63 97 141
59 94 145
73 105 147
61 98 148
58 92 142
59 93 145
60 96 148
61 98 160
59 94 161
60 96 160
62 99 159
61 97 151
60 96 161
64 101 156
61 96 136
59 95 152
59 95 156
62 98 152
60 95 163
59 94 150
60 95 142
60 95 149
60 96 158
59 95 144
58 93 148
62 99 167
62 98 163
60 96 160
62 98 165
62 98 162
62 98 151
63 99 166
63 99 163
62 98 161
61 97 152
62 98 151
61 98 152
62 98 157
61 97 162
63 99 167
61 98 155
62 98 167
62 98 139
61 97 157
62 98 153
62 98 156
61 96 152
59 94 139
60 95 141
61 97 146
60 96 146
61 98 152
63 99 165
64 100 165
62 98 153
61 97 151
63 100 163
62 97 159
60 96 148
60 96 159
61 97 159
62 98 155
60 97 156
59 94 144
62 97 155
63 99 168
61 97 161
61 97 150
62 97 148
61 97 141
61 97 148
62 97 157
62 98 155
62 99 153
63 99 166
60 97 155
63 99 163
60 96 152
62 98 150
61 97 155
63 98 162
60 96 154
62 97 159
62 98 162
62 98 157
62 97 155
62 98 144
60 96 148
63 99 156
63 99 161
62 98 148
60 96 150
62 98 160
60 96 154
61 96 148
64 99 153
61 97 163
63 99 163
63 99 157
63 99 166
62 98 157
62 97 155
62 97 148
62 98 152
61 97 153
60 96 151
60 96 144
62 98 153
62 97 153
61 97 151
62 97 148
62 98 146
62 98 154
62 97 146
62 98 165
63 99 153
62 98 161
62 98 150
61 97 148
63 99 155
61 97 144
62 98 151
63 98 154
62 98 161
62 98 155
62 97 150
61 97 150
60 97 156
61 96 141
62 98 153
62 97 150
60 96 148
61 97 150
61 97 156
61 97 154
60 96 146
63 100 161
61 96 154
61 96 139
62 98 157
64 100 153
62 97 160
61 96 148
62 98 160
62 97 157
61 95 147
60 95 127
60 96 143
60 96 145
59 94 129
60 96 136
60 95 140
60 94 156
61 97 144
61 96 142
60 95 139
59 93 124
57 90 107
58 91 129
53 83 123
107 114 44
118 122 0
119 120 0
108 107 0
120 123 0
99 102 0
113 114 0
106 107 0
112 118 0
138 142 0
109 112 0
117 117 0
121 124 0
126 129 0
116 120 0
135 140 0
127 133 0
125 123 0
116 120 0
129 131 0
128 131 0
92 89 0
120 124 0
110 109 0
115 114 0
125 133 0
126 130 0
125 128 0
110 111 0
137 142 0
125 130 0
138 145 0
134 137 0
152 157 0
135 140 0
126 127 0
127 129 0
137 141 0
145 152 0
140 145 0
144 149 0
132 136 0
154 157 0
151 158 0
145 149 0
136 143 0
122 125 0
139 146 0
136 145 0
140 147 0
141 147 0
144 152 0
152 160 0
142 148 0
146 155 0
145 154 0
133 137 0
149 155 0
151 157 0
152 166 0
148 156 0
154 167 0
158 170 0
156 163 0
148 158 0
160 174 0
156 165 0
156 166 0
156 168 0
156 170 0
151 160 0
153 166 0
154 162 0
163 180 0
164 174 0
159 170 0
159 172 0
160 168 0
158 165 0
164 182 0
161 177 0
164 177 0
161 179 0
154 168 0
160 177 0
167 182 0
166 181 0
159 175 0
160 177 0
160 171 0
165 181 0
164 177 0
161 174 0
165 184 0
162 179 0
164 180 0
159 175 0
170 187 0
168 187 0
166 182 0
167 184 0
164 180 0
168 182 0
167 185 0
164 184 0
167 185 0
165 181 0
159 177 0
164 181 0
176 193 0
181 205 62
185 209 72
180 206 95
183 208 88
182 207 88
180 205 95
177 202 72
182 207 102
180 204 88
180 205 88
172 196 62
178 202 88
186 210 108
179 204 95
182 205 95
180 205 102
183 207 108
175 200 62
174 198 51
175 199 36
178 202 80
174 200 62
176 201 36
175 200 88
179 203 62
177 201 95
175 199 72
177 201 72
177 202 51
179 203 80
175 199 72
174 198 80
179 202 72
178 202 88
175 200 62
173 198 80
177 202 72
178 202 95
177 202 95
182 205 72
172 197 80
174 199 88
177 201 72
175 199 80
175 199 88
169 193 51
175 199 62
173 198 72
173 196 51
175 199 72
177 200 62
175 201 36
179 201 72
174 198 72
173 197 62
172 196 72
180 205 88
175 198 62
178 201 62
177 200 51
178 202 62
176 200 80
176 199 80
176 199 72
180 205 108
173 198 62
174 198 95
174 198 62
173 196 51
172 196 80
173 197 95
171 195 88
180 204 62
177 201 72
176 200 80
179 202 88
171 196 88
176 200 80
177 200 62
168 190 62
174 198 72
176 201 80
179 202 102
179 204 108
175 198 80
169 193 51
178 200 88
169 192 107
105 129 145
94 122 154
112 138 158
91 119 152
87 116 153
97 124 148
105 132 166
110 136 159
123 147 163
104 131 157
118 145 137
116 142 160
104 131 154
100 128 143
102 129 161
81 113 174
74 107 180
75 108 174
67 101 175
84 115 180
79 111 174
93 121 180
79 110 181
75 107 174
60 96 156
60 97 160
62 98 162
62 98 165
62 98 163
62 98 164
65 100 163
60 97 156
63 99 161
61 97 159
61 97 158
61 97 148
60 96 141
72 103 143
61 97 159
76 108 150
68 102 141
72 106 146
70 104 158
62 98 147
74 105 145
60 96 157
58 93 148
59 94 144
59 94 139
62 97 148
59 94 144
60 96 153
62 98 159
61 97 150
61 96 151
61 96 151
59 95 156
61 97 151
60 95 155
61 97 143
62 98 153
62 98 159
61 97 147
62 98 144
61 97 160
61 97 154
62 98 157
63 99 161
61 97 158
61 96 153
62 98 162
60 96 146
59 95 144
61 97 161
61 97 155
61 97 156
62 98 150
60 96 151
62 98 161
62 98 155
61 97 159
60 96 146
62 98 156
62 99 159
61 98 159
60 96 149
61 97 160
62 98 157
62 98 157
62 98 166
62 98 159
63 99 167
62 98 157
62 98 155
61 96 163
62 98 157
61 97 162
61 97 156
60 96 137
59 95 139
61 97 156
61 97 156
62 98 157
61 97 152
62 97 147
62 98 154
63 99 163
63 99 161
61 97 158
61 96 152
62 98 152
61 98 160
62 99 159
60 96 155
63 99 165
61 97 148
61 97 157
63 100 157
61 97 157
61 97 154
63 99 163
61 96 146
61 97 140
61 97 150
62 98 157
62 97 151
62 99 159
61 96 139
62 98 154
61 97 153
62 97 158
62 98 148
62 98 152
62 98 157
62 97 150
63 100 163
62 98 157
63 99 153
64 100 152
61 97 156
62 98 161
62 98 167
62 98 152
61 96 150
62 98 153
61 97 148
62 98 172
62 97 151
63 99 154
60 96 148
62 99 157
63 99 165
62 98 159
63 99 157
63 100 150
62 98 155
62 97 155
62 98 143
62 98 159
61 97 157
62 98 157
62 97 146
61 97 145
61 96 153
63 99 161
61 97 146
61 96 144
63 99 148
62 98 153
64 100 159
62 98 159
61 97 154
62 98 150
64 100 167
63 98 159
61 96 134
61 97 144
62 98 150
61 96 150
60 95 144
62 97 143
65 102 161
61 97 143
60 96 137
60 96 148
64 100 160
61 96 129
61 97 143
61 97 141
61 96 141
60 95 132
60 95 124
61 96 145
59 94 140
61 96 142
61 95 142
60 94 131
58 91 127
60 94 119
59 92 137
57 89 129
63 88 107
119 121 0
99 101 0
105 107 0
132 139 0
123 129 0
117 125 0
124 129 0
107 111 0
131 141 0
128 131 0
120 126 0
117 121 0
126 128 0
117 115 0
114 120 0
127 136 0
120 124 0
135 141 0
120 123 0
116 116 0
132 135 0
112 116 0
113 114 0
130 132 0
129 131 0
133 137 0
136 142 0
121 125 0
116 115 0
132 138 0
130 132 0
134 138 0
127 132 0
139 144 0
116 119 0
132 135 0
143 147 0
136 143 0
134 140 0
126 132 0
137 143 0
135 142 0
146 152 0
134 138 0
140 150 0
144 154 0
133 133 0
126 130 0
139 146 0
144 153 0
146 154 0
149 160 0
143 150 0
155 163 0
150 157 0
151 159 0
148 156 0
155 162 0
151 159 0
153 163 0
158 170 0
151 159 0
151 163 0
156 166 0
148 159 0
155 166 0
149 161 0
149 164 0
154 162 0
167 178 0
153 166 0
164 183 0
160 173 0
156 165 0
154 169 0
153 162 0
157 172 0
158 172 0
160 174 0
161 176 0
157 174 0
159 173 0
159 174 0
163 175 0
157 171 0
159 170 0
158 170 0
160 178 0
162 174 0
152 167 0
167 184 0
163 178 0
161 173 0
163 178 0
161 176 0
166 182 0
175 191 0
156 171 0
163 178 0
163 179 0
167 187 0
163 176 0
167 184 0
167 184 0
165 184 0
167 180 0
161 178 0
160 179 0
166 184 0
165 184 0
179 202 72
180 205 51
182 204 88
179 204 80
182 206 62
177 202 62
178 203 51
183 207 72
180 205 62
174 199 36
179 203 72
179 202 80
180 205 95
171 196 80
180 204 88
178 202 36
177 203 102
178 203 72
177 201 80
176 202 80
175 199 95
180 203 95
180 204 80
177 200 51
174 198 102
178 204 62
170 195 36
179 203 72
174 197 62
179 202 80
180 204 88
180 204 51
171 195 51
174 199 80
178 203 80
177 200 36
172 197 72
171 195 72
180 204 72
180 204 72
177 201 62
177 201 95
180 202 51
173 198 72
179 204 95
170 194 72
178 202 88
178 202 62
175 200 62
169 194 62
176 201 80
180 203 95
177 202 72
172 196 80
177 201 62
173 197 72
177 201 88
175 199 72
175 200 72
170 193 62
174 199 80
171 196 72
178 203 62
177 201 80
174 197 62
178 201 62
177 200 80
168 192 62
178 202 62
169 194 62
171 196 95
175 198 88
175 199 62
175 199 102
180 204 72
178 203 51
169 191 72
170 192 80
179 202 95
178 201 72
176 198 62
171 196 36
176 200 95
173 195 36
173 196 72
176 199 88
176 200 88
178 201 102
110 135 140
105 132 143
91 120 155
80 110 128
105 132 154
85 114 141
96 124 147
100 127 141
113 139 166
122 146 135
117 143 156
96 124 143
102 130 152
95 122 150
101 130 146
82 113 143
102 129 162
68 103 181
84 114 181
73 105 166
69 103 168
75 108 182
85 116 180
74 107 178
69 103 173
64 100 164
62 98 168
62 99 172
62 99 171
60 96 170
63 99 170
62 98 160
61 97 163
61 96 160
62 99 171
60 96 160
61 97 154
60 95 161
70 104 159
61 97 155
69 103 160
60 95 152
75 107 135
60 95 149
64 98 146
68 101 155
60 96 150
61 96 154
62 98 156
61 97 153
60 95 148
59 94 144
60 96 158
60 96 147
60 95 144
62 98 158
60 95 158
61 97 157
60 96 150
61 97 154
61 96 150
59 94 146
61 97 153
63 99 161
61 98 157
62 98 148
62 98 157
61 97 161
61 97 159
60 96 146
60 96 148
61 97 165
61 96 146
61 97 149
61 97 157
60 95 141
62 98 144
61 97 155
62 98 165
61 98 162
61 98 144
61 97 142
61 97 150
62 99 169
62 97 170
62 98 160
61 97 152
61 97 144
61 97 163
63 99 163
60 96 153
62 98 159
62 97 143
61 97 159
61 97 154
62 98 162
62 98 169
61 97 154
62 97 161
62 98 152
62 98 150
62 98 161
62 98 162
61 97 155
59 95 156
62 98 159
63 99 160
62 99 161
63 99 161
62 99 159
63 98 161
61 97 152
62 98 153
63 99 169
62 97 144
62 98 159
59 95 148
62 97 155
62 98 159
61 97 163
63 99 167
61 97 150
61 97 146
63 99 161
61 98 159
62 98 156
60 95 150
63 99 155
62 98 159
62 98 152
62 98 156
63 99 159
62 98 156
62 99 159
62 98 157
61 97 152
62 98 155
61 97 144
62 98 158
62 98 159
61 97 148
59 95 136
62 98 155
60 96 156
62 98 144
62 98 159
62 98 154
62 98 158
63 99 153
62 98 151
62 98 155
61 97 146
62 98 144
61 97 150
62 97 157
62 97 148
62 98 146
60 96 140
62 97 146
63 99 167
59 93 142
62 97 147
64 100 163
62 97 146
61 97 153
61 95 151
63 98 154
61 97 148
62 98 158
61 96 150
61 97 155
62 97 144
62 97 155
61 96 144
63 99 155
61 97 146
62 98 146
61 96 137
60 96 138
63 98 153
61 97 146
62 98 142
62 97 141
61 97 146
62 97 143
62 97 159
61 97 137
61 96 143
60 96 129
60 95 143
62 97 143
60 95 143
62 97 148
61 95 138
60 95 133
58 92 135
60 94 139
59 93 137
59 93 131
56 88 122
57 90 134
65 86 89
111 114 0
122 130 0
139 145 0
122 129 0
126 130 0
108 109 0
111 112 0
119 125 0
101 106 0
129 132 0
138 147 0
118 118 0
124 125 0
132 139 0
118 122 0
111 115 0
138 143 0
120 126 0
136 141 0
129 131 0
114 116 0
133 136 0
118 120 0
129 130 0
144 151 0
139 145 0
129 135 0
132 137 0
127 134 0
129 132 0
134 139 0
130 131 0
134 140 0
134 135 0
132 134 0
125 130 0
134 143 0
156 168 0
132 128 0
125 129 0
149 154 0
132 140 0
156 162 0
138 150 0
136 139 0
150 158 0
144 151 0
142 150 0
142 149 0
140 149 0
151 157 0
145 150 0
145 149 0
158 169 0
132 136 0
148 157 0
151 157 0
137 145 0
157 166 0
157 171 0
155 166 0
158 170 0
141 152 0
147 158 0
163 172 0
150 159 0
159 172 0
154 162 0
144 156 0
157 169 0
159 169 0
160 173 0
159 174 0
161 175 0
158 170 0
162 174 0
164 182 0
159 172 0
162 172 0
156 165 0
161 170 0
164 180 0
168 186 0
167 181 0
163 178 0
157 175 0
163 179 0
164 178 0
163 179 0
163 178 0
154 166 0
162 180 0
163 178 0
154 172 0
163 180 0
162 176 0
163 175 0
161 179 0
158 172 0
160 177 0
159 176 0
163 178 0
164 181 0
161 179 0
165 184 0
166 185 0
168 187 0
168 188 0
162 176 0
165 184 0
176 200 95
175 201 72
181 205 51
181 205 36
180 205 80
177 201 62
171 197 62
180 205 72
174 199 72
173 199 108
176 201 51
181 204 51
180 203 80
182 205 88
181 206 72
177 202 88
176 200 51
177 201 72
178 204 88
174 199 62
176 201 88
176 200 36
178 203 72
177 201 80
178 202 80
176 199 95
177 202 88
176 200 95
174 197 80
179 202 51
177 201 88
174 198 88
177 202 88
171 195 36
174 199 72
175 199 62
176 202 114
172 196 51
175 200 88
169 192 62
173 197 62
179 203 72
179 203 80
176 199 80
173 197 80
174 198 72
176 203 95
177 202 80
175 198 62
179 203 51
171 194 0
170 194 80
175 200 80
176 200 102
180 204 80
175 197 80
173 198 72
171 194 62
172 196 36
171 195 72
176 200 62
172 196 62
172 196 62
172 195 36
176 200 62
178 202 95
178 203 95
182 206 95
174 197 80
175 197 62
169 193 51
169 193 62
169 193 51
176 199 80
182 205 88
173 195 72
171 195 80
178 202 102
176 200 72
171 196 36
172 196 62
169 192 62
173 198 62
170 195 88
170 195 72
176 199 51
172 196 88
177 201 80
135 159 113
99 126 142
75 106 135
92 119 142
88 117 148
109 136 160
90 120 155
104 131 154
93 122 144
111 137 152
107 134 152
111 137 166
97 125 147
103 129 148
89 119 155
97 125 162
111 137 153
89 118 176
74 107 179
73 105 173
78 110 175
79 110 179
73 107 178
90 119 179
67 101 161
60 96 159
62 99 170
62 98 162
62 98 163
61 97 161
60 96 157
61 97 163
62 98 165
60 96 152
62 98 161
61 97 154
59 94 152
60 95 155
62 98 167
67 102 146
61 96 164
68 100 144
68 101 148
65 99 152
60 94 140
67 100 143
63 97 141
59 93 143
60 96 143
59 95 151
62 98 155
60 96 157
60 96 157
59 93 149
60 96 154
60 95 151
60 96 160
61 98 159
62 97 155
60 96 153
62 98 155
61 96 150
60 96 153
61 97 157
61 96 151
60 96 146
61 98 161
61 96 151
60 96 144
62 99 168
61 98 159
61 97 151
61 97 157
60 96 148
60 95 144
62 98 157
62 98 160
61 97 155
61 97 154
62 99 161
61 97 156
61 97 155
62 98 164
60 96 155
60 96 152
61 97 152
62 99 165
62 98 149
64 100 174
62 97 159
61 98 153
62 98 167
61 96 154
60 96 149
61 97 146
62 99 155
61 97 164
63 99 163
63 99 159
63 99 159
62 98 159
62 98 148
61 96 155
62 99 168
61 97 154
63 99 166
62 97 146
62 97 157
62 98 157
62 98 158
62 97 161
63 99 159
61 97 153
63 99 167
61 97 157
62 98 157
61 97 158
62 98 162
61 96 155
62 98 157
61 97 153
61 96 150
62 98 146
60 96 148
62 98 160
62 98 157
62 98 150
63 100 159
63 99 148
62 98 150
62 99 150
64 100 165
62 98 162
62 98 155
62 98 165
62 98 156
62 99 148
61 97 159
63 99 165
61 97 155
62 98 148
63 99 161
61 97 156
62 98 159
62 98 155
62 98 153
62 97 148
62 98 148
61 97 151
62 97 160
63 99 165
62 98 157
63 99 146
61 97 148
61 97 156
60 96 147
63 99 146
62 97 159
62 98 157
60 96 153
62 97 153
62 98 150
62 98 159
62 98 154
60 96 152
63 100 161
63 98 159
61 97 150
62 98 157
62 98 154
61 98 152
62 97 155
60 96 146
61 97 137
62 98 148
60 96 137
61 97 148
61 96 152
61 97 146
60 94 134
61 96 130
61 97 152
62 99 163
61 96 146
60 96 143
61 95 145
62 98 158
60 96 154
61 96 141
60 95 132
62 98 158
60 96 143
60 95 131
62 97 143
59 94 135
59 94 132
59 94 132
61 95 130
59 92 138
57 90 126
55 88 114
90 100 70
109 111 0
101 109 0
112 119 0
130 138 0
113 115 0
125 129 0
125 132 0
142 149 0
120 124 0
141 149 0
114 116 0
128 134 0
111 116 0
131 135 0
144 150 0
122 125 0
124 128 0
129 130 0
134 143 0
116 122 0
120 125 0
109 116 0
127 135 0
135 139 0
132 141 0
140 146 0
134 136 0
131 136 0
131 134 0
125 130 0
120 123 0
124 128 0
125 130 0
142 148 0
135 141 0
141 146 0
136 136 0
148 153 0
146 151 0
141 151 0
146 160 0
147 156 0
148 153 0
152 162 0
139 143 0
149 157 0
145 153 0
136 144 0
141 148 0
144 149 0
146 151 0
137 146 0
159 170 0
143 154 0
155 167 0
135 145 0
155 164 0
155 169 0
141 148 0
158 170 0
152 166 0
148 158 0
148 154 0
153 163 0
140 148 0
149 160 0
149 162 0
152 163 0
157 168 0
157 167 0
165 180 0
164 174 0
157 175 0
156 170 0
155 169 0
156 168 0
157 174 0
165 181 0
147 161 0
155 172 0
158 174 0
154 167 0
157 169 0
166 183 0
157 174 0
154 169 0
161 179 0
159 174 0
166 184 0
167 181 0
169 185 0
161 173 0
163 182 0
164 178 0
168 183 0
168 186 0
157 171 0
164 180 0
163 180 0
175 193 0
164 180 0
156 175 0
166 181 0
166 186 0
170 189 0
166 184 0
166 182 0
160 179 0
162 178 0
167 189 0
176 201 72
180 204 72
177 202 102
174 200 72
181 205 62
180 204 51
176 199 36
173 198 95
181 204 62
174 198 51
178 203 62
180 204 62
178 203 80
179 203 95
177 203 72
174 199 72
173 197 51
178 203 95
177 202 88
171 194 51
179 204 72
179 203 62
180 204 72
173 197 80
177 201 62
173 198 72
178 202 51
175 199 72
177 202 72
174 198 80
173 198 62
174 199 62
173 198 88
173 196 36
170 196 72
181 205 62
173 199 62
179 202 80
173 198 72
169 194 62
174 199 72
173 197 51
183 206 88
174 198 72
176 200 95
174 198 72
178 202 95
172 197 72
178 201 62
174 196 51
175 199 62
176 200 80
172 196 72
169 193 62
181 204 88
172 197 88
170 194 80
175 200 95
172 196 80
172 197 88
176 199 62
176 199 62
177 201 88
171 196 80
173 198 72
175 200 80
179 203 80
170 194 36
173 198 72
172 197 62
178 202 62
174 199 62
175 200 72
172 197 80
172 196 72
170 192 95
167 191 51
176 200 108
180 204 102
174 198 62
176 201 72
170 192 62
175 199 88
174 199 95
169 191 0
175 199 51
176 199 102
176 200 95
168 192 86
102 128 146
95 123 153
117 142 145
106 133 152
95 123 158
95 121 141
86 115 139
103 130 145
110 136 151
104 131 146
113 139 158
120 143 127
115 142 149
90 119 150
83 114 150
91 119 161
82 112 144
91 121 176
79 111 178
68 102 175
93 122 184
94 123 188
62 98 163
85 115 178
84 114 175
68 102 165
61 97 154
60 97 160
61 98 164
62 98 159
60 96 165
62 99 165
61 97 156
62 99 164
60 96 159
61 97 175
60 96 151
59 94 169
59 95 155
65 101 162
75 107 159
60 96 161
62 98 155
66 100 140
59 94 162
57 91 135
62 96 132
59 94 141
60 96 153
60 95 145
60 97 159
59 94 139
58 92 147
60 96 144
62 98 154
63 99 150
62 99 157
60 97 150
61 96 154
61 97 139
62 99 158
61 96 139
62 98 157
62 98 165
60 96 157
59 94 146
61 96 150
59 95 147
61 98 159
62 97 152
60 96 163
61 97 152
61 97 163
60 96 150
60 97 157
61 98 157
61 97 153
61 97 161
61 97 156
61 97 153
62 97 154
62 98 161
61 97 161
61 97 160
60 95 143
62 97 153
61 97 154
60 96 148
62 97 155
61 97 149
59 95 132
61 98 153
62 97 157
62 97 154
60 96 139
61 97 158
62 98 158
60 95 145
62 98 163
62 98 163
61 97 152
61 97 157
60 95 146
62 98 160
62 98 162
62 98 163
61 96 154
61 97 146
62 98 153
63 99 167
61 97 146
61 97 153
61 98 156
62 98 152
63 99 164
62 99 158
62 98 159
63 99 157
63 99 152
64 100 159
62 98 153
60 96 142
62 98 159
62 98 161
61 97 150
62 98 153
62 98 153
62 98 153
62 97 150
62 98 151
62 99 165
62 98 157
62 98 155
60 96 142
62 97 144
62 98 150
60 96 139
61 97 152
62 98 159
61 98 157
61 96 150
63 99 161
60 95 144
62 98 149
61 96 157
63 99 151
61 96 150
61 98 152
61 97 159
63 98 167
62 98 150
60 96 152
61 96 139
62 98 155
62 98 165
62 98 150
63 99 157
62 98 146
61 97 150
63 99 155
62 98 144
62 98 146
63 99 161
63 99 146
63 99 154
62 98 162
62 98 152
62 98 151
59 94 139
61 97 152
63 99 159
62 98 150
62 98 144
62 98 152
63 98 155
61 96 146
62 97 138
61 97 144
61 97 145
61 96 134
60 95 146
62 98 144
60 94 140
59 94 134
61 96 139
61 96 143
61 96 141
60 95 134
61 96 151
61 96 157
62 98 147
61 96 143
60 95 142
59 93 128
60 95 150
60 94 127
61 96 144
59 93 130
58 91 133
55 84 107
127 132 23
121 125 0
118 125 0
127 133 0
110 116 0
114 122 0
112 116 0
117 121 0
113 116 0
137 143 0
110 114 0
123 124 0
116 124 0
115 120 0
140 146 0
125 128 0
130 134 0
122 130 0
130 135 0
131 140 0
119 123 0
128 135 0
124 127 0
126 131 0
138 143 0
138 143 0
138 149 0
126 132 0
125 134 0
130 134 0
136 139 0
134 137 0
125 132 0
133 139 0
136 139 0
132 138 0
140 146 0
134 139 0
144 150 0
129 134 0
152 159 0
154 161 0
139 145 0
147 155 0
129 135 0
140 149 0
153 162 0
144 153 0
151 157 0
153 160 0
149 159 0
161 170 0
156 163 0
155 161 0
153 163 0
149 155 0
147 157 0
158 168 0
145 157 0
146 154 0
151 160 0
150 159 0
144 154 0
162 173 0
156 168 0
160 171 0
158 171 0
166 180 0
163 173 0
143 157 0
161 176 0
152 164 0
162 178 0
160 175 0
163 179 0
161 173 0
163 179 0
152 162 0
143 151 0
147 162 0
150 164 0
158 174 0
161 174 0
152 165 0
164 178 0
165 179 0
158 175 0
154 170 0
173 190 0
162 174 0
169 188 0
165 181 0
172 187 0
161 179 0
154 172 0
161 177 0
162 176 0
166 183 0
162 178 0
161 175 0
160 177 0
172 192 0
164 181 0
161 178 0
162 179 0
157 173 0
162 179 0
161 176 0
168 183 0
170 189 0
157 176 0
183 207 88
178 202 62
181 206 102
176 200 72
172 197 80
179 202 36
179 203 72
177 202 51
177 202 95
178 203 88
171 195 88
175 200 62
176 199 36
179 203 51
182 204 72
177 201 102
177 202 88
176 200 36
180 204 80
176 200 51
174 198 36
175 199 72
179 204 88
168 193 72
178 202 51
176 199 62
178 203 72
178 203 80
177 201 88
175 200 62
174 199 102
175 198 51
175 199 62
177 202 62
173 197 72
176 198 62
176 200 36
179 203 95
176 200 51
177 200 80
169 194 51
169 195 80
175 198 80
177 201 72
175 200 72
174 199 72
173 198 72
175 199 51
168 192 36
176 201 80
171 197 130
172 197 95
171 194 72
171 195 36
177 200 62
166 191 72
178 202 88
174 198 95
178 202 72
175 199 72
172 197 88
174 198 102
175 198 72
172 196 62
172 195 51
172 198 72
173 197 72
174 198 102
178 203 62
176 198 62
173 196 72
175 199 80
173 196 95
167 192 80
173 197 88
176 200 80
176 200 102
176 200 51
179 202 51
167 192 72
171 194 95
174 196 36
179 202 72
171 194 51
175 198 62
178 200 102
166 189 72
174 198 62
174 198 102
116 140 122
91 117 134
92 120 148
101 128 139
100 126 127
91 119 133
99 126 154
107 134 159
104 132 157
99 126 131
127 151 159
105 131 145
111 136 148
99 126 154
110 136 151
91 120 164
86 116 150
85 115 156
85 116 164
82 113 172
74 107 174
67 102 170
78 109 172
94 122 185
89 119 180
79 110 174
61 98 167
61 97 170
61 97 169
67 102 161
62 98 159
62 99 168
64 99 146
60 96 152
61 97 161
62 98 161
61 98 158
60 97 168
61 97 159
64 98 157
68 102 148
66 100 140
63 98 145
64 99 144
69 102 148
66 98 140
59 93 143
60 95 152
60 95 151
60 96 154
59 94 136
60 96 148
59 94 144
60 96 151
60 95 152
58 94 135
59 94 160
59 94 144
62 97 157
60 95 147
61 96 164
61 97 149
61 97 157
61 98 157
61 95 145
61 97 155
62 98 163
60 96 141
61 98 168
59 95 157
61 97 159
61 96 155
61 96 151
61 97 153
60 95 139
62 98 153
61 98 159
60 96 154
62 99 153
61 97 162
62 98 153
62 98 163
58 93 138
60 96 158
62 98 161
60 95 149
61 96 145
61 97 155
61 97 157
62 99 152
62 99 161
63 99 165
61 97 152
59 94 151
63 98 157
63 99 163
63 99 163
61 97 146
62 98 161
62 99 166
63 99 167
63 98 157
64 100 155
62 98 165
63 99 167
63 99 165
62 98 159
61 96 141
62 98 153
61 96 154
62 98 153
62 98 152
62 98 161
64 100 165
62 98 157
60 96 148
61 96 144
61 97 155
60 96 155
62 98 146
62 98 163
63 99 155
63 100 155
61 97 152
61 98 159
59 95 144
60 96 157
60 95 149
61 97 145
62 98 159
61 98 160
62 98 151
63 99 159
62 98 158
61 97 156
62 98 152
62 98 149
61 97 157
60 97 139
62 97 146
63 99 161
61 96 153
61 96 156
61 96 148
62 97 157
62 98 152
61 97 148
62 97 150
62 98 155
61 96 146
62 98 146
64 100 156
62 98 159
62 97 155
60 95 148
62 98 162
63 99 157
62 97 153
60 96 141
62 98 149
62 98 161
60 95 135
61 97 148
62 98 150
61 96 150
60 96 139
61 96 136
60 95 150
61 96 146
62 98 143
60 95 129
61 97 149
58 92 128
63 99 153
60 96 150
62 97 151
60 95 136
61 96 135
61 97 148
62 97 150
61 97 141
60 95 132
61 97 157
62 97 150
62 97 148
62 98 141
62 97 141
60 94 142
63 98 152
60 95 138
61 96 131
61 97 143
60 96 138
60 95 144
61 96 145
59 93 134
56 89 115
58 91 128
57 90 123
93 112 103
118 127 0
124 126 0
115 122 0
123 126 0
123 131 0
124 132 0
128 136 0
127 132 0
128 138 0
132 138 0
131 136 0
129 134 0
134 139 0
139 148 0
120 125 0
139 146 0
114 118 0
135 144 0
120 128 0
131 136 0
125 133 0
133 140 0
126 132 0
130 138 0
130 139 0
135 144 0
133 133 0
125 132 0
130 134 0
126 128 0
130 139 0
143 150 0
119 122 0
141 149 0
133 143 0
136 146 0
142 150 0
146 156 0
148 158 0
141 151 0
146 154 0
147 156 0
128 133 0
140 149 0
163 174 0
144 152 0
149 161 0
151 163 0
154 162 0
149 156 0
153 165 0
154 164 0
149 157 0
144 152 0
131 134 0
151 160 0
148 160 0
152 158 0
152 162 0
156 165 0
155 167 0
156 168 0
155 165 0
145 158 0
151 163 0
149 157 0
150 161 0
157 171 0
157 170 0
157 169 0
149 161 0
152 165 0
153 168 0
161 173 0
158 170 0
157 170 0
150 164 0
167 182 0
153 168 0
157 170 0
160 171 0
165 182 0
162 176 0
155 171 0
164 177 0
163 179 0
156 170 0
170 188 0
168 183 0
170 189 0
162 178 0
169 185 0
167 186 0
160 177 0
160 177 0
157 174 0
167 184 0
175 196 0
157 172 0
169 186 0
167 185 0
158 173 0
161 175 0
166 187 0
167 184 0
159 173 0
162 178 0
168 186 0
159 175 0
164 183 0
159 177 0
179 204 80
180 203 80
179 204 36
176 202 51
180 204 51
174 200 72
175 200 62
179 203 62
174 199 72
172 195 36
179 203 36
173 198 80
176 202 72
177 201 62
174 199 62
175 200 80
176 201 80
178 202 62
178 203 102
179 203 62
179 204 72
171 195 62
175 200 88
175 197 36
173 197 51
173 197 72
175 199 80
174 199 102
176 200 72
175 200 72
173 198 62
178 203 88
176 201 72
171 196 95
175 198 36
166 190 36
174 200 108
174 197 62
175 200 51
177 201 80
172 197 36
178 202 72
166 190 51
172 197 88
180 204 80
177 201 51
171 195 72
175 199 62
177 203 80
175 199 72
175 199 62
175 199 51
177 200 72
173 196 51
175 198 72
173 196 88
172 196 62
177 199 62
177 201 72
179 202 62
175 199 62
174 197 88
173 196 51
166 189 72
174 197 80
173 196 51
176 201 72
175 199 80
169 195 62
173 197 80
173 195 80
174 197 72
167 192 80
172 195 72
175 199 102
174 200 51
167 190 62
173 196 88
167 190 72
179 202 62
170 190 72
169 192 51
173 196 80
172 195 51
180 200 72
179 202 95
176 200 95
174 197 80
174 198 88
149 172 90
89 117 153
96 123 136
100 126 136
80 109 123
90 119 150
92 122 136
80 111 148
100 128 146
96 123 157
103 129 146
92 119 137
90 119 131
103 130 138
97 126 152
102 130 135
95 122 148
104 131 144
106 133 153
79 111 150
79 110 179
93 122 185
73 106 173
90 119 178
89 118 178
90 119 180
68 102 164
61 97 155
61 97 166
60 96 159
61 97 163
61 97 164
63 98 153
61 97 155
65 99 159
62 98 163
59 94 154
68 102 168
63 99 160
62 97 167
68 101 143
65 97 153
74 106 150
64 99 139
69 102 148
64 97 141
60 95 142
60 95 148
59 94 146
60 95 134
60 95 148
60 96 163
60 95 149
60 95 155
60 96 143
61 97 157
60 95 152
60 95 147
61 96 158
61 97 150
61 96 157
62 97 153
60 95 151
61 97 144
60 95 146
60 96 146
60 96 148
59 94 142
62 98 155
58 93 141
61 98 155
60 95 154
61 97 153
60 96 147
62 97 146
61 97 152
62 99 154
60 97 157
63 98 152
60 96 156
61 97 151
62 97 150
62 98 157
60 96 150
62 98 150
62 98 154
63 99 164
61 96 144
62 97 158
63 99 167
62 98 153
63 99 167
61 97 156
64 100 154
62 98 159
60 96 157
61 97 153
61 96 143
62 98 162
62 97 152
61 97 144
62 98 158
63 99 161
61 97 156
63 99 156
60 96 146
61 97 162
62 98 148
61 98 161
62 98 157
61 97 152
62 97 155
63 99 161
61 97 148
62 98 150
61 97 165
61 96 145
61 96 148
61 97 149
63 99 159
62 97 155
61 97 153
62 97 157
61 97 157
61 96 137
61 96 150
62 98 161
62 98 161
62 98 156
62 97 150
62 98 153
61 96 161
61 96 141
64 101 165
63 99 163
62 98 159
61 97 146
61 96 153
61 96 144
62 98 157
63 99 153
61 97 146
62 97 148
61 96 148
61 96 144
60 95 135
62 97 157
62 98 148
60 96 146
61 97 150
61 96 141
63 99 157
62 98 146
61 97 150
63 99 161
61 97 153
62 97 154
61 97 148
61 97 139
62 98 152
62 97 156
63 100 157
62 97 150
63 99 163
62 97 155
62 97 150
62 98 154
62 99 155
61 96 139
61 96 146
62 97 160
60 95 137
60 96 136
62 98 144
62 98 148
62 98 155
62 97 141
60 95 136
60 95 143
63 99 160
62 98 147
62 98 136
62 98 154
61 97 143
60 95 134
62 98 147
62 97 148
61 96 141
60 95 145
61 96 139
59 93 126
59 94 132
60 94 128
60 95 135
59 93 125
60 94 132
58 92 124
58 91 127
53 84 121
92 99 74
125 130 0
121 131 0
119 125 0
126 131 0
116 125 0
107 113 0
136 143 0
113 119 0
125 132 0
134 142 0
126 130 0
120 123 0
125 131 0
132 140 0
131 135 0
148 153 0
139 148 0
122 129 0
136 142 0
139 144 0
121 125 0
130 134 0
121 128 0
130 137 0
120 126 0
129 133 0
128 134 0
121 129 0
129 137 0
140 143 0
132 136 0
134 143 0
148 157 0
139 150 0
133 142 0
130 138 0
131 141 0
135 142 0
145 153 0
137 147 0
124 130 0
141 147 0
123 128 0
140 149 0
124 130 0
146 157 0
150 161 0
143 150 0
154 161 0
143 152 0
147 154 0
145 154 0
146 157 0
158 172 0
154 164 0
155 165 0
151 162 0
156 168 0
142 154 0
155 168 0
149 158 0
156 170 0
164 175 0
158 170 0
149 161 0
148 162 0
156 167 0
154 169 0
158 175 0
152 164 0
163 176 0
156 170 0
159 171 0
150 163 0
156 164 0
155 168 0
162 174 0
151 166 0
153 164 0
144 159 0
158 170 0
150 164 0
156 170 0
166 183 0
161 178 0
167 185 0
157 172 0
163 177 0
164 180 0
166 184 0
154 171 0
159 175 0
160 177 0
164 180 0
167 183 0
159 176 0
158 174 0
163 176 0
161 178 0
162 178 0
161 178 0
164 179 0
166 185 0
167 187 0
163 181 0
168 184 0
168 186 0
168 188 0
177 196 0
169 189 0
166 181 0
176 201 80
180 204 72
177 203 80
179 204 72
180 204 72
179 201 36
179 203 80
173 197 80
173 198 0
181 205 72
179 203 102
179 203 51
171 195 51
176 201 36
180 204 0
178 203 95
172 197 72
176 201 88
172 197 72
171 194 62
175 198 36
175 200 80
175 200 72
173 198 102
177 201 95
177 202 120
176 200 72
175 200 51
174 198 62
176 201 72
173 199 62
174 200 88
177 202 36
173 199 72
176 200 62
174 198 51
171 197 72
174 199 88
173 198 88
174 199 80
173 197 51
175 200 72
176 201 95
173 198 80
178 202 80
175 200 72
173 198 114
174 198 80
171 196 80
171 195 51
169 194 88
170 195 72
171 196 62
171 195 51
179 203 80
169 194 51
169 192 36
169 193 62
172 195 72
177 201 80
171 195 62
171 195 80
171 197 95
172 196 88
172 196 80
171 195 72
167 191 62
177 200 80
171 196 80
166 190 80
177 202 95
169 194 95
173 196 72
172 195 62
170 194 72
177 199 62
175 198 62
176 200 72
174 198 80
173 197 51
168 190 62
176 198 88
173 196 95
175 198 95
171 194 102
170 193 0
178 201 80
173 198 36
169 193 62
164 187 62
102 126 132
106 132 156
95 122 130
103 130 157
93 121 139
92 121 141
92 121 139
92 121 146
91 118 152
103 131 159
98 126 145
109 135 146
92 119 141
106 133 139
98 126 147
107 133 132
115 141 156
110 136 159
95 122 150
95 123 156
68 103 166
73 105 169
75 108 174
74 107 179
89 117 174
74 107 169
61 98 166
62 98 148
61 97 160
62 98 159
62 98 166
61 98 160
60 96 158
60 96 165
60 96 151
61 97 157
61 98 160
60 96 158
60 95 153
60 95 149
64 99 148
65 100 157
60 95 147
64 98 150
59 94 146
63 97 137
58 93 153
59 95 140
61 96 148
60 96 142
61 97 146
58 93 148
60 95 148
60 96 151
61 97 153
61 97 147
62 98 156
60 95 142
62 98 156
60 96 154
61 98 154
61 97 152
60 95 153
59 95 141
61 97 158
60 95 161
60 95 140
62 99 163
60 96 149
61 97 156
61 97 163
62 99 148
61 98 153
63 98 153
61 97 161
61 96 155
62 98 157
61 97 157
62 97 150
60 96 151
62 98 152
62 98 150
62 98 156
61 97 160
60 96 146
61 97 155
61 97 150
62 98 163
62 98 150
62 98 156
62 98 160
60 96 144
59 95 127
60 96 155
61 97 148
61 97 151
60 95 149
60 96 144
61 97 157
61 97 146
61 96 145
61 97 150
62 98 155
60 96 141
62 98 155
62 98 166
61 97 152
63 98 151
63 100 159
60 95 141
64 100 154
61 97 154
62 97 150
60 96 149
62 99 155
62 98 153
62 98 155
62 98 155
61 96 141
64 100 163
60 96 145
62 97 157
61 97 156
63 99 155
62 99 157
62 98 155
61 97 144
64 100 159
64 100 167
61 96 141
62 97 155
62 98 153
63 99 151
63 99 153
61 96 146
62 97 148
63 99 161
62 99 164
61 97 151
62 98 146
64 101 165
62 98 141
61 97 145
61 97 157
63 99 157
62 98 146
63 99 154
62 98 144
61 96 161
62 98 157
62 98 150
63 99 153
61 96 150
62 97 155
62 98 148
61 97 146
61 97 150
62 97 148
63 99 159
63 99 157
62 98 144
60 95 155
60 96 144
62 98 153
63 99 163
60 95 136
61 96 150
61 97 153
62 98 144
61 96 145
61 96 154
61 96 145
64 99 160
62 98 144
62 97 148
62 97 148
62 97 148
61 96 146
61 96 150
61 96 143
62 97 142
60 95 125
61 96 144
60 95 129
62 98 150
59 94 134
61 96 138
63 98 156
59 94 118
61 97 140
60 94 142
59 93 118
63 98 142
59 93 127
58 91 132
58 92 128
56 89 122
53 84 117
117 127 65
123 130 0
118 125 0
129 139 0
119 128 0
122 127 0
137 142 0
122 128 0
126 130 0
125 134 0
118 125 0
138 148 0
136 144 0
133 146 0
129 133 0
125 131 0
121 132 0
118 125 0
122 127 0
123 132 0
130 136 0
122 127 0
138 145 0
131 138 0
131 138 0
137 143 0
131 137 0
125 131 0
134 139 0
138 144 0
142 149 0
140 145 0
136 142 0
141 150 0
129 134 0
115 118 0
143 151 0
146 156 0
147 159 0
143 155 0
138 146 0
133 139 0
154 161 0
142 151 0
140 145 0
140 150 0
141 149 0
138 148 0
151 163 0
160 171 0
148 154 0
159 171 0
147 155 0
151 156 0
144 153 0
151 163 0
155 167 0
149 159 0
148 157 0
152 161 0
150 160 0
144 159 0
150 159 0
161 175 0
152 166 0
144 155 0
153 167 0
154 164 0
162 175 0
152 164 0
157 170 0
161 174 0
162 173 0
155 168 0
153 165 0
154 169 0
161 176 0
160 176 0
161 172 0
158 173 0
155 168 0
157 170 0
151 166 0
158 171 0
171 188 0
156 167 0
147 158 0
161 176 0
158 173 0
161 176 0
157 175 0
162 179 0
153 170 0
158 173 0
159 176 0
160 179 0
161 178 0
166 181 0
166 182 0
162 182 0
165 185 0
165 182 0
164 180 0
163 175 0
160 176 0
157 173 0
165 183 0
165 182 0
163 179 0
165 181 0
170 186 0
160 177 0
180 203 72
183 206 72
183 207 0
181 204 62
178 201 62
176 201 72
179 202 80
177 201 62
177 202 72
177 202 88
179 203 62
172 196 72
176 200 62
177 202 88
176 199 62
175 199 62
179 203 62
179 204 102
171 195 72
174 198 62
173 198 72
175 198 51
179 204 88
176 200 72
176 201 88
172 197 72
172 196 80
173 197 80
174 197 102
177 201 88
175 200 72
172 195 72
174 198 88
175 200 62
174 197 51
177 201 80
171 196 62
176 200 95
173 198 80
174 199 80
171 196 51
173 199 88
172 196 88
175 199 62
172 196 51
176 200 51
170 195 88
176 200 51
174 199 51
170 195 62
169 193 51
175 199 72
173 197 88
175 201 80
176 200 80
173 197 51
176 202 108
176 201 114
173 197 72
173 196 51
161 185 62
175 199 88
174 198 62
171 195 62
168 193 72
174 199 102
166 189 36
171 193 36
167 192 95
172 195 62
172 195 62
170 195 36
170 193 80
172 195 88
166 191 72
173 198 88
166 189 72
173 196 95
170 193 88
173 198 72
172 195 80
167 192 108
166 188 62
171 194 88
167 190 51
170 194 51
172 194 72
168 192 51
167 192 62
176 200 80
143 167 109
93 121 146
84 113 141
85 115 139
92 119 150
96 123 144
100 126 146
101 128 126
101 128 150
77 108 132
98 125 148
105 131 138
91 119 152
105 132 162
98 126 157
95 124 151
115 141 139
87 117 144
97 125 145
92 120 153
89 118 174
85 115 183
83 113 174
69 103 174
89 118 183
80 111 179
68 102 170
61 98 165
61 98 169
62 98 166
61 97 158
60 96 164
63 99 159
58 93 157
62 97 156
61 97 160
60 96 162
65 100 156
59 94 151
60 95 150
59 94 140
60 95 154
64 99 140
70 102 136
60 96 153
59 94 154
61 95 147
60 95 141
60 96 154
59 95 146
60 95 157
61 96 157
60 96 162
60 96 132
61 96 150
61 97 155
60 95 137
60 96 146
61 97 148
61 96 144
61 96 155
61 96 151
59 94 148
61 97 147
62 99 159
59 95 137
61 97 158
62 98 150
61 97 170
61 96 158
60 96 149
59 94 156
62 98 155
61 96 153
61 97 154
61 97 155
60 95 147
61 97 167
60 96 143
60 96 153
61 96 149
60 96 141
62 98 157
62 98 165
62 98 165
62 97 162
61 97 150
61 97 146
63 99 146
62 98 161
61 97 157
61 96 153
61 98 155
61 97 150
61 97 146
62 98 155
61 97 153
63 99 155
62 99 163
62 97 159
63 99 161
60 96 144
61 97 153
62 98 155
61 97 152
60 96 143
62 98 157
60 96 158
61 97 153
62 98 152
63 99 165
62 97 156
61 97 154
63 99 172
63 99 155
64 100 161
62 98 159
63 99 163
61 97 159
62 99 153
62 97 153
60 96 135
61 97 157
61 96 144
61 97 152
63 99 157
62 98 149
61 97 148
62 98 151
63 99 159
62 98 148
60 96 143
61 97 148
62 97 161
62 98 151
62 98 154
62 98 146
61 96 144
62 98 152
62 97 152
60 95 144
62 98 152
62 97 134
60 95 143
63 98 158
62 98 154
61 97 150
61 97 148
61 97 145
60 96 145
62 98 153
61 96 134
61 96 154
61 97 148
60 95 144
62 98 153
61 97 140
61 97 148
59 94 132
61 96 143
62 99 148
61 97 144
62 98 157
61 95 137
63 98 148
62 97 153
62 97 146
60 95 137
60 96 146
61 97 150
62 98 152
62 98 151
62 97 142
61 96 150
61 97 141
60 96 146
61 96 141
61 97 148
60 95 137
61 96 142
62 97 144
61 96 141
62 97 144
59 94 139
60 95 140
62 98 136
62 98 154
60 95 140
59 94 126
60 94 140
61 95 153
61 95 140
59 92 132
58 93 136
59 93 131
58 91 129
58 92 134
70 91 98
132 144 0
122 129 0
114 127 0
108 116 0
120 128 0
130 139 0
116 125 0
136 144 0
121 126 0
125 131 0
134 138 0
131 142 0
119 126 0
139 141 0
142 150 0
120 129 0
120 126 0
136 147 0
128 132 0
125 135 0
113 122 0
124 128 0
118 125 0
125 134 0
128 136 0
140 149 0
135 144 0
134 145 0
138 147 0
145 154 0
130 137 0
134 141 0
141 147 0
139 149 0
141 152 0
133 139 0
134 140 0
136 145 0
140 143 0
145 155 0
143 149 0
139 147 0
148 158 0
145 157 0
140 151 0
130 139 0
146 155 0
138 147 0
137 149 0
142 153 0
147 161 0
156 169 0
144 153 0
140 148 0
155 164 0
153 162 0
140 148 0
151 166 0
154 163 0
153 162 0
159 172 0
156 172 0
159 174 0
145 158 0
151 162 0
159 173 0
154 169 0
153 161 0
163 180 0
153 167 0
162 177 0
159 174 0
154 167 0
155 169 0
155 166 0
162 179 0
154 167 0
153 167 0
162 178 0
154 167 0
155 169 0
151 165 0
147 160 0
157 174 0
163 178 0
159 177 0
155 169 0
159 175 0
167 184 0
169 186 0
158 170 0
161 176 0
172 187 0
165 184 0
158 174 0
161 174 0
163 179 0
165 182 0
161 178 0
167 183 0
158 174 0
165 180 0
167 184 0
162 179 0
167 185 0
169 186 0
159 178 0
167 187 0
174 194 0
167 186 0
170 191 0
166 184 0
180 203 36
178 202 72
177 202 62
181 205 80
175 200 62
176 199 62
177 202 108
172 197 36
176 200 72
173 197 51
179 203 72
173 196 62
177 201 51
177 202 102
174 199 72
173 198 72
176 201 72
175 200 80
174 198 36
175 199 62
175 201 95
177 202 95
171 197 95
178 203 102
174 199 88
174 198 51
171 196 72
177 201 80
178 202 88
173 196 51
177 202 80
174 197 88
174 200 95
176 201 95
171 196 62
172 196 0
172 196 95
172 196 62
168 193 88
178 203 102
176 201 114
170 195 72
182 206 102
177 202 80
176 202 108
167 191 51
177 200 88
170 194 72
170 195 95
172 196 62
168 192 62
174 199 72
173 198 62
171 197 95
178 202 102
174 198 80
171 196 51
169 194 51
171 195 62
173 197 0
170 195 51
170 194 95
175 200 80
172 197 80
178 201 72
173 197 62
169 193 72
172 197 102
175 199 62
165 189 88
174 197 72
177 201 88
175 199 102
175 199 114
171 195 72
170 195 62
160 182 62
174 196 36
175 199 51
167 190 51
170 192 88
175 199 102
170 194 72
173 197 62
173 197 80
172 197 72
174 198 102
169 193 36
169 192 72
175 199 102
174 195 46
85 113 127
74 104 124
70 100 122
92 120 136
97 124 150
101 130 165
99 126 138
97 124 159
110 135 155
98 126 157
112 138 146
89 119 158
104 130 150
105 132 146
98 125 161
114 140 124
98 126 144
82 111 143
88 117 150
90 120 148
88 118 169
72 105 168
68 103 172
63 99 163
84 114 179
85 115 174
67 101 167
60 96 162
63 99 161
63 99 170
62 99 169
61 97 157
62 98 168
61 97 155
60 96 152
59 95 151
63 99 155
60 95 140
60 95 145
65 99 147
65 99 146
69 102 144
60 96 150
63 97 154
65 100 146
58 93 149
61 96 157
58 93 140
60 96 149
58 93 127
60 95 144
59 93 149
61 97 154
61 97 145
61 97 149
61 97 148
60 95 143
60 96 145
62 98 150
60 96 145
60 95 152
58 94 143
60 95 148
61 97 148
62 98 155
62 98 154
61 96 157
60 96 148
62 98 151
61 97 146
62 99 161
60 96 163
61 97 157
61 96 132
61 96 144
62 99 158
62 97 146
61 96 154
61 97 153
61 97 152
63 99 167
62 98 153
62 99 159
62 98 165
62 98 165
61 97 146
60 96 146
60 94 143
60 96 150
61 97 158
62 98 159
62 98 157
62 99 163
60 95 137
60 96 160
63 99 159
61 97 157
62 98 148
61 97 161
61 97 157
61 97 146
61 97 152
62 98 152
60 95 144
62 98 156
61 97 155
62 98 157
60 95 142
61 96 144
61 97 146
63 100 160
61 97 144
61 97 144
63 99 146
63 99 155
62 97 144
60 95 142
60 96 156
61 97 139
61 97 154
62 98 155
61 97 152
60 95 154
62 98 157
60 96 148
61 97 151
62 98 153
61 96 148
62 98 160
62 98 146
63 99 163
61 96 144
60 96 153
62 98 150
61 96 146
61 97 148
62 97 150
61 97 154
62 97 155
61 97 155
61 97 142
61 97 148
60 96 152
63 99 155
62 97 157
62 98 155
59 94 137
63 99 152
61 97 155
62 98 163
62 98 150
63 99 163
62 98 150
61 97 155
61 96 136
62 98 161
61 96 144
62 98 155
62 98 150
62 97 139
61 97 146
62 98 159
60 96 137
59 94 134
63 99 159
62 98 152
62 99 151
61 97 156
62 97 146
58 93 127
62 97 148
61 96 134
61 96 142
62 96 146
64 100 161
62 97 141
61 97 148
61 97 148
61 96 136
60 96 152
62 97 154
63 98 148
61 96 143
60 95 124
63 99 154
61 97 138
61 95 136
59 93 134
59 93 133
61 96 135
59 93 125
60 95 137
56 90 132
59 93 133
57 90 125
54 86 102
103 118 83
128 137 0
123 131 0
130 141 0
128 138 0
120 127 0
126 130 0
142 154 0
130 140 0
137 149 0
138 144 0
129 134 0
128 138 0
124 133 0
128 136 0
136 147 0
125 132 0
109 117 0
125 133 0
123 130 0
151 160 0
131 141 0
129 133 0
132 143 0
134 143 0
147 158 0
120 128 0
135 143 0
138 151 0
152 162 0
134 140 0
130 142 0
145 154 0
140 149 0
142 152 0
124 130 0
123 131 0
154 164 0
145 154 0
139 145 0
126 134 0
140 149 0
136 142 0
137 144 0
139 145 0
132 139 0
137 149 0
138 148 0
144 153 0
162 173 0
152 163 0
148 154 0
151 161 0
157 169 0
157 169 0
153 165 0
149 154 0
162 174 0
147 159 0
141 151 0
150 166 0
152 166 0
161 171 0
154 166 0
160 171 0
160 174 0
157 170 0
153 169 0
167 178 0
159 174 0
165 181 0
161 172 0
160 174 0
155 169 0
157 168 0
152 167 0
154 170 0
155 170 0
154 168 0
160 174 0
160 176 0
163 178 0
156 171 0
163 177 0
161 175 0
163 181 0
163 181 0
158 171 0
168 182 0
163 178 0
151 166 0
166 182 0
165 183 0
163 178 0
172 192 0
163 180 0
159 178 0
165 185 0
151 166 0
160 176 0
161 179 0
159 175 0
161 176 0
160 178 0
166 184 0
166 186 0
169 188 0
164 181 0
160 179 0
154 170 0
172 191 0
161 178 0
164 183 0
180 204 80
178 202 72
177 201 62
172 197 62
180 204 95
178 203 80
178 202 95
170 195 80
175 199 36
175 200 62
177 201 88
171 197 80
175 200 62
175 200 88
179 203 95
176 199 36
174 199 51
180 203 80
175 199 72
178 202 51
175 199 62
172 196 72
173 197 80
174 198 88
176 201 72
178 202 72
171 196 51
172 197 80
174 198 72
176 199 72
174 199 62
167 192 62
174 198 62
180 203 80
169 193 51
172 195 80
180 205 95
178 201 72
173 197 62
171 195 72
174 199 102
170 195 72
178 202 51
170 195 72
173 198 88
170 195 88
172 196 62
174 199 72
173 199 95
174 199 88
167 191 62
170 194 80
175 198 51
177 200 72
170 196 72
172 198 80
180 202 51
174 198 51
178 202 88
171 195 72
171 195 80
175 201 80
176 198 80
173 197 62
176 200 72
176 201 95
170 195 80
170 194 62
175 198 51
172 195 51
162 187 36
172 194 95
173 196 72
169 193 51
169 193 72
171 195 88
173 196 102
174 197 88
173 196 62
169 191 80
173 196 80
168 192 72
175 198 102
173 196 80
178 201 88
175 198 72
170 194 80
174 196 51
177 200 80
168 191 62
173 197 108
129 153 102
84 111 126
87 116 145
80 109 131
102 129 147
100 127 154
95 123 128
98 126 139
106 131 130
104 130 129
112 137 150
96 124 151
100 127 145
88 118 142
92 120 141
90 119 136
93 123 139
105 130 130
80 111 164
88 117 139
91 120 161
71 105 172
62 98 163
73 106 171
80 112 176
68 101 158
68 102 164
60 96 156
60 96 164
60 96 155
61 97 151
63 99 168
67 102 167
59 95 140
59 94 153
61 96 154
61 98 157
61 97 161
61 97 161
62 98 153
61 96 157
67 100 142
68 102 151
70 103 135
59 94 154
64 98 150
59 93 144
64 97 143
62 97 139
59 94 143
61 97 158
60 96 145
60 95 148
59 94 152
60 96 144
59 94 154
61 97 161
60 96 146
60 96 153
61 97 149
61 97 151
60 95 152
61 97 152
60 96 157
61 97 157
60 96 156
62 98 161
61 97 148
60 97 148
61 97 160
62 98 161
62 97 152
59 94 135
61 96 141
63 99 163
61 97 143
62 98 163
61 97 149
62 98 157
62 98 152
63 99 161
62 98 152
61 97 154
62 98 139
62 98 159
62 98 159
61 97 148
61 97 157
60 96 159
61 96 155
61 96 151
63 99 160
62 98 157
62 97 160
61 97 149
61 97 141
62 98 148
62 98 152
63 99 159
61 97 143
62 98 153
61 96 142
60 96 143
62 98 154
62 98 160
63 98 150
61 97 148
62 97 159
62 98 159
61 97 148
62 98 161
61 97 152
63 99 150
60 96 142
63 100 153
61 97 148
62 98 146
62 98 159
62 98 163
63 99 167
61 97 152
63 98 157
63 99 148
62 98 148
61 97 144
61 97 148
62 98 146
62 98 155
61 96 148
63 99 155
61 98 153
62 97 144
61 97 152
61 98 146
61 96 144
62 98 153
63 99 156
60 96 141
62 98 161
62 97 161
62 98 157
61 96 150
61 97 144
63 99 157
61 97 144
61 97 148
62 97 153
61 97 156
61 97 150
62 98 159
61 96 150
60 96 144
62 98 154
61 97 134
60 95 139
62 98 150
63 98 146
63 98 159
61 97 153
63 100 150
60 95 139
61 97 146
60 95 142
62 99 151
63 98 144
63 99 159
62 97 146
62 97 139
61 95 143
63 98 161
62 97 142
62 99 155
63 98 151
62 98 146
64 99 146
62 98 146
61 96 139
60 94 139
60 95 136
61 97 139
60 96 144
61 97 134
60 95 137
61 96 143
61 95 137
62 98 138
61 96 134
60 94 138
60 94 131
58 91 128
59 92 130
59 94 129
57 91 131
56 88 110
57 91 116
59 88 124
127 138 21
119 133 0
114 125 0
134 144 0
107 117 0
125 138 0
132 143 0
124 132 0
126 140 0
130 137 0
134 144 0
138 144 0
129 134 0
133 143 0
122 131 0
138 145 0
135 142 0
124 135 0
151 160 0
144 155 0
136 136 0
128 143 0
117 125 0
137 150 0
135 143 0
135 143 0
131 141 0
140 148 0
122 131 0
149 160 0
142 151 0
149 159 0
137 148 0
130 137 0
127 136 0
143 153 0
141 152 0
146 154 0
139 146 0
130 141 0
138 147 0
161 177 0
142 155 0
136 144 0
136 145 0
137 149 0
149 158 0
154 164 0
137 146 0
139 151 0
142 155 0
120 129 0
151 160 0
149 159 0
146 155 0
155 167 0
143 154 0
149 159 0
150 162 0
145 159 0
138 153 0
148 160 0
152 166 0
148 159 0
159 172 0
153 163 0
156 171 0
153 167 0
158 173 0
155 168 0
162 173 0
157 169 0
151 164 0
159 172 0
149 164 0
160 171 0
156 171 0
158 172 0
164 177 0
163 178 0
154 166 0
163 179 0
161 176 0
154 168 0
166 183 0
165 184 0
164 182 0
174 191 0
161 177 0
171 186 0
153 168 0
162 179 0
162 178 0
165 182 0
173 189 0
160 176 0
163 176 0
160 178 0
171 189 0
162 179 0
165 181 0
157 173 0
162 178 0
165 183 0
166 183 0
170 188 0
167 183 0
165 183 0
166 186 0
165 186 0
165 183 0
167 187 0
164 182 0
176 201 95
177 201 51
178 202 62
174 198 62
179 203 62
176 201 72
181 205 88
176 200 95
178 202 62
177 200 62
178 203 72
176 199 0
176 200 102
177 202 88
176 200 72
178 203 72
171 195 72
176 202 108
174 198 51
174 199 108
175 201 88
173 198 51
176 200 62
171 195 72
173 197 80
173 198 51
174 199 72
164 188 80
172 196 51
171 197 80
181 204 72
172 198 62
179 204 102
175 199 51
179 203 102
171 195 51
175 201 102
174 198 51
171 196 95
173 198 80
169 193 72
174 198 102
178 200 0
169 194 80
170 194 62
174 199 102
174 199 80
176 200 72
171 196 51
176 198 62
169 193 62
170 193 80
176 199 51
172 196 51
166 190 36
171 196 51
170 193 36
175 200 72
169 194 95
167 191 51
174 197 36
170 195 62
173 198 72
169 193 95
173 196 51
171 195 72
174 198 72
175 198 72
170 194 62
170 192 80
170 194 88
171 195 72
170 193 72
169 194 80
168 192 62
167 191 114
168 191 72
169 191 36
168 190 72
173 196 72
173 195 62
175 199 72
168 191 88
168 192 88
156 179 62
169 194 88
165 190 62
170 193 62
165 187 72
164 187 88
169 193 80
162 185 48
86 114 142
89 117 142
93 118 124
90 118 133
95 122 140
91 119 151
94 122 133
108 133 166
95 123 134
90 118 128
100 126 141
107 133 154
95 121 153
104 132 147
106 133 145
93 121 132
92 120 150
88 117 147
108 132 146
88 116 153
102 129 165
88 118 175
85 116 174
68 102 160
74 106 159
80 110 168
68 102 172
63 99 168
63 100 159
60 96 157
62 98 172
66 100 144
62 98 162
61 97 148
61 96 148
61 98 157
62 97 156
60 96 156
61 97 156
60 96 149
61 97 150
59 94 142
64 98 145
67 99 150
58 93 145
66 100 149
67 99 133
58 92 131
60 96 136
60 96 144
59 95 142
60 95 146
60 96 149
60 96 142
59 94 145
62 98 147
59 94 158
60 95 143
60 96 143
61 96 149
60 96 151
61 97 155
59 94 149
59 95 153
60 95 143
59 93 140
62 98 150
61 97 165
60 96 150
59 94 129
61 96 156
60 95 148
62 98 157
61 98 153
62 98 151
62 99 165
61 96 146
62 98 159
61 98 157
61 97 148
61 96 142
61 96 141
61 97 150
61 97 150
61 97 152
61 97 141
61 97 143
62 98 158
61 97 153
61 97 151
61 97 153
60 96 137
62 98 161
61 97 157
62 98 153
62 98 161
62 98 157
61 96 143
64 99 159
62 98 150
62 98 155
62 98 155
64 100 152
62 98 157
60 95 143
61 96 139
62 98 159
64 100 169
62 98 163
62 98 154
61 97 152
63 99 156
60 95 153
62 97 148
61 97 148
61 97 150
62 98 153
62 98 155
60 96 137
62 98 163
61 97 146
61 97 150
62 98 157
62 97 155
60 95 144
64 99 154
61 97 144
60 96 149
62 98 156
61 96 142
61 97 142
61 97 148
63 99 157
63 99 148
61 97 148
61 97 141
62 98 155
61 96 129
62 98 151
61 96 151
60 96 148
61 96 149
62 97 149
62 98 161
61 97 148
60 95 157
62 97 143
60 96 137
62 98 157
62 97 150
62 98 143
61 97 149
60 95 139
60 96 148
63 99 161
61 96 148
62 97 139
63 98 151
61 97 151
62 97 150
63 99 144
61 96 141
61 95 144
62 98 148
61 97 144
61 97 146
61 97 139
61 97 139
62 98 152
64 100 157
62 98 148
58 91 132
59 93 139
60 96 144
60 95 137
60 95 124
62 97 134
60 94 139
60 95 138
62 98 141
60 94 132
62 97 144
62 97 143
60 95 133
60 94 137
60 95 128
58 91 116
60 95 133
60 95 141
57 90 127
58 92 127
58 92 126
58 92 132
56 88 118
87 104 84
115 125 0
121 132 0
126 134 0
124 132 0
123 135 0
119 131 0
139 150 0
120 130 0
119 126 0
120 131 0
123 129 0
140 147 0
132 139 0
133 142 0
135 146 0
144 154 0
137 147 0
119 126 0
131 137 0
135 146 0
137 148 0
131 143 0
145 151 0
135 143 0
137 144 0
130 141 0
130 141 0
136 143 0
135 146 0
132 144 0
132 141 0
128 140 0
138 143 0
141 148 0
151 159 0
148 155 0
143 153 0
138 150 0
145 157 0
146 154 0
147 153 0
147 161 0
148 155 0
149 159 0
145 153 0
143 153 0
155 166 0
147 155 0
150 161 0
148 160 0
145 155 0
144 154 0
129 137 0
148 157 0
150 163 0
149 157 0
162 173 0
155 169 0
154 168 0
159 172 0
149 158 0
152 166 0
157 173 0
158 173 0
159 174 0
150 162 0
150 161 0
160 172 0
154 167 0
151 163 0
151 165 0
154 168 0
154 166 0
164 179 0
153 167 0
158 173 0
155 172 0
156 173 0
166 183 0
167 184 0
156 171 0
151 167 0
157 173 0
157 171 0
165 183 0
161 178 0
156 171 0
161 178 0
157 176 0
161 177 0
167 184 0
161 179 0
169 185 0
156 171 0
170 187 0
161 180 0
168 181 0
171 189 0
157 177 0
173 191 0
165 183 0
167 186 0
164 182 0
162 176 0
169 186 0
166 185 0
169 188 0
164 179 0
167 189 0
171 191 0
170 189 0
161 180 0
159 176 0
178 203 72
179 203 88
174 198 80
178 201 36
172 197 72
175 198 36
175 199 80
177 201 51
174 198 51
172 197 80
174 199 72
168 193 88
178 202 62
177 200 62
176 200 62
175 200 88
181 205 125
172 197 95
175 199 62
173 197 62
174 200 95
172 196 88
171 197 72
177 201 80
177 202 108
178 203 102
176 201 88
173 198 51
171 197 72
176 201 88
164 189 72
176 200 80
175 199 72
174 197 51
176 200 72
171 195 80
170 194 62
175 199 80
178 202 62
166 191 80
172 196 62
170 194 72
168 192 62
171 196 88
173 198 80
174 199 102
173 197 88
176 200 88
172 196 72
174 198 88
171 195 51
173 197 36
173 198 95
174 198 62
171 195 62
162 185 62
161 185 51
172 198 95
166 189 36
174 199 80
170 194 72
169 193 36
176 199 51
170 195 108
168 192 80
170 194 62
169 193 62
163 187 72
173 197 51
162 187 62
170 195 72
168 192 80
174 198 120
171 195 72
167 190 72
178 202 88
172 199 95
168 190 88
167 190 72
169 191 72
174 197 88
169 194 102
167 190 51
167 189 62
171 194 51
176 200 102
171 194 72
171 195 51
171 194 72
169 192 62
167 189 114
162 183 62
121 144 117
98 123 136
94 121 144
90 118 145
88 116 140
83 113 141
92 119 164
83 111 141
86 114 154
108 133 159
101 128 146
103 129 146
89 118 139
81 111 145
90 118 134
92 121 155
94 122 145
98 126 155
86 116 153
94 123 143
84 114 150
99 127 154
80 111 178
84 114 169
90 118 174
85 115 183
75 107 171
62 98 170
61 97 158
62 98 157
60 96 153
63 99 161
62 98 148
61 96 153
61 97 157
61 96 155
65 99 155
61 97 150
62 98 159
60 96 153
61 97 155
64 99 163
71 103 137
64 98 137
58 93 131
58 93 139
67 101 142
58 92 133
60 96 153
61 97 152
61 96 149
59 94 145
60 96 142
60 96 148
58 93 130
61 96 148
62 99 163
60 95 151
60 96 146
60 95 141
61 96 148
60 96 146
60 96 148
60 95 142
62 98 156
61 96 148
61 97 157
62 98 159
59 94 140
62 98 155
61 96 142
61 96 156
61 97 144
60 96 157
61 97 146
61 98 149
60 96 146
61 96 147
62 98 156
62 98 153
60 96 141
60 96 150
61 98 162
62 99 162
62 97 155
63 99 161
60 95 146
61 97 146
61 96 155
61 97 134
61 97 134
61 97 143
61 97 139
60 96 139
62 98 159
61 97 144
62 99 157
62 99 159
62 98 144
61 97 153
63 99 161
61 97 156
64 100 157
61 97 157
61 97 157
61 98 154
61 97 148
61 97 132
62 98 159
59 95 132
62 98 157
59 95 141
61 96 152
62 98 150
61 97 153
62 99 159
62 98 150
63 99 155
63 98 152
62 98 152
62 98 144
61 97 141
62 98 158
62 98 155
62 98 155
62 97 151
62 98 148
63 99 163
62 97 150
61 97 148
61 97 152
62 98 159
62 97 150
61 97 140
63 99 146
62 98 153
61 97 144
62 97 150
61 97 156
60 96 139
59 95 134
61 96 148
60 96 141
61 96 150
61 96 152
62 97 146
62 97 146
62 98 155
63 99 153
63 99 159
62 98 161
61 97 152
62 98 146
61 97 144
62 98 149
62 98 151
62 97 148
62 97 146
62 98 148
62 97 139
61 97 144
62 97 146
61 97 146
62 98 151
63 99 155
61 96 135
61 97 139
61 97 137
62 97 158
62 97 148
62 97 141
61 97 141
61 96 135
61 96 141
62 97 157
60 95 141
61 96 142
60 94 143
60 95 124
60 96 139
59 94 137
60 95 140
61 97 147
60 95 124
61 96 143
59 94 126
58 93 115
59 93 131
59 94 125
59 93 129
59 93 134
56 89 110
58 91 129
53 85 114
101 113 55
120 130 0
119 130 0
132 140 0
130 142 0
124 135 0
126 135 0
130 143 0
138 154 0
138 145 0
141 153 0
144 153 0
136 144 0
136 146 0
119 130 0
126 136 0
135 145 0
135 146 0
142 151 0
138 147 0
140 151 0
140 150 0
134 141 0
125 134 0
138 147 0
127 138 0
134 144 0
131 139 0
136 149 0
144 150 0
130 141 0
155 167 0
143 156 0
118 125 0
136 144 0
139 152 0
151 161 0
141 154 0
149 159 0
130 141 0
137 147 0
147 156 0
143 155 0
137 149 0
142 150 0
140 153 0
154 165 0
155 165 0
151 160 0
146 156 0
144 154 0
163 175 0
145 158 0
141 152 0
141 150 0
149 161 0
161 176 0
148 162 0
141 156 0
145 154 0
151 156 0
151 164 0
152 162 0
160 175 0
151 165 0
153 167 0
152 163 0
160 175 0
154 170 0
151 167 0
153 165 0
159 173 0
163 178 0
152 168 0
158 174 0
151 164 0
148 161 0
162 178 0
164 179 0
155 166 0
162 180 0
158 173 0
155 169 0
159 177 0
157 172 0
153 170 0
159 173 0
154 166 0
159 173 0
160 176 0
154 168 0
173 191 0
163 181 0
165 183 0
161 175 0
165 181 0
161 180 0
163 178 0
160 175 0
165 183 0
163 181 0
157 176 0
167 185 0
165 183 0
165 183 0
162 181 0
164 178 0
162 179 0
170 191 0
167 189 0
172 191 0
160 176 0
153 170 0
171 189 0
177 201 80
177 201 88
174 198 80
174 198 62
176 200 62
175 199 72
178 203 36
175 198 72
182 206 88
172 196 62
173 197 51
177 201 51
177 202 88
178 202 62
177 202 102
174 198 51
170 194 36
169 195 95
180 204 80
174 199 80
168 193 62
174 199 51
173 197 88
173 198 51
183 207 80
172 196 62
176 200 62
179 203 88
172 197 88
172 195 72
171 195 88
174 197 51
172 196 51
173 198 80
172 198 72
169 192 62
173 198 51
174 199 72
170 194 62
174 197 62
175 199 80
174 197 51
173 199 80
176 201 62
172 196 51
169 193 88
170 196 80
175 200 51
171 196 62
168 194 102
173 196 62
174 198 80
171 193 36
173 198 72
175 200 95
173 197 88
169 193 108
170 193 62
173 196 51
174 198 72
174 198 62
171 196 102
172 196 88
177 201 95
172 195 51
165 188 51
170 194 36
172 197 72
172 197 51
168 193 88
170 193 80
169 193 72
167 190 51
170 194 80
168 191 51
168 190 36
164 188 51
171 195 62
176 198 72
170 192 102
176 200 80
163 187 62
168 193 95
169 192 95
164 186 36
176 200 88
166 188 36
168 192 51
176 197 108
163 185 62
162 186 62
172 195 88
154 175 111
103 128 136
96 122 129
84 112 139
86 115 131
102 130 139
104 130 136
83 112 145
96 124 144
88 116 151
96 123 141
96 123 150
93 121 153
105 131 143
96 124 144
93 120 126
95 122 135
109 136 139
104 130 140
75 106 135
81 112 153
80 110 144
87 116 165
74 107 171
80 111 178
69 103 156
75 108 177
74 106 168
61 97 159
62 98 164
62 99 168
60 96 162
61 97 155
60 96 156
60 96 153
62 98 161
59 94 148
59 94 147
66 100 149
61 96 156
60 96 153
60 96 152
62 95 139
73 104 132
66 100 158
62 97 144
65 96 140
68 100 137
64 100 155
60 95 137
61 97 147
60 95 139
60 96 158
58 92 139
60 95 150
59 94 147
61 97 163
58 94 138
59 95 133
59 94 136
59 94 145
59 95 151
60 96 141
60 95 149
61 97 157
61 98 155
61 97 151
61 96 146
60 95 150
60 96 154
60 95 139
62 98 166
60 95 144
61 96 151
61 96 144
61 97 148
61 97 155
61 97 157
61 97 150
62 98 155
61 97 148
61 96 150
62 98 157
62 98 155
62 98 151
62 97 146
64 100 161
61 97 144
61 96 146
61 97 137
63 99 159
61 97 148
60 96 145
61 97 152
61 97 148
62 97 146
62 97 150
61 97 154
60 95 140
61 96 144
62 97 153
62 98 150
61 97 142
61 97 142
62 98 157
60 96 144
63 99 153
60 96 139
60 95 148
62 98 150
62 98 149
61 97 145
62 98 146
62 98 165
63 99 151
62 99 159
62 98 148
61 96 152
61 96 141
62 98 153
61 97 155
60 95 145
62 98 153
60 96 139
64 100 161
62 98 157
61 97 137
62 98 144
62 98 161
62 98 161
62 98 150
61 97 148
63 99 159
63 100 161
61 96 141
61 97 154
61 97 144
60 96 141
62 98 155
61 97 142
62 98 148
62 98 157
60 95 144
62 98 152
61 97 150
60 95 139
62 97 132
61 97 137
60 95 144
60 95 137
63 99 151
60 96 139
61 97 144
63 99 156
62 97 144
61 97 144
61 96 147
62 98 143
61 96 143
62 98 154
59 94 139
62 97 135
61 97 144
61 97 137
62 98 149
61 96 146
59 94 127
62 97 146
62 97 137
62 97 144
60 95 126
61 97 146
62 97 139
61 96 144
64 100 144
62 98 146
62 97 148
62 98 139
59 94 127
60 95 136
61 97 150
60 96 129
62 97 152
60 94 126
59 93 121
59 93 133
59 92 131
60 95 128
59 92 117
61 95 132
58 93 133
58 90 118
55 86 96
79 102 88
118 130 0
127 138 0
125 136 0
123 135 0
127 136 0
134 142 0
106 111 0
109 118 0
111 122 0
113 122 0
124 137 0
130 140 0
135 144 0
139 152 0
133 141 0
141 155 0
130 139 0
129 139 0
137 150 0
125 132 0
118 126 0
129 140 0
130 139 0
132 140 0
149 160 0
137 144 0
147 158 0
144 159 0
126 135 0
141 152 0
143 151 0
144 152 0
148 160 0
140 151 0
149 162 0
129 136 0
153 166 0
143 150 0
144 157 0
153 168 0
154 166 0
135 143 0
144 156 0
140 154 0
141 150 0
147 159 0
131 139 0
144 156 0
154 168 0
150 163 0
148 163 0
141 152 0
137 151 0
157 168 0
152 165 0
158 171 0
158 169 0
147 156 0
157 172 0
157 171 0
146 155 0
159 173 0
154 171 0
153 166 0
161 175 0
156 172 0
153 164 0
156 174 0
152 167 0
151 166 0
157 171 0
163 179 0
153 166 0
162 179 0
156 170 0
156 167 0
162 179 0
158 173 0
157 170 0
160 175 0
143 153 0
149 164 0
161 179 0
157 172 0
163 179 0
154 165 0
148 161 0
157 169 0
160 180 0
161 178 0
162 177 0
164 181 0
162 179 0
162 178 0
166 185 0
160 176 0
163 183 0
165 180 0
166 181 0
167 184 0
161 179 0
169 188 0
163 180 0
166 184 0
158 175 0
166 186 0
164 182 0
170 189 0
158 174 0
171 191 0
171 191 0
158 177 0
155 173 0
168 189 0
178 202 36
168 193 62
178 201 72
177 201 88
176 201 102
177 201 36
174 199 62
173 197 95
175 200 72
173 199 80
175 200 72
180 204 102
175 200 88
174 198 72
177 201 62
173 198 72
173 197 62
172 197 72
170 195 80
171 196 102
172 196 88
169 195 95
171 195 62
175 200 80
178 202 62
177 201 114
178 203 95
172 197 88
176 198 51
174 197 36
172 198 72
171 196 51
170 193 62
174 199 80
174 197 72
175 197 51
171 197 95
173 198 72
168 193 88
169 194 80
165 189 62
169 193 51
173 197 51
175 200 108
174 199 102
176 200 62
177 201 62
177 202 72
166 190 36
170 195 80
169 195 114
174 199 62
175 199 88
169 193 51
175 199 72
173 196 72
179 202 95
170 194 72
177 201 51
172 197 72
168 192 72
175 199 72
176 199 51
174 198 80
175 199 62
175 200 88
171 196 95
171 193 0
174 198 72
172 195 0
167 193 120
168 190 51
162 185 72
168 193 62
167 188 72
168 192 80
163 187 72
177 201 88
167 192 95
170 193 36
157 180 88
173 196 80
162 184 0
174 197 88
166 189 62
175 198 95
166 190 72
157 179 102
168 190 95
170 192 88
172 194 108
162 184 62
158 182 62
109 132 123
90 117 118
91 118 129
109 135 146
103 129 159
90 118 141
82 112 139
107 132 141
77 107 152
101 128 162
100 127 157
108 134 162
105 131 154
101 128 152
101 128 163
104 130 140
102 129 161
119 144 148
105 130 135
88 116 148
93 121 161
96 124 150
83 113 159
62 98 168
84 114 167
85 114 170
62 98 162
61 97 161
61 97 156
61 97 159
61 97 161
61 96 157
59 94 150
61 97 153
65 99 152
61 97 144
60 96 153
61 97 164
62 99 159
57 91 134
59 94 139
62 98 159
71 102 146
61 97 151
68 101 147
63 96 141
63 95 134
69 101 145
59 94 143
59 94 136
59 94 145
60 95 137
60 96 141
60 94 148
61 97 157
59 94 148
61 96 149
58 92 147
60 96 151
62 98 157
60 95 141
61 97 144
60 96 149
61 98 153
61 96 146
61 97 154
60 96 159
61 97 159
60 96 139
61 97 152
61 97 151
60 96 144
61 97 155
61 97 151
63 99 153
61 97 151
61 97 150
62 99 161
61 96 150
62 97 162
61 96 145
61 96 153
61 97 151
61 96 146
62 98 161
60 95 149
61 98 144
60 96 154
61 96 150
62 98 157
62 98 142
60 96 149
60 96 139
62 98 149
61 96 149
62 99 153
63 99 161
60 95 149
60 96 152
60 96 146
62 98 146
63 100 159
63 99 161
63 99 159
60 95 145
61 97 152
62 97 150
63 98 144
63 98 154
62 98 155
59 95 139
61 97 157
62 98 155
62 98 159
63 99 169
62 99 163
61 97 148
63 99 161
62 98 146
63 99 144
62 98 159
63 98 151
61 97 150
63 99 151
61 97 153
62 98 153
63 98 153
61 97 153
61 97 146
62 98 150
63 99 142
62 97 142
61 96 142
62 96 142
62 98 153
61 96 144
60 95 135
62 97 142
62 97 144
61 97 150
61 97 154
62 97 151
60 96 139
60 95 148
61 96 146
62 98 146
62 97 148
63 98 157
62 97 137
62 97 140
61 97 153
62 97 144
61 97 143
60 96 152
63 99 150
63 100 150
61 97 139
60 95 142
63 99 162
62 98 150
60 96 146
60 95 144
62 97 152
62 97 145
62 98 142
62 97 144
62 98 142
61 97 132
62 98 141
61 96 136
60 94 137
62 97 136
62 97 138
60 95 141
62 97 134
61 96 146
62 97 146
61 97 136
60 96 132
59 94 119
63 98 156
61 96 145
59 94 113
60 95 131
59 94 131
60 95 142
60 94 140
57 90 125
58 92 136
59 92 124
55 87 104
57 90 136
82 97 69
108 119 0
125 134 0
129 141 0
112 120 0
115 128 0
133 142 0
135 148 0
132 146 0
117 131 0
127 136 0
121 128 0
135 148 0
125 132 0
119 130 0
128 139 0
141 150 0
136 146 0
146 157 0
148 159 0
128 137 0
145 153 0
143 156 0
136 147 0
154 167 0
130 140 0
123 132 0
141 153 0
141 154 0
118 125 0
139 149 0
146 157 0
124 135 0
126 133 0
148 159 0
145 157 0
134 142 0
149 157 0
142 158 0
139 147 0
150 161 0
143 154 0
150 164 0
145 158 0
137 146 0
156 167 0
147 159 0
147 160 0
151 163 0
153 163 0
149 162 0
137 146 0
161 175 0
149 164 0
155 165 0
147 161 0
153 165 0
160 174 0
158 170 0
152 166 0
152 166 0
157 170 0
142 156 0
158 171 0
158 170 0
157 173 0
152 165 0
150 164 0
157 172 0
156 168 0
153 168 0
155 168 0
163 175 0
161 177 0
150 163 0
158 174 0
151 164 0
155 171 0
161 176 0
160 175 0
157 170 0
164 182 0
165 184 0
163 177 0
162 182 0
156 173 0
164 179 0
165 180 0
161 177 0
147 164 0
162 178 0
168 185 0
170 186 0
167 184 0
162 178 0
162 179 0
163 181 0
165 184 0
164 183 0
161 175 0
161 180 0
157 175 0
163 182 0
162 181 0
164 181 0
159 178 0
164 182 0
160 180 0
153 171 0
161 173 0
168 187 0
163 179 0
162 184 0
160 178 0
164 183 0
179 203 95
173 198 62
176 200 72
170 194 62
175 199 51
178 202 72
176 200 36
176 200 51
173 198 62
174 199 72
180 205 95
173 198 72
176 200 88
174 198 62
174 198 72
177 201 62
172 196 72
171 195 62
172 196 72
176 201 51
169 194 62
177 201 72
171 196 80
170 195 88
179 203 51
173 198 80
171 195 80
167 191 51
168 193 102
174 199 62
173 197 62
172 196 62
173 197 80
167 191 88
168 192 80
173 199 88
173 197 51
171 195 51
172 196 62
169 193 51
170 194 62
174 198 36
175 200 88
172 197 72
165 189 62
171 197 88
172 198 62
163 189 80
170 195 62
168 193 80
169 192 72
166 191 95
171 195 72
164 188 62
173 198 80
171 195 72
169 193 62
174 199 51
166 191 62
157 181 51
169 193 62
174 198 95
168 192 62
172 196 88
173 198 88
166 190 95
168 194 80
167 191 36
175 197 51
169 192 72
169 193 62
165 187 80
166 189 62
173 195 51
169 192 51
173 198 95
170 194 72
164 190 88
169 193 102
173 196 51
169 192 36
169 192 72
168 191 80
162 184 51
168 190 62
169 191 80
163 186 80
168 192 62
159 183 80
164 187 36
162 183 51
165 189 72
165 188 62
149 171 93
105 130 135
87 115 144
92 119 134
111 136 132
95 122 146
92 120 142
85 115 141
95 122 131
94 121 161
84 113 150
113 137 163
103 130 137
87 114 136
81 110 146
93 123 139
88 116 147
109 135 135
111 137 130
111 135 145
113 138 158
91 119 161
92 120 137
66 100 165
69 103 160
85 115 174
61 97 166
70 105 167
61 97 157
63 100 163
62 99 160
62 99 171
62 98 162
60 97 160
60 95 148
61 96 155
60 96 159
61 96 151
59 95 156
62 97 159
66 100 149
58 93 146
64 98 144
61 95 125
68 101 148
64 97 143
63 97 132
63 96 141
59 94 151
57 90 120
57 91 140
58 93 134
60 95 143
58 93 146
60 95 152
58 92 135
61 96 141
59 94 146
62 98 158
61 96 152
61 96 129
59 93 142
61 98 158
61 97 144
58 94 130
61 97 155
62 97 155
61 97 151
61 98 146
60 95 139
59 94 145
61 97 155
61 97 155
61 96 149
61 97 148
61 97 153
62 98 156
61 97 144
59 94 144
62 97 146
61 98 152
61 97 146
62 98 150
62 98 155
62 98 153
59 94 147
61 96 151
60 96 149
62 98 148
61 96 144
62 98 155
63 99 139
62 98 161
62 98 150
60 96 153
61 97 144
59 94 138
62 98 148
62 98 157
61 97 155
60 96 137
61 97 152
60 96 148
61 96 146
61 97 161
60 95 141
61 97 144
62 98 155
62 98 154
61 96 150
61 97 152
61 96 145
62 98 149
63 99 159
61 96 153
62 99 146
59 95 152
63 99 162
62 98 156
63 99 146
61 96 156
61 97 146
61 97 152
61 96 146
63 99 161
63 98 155
62 99 156
62 97 152
61 97 137
60 96 144
62 97 148
62 98 144
61 97 150
61 96 150
61 97 147
65 101 163
61 96 132
62 97 148
62 98 152
62 98 153
60 96 156
62 98 150
61 97 154
63 99 153
61 96 142
61 97 152
62 98 148
62 98 152
62 97 146
62 98 159
61 96 131
61 96 139
62 97 146
61 97 146
61 96 137
61 97 139
61 96 152
62 98 154
61 97 156
61 96 146
62 98 161
62 97 146
61 97 146
62 97 144
60 95 139
61 96 138
61 97 148
61 96 136
61 96 130
59 94 139
60 95 139
60 96 137
61 96 136
61 97 141
61 97 141
61 97 132
61 96 138
60 94 137
62 97 136
59 94 136
60 96 131
60 95 136
62 98 152
60 95 123
60 94 138
60 95 144
59 94 137
60 94 134
56 89 124
57 90 129
56 88 102
58 85 120
129 143 23
120 131 0
132 146 0
125 139 0
105 115 0
136 148 0
120 130 0
138 152 0
125 134 0
127 135 0
135 148 0
137 147 0
126 137 0
141 151 0
118 126 0
131 144 0
139 149 0
143 156 0
136 148 0
127 138 0
114 125 0
148 158 0
144 158 0
142 152 0
123 132 0
137 150 0
128 138 0
135 148 0
138 149 0
127 136 0
135 145 0
129 137 0
131 141 0
137 149 0
136 144 0
138 148 0
138 149 0
148 161 0
136 145 0
135 145 0
139 150 0
138 150 0
133 145 0
146 156 0
156 167 0
143 157 0
141 151 0
140 150 0
154 168 0
133 142 0
155 168 0
151 161 0
150 161 0
154 166 0
152 168 0
159 169 0
154 167 0
148 161 0
152 162 0
151 162 0
154 167 0
153 168 0
153 168 0
143 158 0
152 166 0
155 168 0
143 154 0
166 181 0
151 164 0
159 172 0
149 163 0
151 164 0
156 172 0
162 176 0
155 171 0
153 168 0
156 167 0
157 170 0
159 172 0
166 184 0
157 172 0
158 172 0
160 177 0
168 185 0
150 165 0
162 175 0
160 177 0
157 174 0
159 177 0
158 172 0
153 169 0
163 179 0
160 178 0
158 175 0
169 186 0
166 186 0
161 175 0
166 187 0
166 185 0
159 179 0
161 179 0
160 178 0
159 177 0
158 176 0
163 179 0
155 169 0
169 188 0
164 181 0
167 187 0
162 179 0
172 188 0
158 175 0
165 182 0
162 181 0
167 186 0
179 203 72
180 203 72
174 199 95
177 201 72
177 201 62
178 203 95
177 202 72
175 198 62
175 200 72
180 203 62
175 199 80
179 202 0
173 198 88
180 203 62
175 199 72
176 199 62
176 201 80
177 201 72
175 200 80
173 196 51
174 198 62
175 199 62
171 196 51
172 197 62
176 201 88
176 200 72
172 197 80
168 194 80
174 198 80
171 196 72
169 195 80
170 196 95
171 194 72
175 201 80
173 197 80
175 198 72
172 196 62
170 195 88
173 197 62
168 193 80
175 198 80
171 196 72
171 195 36
175 199 80
166 191 88
168 192 51
168 190 80
174 198 72
173 196 0
174 199 88
174 198 72
171 195 80
177 200 62
166 190 51
173 197 51
163 188 80
171 195 62
175 199 114
169 191 36
163 188 72
172 196 62
177 200 80
172 196 51
173 197 88
164 188 51
167 190 95
167 191 102
173 198 62
169 193 36
165 188 62
164 188 62
166 190 80
171 196 62
175 198 62
169 192 62
170 193 72
172 196 102
164 187 62
173 197 102
176 199 80
166 188 80
171 195 80
168 191 36
175 197 51
169 192 62
159 182 62
154 177 80
167 191 62
171 194 72
170 192 72
165 188 88
159 182 62
164 186 80
168 191 108
113 137 125
96 122 138
90 118 138
88 116 139
82 111 138
107 132 132
94 122 144
94 121 146
105 130 145
73 104 143
101 127 149
92 119 132
99 125 145
87 116 142
103 130 157
79 109 149
82 111 148
97 124 146
100 127 144
78 108 148
83 113 142
87 116 157
79 110 152
75 107 171
73 105 161
80 112 174
74 106 165
68 101 157
62 98 159
62 99 169
61 96 154
61 97 154
59 95 154
62 98 166
62 98 163
59 93 136
61 97 152
62 98 149
60 96 143
60 95 154
60 96 159
58 93 143
58 93 139
60 95 133
66 100 149
60 95 130
64 97 143
65 98 144
58 92 138
62 97 153
61 96 148
60 95 137
59 95 144
60 95 139
62 97 146
60 96 144
61 97 152
59 94 138
56 89 127
60 95 147
59 93 140
60 96 144
60 95 148
59 94 145
60 96 137
62 98 155
60 94 150
60 95 140
61 98 146
62 98 161
61 97 148
60 96 150
60 95 136
62 98 157
62 98 152
61 97 157
62 98 150
61 97 157
62 98 153
61 97 148
62 98 150
60 95 139
63 99 153
61 97 155
59 95 146
61 97 156
61 97 156
60 96 148
62 97 149
64 100 152
62 98 153
60 95 150
61 97 157
63 99 153
60 95 138
60 96 143
61 97 148
61 97 134
61 97 135
62 98 153
61 97 154
60 95 139
62 97 151
62 98 136
62 98 152
59 93 129
62 97 150
62 98 141
62 97 142
62 97 149
61 97 154
62 98 151
60 95 132
62 98 148
62 98 155
60 94 148
63 98 150
61 96 144
60 96 145
63 99 158
61 96 145
62 97 152
61 97 144
62 98 161
62 97 148
61 97 150
63 99 148
62 97 146
61 97 153
62 98 159
61 97 150
60 96 144
61 97 157
62 98 146
62 97 148
62 97 150
60 96 146
61 96 137
62 97 157
62 98 148
60 95 137
63 98 161
62 98 150
60 96 127
61 96 132
62 98 151
62 98 146
63 99 155
61 97 150
63 98 143
61 98 137
61 98 135
60 96 135
60 95 124
61 97 155
62 98 144
60 95 140
63 99 132
63 99 156
61 97 150
61 95 150
62 98 152
61 97 146
62 98 154
61 96 127
61 96 148
62 97 152
59 94 136
59 93 124
61 96 141
61 96 146
61 96 134
59 94 144
61 97 138
60 95 133
60 95 154
62 97 152
61 96 126
61 96 138
60 94 127
62 97 154
59 94 136
59 93 118
60 95 138
58 92 126
60 94 141
58 91 112
56 89 111
57 90 128
56 88 116
101 120 85
135 146 0
129 141 0
127 141 0
131 140 0
118 131 0
127 136 0
130 140 0
119 130 0
121 132 0
136 149 0
126 138 0
146 159 0
128 137 0
144 155 0
129 145 0
127 137 0
139 150 0
124 131 0
120 129 0
140 152 0
139 152 0
119 130 0
131 140 0
137 149 0
136 147 0
126 136 0
132 143 0
142 153 0
142 150 0
158 167 0
142 149 0
121 132 0
140 152 0
143 159 0
145 157 0
135 144 0
131 145 0
153 167 0
138 148 0
141 153 0
155 168 0
153 165 0
137 148 0
142 153 0
144 159 0
145 156 0
144 155 0
145 159 0
154 166 0
141 154 0
153 167 0
145 153 0
133 142 0
148 162 0
141 152 0
156 171 0
147 162 0
159 171 0
152 166 0
144 157 0
149 164 0
147 161 0
149 162 0
147 161 0
153 166 0
161 176 0
150 164 0
156 171 0
158 175 0
151 164 0
149 164 0
150 158 0
146 158 0
157 172 0
158 176 0
160 178 0
158 172 0
157 171 0
160 174 0
149 163 0
159 170 0
166 181 0
161 178 0
161 175 0
161 180 0
173 188 0
171 186 0
164 179 0
167 182 0
171 190 0
157 173 0
159 176 0
157 174 0
167 185 0
162 179 0
165 186 0
164 181 0
164 180 0
165 183 0
164 179 0
167 184 0
162 181 0
168 186 0
165 182 0
160 176 0
166 183 0
165 183 0
163 182 0
170 188 0
172 191 0
159 180 0
169 189 0
163 178 0
172 191 0
167 187 0
172 197 51
174 198 51
176 201 88
173 196 51
166 188 36
177 200 88
175 199 72
178 202 62
176 201 102
183 206 80
172 197 80
178 203 80
167 193 51
177 202 80
177 201 51
171 195 72
175 199 80
174 199 51
173 198 95
171 194 72
175 200 88
173 197 62
174 199 88
178 203 80
172 196 88
168 191 51
175 201 88
173 199 114
176 201 95
175 199 51
171 195 62
176 199 62
174 199 62
177 203 88
174 199 62
177 200 62
177 202 102
170 194 0
170 195 88
169 192 62
170 195 108
172 196 80
173 198 80
173 197 62
176 201 102
169 195 88
173 197 72
171 195 36
179 202 51
177 201 62
167 192 88
174 198 62
171 197 80
172 196 80
172 196 51
171 196 80
174 198 62
173 196 80
165 189 72
169 193 80
168 192 72
175 200 80
173 197 102
173 197 36
166 190 88
176 200 95
165 190 72
175 199 80
172 195 72
168 191 88
172 197 80
169 193 51
167 191 88
175 199 51
165 188 95
173 197 62
166 190 72
166 191 72
171 196 51
166 190 62
172 195 72
167 190 80
164 187 51
166 189 51
166 189 62
172 194 62
167 190 72
163 185 51
150 173 62
170 192 51
172 195 95
161 184 36
166 190 51
173 197 95
156 180 100
91 116 126
81 110 130
91 119 136
79 108 138
102 129 154
113 138 157
106 132 159
105 129 152
83 110 131
92 119 137
84 113 143
100 126 143
95 121 158
83 112 150
95 121 124
98 126 152
102 129 136
89 116 135
117 143 148
91 119 148
93 120 139
106 131 138
77 108 149
62 99 167
61 98 159
67 102 170
74 106 165
61 98 165
61 98 157
61 96 152
61 96 153
62 98 161
61 96 152
60 95 141
66 101 159
60 96 150
61 98 162
62 99 163
59 94 138
58 92 131
58 94 135
61 97 151
69 102 143
63 97 141
67 99 135
60 95 137
62 95 123
60 94 132
60 96 135
60 95 135
60 95 143
60 95 137
61 96 137
58 93 148
60 95 148
59 93 143
60 96 151
60 95 141
62 98 148
61 98 153
61 97 153
61 96 153
60 96 140
61 96 155
62 98 142
60 96 150
61 96 146
59 95 148
60 96 141
61 97 148
60 95 151
61 97 147
61 97 144
60 95 141
62 99 153
60 96 141
60 96 143
62 98 144
60 94 146
62 97 159
62 98 153
60 95 136
62 98 158
61 97 158
61 97 152
62 98 148
60 96 146
62 98 150
61 96 148
60 96 142
62 98 152
61 96 146
61 97 132
61 96 150
60 95 143
61 97 148
61 96 152
61 96 139
62 98 144
62 98 157
62 98 144
61 97 153
61 96 153
61 97 155
62 97 134
61 96 141
63 99 150
62 97 157
61 96 146
63 98 157
62 98 146
62 98 154
61 97 152
61 97 159
61 97 152
61 97 152
62 98 146
62 97 159
63 98 153
62 98 153
63 99 162
62 97 146
60 96 143
61 96 148
61 97 148
60 96 151
61 97 139
61 97 143
61 97 139
60 96 137
63 99 163
61 97 145
62 97 150
61 96 129
61 97 155
62 98 144
62 98 146
62 98 155
62 98 142
61 96 144
62 98 148
60 96 137
62 97 146
64 100 159
64 100 161
63 99 158
61 97 148
62 97 146
62 97 151
60 95 135
62 97 155
61 97 151
61 96 137
61 96 137
63 98 155
63 99 152
62 98 146
62 97 151
60 95 134
62 98 154
60 95 139
62 97 144
62 97 144
62 97 141
59 94 131
61 97 148
59 93 134
58 94 124
62 96 139
61 97 152
63 99 139
60 94 139
60 95 124
62 98 153
60 95 126
58 92 124
59 93 143
61 95 134
61 97 151
60 94 138
61 97 121
58 91 122
62 97 142
57 91 132
59 92 131
58 91 119
60 94 128
56 88 111
64 92 107
123 135 0
122 134 0
130 141 0
119 132 0
133 143 0
122 131 0
129 139 0
140 152 0
134 147 0
120 129 0
153 164 0
136 147 0
134 149 0
115 126 0
129 141 0
136 149 0
124 137 0
122 133 0
121 131 0
148 160 0
118 129 0
137 150 0
136 144 0
142 154 0
144 155 0
143 158 0
149 163 0
142 156 0
138 147 0
131 143 0
143 156 0
134 151 0
150 165 0
137 151 0
149 164 0
146 159 0
143 151 0
127 140 0
140 152 0
148 162 0
137 148 0
149 161 0
159 173 0
147 159 0
150 162 0
147 160 0
147 158 0
157 166 0
143 155 0
141 157 0
141 153 0
153 168 0
146 160 0
147 158 0
152 165 0
154 166 0
151 166 0
152 165 0
146 157 0
150 167 0
161 176 0
158 170 0
153 169 0
151 165 0
152 165 0
156 173 0
155 168 0
151 160 0
151 165 0
153 168 0
152 169 0
158 172 0
152 168 0
157 173 0
166 178 0
160 176 0
157 169 0
152 170 0
156 173 0
161 180 0
163 182 0
154 168 0
160 173 0
148 165 0
165 183 0
155 171 0
166 183 0
164 180 0
165 185 0
160 175 0
172 186 0
168 185 0
151 167 0
160 176 0
163 182 0
154 174 0
165 184 0
162 182 0
157 174 0
153 170 0
159 176 0
166 183 0
160 178 0
170 191 0
171 190 0
166 185 0
169 188 0
158 175 0
163 182 0
171 190 0
167 187 0
163 181 0
159 175 0
172 191 0
166 183 0
167 184 0
174 199 72
175 200 72
175 199 36
176 201 88
178 202 88
174 198 51
175 200 36
173 197 88
170 195 80
174 199 72
179 201 36
171 194 88
170 195 102
173 197 51
173 197 62
174 199 72
177 199 62
169 195 62
169 193 51
171 195 62
172 197 36
170 194 72
174 198 62
171 196 36
170 194 80
175 199 72
173 196 88
175 199 72
174 198 62
176 201 95
174 197 62
176 201 80
167 192 62
174 197 72
171 196 72
170 194 62
171 195 62
171 195 88
164 187 51
173 198 72
170 195 72
177 201 62
166 191 62
173 197 80
171 196 80
174 199 80
174 199 62
171 195 72
175 199 0
168 192 62
172 197 80
169 193 62
171 195 62
166 191 72
171 196 88
166 189 36
172 196 51
171 195 72
170 194 88
165 189 62
176 201 102
168 193 102
170 194 80
168 193 51
174 198 62
177 201 80
175 199 80
173 197 62
166 190 51
166 191 72
172 197 95
166 190 72
169 192 62
167 190 62
166 190 72
162 186 88
172 194 72
167 191 95
173 196 72
168 191 36
169 192 36
168 191 95
169 192 72
154 178 62
167 190 62
162 184 72
166 189 102
167 191 51
164 188 62
170 192 62
164 188 88
161 185 102
165 190 51
163 186 51
159 182 62
92 115 118
85 113 133
92 119 148
92 118 118
82 111 138
75 104 135
91 118 142
108 134 136
98 123 151
112 137 148
85 114 141
91 118 152
102 128 163
89 118 144
90 116 127
107 133 154
97 125 159
104 130 152
105 130 127
102 130 139
85 114 147
103 129 163
91 119 158
87 116 165
85 114 171
61 96 152
68 102 165
80 111 165
62 98 160
62 98 159
61 97 154
60 96 148
61 97 156
62 97 156
60 95 148
60 96 150
62 98 157
59 94 150
60 95 143
59 95 148
61 97 153
61 97 146
58 93 144
66 101 150
64 97 137
64 98 141
66 100 152
58 92 135
59 94 145
61 97 150
60 96 148
62 98 144
62 98 149
61 97 155
58 93 131
59 94 134
61 96 142
60 95 140
59 93 138
62 97 146
60 96 143
62 98 155
61 97 150
62 98 147
62 98 148
62 98 150
59 94 137
60 95 141
62 97 152
62 98 153
61 97 155
63 98 149
61 97 151
62 98 161
61 97 152
60 96 146
62 98 159
61 96 144
61 96 144
62 97 152
60 95 155
62 98 157
62 97 152
62 98 148
61 96 139
62 97 139
61 96 134
61 97 157
61 97 146
60 95 138
61 96 149
60 95 146
64 100 153
61 97 148
63 98 155
61 96 144
62 98 137
60 95 144
62 98 146
63 100 137
60 96 141
61 96 139
61 96 144
62 98 155
63 99 158
62 97 148
60 95 142
62 97 151
62 97 146
62 98 148
60 96 144
62 97 150
60 95 141
63 98 151
60 96 148
62 97 148
63 98 154
61 97 155
62 97 148
61 96 137
61 97 148
62 98 146
61 97 150
61 96 144
62 99 156
61 97 148
61 97 148
60 95 137
61 96 148
62 98 150
61 97 148
62 98 155
60 95 146
63 97 144
62 97 146
59 95 127
61 97 150
63 100 153
62 97 146
60 96 144
63 99 154
62 97 146
61 96 137
61 96 148
61 95 151
61 96 144
62 98 142
61 96 132
61 96 141
62 97 146
62 97 148
61 96 134
62 97 142
63 98 148
60 96 144
60 96 131
63 99 155
60 95 138
62 97 146
62 97 159
62 98 142
61 96 141
63 99 144
61 97 141
61 96 152
61 97 154
60 94 130
59 94 141
61 96 146
60 96 129
60 95 131
61 96 141
62 97 145
62 97 150
61 96 133
62 97 139
60 96 137
60 94 121
59 94 121
61 95 147
60 93 126
60 95 128
59 93 128
58 91 130
58 91 111
57 89 131
54 85 107
54 86 115
94 112 75
118 131 0
113 126 0
132 144 0
129 139 0
124 137 0
136 145 0
132 142 0
125 136 0
132 144 0
131 144 0
132 142 0
133 145 0
126 137 0
142 155 0
130 142 0
129 134 0
142 156 0
104 117 0
131 143 0
125 133 0
144 156 0
140 154 0
136 149 0
133 143 0
145 157 0
139 152 0
145 157 0
148 160 0
137 150 0
137 147 0
140 151 0
140 152 0
131 144 0
148 161 0
142 155 0
135 148 0
146 159 0
135 147 0
149 158 0
147 163 0
139 152 0
138 150 0
138 152 0
150 166 0
148 161 0
155 168 0
141 157 0
150 166 0
141 152 0
147 160 0
155 170 0
157 172 0
140 153 0
152 168 0
145 158 0
146 160 0
153 166 0
147 163 0
161 176 0
151 166 0
143 158 0
156 169 0
143 157 0
151 164 0
156 170 0
147 162 0
159 175 0
143 155 0
150 166 0
150 163 0
149 164 0
162 176 0
164 178 0
162 179 0
163 177 0
149 164 0
151 168 0
162 177 0
161 176 0
156 170 0
157 174 0
160 175 0
160 178 0
163 178 0
153 170 0
166 182 0
156 173 0
167 184 0
172 191 0
168 184 0
148 164 0
162 176 0
158 173 0
167 184 0
165 182 0
165 183 0
165 184 0
170 185 0
155 175 0
163 182 0
159 179 0
165 184 0
167 184 0
164 183 0
170 186 0
171 187 0
169 189 0
163 182 0
163 181 0
161 179 0
171 191 0
167 189 0
172 192 0
175 197 0
166 186 0
159 176 0
177 202 88
176 200 95
179 203 80
182 206 120
175 200 88
176 199 62
173 197 88
177 200 51
173 198 80
178 201 80
174 198 51
175 200 80
174 197 36
175 199 88
169 193 36
173 198 72
176 200 72
171 195 51
170 195 95
170 194 51
174 200 72
173 198 88
174 197 62
174 200 108
173 198 80
176 199 72
175 199 51
175 199 72
169 194 88
174 199 102
170 195 120
169 194 72
172 197 80
167 193 88
169 192 80
169 192 72
172 196 72
173 196 36
176 200 51
174 198 36
170 193 62
169 194 72
169 192 72
172 196 80
166 189 51
171 194 36
172 197 51
177 200 62
171 195 36
163 188 62
173 197 72
174 199 95
168 191 51
166 190 62
169 195 72
167 190 62
168 192 36
167 192 51
175 198 0
169 193 62
175 200 88
165 188 80
176 200 80
174 199 51
169 194 72
172 194 62
170 194 88
172 195 51
160 183 51
168 191 72
172 195 62
176 201 102
162 187 51
164 190 105
162 185 80
166 190 80
173 197 80
170 192 51
162 186 62
167 189 51
166 190 80
172 194 51
170 194 72
158 182 62
168 192 80
168 192 62
157 179 72
166 189 51
160 183 62
169 192 72
156 178 80
159 184 51
168 192 72
156 178 62
164 185 62
131 153 101
99 122 105
91 116 123
97 123 145
91 118 121
90 117 130
103 130 134
103 128 145
103 128 141
95 121 143
98 126 143
83 111 138
99 126 147
105 130 156
100 128 136
97 125 156
101 128 129
112 138 143
93 120 138
100 126 155
91 120 134
95 120 149
96 124 158
102 127 157
80 111 167
75 108 174
94 122 180
74 106 165
67 101 156
61 97 163
61 97 163
60 96 158
62 97 158
60 96 157
60 95 146
61 97 148
61 96 150
63 97 138
60 96 145
64 97 142
61 96 148
61 97 150
60 95 138
77 109 144
69 101 137
62 96 151
75 105 124
61 96 147
62 95 142
60 96 150
59 94 131
58 92 136
58 92 145
60 94 136
60 96 144
60 95 141
60 94 147
61 97 149
59 93 137
60 96 138
61 96 135
60 95 147
60 95 134
61 97 151
60 96 137
61 97 150
61 96 160
61 97 154
62 98 156
63 99 148
59 93 144
60 95 134
59 93 125
59 94 142
61 96 153
62 98 159
62 98 148
62 97 148
62 98 144
62 98 156
63 98 151
62 97 141
62 97 162
61 97 144
62 97 141
60 95 136
60 95 148
63 98 148
63 98 157
63 98 157
63 99 160
61 97 137
60 95 139
60 96 138
61 96 146
62 97 148
60 95 130
61 96 144
62 98 148
61 96 142
61 96 127
61 97 153
60 96 122
62 98 142
61 97 139
63 98 152
63 99 157
61 97 151
61 97 132
60 95 155
61 96 146
62 98 152
61 97 144
60 95 146
62 98 152
61 96 148
61 97 141
62 98 149
61 96 139
61 97 146
62 98 155
61 96 155
63 99 161
60 95 139
61 96 139
62 97 154
60 96 151
61 96 150
63 98 153
61 97 142
63 99 163
62 97 152
62 98 157
61 96 142
60 95 146
62 97 155
62 98 149
62 98 154
62 98 152
61 97 152
61 96 139
61 96 143
60 95 145
62 97 146
60 95 146
60 95 129
62 97 152
61 96 152
59 93 125
62 97 149
58 93 127
63 99 159
62 97 141
62 98 151
60 95 134
63 98 142
61 96 139
63 98 146
61 97 144
60 95 137
60 95 129
62 98 148
59 94 132
61 96 134
60 96 132
57 89 113
61 97 148
62 98 144
59 94 134
61 96 132
61 96 127
61 96 132
57 91 119
60 95 127
61 96 143
60 94 126
61 96 131
60 95 141
57 90 123
59 93 119
59 93 133
59 93 130
58 92 124
61 96 138
56 90 108
57 89 118
57 89 108
61 90 109
122 136 52
127 138 0
123 136 0
132 142 0
124 136 0
118 128 0
121 133 0
125 137 0
121 132 0
120 130 0
136 148 0
125 135 0
129 139 0
116 122 0
135 150 0
130 143 0
136 149 0
131 141 0
145 156 0
126 139 0
143 155 0
135 144 0
135 149 0
125 136 0
142 156 0
142 156 0
138 153 0
143 153 0
151 165 0
143 154 0
144 159 0
144 157 0
129 138 0
142 153 0
143 158 0
150 167 0
150 160 0
135 149 0
149 163 0
151 167 0
149 163 0
148 160 0
155 172 0
152 166 0
153 167 0
152 166 0
145 155 0
144 157 0
157 171 0
151 164 0
158 172 0
147 160 0
153 167 0
153 166 0
157 170 0
160 174 0
153 169 0
161 176 0
154 167 0
144 157 0
142 157 0
149 159 0
150 166 0
150 164 0
151 161 0
160 174 0
150 164 0
160 176 0
156 170 0
157 172 0
153 168 0
156 175 0
159 176 0
156 170 0
155 169 0
156 174 0
157 171 0
158 172 0
157 173 0
143 160 0
156 173 0
160 176 0
162 181 0
154 169 0
156 169 0
160 176 0
157 176 0
163 181 0
158 175 0
162 179 0
155 172 0
159 177 0
168 187 0
164 183 0
162 181 0
158 176 0
171 187 0
165 186 0
167 189 0
157 174 0
161 178 0
159 175 0
171 190 0
157 177 0
151 171 0
166 186 0
169 187 0
167 186 0
169 188 0
165 182 0
156 176 0
165 183 0
162 182 0
168 186 0
169 188 0
169 188 0
167 186 0
173 197 62
170 194 62
174 198 80
172 196 80
179 202 80
175 199 36
173 197 80
173 198 80
176 199 51
179 203 88
178 201 80
177 202 95
173 198 88
172 197 72
171 195 62
173 196 62
175 199 62
166 191 72
174 197 62
176 200 88
174 199 80
174 198 72
175 201 108
179 204 95
171 196 80
173 198 62
174 199 95
176 200 80
175 200 88
168 193 95
170 195 95
173 197 51
168 191 80
176 199 51
174 198 72
174 198 72
174 199 80
169 193 51
164 188 88
172 196 72
177 199 62
172 197 36
172 197 51
167 192 51
174 198 80
176 200 88
173 197 80
175 198 36
172 196 72
173 198 51
171 196 102
171 195 51
169 194 102
167 189 62
165 189 51
168 191 72
171 195 51
169 193 62
167 192 72
174 199 62
171 195 62
170 195 36
170 195 88
167 191 62
163 188 36
172 195 62
170 195 72
161 185 62
170 194 62
175 198 80
165 189 72
168 193 36
159 184 51
163 186 72
169 192 80
170 194 95
168 191 102
170 193 36
159 183 51
156 181 72
164 188 62
164 186 36
168 190 72
173 198 120
169 192 62
162 186 80
171 195 80
165 187 72
161 183 51
164 188 72
169 192 95
159 182 36
175 196 36
164 187 62
160 183 72
157 179 43
96 120 116
78 106 117
96 121 145
92 119 125
96 122 137
112 136 137
106 132 153
90 118 156
107 132 158
98 124 149
101 127 159
88 116 163
71 103 142
78 108 147
101 127 142
78 107 145
87 114 151
114 140 127
103 130 130
102 129 127
99 126 140
91 118 144
98 125 138
82 113 156
84 114 167
80 111 162
68 102 170
76 108 174
59 95 134
61 96 155
62 98 161
60 96 146
61 97 156
62 98 155
60 95 156
60 95 138
62 97 144
61 97 155
58 93 147
61 96 154
65 99 146
59 93 138
61 96 138
67 101 145
65 98 140
67 98 140
59 94 147
62 95 129
58 93 139
61 97 146
61 97 144
57 91 136
62 97 159
58 92 140
60 95 140
60 95 134
60 95 138
58 92 132
61 96 145
60 95 148
61 96 132
62 97 145
60 96 145
59 94 130
59 94 147
61 97 158
60 95 125
59 94 131
62 97 155
62 97 144
60 95 142
61 97 145
61 97 134
62 97 154
60 95 140
62 98 150
61 96 152
63 99 152
60 95 140
61 97 153
62 98 156
60 96 137
59 95 138
60 95 145
61 97 154
59 95 137
61 97 148
61 97 137
61 97 151
63 100 157
63 99 159
63 100 152
61 97 146
60 96 148
60 96 148
62 98 150
62 98 146
62 97 150
62 97 150
61 97 139
61 96 144
61 96 142
64 100 161
62 97 154
62 97 139
61 96 144
63 98 151
63 99 148
61 96 139
61 96 142
61 96 136
61 97 148
60 95 146
61 97 152
60 95 135
61 96 135
61 96 156
61 97 153
62 98 150
62 98 155
62 97 151
62 98 151
61 96 153
63 99 161
60 95 150
61 96 139
61 97 151
62 98 146
61 97 139
63 99 159
63 99 152
61 96 144
60 95 142
64 99 165
62 98 151
61 97 137
62 97 151
60 95 139
61 96 144
61 96 146
59 95 138
60 95 132
64 100 157
61 96 146
62 98 148
60 95 144
61 97 150
60 97 134
61 96 137
62 98 142
63 98 150
63 98 144
60 95 144
59 95 134
61 96 137
61 97 137
60 95 142
62 97 141
62 98 144
62 97 137
59 94 127
62 97 144
63 99 135
61 96 139
62 97 146
62 98 146
63 99 155
61 97 143
61 97 152
60 95 136
62 97 141
62 97 146
62 97 136
60 95 116
61 96 127
60 95 133
61 95 138
59 93 136
60 94 113
60 94 131
60 96 125
59 93 136
59 93 127
56 89 102
57 90 120
53 84 114
80 97 91
119 131 0
122 131 0
121 133 0
114 126 0
120 130 0
129 144 0
128 138 0
139 155 0
127 140 0
137 151 0
133 148 0
132 143 0
130 141 0
130 141 0
132 137 0
142 156 0
124 135 0
134 149 0
141 154 0
138 152 0
138 152 0
125 135 0
147 160 0
140 153 0
143 153 0
128 139 0
145 158 0
138 151 0
138 152 0
149 166 0
135 147 0
133 145 0
138 153 0
148 164 0
147 161 0
123 135 0
140 153 0
153 165 0
133 145 0
134 143 0
135 146 0
147 158 0
149 166 0
149 162 0
142 156 0
148 162 0
161 176 0
151 168 0
148 160 0
161 174 0
147 161 0
147 161 0
144 155 0
146 160 0
144 154 0
151 165 0
156 168 0
147 161 0
146 159 0
154 167 0
148 164 0
156 168 0
151 167 0
165 181 0
156 171 0
162 176 0
142 153 0
152 167 0
158 171 0
149 169 0
153 170 0
147 162 0
146 159 0
150 166 0
153 171 0
154 168 0
160 178 0
158 176 0
152 166 0
153 169 0
161 175 0
154 167 0
164 180 0
159 175 0
163 181 0
163 179 0
172 190 0
167 182 0
166 184 0
161 178 0
156 176 0
155 172 0
165 185 0
164 181 0
158 179 0
171 191 0
163 179 0
157 172 0
168 189 0
165 181 0
160 177 0
157 174 0
160 177 0
172 184 0
161 181 0
159 175 0
164 180 0
161 180 0
166 186 0
161 181 0
168 188 0
162 183 0
152 167 0
167 187 0
162 181 0
172 195 0
166 187 0
175 199 72
176 199 36
170 195 36
178 202 72
176 200 36
177 202 72
175 198 62
172 196 72
180 204 62
173 198 51
175 200 88
181 204 72
178 202 102
173 198 80
174 199 80
173 198 62
167 191 36
169 193 80
175 200 62
169 192 51
177 201 36
172 196 102
170 193 51
169 192 51
170 194 80
176 201 72
170 194 88
168 194 108
174 198 80
168 193 72
174 199 95
173 197 36
167 192 80
168 193 80
169 193 72
177 202 95
172 196 80
175 199 80
176 199 62
173 198 88
173 197 62
169 194 72
171 195 72
171 197 102
170 194 72
172 196 72
173 196 72
175 200 62
171 196 114
171 195 72
171 197 95
170 192 80
177 201 62
170 193 72
166 189 88
172 196 62
164 188 72
167 192 95
162 187 80
175 198 62
170 196 88
170 195 88
165 188 62
170 194 102
176 200 80
164 188 62
162 186 80
170 194 88
171 196 62
157 178 36
171 195 95
168 192 62
170 194 88
166 190 51
167 190 51
167 191 72
167 191 72
159 184 62
167 190 80
165 188 80
164 187 80
166 190 51
167 191 80
168 191 88
157 179 51
168 192 88
164 189 36
160 183 51
164 187 51
158 180 88
167 189 80
168 191 72
162 183 51
162 185 62
169 194 80
165 188 51
134 157 105
86 112 133
81 109 125
93 119 128
102 128 131
86 114 136
97 125 162
72 100 110
95 124 128
94 122 146
89 117 149
91 117 134
102 128 135
114 138 126
94 121 141
87 114 137
111 136 154
80 109 131
105 131 144
90 118 140
99 127 152
100 128 138
67 99 142
108 133 146
72 105 169
79 109 165
80 111 175
74 106 164
69 102 167
61 97 159
62 98 165
63 99 161
60 96 160
61 97 151
65 100 149
62 99 160
62 98 151
66 100 144
61 96 146
60 96 142
58 92 141
60 95 146
60 95 154
57 91 144
67 99 131
63 96 134
60 95 142
62 94 133
72 102 125
60 95 137
60 94 139
57 91 136
60 94 141
60 95 136
56 91 143
59 93 135
60 96 150
61 97 149
61 96 139
58 92 128
60 96 137
61 98 153
60 96 149
62 98 146
61 97 151
61 97 151
60 95 146
60 96 130
59 94 145
60 95 146
61 95 124
60 95 146
61 97 137
60 95 143
60 96 125
59 94 131
60 95 136
62 97 146
57 90 112
58 93 123
61 97 161
61 97 148
59 93 141
62 97 144
60 95 150
61 97 146
61 97 124
61 97 155
62 97 146
60 96 148
61 97 155
61 97 142
61 97 156
62 98 153
61 97 135
61 97 144
61 97 145
61 96 146
62 97 161
60 96 139
59 95 137
60 95 144
62 98 151
62 98 146
61 96 144
62 98 132
59 94 144
62 96 148
60 96 139
58 93 119
61 96 139
61 97 146
62 97 148
60 95 148
60 95 132
60 96 149
60 96 139
61 96 146
62 98 137
61 96 141
60 95 139
59 95 145
61 97 144
63 99 157
61 96 146
61 97 153
62 98 154
63 99 150
60 95 134
59 94 132
62 97 148
61 97 146
61 96 146
62 98 152
61 97 146
61 96 134
61 97 139
59 94 150
61 97 150
61 96 142
63 99 142
61 97 141
61 96 146
62 98 146
61 97 144
63 98 146
61 96 137
64 100 157
60 95 139
60 95 151
62 97 137
63 98 148
61 96 139
60 94 139
60 96 137
63 99 156
62 98 146
62 97 140
61 96 132
61 97 143
61 97 148
62 97 141
61 97 142
60 95 143
60 95 132
62 98 146
60 95 147
61 96 139
58 92 124
61 96 132
60 96 136
63 98 152
61 95 129
62 97 134
60 95 134
58 92 112
60 95 128
60 95 133
59 93 133
58 91 133
60 95 137
59 93 125
57 89 110
57 90 122
55 87 113
75 100 122
125 136 0
130 143 0
141 155 0
123 135 0
137 149 0
125 140 0
136 152 0
133 148 0
116 130 0
149 160 0
146 160 0
134 145 0
137 151 0
148 164 0
150 165 0
140 152 0
132 147 0
130 142 0
135 148 0
130 144 0
125 138 0
133 148 0
145 158 0
134 145 0
133 146 0
138 151 0
142 155 0
139 153 0
130 143 0
130 143 0
149 164 0
137 151 0
145 158 0
124 137 0
145 162 0
151 167 0
129 144 0
137 150 0
139 155 0
141 154 0
147 162 0
144 156 0
140 154 0
139 151 0
152 161 0
145 160 0
141 155 0
133 145 0
140 151 0
132 141 0
151 161 0
156 171 0
142 153 0
160 176 0
138 153 0
157 171 0
157 175 0
145 161 0
154 164 0
149 164 0
155 165 0
147 159 0
152 167 0
148 164 0
151 165 0
149 167 0
140 155 0
158 174 0
155 169 0
157 173 0
153 169 0
138 150 0
161 178 0
157 173 0
154 170 0
161 179 0
164 183 0
162 180 0
156 172 0
164 177 0
154 171 0
158 174 0
152 169 0
159 171 0
166 181 0
157 171 0
167 181 0
162 178 0
160 176 0
157 174 0
164 183 0
159 178 0
165 183 0
168 188 0
157 174 0
165 186 0
156 174 0
160 176 0
156 175 0
151 171 0
170 188 0
160 178 0
157 176 0
160 177 0
165 186 0
161 177 0
163 181 0
166 185 0
158 175 0
157 176 0
168 189 0
162 183 0
168 188 0
169 187 0
163 183 0
162 177 0
164 185 0
162 182 0
176 201 72
176 200 51
169 193 62
171 195 95
173 197 72
178 203 108
173 197 51
169 194 80
174 199 72
173 197 72
172 196 80
174 199 62
171 197 88
176 201 80
173 198 51
171 195 62
172 197 80
171 195 62
173 197 62
175 199 80
164 188 72
178 204 114
169 194 80
172 196 80
178 203 62
170 194 80
171 195 80
177 202 108
175 199 51
171 197 102
174 198 36
173 197 36
171 196 62
172 198 62
166 190 51
172 195 62
172 197 62
169 194 102
170 193 51
177 200 88
174 199 95
172 197 102
173 198 88
162 188 95
168 193 36
174 198 51
167 192 80
178 202 72
171 196 102
172 196 72
169 193 36
172 196 62
165 189 51
163 186 0
165 188 51
170 195 62
166 191 72
168 194 72
169 194 88
165 190 62
169 193 72
170 192 72
164 188 51
164 188 80
174 199 88
166 191 80
169 194 80
163 187 72
168 192 72
166 188 72
167 189 72
164 184 51
167 191 72
163 185 80
163 185 36
164 188 80
167 191 72
159 183 62
162 186 95
162 185 36
171 194 51
162 186 0
161 183 51
165 189 51
167 190 36
168 192 80
158 183 88
162 185 88
162 183 102
169 192 80
166 190 80
148 173 36
163 184 51
162 183 62
160 183 80
173 196 72
164 186 101
90 113 119
93 120 124
84 113 128
88 114 122
102 128 141
93 120 139
89 115 134
94 122 137
84 113 149
95 121 140
91 118 136
100 126 148
91 118 136
90 118 136
101 127 133
92 119 131
87 114 140
100 127 137
111 136 142
96 125 135
87 115 136
100 125 132
104 129 150
85 113 152
81 112 175
74 106 164
75 107 164
66 100 146
59 94 148
62 97 159
62 99 161
60 96 148
60 96 152
60 96 149
62 99 148
61 96 147
61 97 152
60 96 146
59 94 136
59 94 146
61 96 144
60 96 156
64 98 142
71 101 134
60 95 147
70 101 133
63 97 137
58 91 135
59 94 134
59 94 146
59 95 141
59 94 139
59 94 143
63 99 146
61 95 145
60 95 142
59 93 127
62 97 139
59 94 150
61 96 150
61 96 154
60 95 138
61 97 146
61 97 148
60 95 148
61 96 144
62 98 148
63 99 155
60 96 148
60 96 149
61 96 156
61 96 135
61 96 140
59 94 152
61 97 151
61 97 151
63 99 155
61 98 147
60 95 148
62 97 146
59 94 136
62 97 150
61 97 152
59 94 142
62 98 142
61 97 144
61 97 139
62 98 159
61 97 136
61 97 150
62 97 142
61 96 135
62 98 154
62 97 146
61 97 152
62 97 153
61 96 136
60 96 146
61 96 146
60 95 139
62 98 144
61 97 151
62 97 141
60 96 139
60 96 144
60 96 139
61 96 150
61 96 142
61 96 146
62 97 146
61 96 142
62 97 144
61 97 152
62 98 157
61 97 150
61 96 152
61 97 144
60 95 142
60 95 142
61 97 150
60 96 140
61 96 150
61 97 154
61 97 151
62 98 139
61 97 146
62 97 148
61 97 146
61 96 148
61 96 135
60 96 143
59 93 124
62 97 150
62 98 150
62 97 146
62 98 150
62 98 155
61 95 137
62 97 146
61 97 135
61 96 139
62 97 144
62 98 152
62 97 152
62 98 144
62 98 146
62 97 132
60 95 139
61 96 137
62 97 145
62 98 150
61 97 141
62 98 141
62 98 139
61 96 139
61 96 136
60 95 135
60 95 137
61 96 136
62 97 150
62 97 147
61 96 132
60 96 134
61 96 132
62 97 145
61 97 141
59 93 116
60 95 129
59 93 132
60 95 141
59 93 118
61 96 138
61 96 129
60 94 124
60 95 133
59 93 130
60 94 126
59 93 117
59 92 122
60 94 138
59 93 129
58 92 124
57 89 122
54 85 107
113 128 65
115 127 0
130 144 0
125 139 0
143 156 0
124 136 0
131 145 0
129 143 0
134 148 0
128 142 0
143 157 0
139 155 0
134 148 0
131 146 0
137 150 0
127 140 0
125 136 0
134 148 0
135 144 0
129 139 0
136 151 0
128 137 0
144 157 0
127 139 0
141 156 0
132 144 0
140 156 0
134 147 0
137 149 0
152 165 0
135 146 0
144 158 0
144 159 0
136 148 0
140 154 0
143 159 0
142 158 0
148 163 0
152 163 0
145 159 0
147 157 0
151 165 0
149 163 0
152 165 0
137 152 0
145 157 0
162 177 0
145 158 0
155 169 0
132 146 0
144 159 0
155 173 0
148 161 0
133 146 0
137 151 0
158 176 0
148 162 0
149 164 0
161 178 0
149 161 0
147 162 0
147 160 0
156 175 0
147 162 0
155 170 0
146 158 0
150 163 0
156 171 0
163 178 0
157 172 0
158 177 0
156 173 0
150 166 0
144 156 0
153 168 0
145 160 0
138 151 0
145 162 0
160 176 0
159 175 0
168 184 0
164 182 0
153 170 0
164 182 0
165 183 0
156 173 0
163 181 0
151 167 0
165 186 0
157 174 0
150 167 0
168 186 0
162 178 0
158 176 0
157 174 0
162 180 0
158 176 0
161 174 0
162 179 0
162 179 0
165 187 0
162 182 0
159 178 0
164 182 0
158 179 0
159 181 0
169 188 0
160 177 0
166 185 0
169 191 0
172 191 0
168 187 0
164 182 0
169 190 0
156 176 0
170 188 0
157 175 0
162 181 0
161 177 0
176 200 51
177 201 88
179 202 72
173 198 51
176 200 72
177 202 62
176 200 72
174 198 72
174 198 62
173 198 72
176 200 80
172 198 102
174 198 51
171 195 36
172 197 51
176 200 95
171 196 62
172 197 95
177 201 51
173 197 62
172 197 0
175 200 72
170 194 62
175 200 88
173 198 72
176 200 51
169 193 88
173 197 72
165 191 95
174 199 108
176 201 88
178 202 80
170 193 51
165 189 80
170 194 62
172 196 80
177 199 62
167 193 36
175 198 36
164 189 51
170 194 62
166 191 62
173 198 62
175 199 72
174 198 51
171 195 62
169 193 114
171 195 51
174 198 95
178 204 120
168 191 62
169 193 62
172 198 72
164 187 51
168 193 51
174 199 72
172 196 88
171 195 80
168 194 95
164 188 80
166 190 62
166 190 80
167 192 51
168 191 51
165 188 51
173 197 88
170 194 80
168 192 95
179 203 108
172 196 72
167 191 88
166 190 72
162 185 51
168 193 62
165 188 51
166 190 51
163 186 62
164 188 95
168 191 72
161 185 62
172 195 62
171 194 72
169 194 114
165 189 80
165 189 36
169 191 51
164 187 88
170 194 95
169 192 80
161 184 62
159 182 62
159 182 80
169 193 95
159 181 62
166 189 72
161 184 80
157 179 72
125 147 104
92 118 120
96 122 132
94 120 134
95 120 140
87 114 143
84 111 98
99 124 146
101 127 139
103 129 148
89 115 141
105 129 140
100 126 135
87 114 133
89 117 145
106 131 154
99 125 133
115 141 146
100 127 156
105 132 135
98 125 127
82 111 143
88 116 127
89 116 135
81 111 152
75 108 173
86 115 163
73 105 150
68 102 168
60 96 136
61 97 160
61 97 149
59 94 143
61 96 154
60 97 153
62 98 160
61 97 142
62 98 150
60 95 151
59 94 132
60 96 150
59 93 143
66 100 151
64 98 141
64 98 133
59 94 137
63 97 140
58 92 135
71 100 128
60 95 145
60 95 133
61 96 155
58 93 124
59 95 139
61 96 137
58 94 137
57 92 133
59 93 142
62 97 137
62 97 153
60 95 137
58 93 131
60 95 144
61 96 144
58 93 125
60 95 146
60 96 141
60 95 136
59 93 127
58 94 144
60 95 133
60 95 143
61 96 147
60 96 148
60 95 144
61 97 141
61 97 142
62 97 148
61 97 135
62 97 150
59 94 144
60 96 150
60 95 139
60 95 139
61 97 144
62 97 149
59 94 127
61 97 137
62 97 137
62 98 152
61 96 146
61 97 142
62 98 144
60 95 150
62 97 146
60 95 129
60 95 130
61 97 155
61 97 142
61 96 144
62 98 151
62 98 150
62 98 148
62 98 153
61 96 146
60 96 139
61 97 155
61 96 144
60 96 144
63 98 150
61 96 148
60 95 137
61 97 148
62 97 152
62 97 152
61 96 145
63 99 163
61 96 141
60 95 150
60 96 129
61 96 144
61 97 142
61 96 137
61 96 157
61 97 150
61 96 135
61 97 155
60 95 122
61 96 144
60 95 132
61 96 144
61 97 144
62 98 142
61 96 146
62 97 150
61 96 146
61 96 141
61 97 148
59 94 137
62 97 149
60 95 127
62 98 146
61 97 152
62 97 146
61 96 132
62 97 144
63 98 144
62 98 153
61 97 134
61 97 142
60 95 134
62 97 144
60 95 139
61 97 139
59 93 122
61 96 142
61 97 160
59 94 132
61 97 148
60 94 124
62 98 146
59 94 125
60 95 144
59 94 139
61 96 134
62 97 132
60 95 129
58 92 119
62 98 147
61 96 132
57 91 134
61 96 129
60 95 122
60 94 137
59 93 126
59 94 121
58 91 119
59 93 115
57 91 118
58 91 119
58 91 124
58 91 120
53 84 108
57 86 111
116 128 0
131 146 0
129 143 0
133 146 0
140 156 0
145 155 0
135 148 0
134 148 0
120 131 0
136 151 0
137 152 0
140 154 0
131 147 0
121 133 0
129 141 0
120 131 0
145 158 0
135 150 0
129 143 0
154 166 0
129 139 0
137 154 0
126 138 0
140 154 0
123 137 0
136 149 0
147 159 0
134 148 0
133 146 0
144 160 0
123 136 0
154 168 0
138 151 0
138 153 0
153 168 0
151 166 0
144 160 0
143 157 0
141 150 0
142 154 0
140 154 0
124 133 0
148 161 0
128 144 0
154 172 0
145 161 0
142 156 0
151 166 0
136 148 0
147 163 0
142 155 0
148 163 0
154 171 0
146 163 0
154 168 0
143 156 0
143 159 0
150 164 0
147 161 0
152 167 0
145 162 0
157 174 0
139 149 0
140 148 0
157 177 0
147 160 0
147 161 0
152 169 0
152 170 0
156 172 0
149 165 0
158 173 0
142 158 0
160 178 0
161 180 0
156 172 0
141 156 0
158 176 0
163 182 0
167 184 0
138 150 0
154 168 0
157 171 0
163 183 0
151 168 0
151 167 0
156 172 0
153 171 0
156 174 0
155 172 0
159 179 0
159 176 0
157 172 0
149 167 0
153 170 0
157 172 0
167 182 0
164 182 0
166 183 0
172 192 0
163 180 0
155 169 0
165 182 0
167 187 0
170 191 0
167 184 0
171 193 0
162 179 0
160 180 0
161 181 0
157 174 0
160 180 0
161 181 0
172 189 0
163 182 0
171 192 0
166 185 0
169 186 0
165 182 0
173 198 80
172 196 62
179 203 80
169 194 72
175 200 72
169 193 51
175 200 62
171 196 95
175 201 88
173 195 62
173 196 108
173 196 62
168 191 51
172 195 62
172 197 88
175 200 80
169 194 80
174 199 72
180 204 80
174 200 80
171 193 51
172 197 51
170 195 80
171 196 62
175 199 51
174 199 80
168 193 51
177 201 88
177 200 51
178 202 72
174 197 62
171 196 80
172 197 72
172 198 80
179 203 80
176 201 72
175 199 72
173 197 51
170 194 72
170 195 51
169 194 72
175 199 51
174 198 62
172 197 88
165 188 36
169 196 108
173 198 80
168 192 51
173 199 95
171 195 51
174 197 62
171 196 80
167 190 51
170 196 88
172 196 72
177 201 80
167 191 62
167 192 102
166 191 80
170 194 72
170 194 62
165 188 72
166 191 62
169 194 108
175 199 72
158 182 62
173 197 95
164 189 62
173 196 62
166 191 80
157 181 62
163 188 80
165 188 51
164 187 62
160 184 62
166 191 62
160 183 72
163 187 36
161 185 62
169 193 102
169 193 62
157 180 62
173 197 88
158 182 51
168 192 88
154 178 72
161 184 95
156 179 62
161 183 72
161 182 0
162 185 72
159 182 72
167 190 88
162 185 51
156 181 62
164 186 88
137 161 0
161 182 105
112 135 131
85 112 125
94 121 130
93 120 136
91 119 130
89 117 146
91 118 144
111 137 157
114 137 135
95 121 125
86 113 150
96 122 140
94 120 148
107 130 130
66 98 146
99 126 125
86 114 140
82 110 140
88 116 141
87 116 122
119 143 144
82 111 152
92 119 137
103 128 156
73 105 157
85 114 164
91 119 167
90 118 166
61 97 153
62 98 157
63 99 161
60 95 147
62 98 159
60 96 158
62 98 152
64 98 147
62 97 156
58 93 140
61 98 169
59 95 150
59 95 142
64 97 137
64 98 144
70 101 134
64 97 116
65 98 134
63 96 132
59 93 142
67 99 133
60 95 139
59 94 130
59 94 143
60 95 127
60 96 141
60 95 137
61 96 135
57 91 133
60 96 141
59 93 145
59 94 138
60 94 147
59 93 122
61 97 137
60 95 142
62 98 148
61 96 149
61 97 132
60 96 145
62 99 146
61 96 144
60 95 134
60 94 141
61 97 144
61 96 137
60 96 134
61 96 141
59 94 130
62 97 165
60 96 148
59 94 146
61 96 142
60 95 133
61 97 148
61 97 134
60 95 137
62 97 140
61 96 148
60 95 143
60 95 141
62 97 157
60 96 144
61 96 150
62 98 148
61 97 152
61 97 148
62 98 161
62 98 146
62 98 139
61 96 141
62 98 150
62 98 155
62 97 137
61 96 139
62 98 146
60 96 146
61 96 146
60 95 139
61 97 142
62 98 134
62 97 152
62 97 150
61 96 131
61 96 148
62 98 155
62 98 144
63 97 146
61 96 148
60 95 141
62 98 150
61 96 140
60 95 137
61 97 154
62 98 145
61 97 139
60 94 130
62 98 150
62 97 142
61 97 149
61 97 148
62 97 148
62 97 151
61 96 148
60 96 129
61 96 137
61 97 144
60 95 124
61 97 139
61 96 122
61 97 139
62 97 142
61 97 137
62 98 146
61 96 143
61 96 155
61 96 141
60 95 137
60 94 139
60 95 132
62 97 144
61 96 127
60 95 139
61 97 148
60 95 141
61 96 139
59 94 139
63 98 150
61 96 134
62 98 146
58 92 134
64 100 153
62 97 144
60 95 143
62 97 145
61 96 137
61 96 130
60 96 129
63 98 144
58 92 127
59 94 136
59 94 126
60 95 118
60 94 121
61 96 133
60 95 138
58 92 134
60 95 139
61 95 142
59 93 127
57 90 122
60 93 131
56 89 118
54 86 111
97 113 46
129 141 0
111 123 0
125 138 0
144 160 0
127 141 0
132 145 0
117 130 0
124 138 0
129 142 0
128 142 0
126 136 0
133 149 0
137 149 0
115 132 0
129 142 0
129 140 0
147 159 0
140 152 0
126 140 0
135 147 0
138 154 0
139 150 0
131 144 0
148 163 0
130 147 0
141 154 0
141 154 0
148 164 0
136 150 0
134 148 0
141 155 0
154 171 0
135 148 0
143 158 0
143 157 0
149 163 0
141 155 0
153 172 0
148 164 0
154 171 0
147 160 0
138 153 0
149 165 0
142 161 0
147 161 0
142 154 0
148 163 0
136 151 0
139 154 0
149 162 0
154 170 0
137 150 0
157 173 0
157 175 0
146 161 0
149 162 0
152 166 0
136 151 0
150 162 0
152 170 0
155 171 0
147 162 0
156 171 0
157 172 0
157 171 0
145 158 0
143 157 0
152 169 0
159 177 0
149 164 0
150 167 0
160 175 0
157 173 0
158 174 0
151 167 0
145 162 0
160 176 0
147 165 0
163 181 0
160 177 0
159 178 0
162 181 0
146 163 0
154 173 0
161 181 0
164 180 0
160 173 0
159 173 0
152 170 0
161 178 0
158 174 0
163 178 0
160 176 0
165 185 0
160 178 0
159 176 0
155 173 0
158 175 0
166 186 0
156 173 0
168 185 0
168 188 0
164 182 0
162 179 0
167 187 0
166 183 0
164 186 0
166 184 0
157 177 0
168 188 0
168 188 0
158 177 0
176 195 0
160 176 0
166 186 0
174 194 0
166 184 0
164 186 0
161 181 0
178 202 88
167 192 80
175 200 72
174 199 51
173 197 62
173 199 102
174 197 72
173 197 62
175 199 72
171 197 88
175 198 80
169 195 62
174 199 102
168 193 95
174 199 80
175 199 51
181 204 72
173 198 72
175 199 51
169 193 72
176 201 72
167 192 36
169 193 51
172 197 80
169 193 51
170 194 36
178 201 102
171 195 62
168 193 72
174 198 72
172 196 62
176 200 72
166 191 80
171 195 36
169 194 51
170 194 88
174 198 72
174 198 80
173 197 80
169 193 72
175 200 88
168 193 95
170 194 62
175 199 80
170 194 51
173 197 88
172 197 72
169 195 95
174 198 95
170 195 51
173 198 95
171 196 72
170 194 95
173 197 62
172 196 62
170 194 80
173 195 51
174 198 62
177 201 80
171 195 80
170 194 72
162 187 72
171 195 62
175 198 51
168 194 102
163 187 80
165 188 51
163 188 88
170 192 80
174 197 80
166 191 88
164 187 72
173 197 80
171 195 80
167 192 88
166 190 51
165 189 80
170 192 80
160 183 36
169 192 102
165 188 62
174 197 80
161 185 80
169 192 62
164 188 95
159 182 80
166 190 80
153 178 62
156 180 88
177 200 80
164 187 62
162 184 62
154 178 51
160 183 72
166 189 51
155 178 80
162 184 80
154 176 62
125 148 80
91 117 123
100 124 115
112 135 133
95 121 125
89 115 132
85 113 140
98 123 131
78 106 132
89 116 148
81 109 128
89 114 133
102 123 129
86 106 117
83 112 129
97 123 138
101 128 146
92 119 135
83 110 128
98 125 138
94 121 121
89 118 134
103 128 151
88 116 134
98 123 153
75 108 170
68 101 162
91 119 165
75 107 163
61 97 158
62 98 165
61 97 150
61 97 156
58 94 131
62 98 146
60 96 153
61 97 148
65 101 148
60 95 137
59 94 149
59 94 138
64 98 156
69 102 146
64 98 142
62 95 124
64 97 142
58 92 134
62 95 137
70 101 125
59 94 135
59 95 137
60 95 138
60 94 133
60 96 139
58 92 136
59 93 134
61 96 148
60 94 139
61 97 158
61 96 152
60 95 140
61 97 142
59 93 136
60 95 129
61 96 148
59 94 141
61 97 155
60 96 138
61 97 142
62 97 146
61 97 132
60 95 131
61 96 144
61 97 155
61 97 144
60 95 145
61 97 139
62 98 150
60 95 132
61 96 145
61 97 144
61 95 141
60 96 146
59 95 148
60 94 141
62 98 148
61 96 139
63 99 157
62 97 150
61 96 151
61 96 142
61 97 141
63 99 159
60 95 150
60 94 140
61 97 154
63 99 151
61 97 146
62 98 135
63 99 146
61 96 134
62 98 152
62 98 142
60 95 134
61 97 146
61 97 137
62 98 152
60 95 134
62 98 144
61 96 139
62 97 148
63 98 148
62 99 151
61 95 139
61 97 142
61 96 139
62 97 135
61 97 140
60 96 134
60 96 148
63 99 137
61 97 141
61 97 135
61 97 132
59 94 139
61 96 132
59 94 135
61 95 150
61 97 139
62 98 146
61 96 139
62 97 135
60 95 143
61 96 143
61 97 139
60 95 125
63 99 139
60 95 143
61 96 137
60 94 129
61 96 142
61 97 153
61 97 132
60 95 139
60 96 139
62 97 144
63 98 146
62 98 152
59 93 128
61 97 152
61 96 146
60 95 140
62 97 144
60 94 135
60 95 137
62 97 147
60 95 132
61 96 141
62 98 155
58 92 124
62 98 134
62 97 141
61 96 134
60 95 138
60 95 139
58 93 121
63 99 154
60 95 143
60 95 126
59 94 133
60 94 126
60 95 121
60 94 124
59 94 110
59 94 135
59 93 130
57 90 111
58 92 136
58 90 124
56 88 95
57 89 126
79 102 81
137 151 0
136 150 0
134 150 0
126 140 0
123 136 0
142 157 0
132 145 0
135 150 0
141 157 0
124 138 0
124 140 0
130 146 0
142 159 0
160 176 0
130 144 0
136 151 0
133 144 0
147 160 0
122 137 0
141 155 0
149 165 0
120 134 0
134 147 0
153 166 0
131 144 0
140 155 0
135 150 0
135 151 0
143 156 0
129 146 0
131 145 0
148 163 0
146 159 0
128 143 0
149 162 0
132 146 0
148 161 0
124 139 0
142 153 0
149 164 0
134 147 0
144 157 0
137 154 0
159 176 0
143 158 0
142 156 0
138 150 0
144 159 0
152 171 0
157 172 0
157 173 0
151 166 0
150 166 0
152 167 0
145 160 0
153 168 0
154 166 0
156 175 0
157 172 0
151 165 0
161 176 0
151 166 0
160 178 0
158 174 0
158 174 0
142 155 0
157 170 0
149 164 0
154 171 0
163 180 0
161 176 0
163 181 0
146 160 0
155 168 0
155 173 0
157 171 0
153 170 0
152 164 0
158 175 0
156 175 0
162 183 0
164 183 0
158 174 0
160 179 0
154 170 0
158 173 0
163 180 0
166 186 0
159 175 0
159 176 0
154 172 0
157 174 0
154 173 0
164 180 0
165 180 0
162 177 0
159 176 0
161 181 0
155 172 0
157 174 0
162 180 0
160 174 0
159 177 0
162 177 0
161 178 0
164 184 0
165 183 0
172 189 0
167 186 0
168 189 0
162 180 0
165 185 0
155 177 0
164 183 0
167 189 0
169 189 0
173 192 0
165 185 0
167 186 0
163 179 0
169 193 72
178 201 80
175 199 72
176 200 62
174 197 51
173 197 95
174 198 62
170 194 36
174 198 80
172 196 72
174 197 51
176 201 80
170 194 51
175 199 0
165 190 51
176 201 102
172 195 51
170 195 51
170 195 95
177 200 62
170 195 80
168 193 95
172 197 62
172 197 62
176 200 72
174 200 88
170 195 72
170 195 72
169 193 62
164 189 88
172 196 62
172 198 108
169 194 72
161 186 72
172 196 88
166 191 72
172 197 72
167 192 80
175 201 88
173 197 72
174 198 51
172 195 80
161 186 51
174 198 88
174 200 80
175 199 88
171 197 72
164 190 62
168 193 36
171 197 72
170 194 51
174 198 62
169 194 88
171 195 72
167 190 72
162 186 62
177 201 72
175 200 62
172 195 80
166 191 80
165 189 72
166 191 36
157 181 51
167 192 102
167 192 36
164 188 51
170 194 62
170 196 80
172 195 51
162 187 62
162 187 72
163 186 51
171 195 72
168 192 88
170 194 95
163 186 80
167 190 80
163 187 36
164 187 62
167 191 72
171 194 88
162 186 36
165 189 72
163 184 72
160 183 72
161 184 80
166 190 62
166 189 95
163 187 80
155 179 80
160 182 51
168 190 72
168 189 88
167 190 72
167 191 80
154 178 36
151 173 72
162 184 72
160 183 62
99 122 127
110 133 138
89 113 122
92 118 115
100 126 121
90 117 135
75 104 120
89 115 130
98 123 148
83 112 136
86 111 135
78 99 109
86 94 88
92 106 91
84 109 135
97 123 130
107 133 133
100 127 128
80 111 134
102 129 137
93 120 137
89 116 151
100 126 142
88 115 137
67 101 162
76 108 173
74 107 167
80 110 162
61 97 161
61 97 150
62 98 155
63 98 159
61 96 154
58 92 139
61 97 149
61 97 137
61 97 156
60 95 132
61 96 142
61 96 148
57 92 130
62 96 137
66 99 121
72 105 134
63 97 128
62 95 131
64 98 146
62 94 136
60 93 125
57 91 141
59 94 133
60 94 137
59 94 125
60 95 127
58 92 140
60 94 131
57 92 138
60 95 144
61 97 144
57 91 128
62 98 151
59 94 133
60 95 145
59 94 124
58 92 132
60 95 144
60 95 143
61 97 148
62 97 155
61 95 141
61 96 149
60 95 154
60 96 143
60 95 137
62 98 137
60 96 137
61 96 141
61 97 143
62 97 144
61 96 130
62 97 142
62 97 129
59 95 135
61 97 143
62 97 148
62 98 142
58 92 127
61 96 149
62 97 146
62 97 161
63 99 157
61 96 146
61 96 147
60 95 125
60 96 139
62 98 151
60 95 126
61 97 137
60 96 139
61 96 139
60 96 142
61 97 144
60 96 150
59 95 122
60 95 132
61 97 153
61 97 132
60 96 129
59 95 139
64 99 153
60 95 127
63 98 158
62 98 148
60 96 150
62 99 154
60 95 146
62 97 148
59 94 132
60 96 142
61 97 144
63 99 157
61 97 146
61 96 143
61 97 150
60 95 148
63 99 155
61 97 148
63 98 150
61 96 129
63 99 156
59 94 137
62 97 151
60 96 139
61 97 139
61 96 127
61 96 146
61 96 146
62 97 146
60 96 137
61 97 130
61 96 141
61 97 150
62 98 144
61 96 138
60 94 125
60 95 144
60 94 127
60 95 127
62 97 142
62 98 141
63 98 144
60 95 141
61 95 129
61 96 137
62 98 144
60 94 139
61 96 137
61 97 148
61 96 135
60 95 143
61 96 141
62 97 148
60 95 132
60 95 133
60 95 134
61 97 139
58 91 118
59 94 138
61 96 140
60 95 136
59 92 115
59 93 126
60 94 131
58 93 123
61 95 130
60 94 124
57 91 114
54 86 115
57 89 126
53 84 101
110 128 33
137 152 0
115 129 0
143 158 0
121 132 0
138 154 0
109 122 0
134 149 0
136 150 0
127 142 0
125 139 0
120 135 0
129 143 0
141 157 0
141 158 0
139 154 0
143 156 0
126 140 0
122 135 0
126 143 0
132 150 0
138 152 0
117 132 0
140 155 0
133 147 0
143 160 0
144 157 0
139 154 0
135 149 0
134 151 0
148 165 0
151 165 0
136 151 0
144 159 0
129 140 0
146 160 0
128 141 0
149 164 0
149 164 0
152 164 0
140 155 0
146 161 0
156 172 0
138 151 0
150 167 0
152 165 0
139 152 0
146 159 0
147 164 0
155 173 0
149 167 0
137 151 0
150 166 0
136 148 0
156 173 0
149 161 0
155 171 0
150 165 0
157 172 0
155 172 0
159 175 0
147 165 0
157 173 0
153 171 0
151 168 0
148 166 0
150 168 0
160 178 0
158 175 0
156 173 0
154 172 0
150 168 0
154 170 0
157 173 0
156 169 0
152 171 0
154 172 0
158 176 0
156 176 0
157 172 0
152 166 0
160 178 0
155 171 0
158 173 0
164 180 0
152 168 0
163 180 0
165 184 0
147 164 0
166 186 0
161 177 0
166 184 0
156 174 0
167 185 0
164 181 0
162 179 0
160 177 0
155 171 0
165 182 0
161 178 0
165 182 0
169 187 0
163 181 0
163 181 0
165 184 0
152 168 0
158 177 0
158 177 0
165 185 0
160 175 0
162 180 0
157 175 0
170 190 0
160 177 0
164 184 0
162 181 0
168 189 0
163 181 0
162 183 0
168 188 0
171 189 0
171 196 80
174 199 102
174 197 88
177 200 62
177 201 72
171 196 80
174 197 80
170 195 80
174 197 51
177 200 62
174 198 51
171 195 62
172 196 72
171 196 62
174 197 36
177 201 88
170 195 80
175 199 95
174 197 80
169 193 62
169 194 88
168 192 62
171 195 80
170 194 80
174 199 95
167 192 80
170 196 72
171 196 88
177 200 72
170 195 80
175 201 95
173 198 80
174 198 80
177 201 72
166 190 72
173 197 102
170 196 114
171 196 62
171 195 51
168 193 95
168 192 80
173 198 88
168 192 62
172 197 80
170 196 72
172 197 62
176 200 88
171 196 80
170 194 62
175 200 80
174 198 88
170 196 88
172 197 80
168 192 95
171 196 72
171 196 51
172 197 108
169 194 80
169 194 80
170 195 80
168 193 88
166 191 88
172 197 72
167 192 80
163 187 62
163 187 0
169 192 51
176 200 95
165 188 51
170 195 102
169 193 72
167 191 51
165 188 62
174 199 88
165 189 102
172 193 80
163 188 88
168 190 72
160 183 36
169 193 62
166 190 62
160 183 51
162 184 72
166 190 72
163 187 51
158 180 36
155 178 51
166 190 95
164 187 51
162 185 88
160 183 51
162 183 62
157 178 51
150 171 88
156 178 51
166 189 95
153 175 80
160 182 72
154 176 36
144 166 87
83 109 107
92 117 125
99 124 137
96 120 118
90 117 128
102 128 132
96 122 144
97 122 134
92 119 139
75 104 126
93 119 143
80 90 62
80 89 80
88 109 113
96 121 124
99 124 148
112 137 145
99 126 138
94 122 139
97 124 141
81 108 130
94 122 147
91 118 142
85 114 156
79 110 158
74 106 165
80 110 167
67 100 144
62 98 158
60 96 149
61 96 154
63 99 148
61 97 161
62 97 157
60 95 151
61 97 152
59 93 147
61 97 137
58 93 130
59 93 138
62 97 143
57 91 126
69 102 142
59 93 129
59 93 131
61 94 129
72 103 133
70 100 120
57 90 122
58 93 128
60 94 127
60 95 129
58 93 122
59 94 121
61 97 141
59 94 130
58 92 135
58 92 126
59 94 135
60 95 134
62 97 130
60 96 145
60 96 133
58 93 128
62 98 151
57 92 130
62 97 148
62 98 143
62 98 151
61 96 146
59 95 132
61 96 142
61 96 136
61 96 144
61 97 144
60 95 139
62 97 132
58 93 125
59 94 141
60 95 144
61 96 142
62 97 141
61 97 139
62 97 150
60 96 121
60 95 137
61 96 141
61 96 143
61 97 139
60 95 148
61 97 150
62 98 155
61 96 132
60 95 135
60 95 124
63 98 165
63 98 148
60 95 139
61 97 155
62 98 148
62 98 152
62 98 144
61 96 148
58 93 127
61 97 137
62 98 155
62 97 155
62 97 142
62 98 157
59 94 132
61 96 137
60 96 139
61 96 139
60 96 132
61 96 146
61 96 139
59 93 134
63 97 148
61 96 136
61 97 144
61 96 150
61 96 127
61 97 148
62 98 148
60 95 137
60 95 130
61 97 148
58 93 113
61 96 142
61 96 143
62 98 157
59 95 124
62 97 130
60 94 144
60 95 146
60 96 139
61 95 142
59 93 132
61 96 142
61 96 139
60 95 145
60 96 130
60 96 148
59 94 127
62 97 144
61 96 142
62 98 148
61 96 137
60 94 124
63 99 150
59 94 134
62 97 144
60 95 135
61 95 139
59 93 122
60 94 139
60 95 142
63 98 152
61 96 142
62 97 134
59 93 127
59 94 127
62 97 124
61 97 145
58 92 104
61 96 134
59 94 118
60 95 143
59 93 128
59 94 124
58 92 114
58 92 123
57 91 123
59 93 127
56 88 110
58 91 121
56 89 134
55 87 122
93 112 80
119 134 0
134 148 0
131 147 0
126 140 0
123 137 0
128 142 0
129 144 0
119 133 0
126 144 0
129 144 0
125 139 0
133 143 0
128 141 0
134 146 0
137 149 0
125 136 0
141 154 0
150 166 0
140 153 0
137 152 0
141 156 0
128 139 0
145 159 0
122 133 0
129 142 0
144 159 0
131 148 0
154 169 0
132 144 0
154 171 0
138 154 0
143 158 0
132 149 0
150 166 0
136 151 0
134 151 0
145 161 0
138 153 0
137 151 0
150 162 0
150 167 0
147 165 0
150 166 0
144 158 0
158 173 0
142 159 0
144 157 0
145 160 0
141 159 0
147 164 0
161 179 0
148 164 0
155 167 0
152 167 0
144 161 0
153 171 0
157 173 0
149 162 0
151 168 0
151 169 0
152 167 0
158 171 0
164 179 0
151 165 0
146 162 0
152 167 0
155 173 0
151 169 0
155 170 0
152 169 0
158 176 0
154 172 0
149 167 0
163 181 0
155 170 0
153 168 0
154 171 0
159 175 0
160 179 0
155 172 0
154 169 0
163 180 0
163 181 0
156 173 0
163 181 0
156 170 0
154 173 0
157 178 0
163 185 0
157 176 0
154 175 0
163 182 0
169 190 0
164 184 0
164 183 0
162 180 0
160 179 0
161 180 0
156 174 0
150 165 0
157 176 0
164 178 0
168 188 0
173 194 0
161 179 0
166 187 0
167 184 0
162 180 0
167 185 0
165 185 0
162 181 0
170 191 0
173 195 0
162 180 0
166 186 0
156 176 0
166 184 0
163 182 0
160 180 0
161 181 0
167 187 0
174 197 51
176 201 51
173 197 62
176 199 72
177 202 88
171 196 80
174 199 88
175 200 80
175 199 51
173 196 36
173 196 36
170 195 88
176 201 62
172 197 62
172 196 36
175 200 72
170 194 80
166 191 51
162 188 102
170 195 80
173 198 95
168 192 88
164 189 62
168 192 51
168 192 51
176 201 108
168 193 72
164 189 62
173 197 88
175 199 95
171 196 62
175 201 95
173 198 80
165 191 72
168 194 80
173 197 51
178 201 51
168 192 62
173 198 95
170 195 62
164 190 80
168 193 72
172 197 88
174 198 36
170 195 72
170 195 72
171 196 51
173 199 95
168 194 80
171 196 80
174 199 80
171 195 72
174 198 51
172 196 72
171 194 51
176 202 102
169 193 88
162 187 72
169 194 80
173 196 62
160 185 72
164 188 80
156 180 62
173 196 88
165 191 95
165 188 80
172 196 62
170 194 80
166 190 51
163 186 88
168 194 95
170 194 88
162 187 62
164 189 102
171 194 62
169 194 120
166 191 72
160 183 80
167 190 0
164 188 80
166 191 80
163 188 80
165 189 80
158 181 51
166 190 72
165 188 80
163 186 72
163 185 36
159 183 51
160 183 51
155 176 88
166 189 51
154 176 62
155 177 72
146 169 51
157 180 80
162 186 80
158 182 88
162 185 80
160 182 102
103 127 108
88 113 113
85 112 120
84 113 129
103 128 131
95 122 138
109 133 149
89 117 124
102 128 125
81 111 128
91 115 128
83 99 99
97 107 80
86 96 78
108 132 142
109 134 136
79 107 119
93 120 133
88 115 137
100 127 136
97 122 143
84 113 148
102 129 143
78 109 146
71 104 173
62 97 164
75 107 166
80 110 156
69 102 152
61 97 155
61 96 151
62 97 153
61 97 140
60 95 147
60 94 143
60 95 155
62 98 153
58 93 134
59 94 149
61 97 148
58 91 131
68 102 137
64 98 134
62 95 138
57 91 113
59 93 129
61 94 125
67 99 118
62 97 129
58 93 127
59 93 117
59 94 140
60 95 134
59 93 127
59 93 121
61 97 146
61 96 150
60 96 139
60 95 137
60 94 135
60 94 139
58 93 140
58 92 137
59 94 137
59 94 132
59 93 133
61 96 141
60 95 127
59 93 121
62 97 150
60 95 127
62 98 154
58 93 122
60 95 130
60 96 144
60 95 141
61 97 139
62 98 143
62 97 161
62 97 151
61 96 139
61 96 144
62 98 148
61 95 135
61 96 149
62 97 134
62 98 151
61 96 148
61 97 143
60 96 134
59 94 132
62 98 147
61 97 146
61 96 144
60 95 137
61 97 153
60 95 148
61 96 139
62 98 150
62 98 150
60 96 132
60 95 134
60 96 137
62 98 142
63 99 135
61 96 144
60 95 129
61 97 143
60 95 135
60 95 142
61 96 139
59 94 139
61 97 148
59 94 132
63 98 153
61 96 137
61 97 153
60 95 149
59 94 127
62 97 142
61 96 130
62 97 146
59 94 132
62 97 146
60 95 134
61 96 137
59 94 137
61 97 134
60 94 126
60 95 135
62 98 146
63 99 146
61 96 139
59 93 127
61 97 137
61 97 136
62 98 141
62 97 142
62 98 148
62 97 148
61 96 144
61 97 139
60 95 146
61 96 146
60 94 124
61 97 139
60 96 132
60 96 137
61 97 141
60 96 134
61 96 132
60 95 135
63 98 143
61 96 132
61 96 127
59 94 127
60 95 119
59 94 126
61 95 129
59 94 121
60 95 132
57 91 113
58 92 118
60 95 134
60 94 132
59 93 124
61 96 136
61 96 144
60 94 118
61 95 133
58 92 125
60 94 133
57 91 112
58 92 122
57 90 118
58 91 118
51 81 101
60 86 99
122 134 0
133 143 0
125 141 0
136 152 0
123 133 0
121 133 0
132 143 0
120 135 0
129 144 0
125 140 0
138 153 0
143 157 0
126 137 0
136 152 0
142 156 0
132 148 0
136 148 0
131 144 0
124 139 0
138 150 0
143 159 0
125 140 0
143 157 0
143 158 0
139 156 0
137 152 0
155 170 0
140 155 0
143 160 0
152 168 0
148 163 0
147 164 0
151 166 0
137 153 0
134 149 0
150 170 0
145 159 0
128 143 0
137 151 0
141 157 0
134 152 0
127 138 0
146 162 0
152 169 0
143 159 0
152 170 0
158 175 0
152 167 0
141 156 0
159 176 0
139 155 0
149 161 0
151 165 0
145 157 0
153 170 0
152 167 0
151 168 0
143 154 0
156 175 0
149 167 0
159 179 0
155 167 0
159 172 0
166 181 0
163 180 0
152 168 0
153 172 0
158 173 0
158 176 0
160 175 0
155 172 0
153 170 0
163 180 0
156 175 0
149 165 0
163 183 0
151 170 0
158 177 0
158 173 0
157 174 0
153 169 0
151 165 0
166 185 0
159 176 0
160 178 0
159 175 0
157 173 0
161 180 0
160 176 0
154 173 0
162 180 0
163 179 0
158 177 0
163 183 0
152 170 0
159 177 0
156 173 0
167 184 0
153 173 0
174 192 0
167 186 0
161 180 0
165 184 0
164 186 0
171 192 0
165 178 0
167 185 0
166 187 0
158 176 0
160 179 0
166 187 0
164 184 0
169 188 0
165 183 0
171 190 0
166 186 0
164 182 0
169 189 0
163 182 0
160 179 0
165 185 0
169 188 0
177 200 51
179 203 72
176 201 80
173 198 72
173 196 36
175 199 88
174 199 80
174 199 72
174 198 36
172 195 51
175 198 72
170 195 102
174 199 102
176 200 80
173 197 72
173 197 108
171 195 72
166 190 72
174 199 62
174 199 80
173 197 80
169 193 88
169 193 95
169 193 88
169 194 51
172 197 88
174 200 102
171 195 51
174 198 62
172 196 62
173 196 36
170 195 51
169 193 62
177 202 62
175 199 51
167 191 51
171 195 80
170 194 62
174 197 95
173 198 72
163 187 62
172 196 80
164 187 62
177 201 95
171 194 88
176 201 80
172 197 80
168 193 62
173 197 62
168 193 72
170 195 72
162 186 62
174 197 36
182 206 80
175 199 88
170 194 72
166 190 36
167 192 88
169 195 95
169 193 72
160 184 72
169 193 88
174 198 62
170 195 72
168 191 62
168 192 102
174 197 80
169 194 80
171 194 72
163 186 51
165 188 51
167 191 72
157 180 80
169 193 62
168 192 80
159 184 72
172 197 102
158 181 51
164 188 51
174 197 72
160 184 62
162 186 80
156 179 88
162 185 72
157 179 88
169 193 72
160 183 51
163 185 62
158 179 36
164 187 72
156 180 62
157 178 80
158 181 80
166 188 102
158 181 72
165 186 108
160 183 80
167 191 62
157 179 0
149 170 36
140 161 98
92 117 102
91 116 133
93 117 130
98 123 141
103 129 127
96 121 139
89 114 116
89 115 152
103 126 140
103 129 137
89 112 125
93 104 105
94 104 80
98 119 132
86 114 130
102 127 122
99 125 135
80 107 137
107 131 135
100 125 111
92 117 132
97 125 121
87 116 115
75 106 153
95 123 173
82 112 169
81 111 159
76 108 156
61 97 157
62 98 155
62 98 157
61 97 156
61 97 149
60 95 145
60 95 147
59 95 150
58 93 129
65 100 148
59 94 126
59 93 135
55 88 111
70 102 135
65 99 138
65 98 138
59 94 127
68 101 134
64 95 132
59 94 136
60 96 141
62 97 153
58 93 121
59 94 131
61 96 139
60 95 139
60 96 127
60 96 137
60 94 139
62 99 154
61 96 146
61 95 151
59 94 131
62 97 150
58 93 119
60 95 144
62 97 137
60 95 146
60 95 135
63 98 159
59 94 135
60 95 129
59 94 132
60 96 146
62 97 144
61 97 134
62 98 144
61 97 144
59 95 127
61 97 142
60 95 146
60 95 139
59 94 126
61 96 144
60 94 125
60 94 132
60 95 135
61 96 146
59 94 132
61 96 142
60 94 135
62 97 148
61 96 139
59 94 127
60 95 148
62 97 142
61 96 137
60 96 137
59 94 132
61 96 142
60 95 130
60 95 135
61 96 135
61 97 139
62 98 152
61 96 132
61 97 130
62 97 145
59 94 141
62 97 139
60 96 134
60 95 132
62 97 150
61 96 125
62 98 137
61 96 137
60 95 130
62 97 150
61 96 135
60 95 146
61 96 139
59 94 130
60 95 136
63 99 153
61 97 141
61 97 144
59 95 127
63 99 154
62 98 142
61 96 134
60 95 132
60 94 137
61 96 129
62 99 144
61 97 145
61 96 135
61 97 146
60 95 148
60 95 134
61 97 137
59 94 142
61 96 139
60 95 141
61 96 132
59 93 132
61 96 142
61 97 146
60 95 135
62 98 144
60 95 139
62 97 146
60 95 137
62 98 146
60 95 124
59 93 116
61 96 132
61 96 143
60 96 131
61 97 135
60 94 119
59 93 121
61 96 139
61 96 139
60 94 131
61 96 137
60 95 129
61 95 124
60 94 136
56 89 112
58 91 116
61 96 145
59 93 125
55 87 111
57 91 114
56 88 119
57 89 122
57 89 116
53 84 107
105 123 58
119 131 0
125 141 0
131 146 0
128 144 0
141 156 0
125 139 0
134 147 0
144 162 0
139 153 0
129 144 0
126 140 0
132 148 0
136 153 0
127 142 0
140 153 0
135 149 0
131 145 0
135 148 0
127 141 0
130 146 0
125 141 0
137 148 0
133 147 0
140 156 0
145 159 0
136 149 0
143 158 0
140 155 0
143 157 0
144 157 0
133 145 0
146 164 0
148 164 0
135 149 0
143 160 0
150 166 0
157 174 0
139 154 0
145 162 0
140 155 0
144 163 0
149 167 0
143 160 0
140 157 0
142 160 0
154 171 0
141 156 0
149 167 0
150 169 0
133 150 0
150 169 0
146 162 0
157 175 0
157 172 0
148 163 0
151 165 0
151 168 0
135 148 0
153 169 0
152 166 0
153 168 0
157 172 0
151 166 0
152 166 0
154 170 0
157 172 0
154 175 0
154 167 0
149 166 0
159 176 0
159 176 0
145 161 0
154 171 0
153 171 0
157 173 0
161 180 0
154 172 0
155 172 0
165 186 0
156 175 0
156 172 0
166 185 0
160 175 0
163 182 0
155 170 0
168 185 0
164 180 0
162 181 0
161 177 0
166 184 0
159 178 0
165 183 0
156 173 0
171 193 0
158 175 0
162 179 0
163 181 0
164 180 0
174 194 0
158 177 0
164 182 0
169 186 0
171 190 0
163 180 0
167 184 0
166 185 0
161 179 0
163 181 0
171 189 0
165 185 0
159 179 0
167 187 0
162 182 0
158 175 0
168 185 0
167 185 0
165 185 0
162 183 0
167 188 0
171 193 0
172 191 0
169 189 0
172 195 95
175 200 72
171 195 95
172 197 80
174 198 88
175 198 88
175 200 72
174 198 88
173 197 36
169 194 62
174 199 72
175 199 80
168 192 51
174 199 95
175 199 62
177 203 120
176 201 36
171 196 51
174 198 80
182 205 62
172 197 80
175 200 95
175 199 72
174 200 95
176 200 72
171 196 88
170 194 36
165 191 88
173 198 72
171 196 88
170 195 80
173 198 114
174 199 95
167 192 62
174 199 88
165 188 36
162 187 51
172 195 72
168 193 62
172 196 51
171 195 51
167 190 36
174 198 36
172 198 95
167 191 36
167 191 72
167 191 51
173 197 80
167 189 51
166 191 72
173 198 72
170 194 88
170 193 80
177 201 72
172 196 80
175 199 62
181 204 51
170 194 51
172 195 51
173 197 80
167 190 36
170 194 36
163 188 72
167 191 51
173 196 62
165 188 62
172 197 102
171 193 80
164 188 62
174 197 62
165 189 51
165 187 36
168 191 80
157 181 62
172 196 36
169 194 80
170 194 72
173 198 80
163 185 62
166 191 95
171 194 88
166 190 72
160 183 80
168 190 88
159 181 51
157 182 95
166 189 95
167 190 62
169 191 80
160 182 36
164 186 95
166 188 62
150 172 88
141 163 62
162 185 62
165 188 80
148 169 102
164 186 72
161 183 95
160 183 62
153 174 72
105 129 113
78 105 108
67 98 97
81 109 120
103 128 133
93 120 121
96 121 141
89 115 136
91 117 140
90 116 142
76 106 116
98 121 120
86 101 114
110 130 142
88 116 119
80 109 129
90 117 123
100 126 129
84 113 137
96 124 124
86 114 127
95 121 132
77 108 144
91 119 157
68 102 165
84 113 159
75 107 155
86 114 162
68 101 150
61 98 148
61 96 148
61 97 146
61 97 150
61 97 144
65 99 139
58 93 140
61 97 153
60 95 137
63 99 144
59 94 146
65 98 139
68 100 129
65 96 110
58 92 133
71 103 124
72 104 144
77 106 122
74 105 139
58 92 129
59 94 136
58 92 135
59 93 135
60 96 134
60 95 139
61 96 137
58 92 136
58 92 127
61 96 140
56 90 127
60 94 121
61 96 141
60 95 136
61 97 139
60 96 137
59 94 129
60 95 131
60 96 131
61 97 144
59 94 141
59 93 139
61 97 144
61 97 153
61 96 141
60 95 127
61 95 142
60 95 126
62 98 125
61 96 144
61 97 130
62 98 148
60 95 141
63 99 141
63 99 148
61 96 137
61 97 140
61 96 151
60 96 146
62 98 141
60 97 150
61 96 142
60 95 135
60 96 142
58 93 117
61 96 150
60 95 129
62 97 139
61 96 148
62 98 146
59 94 139
62 97 156
60 95 137
60 96 132
61 96 142
60 95 124
60 96 144
61 97 139
62 97 137
61 97 146
61 97 146
60 96 129
61 97 148
61 97 139
63 98 153
61 96 144
60 95 130
60 95 134
60 95 124
60 96 129
62 97 144
62 96 134
63 98 153
60 95 135
57 92 134
61 95 134
60 94 135
63 98 141
60 95 137
62 99 146
61 95 129
63 98 148
62 97 139
62 97 142
61 95 137
60 96 131
62 97 146
63 98 148
60 95 135
61 96 142
61 96 148
61 96 137
60 95 132
62 97 141
60 96 129
61 96 135
61 96 132
59 93 136
62 98 134
61 97 137
60 95 134
61 95 134
62 97 139
60 96 126
61 97 136
59 93 124
58 93 124
60 94 129
60 96 136
60 94 140
60 95 129
61 97 140
61 97 134
58 91 124
61 97 132
61 96 136
60 94 128
61 96 141
58 92 118
60 94 128
56 90 121
59 93 129
57 90 117
59 93 132
55 87 110
56 88 119
51 82 87
95 113 57
122 136 0
128 143 0
130 149 0
129 141 0
116 131 0
136 148 0
119 132 0
126 143 0
137 153 0
128 143 0
119 135 0
126 140 0
121 135 0
136 154 0
147 163 0
131 146 0
131 143 0
131 148 0
135 150 0
135 152 0
134 147 0
130 145 0
148 165 0
137 152 0
129 139 0
156 173 0
141 156 0
141 158 0
148 161 0
159 173 0
153 167 0
153 171 0
148 163 0
136 151 0
145 160 0
148 165 0
136 150 0
141 159 0
148 165 0
145 162 0
149 163 0
148 164 0
144 160 0
145 161 0
145 161 0
151 166 0
158 176 0
146 164 0
160 177 0
135 152 0
137 154 0
152 167 0
152 170 0
144 157 0
147 164 0
162 178 0
164 180 0
166 182 0
152 168 0
153 166 0
146 162 0
152 168 0
151 168 0
155 170 0
142 159 0
153 169 0
160 175 0
157 174 0
152 172 0
166 183 0
152 171 0
160 175 0
150 164 0
151 167 0
159 177 0
162 181 0
159 176 0
151 166 0
168 187 0
161 181 0
153 169 0
159 178 0
149 167 0
146 161 0
154 171 0
160 180 0
164 181 0
160 174 0
172 194 0
164 181 0
157 175 0
155 175 0
161 180 0
156 174 0
158 178 0
163 182 0
157 176 0
154 172 0
156 170 0
168 187 0
166 184 0
158 176 0
166 185 0
163 183 0
160 178 0
164 181 0
161 178 0
160 178 0
159 180 0
172 192 0
168 187 0
168 188 0
162 181 0
160 177 0
168 188 0
173 190 0
164 181 0
163 183 0
164 184 0
168 187 0
160 181 0
165 186 0
162 181 0
166 191 36
172 197 80
172 198 72
171 195 72
177 201 72
174 199 62
170 195 62
170 194 72
177 202 88
178 201 62
171 195 62
175 199 80
171 194 62
169 193 62
167 192 62
174 197 62
169 193 51
175 200 80
171 195 72
175 199 36
171 195 36
176 200 95
173 197 62
173 198 88
176 201 88
171 196 102
175 200 62
166 190 62
174 199 80
168 193 80
177 202 88
173 199 88
174 199 108
172 196 72
176 200 80
168 194 51
168 194 95
169 193 51
172 197 72
172 197 72
162 186 51
171 195 72
165 189 62
173 197 51
173 198 62
169 195 88
169 195 80
169 192 80
171 196 88
175 200 80
177 201 80
171 196 80
177 201 95
169 192 62
186 211 102
166 190 72
163 188 80
166 187 95
169 192 72
169 194 72
168 192 95
174 197 80
172 197 72
160 182 62
172 195 72
163 188 62
172 196 80
162 184 0
169 192 80
170 194 51
162 185 62
163 187 62
167 192 88
166 191 88
164 189 62
170 194 62
167 191 80
164 187 72
160 183 72
163 187 51
163 187 88
164 188 62
168 191 51
173 197 88
159 183 102
164 188 62
163 187 80
156 178 72
168 192 80
156 181 51
160 183 72
154 177 80
164 186 114
154 177 51
164 185 80
164 187 108
164 187 88
155 178 95
152 175 62
159 181 80
156 179 72
154 173 95
88 112 106
75 105 126
71 98 108
83 109 122
90 116 144
91 117 129
103 129 154
83 111 134
94 121 132
96 121 137
90 117 128
100 124 127
113 135 152
92 118 119
90 115 141
91 116 117
101 127 135
99 124 141
92 119 137
99 126 131
99 124 135
88 115 142
102 127 136
74 105 154
74 106 157
61 97 157
81 111 161
80 110 168
60 96 151
62 98 154
62 98 157
60 95 147
59 95 137
62 98 145
59 95 122
61 97 144
64 98 136
62 98 150
61 96 145
59 94 126
61 97 143
65 99 137
65 96 119
60 95 127
64 98 129
70 100 116
70 101 130
59 94 129
58 91 122
60 94 138
62 97 155
58 92 123
59 93 126
61 96 139
60 95 136
59 94 127
60 95 128
60 94 138
59 94 121
58 92 124
60 95 132
59 94 136
61 96 144
58 93 127
60 95 142
59 95 147
61 97 134
60 95 122
59 94 136
60 95 137
60 95 137
61 97 150
61 96 142
60 95 129
62 97 137
60 96 135
62 97 139
60 95 132
59 94 131
59 93 137
61 95 139
61 96 127
59 94 139
58 93 111
61 97 127
63 99 144
60 95 132
60 96 139
60 96 137
61 96 129
61 95 146
61 95 127
61 97 148
62 97 144
62 97 142
61 96 137
60 95 146
62 97 142
62 97 142
60 95 134
61 96 144
61 96 148
60 95 130
62 98 146
62 99 153
62 97 144
62 98 140
60 96 134
60 96 139
61 96 146
59 94 130
60 95 139
61 97 142
61 95 134
62 98 146
62 97 144
62 98 148
61 96 146
61 97 122
60 95 134
61 97 148
62 98 136
62 97 144
62 98 148
59 94 136
60 96 131
61 97 139
60 96 141
61 96 130
61 97 155
62 97 139
60 95 141
60 94 137
61 97 136
62 97 148
62 97 132
61 97 129
59 94 134
62 97 146
60 95 139
61 97 140
61 96 132
61 96 152
61 95 139
61 95 139
59 93 131
58 92 113
61 97 143
63 98 139
61 97 139
61 96 135
61 96 134
61 96 139
60 94 132
61 96 127
60 95 134
58 92 127
63 99 136
59 93 116
60 95 119
59 93 134
60 94 131
60 94 134
58 91 110
59 93 126
59 93 126
60 94 128
55 89 103
58 91 120
58 92 115
58 91 126
57 89 125
54 85 107
69 96 103
115 129 0
121 136 0
109 121 0
120 134 0
130 146 0
123 137 0
129 143 0
117 133 0
117 131 0
106 117 0
133 147 0
139 154 0
139 156 0
140 157 0
131 148 0
139 156 0
143 158 0
135 150 0
128 143 0
128 141 0
132 150 0
134 148 0
139 157 0
142 156 0
130 148 0
133 148 0
144 163 0
134 151 0
142 157 0
141 158 0
142 159 0
135 150 0
147 160 0
142 157 0
145 162 0
148 166 0
142 159 0
146 164 0
143 157 0
140 159 0
146 163 0
140 159 0
147 162 0
139 156 0
146 160 0
147 166 0
149 165 0
156 176 0
159 175 0
147 163 0
144 158 0
149 165 0
156 175 0
151 169 0
155 173 0
153 165 0
131 147 0
150 166 0
152 170 0
150 164 0
149 166 0
144 161 0
137 155 0
155 175 0
156 171 0
150 166 0
161 179 0
153 167 0
155 172 0
153 170 0
153 172 0
156 173 0
158 175 0
165 182 0
159 178 0
157 172 0
153 169 0
152 170 0
149 167 0
148 168 0
154 172 0
155 174 0
161 179 0
163 180 0
169 188 0
156 172 0
157 175 0
159 177 0
154 173 0
150 166 0
157 176 0
160 179 0
163 182 0
166 184 0
157 174 0
161 182 0
162 182 0
164 182 0
163 182 0
164 182 0
165 183 0
164 184 0
170 190 0
168 189 0
169 189 0
153 172 0
158 176 0
154 172 0
145 165 0
159 176 0
168 189 0
160 180 0
161 180 0
161 181 0
159 179 0
159 177 0
162 184 0
164 182 0
163 181 0
168 190 0
166 183 0
165 182 0
164 182 0
166 187 0
170 194 72
175 198 36
174 199 95
169 193 62
173 198 88
172 196 51
172 197 62
169 195 72
172 197 72
169 194 80
170 195 72
173 198 80
175 199 62
175 199 51
171 196 80
173 198 80
176 201 102
169 194 51
173 197 51
167 191 62
172 197 80
173 195 62
173 198 51
167 191 62
170 194 51
173 197 72
175 199 62
172 198 88
171 196 80
174 198 80
173 198 51
168 195 125
170 196 62
177 202 51
173 197 62
168 193 51
169 194 80
170 193 62
175 198 72
173 197 62
174 198 72
168 192 72
170 194 36
179 203 102
174 198 80
169 194 51
175 197 95
165 188 0
177 201 80
179 203 114
166 191 80
172 197 80
165 188 80
162 186 72
174 198 88
160 183 88
166 191 51
173 196 62
173 197 102
173 196 80
176 200 95
166 190 80
173 196 108
167 190 88
174 197 80
175 198 108
163 188 88
170 194 88
172 196 95
165 190 72
169 192 72
159 184 62
162 186 72
160 183 88
165 189 80
165 188 36
169 192 80
159 181 51
158 182 62
174 197 72
168 192 95
168 191 36
163 186 72
162 187 80
172 196 80
155 179 72
166 190 51
161 183 72
159 182 62
159 182 62
158 181 80
165 189 62
157 178 102
151 173 80
151 173 88
161 183 51
147 171 36
162 185 114
149 173 80
139 163 62
152 174 62
148 170 62
113 137 100
86 111 130
106 130 138
104 128 131
91 117 126
75 103 115
83 111 111
81 109 107
95 121 137
99 125 131
97 122 141
107 130 137
90 119 126
83 110 125
91 118 116
90 118 129
100 126 132
90 117 124
90 118 119
103 128 121
90 118 123
77 107 140
83 112 124
81 110 152
73 104 146
80 111 165
68 102 139
86 115 173
68 102 148
62 98 155
61 97 152
59 95 141
60 95 139
59 94 132
59 93 132
58 93 139
59 94 139
58 93 139
59 93 139
60 94 148
72 102 120
64 97 123
59 94 113
63 96 127
56 90 123
58 93 142
80 109 125
57 92 129
61 95 142
59 94 141
61 96 122
58 92 140
59 93 136
58 93 131
61 97 139
61 96 135
60 96 144
59 93 125
59 93 130
60 95 142
60 95 127
59 93 130
63 99 155
60 95 144
59 94 127
59 93 142
61 96 146
60 96 138
59 94 139
58 93 135
61 96 149
58 92 137
61 97 141
61 96 147
61 97 146
60 95 137
60 95 144
61 96 146
60 95 136
61 96 144
60 95 127
59 94 125
59 93 130
60 96 135
61 95 134
60 95 136
61 96 124
60 96 136
63 98 155
61 97 135
61 97 134
60 94 137
61 96 139
61 97 137
62 97 137
57 92 125
62 98 148
62 97 146
58 93 130
60 94 136
63 98 146
62 96 134
59 93 130
62 98 141
62 97 146
62 98 152
61 97 148
63 98 157
60 95 127
60 95 134
61 97 144
61 97 129
62 98 139
61 96 144
59 94 135
61 96 139
62 98 148
62 97 142
60 95 135
59 94 134
59 94 139
62 98 155
61 96 148
61 96 146
62 97 136
58 93 130
58 92 137
61 96 139
61 97 139
59 95 125
61 95 139
60 95 122
62 97 136
62 98 137
62 97 143
59 93 122
62 97 148
62 97 134
61 96 130
59 94 124
62 97 146
61 96 134
62 98 142
60 95 122
61 96 142
60 96 135
60 95 122
61 97 116
63 99 132
60 94 132
59 94 122
59 93 134
59 94 134
59 93 126
59 94 126
60 94 122
61 96 129
60 95 119
59 93 105
60 95 129
58 92 127
61 96 140
60 94 118
58 91 118
57 90 103
57 90 112
57 89 115
56 88 114
57 90 119
57 90 128
56 89 113
55 86 106
56 84 88
119 137 33
124 143 0
117 131 0
123 137 0
134 151 0
147 162 0
136 150 0
127 145 0
133 146 0
130 146 0
139 154 0
128 145 0
143 159 0
134 146 0
115 130 0
128 146 0
146 162 0
139 156 0
125 141 0
146 158 0
129 147 0
133 146 0
137 152 0
146 162 0
141 158 0
143 159 0
139 155 0
150 170 0
138 154 0
135 148 0
156 174 0
149 164 0
139 152 0
139 157 0
149 165 0
135 154 0
143 160 0
149 163 0
152 171 0
141 156 0
140 153 0
132 147 0
148 165 0
140 156 0
153 170 0
146 162 0
140 155 0
152 171 0
149 167 0
161 177 0
150 171 0
153 169 0
143 159 0
137 154 0
150 164 0
157 175 0
153 173 0
155 175 0
148 168 0
170 188 0
140 156 0
136 150 0
149 164 0
159 175 0
139 153 0
154 171 0
149 165 0
150 166 0
153 169 0
144 159 0
151 167 0
153 174 0
162 178 0
148 165 0
160 177 0
163 183 0
153 168 0
162 180 0
151 169 0
166 184 0
153 172 0
157 176 0
152 168 0
165 181 0
163 184 0
164 181 0
147 163 0
156 175 0
156 175 0
159 178 0
160 175 0
165 185 0
157 176 0
149 165 0
160 180 0
156 173 0
156 175 0
160 177 0
155 172 0
162 180 0
162 180 0
155 173 0
164 183 0
155 176 0
162 181 0
171 188 0
163 182 0
164 182 0
167 185 0
172 192 0
161 179 0
158 177 0
167 189 0
169 191 0
155 174 0
161 181 0
164 184 0
163 182 0
161 178 0
165 184 0
166 186 0
166 187 0
159 178 0
166 185 0
156 177 0
174 199 51
173 198 80
174 198 95
177 199 62
174 198 88
174 197 51
171 195 0
177 202 88
173 199 88
174 198 72
173 198 102
168 192 62
169 193 62
174 200 108
174 199 80
172 196 51
177 201 72
173 199 88
171 195 72
169 195 80
171 195 72
173 198 72
174 198 62
176 201 88
174 199 62
172 196 95
174 199 88
166 189 36
170 194 72
166 189 51
170 193 62
171 195 72
175 198 72
169 193 62
165 189 72
176 200 72
174 199 80
166 190 88
165 189 62
173 197 88
174 196 51
164 189 95
178 201 95
170 192 80
180 204 88
175 201 108
169 193 62
177 201 88
173 197 102
177 200 88
174 198 114
176 199 88
170 193 51
168 193 80
174 197 62
166 190 62
174 198 108
174 198 88
171 196 95
172 196 88
169 193 95
171 195 80
164 189 88
172 196 114
171 194 51
161 186 88
162 185 62
171 194 95
172 197 95
172 195 95
163 186 80
169 191 114
159 183 102
169 192 88
170 194 62
168 189 62
162 185 36
161 185 51
158 181 36
169 193 95
167 191 72
176 200 62
167 191 72
166 190 80
155 178 36
165 188 51
156 180 36
163 186 62
161 184 72
162 185 62
154 177 72
158 180 62
158 179 72
158 182 62
150 172 62
160 181 62
166 189 95
149 172 72
159 181 51
148 168 36
157 178 72
156 176 62
148 171 90
101 124 134
101 123 130
77 105 123
80 109 135
79 105 136
99 122 108
93 119 134
109 133 142
99 125 136
86 113 135
104 129 126
95 120 124
104 128 142
96 121 122
78 106 115
101 126 148
99 126 139
100 125 143
86 115 139
96 122 118
95 122 136
89 118 130
101 126 143
74 105 160
81 112 169
87 116 171
80 109 146
92 120 171
62 98 154
61 96 143
62 96 152
61 97 152
61 96 152
58 93 127
60 96 139
58 92 126
65 99 148
60 95 147
62 98 137
59 93 134
64 98 141
65 99 148
63 95 125
64 98 142
58 91 134
83 110 97
71 103 128
59 92 135
59 94 144
57 91 123
61 96 139
59 94 140
61 96 135
56 90 129
58 92 125
59 94 128
60 96 144
61 96 143
58 93 132
61 95 141
58 93 125
60 95 130
59 93 119
61 96 141
61 96 139
61 95 137
59 93 130
59 94 139
59 95 129
60 95 137
60 95 130
59 94 129
60 95 137
60 95 137
61 96 142
61 96 139
61 96 132
61 96 146
59 94 137
60 96 139
60 95 139
62 98 130
60 95 132
62 97 135
61 96 144
60 95 127
60 95 135
59 94 119
61 97 145
62 98 148
62 97 139
59 93 144
61 96 134
60 95 134
59 93 119
59 94 135
60 96 136
64 100 159
62 97 144
61 96 148
60 96 139
62 97 144
62 98 151
61 96 141
60 95 134
59 94 114
62 96 127
59 94 119
61 95 143
63 98 155
61 96 142
62 97 146
62 97 153
58 93 135
60 96 141
62 98 144
59 94 121
61 96 148
60 95 129
62 98 146
60 95 129
63 99 153
59 94 130
60 94 132
61 97 141
59 93 131
63 99 144
61 97 146
60 95 134
61 95 130
61 96 139
61 97 144
59 94 127
61 97 139
60 95 139
60 95 127
62 97 150
60 95 122
60 95 139
60 95 132
58 93 122
61 97 130
59 93 122
58 91 121
61 97 129
58 93 122
62 97 134
60 95 141
61 96 132
57 91 124
61 96 139
60 94 132
61 96 137
59 94 121
60 94 136
59 94 121
62 96 148
60 95 138
59 93 118
59 94 107
60 95 118
58 91 106
57 91 109
57 91 125
55 87 94
58 91 114
58 91 120
58 91 126
56 89 113
56 89 124
52 82 107
96 114 60
136 154 0
108 125 0
131 146 0
132 146 0
131 149 0
121 136 0
129 146 0
124 139 0
139 160 0
127 143 0
128 146 0
140 156 0
148 164 0
133 149 0
133 146 0
142 159 0
135 151 0
124 141 0
124 143 0
119 134 0
146 161 0
131 147 0
140 158 0
142 158 0
130 147 0
124 140 0
145 162 0
149 165 0
142 158 0
125 141 0
147 162 0
149 164 0
145 159 0
141 156 0
142 156 0
154 170 0
134 151 0
128 144 0
144 161 0
145 163 0
142 163 0
150 168 0
144 161 0
153 169 0
146 160 0
145 162 0
133 150 0
154 169 0
144 163 0
158 172 0
146 164 0
146 163 0
145 159 0
146 160 0
145 160 0
158 176 0
150 167 0
155 171 0
148 163 0
158 177 0
141 157 0
147 160 0
140 158 0
156 173 0
144 162 0
160 176 0
151 170 0
152 169 0
148 165 0
158 176 0
146 165 0
151 168 0
153 170 0
157 173 0
154 174 0
150 168 0
149 167 0
162 179 0
152 168 0
161 181 0
156 174 0
156 174 0
164 182 0
163 183 0
154 172 0
158 179 0
158 177 0
154 171 0
165 185 0
157 175 0
161 174 0
170 187 0
156 175 0
168 189 0
159 177 0
167 188 0
165 184 0
166 183 0
163 184 0
153 171 0
167 185 0
162 182 0
160 179 0
162 180 0
164 182 0
164 184 0
166 186 0
159 179 0
164 186 0
161 180 0
167 187 0
164 185 0
168 188 0
168 186 0
165 183 0
161 178 0
164 184 0
162 183 0
167 186 0
166 188 0
160 180 0
157 177 0
166 186 0
173 193 0
166 185 0
169 193 51
175 198 62
176 201 80
171 196 88
174 198 62
175 199 62
175 199 62
172 197 62
175 200 88
172 197 62
178 202 80
170 194 95
172 198 95
169 193 80
174 199 80
169 194 72
171 196 102
175 199 95
171 197 80
176 201 72
176 201 102
172 197 95
177 202 72
168 191 51
178 201 88
172 196 80
173 198 62
170 195 51
177 200 51
174 199 72
177 201 80
163 188 88
163 188 88
173 197 72
166 190 72
176 200 80
173 195 72
172 196 51
171 196 95
172 196 102
167 191 95
169 193 72
174 197 72
170 194 95
173 197 95
170 194 108
173 197 80
171 194 80
172 197 72
168 192 62
170 194 62
164 188 72
179 202 95
165 190 114
174 197 95
173 198 62
169 193 80
170 195 51
169 193 72
162 184 95
170 193 72
172 194 88
167 191 102
169 194 108
170 195 88
163 186 88
170 192 108
170 193 88
175 196 88
166 189 72
176 200 80
165 188 102
168 191 62
164 188 102
161 184 51
160 185 88
160 183 88
170 193 114
172 196 102
166 190 80
160 184 80
160 182 108
172 195 80
160 183 88
150 174 62
156 179 36
161 185 95
159 182 88
159 183 51
157 179 51
161 184 80
166 189 88
159 181 62
155 178 88
168 191 88
156 178 88
154 176 72
141 165 51
166 188 95
163 184 72
166 189 88
157 179 62
139 161 0
140 163 108
94 119 131
93 117 120
85 111 131
104 128 118
101 126 139
92 116 110
110 134 137
95 121 128
83 109 134
94 119 140
90 118 140
82 111 121
101 125 139
99 126 144
74 105 122
96 123 125
80 110 143
85 114 145
97 123 131
91 119 127
83 111 135
117 140 157
78 109 142
86 115 163
80 110 159
86 115 159
74 105 157
59 94 146
61 97 148
61 97 158
61 97 144
61 96 135
59 94 129
60 95 116
58 92 122
69 102 146
58 93 119
57 91 118
60 95 130
72 104 128
58 93 124
58 93 135
64 95 121
61 92 115
65 96 115
81 109 112
60 94 139
57 91 131
59 94 129
62 97 157
60 95 136
59 93 120
59 93 134
58 92 128
59 94 141
58 91 135
59 94 122
59 94 114
59 94 123
58 92 129
59 94 137
62 97 141
57 91 129
59 95 140
59 94 117
59 94 140
61 96 142
61 96 137
61 96 142
62 97 141
60 95 146
60 95 131
59 94 132
61 97 137
61 96 137
61 96 132
57 90 115
59 94 134
61 97 142
62 98 146
63 98 139
61 96 135
61 96 142
62 97 139
62 97 151
60 95 141
62 97 142
60 95 134
60 96 142
61 96 139
60 96 119
58 93 122
60 96 139
62 97 146
61 96 138
61 96 148
62 97 137
59 94 141
60 95 125
61 97 148
60 95 132
60 95 124
61 96 137
60 94 134
62 97 130
61 96 143
60 94 139
61 96 139
61 96 122
59 94 132
61 96 141
58 93 137
62 97 150
61 96 146
61 96 134
61 96 136
60 95 130
62 98 151
60 95 134
61 97 135
61 96 132
62 98 146
62 98 150
60 95 122
63 98 157
61 96 141
64 99 161
60 96 141
59 94 127
62 97 134
61 96 134
61 96 144
60 96 139
61 96 139
62 97 148
62 97 134
58 93 119
59 94 124
61 96 129
59 94 124
58 91 107
62 97 132
62 97 149
61 97 137
63 99 164
61 95 137
61 96 129
61 96 129
58 93 121
60 95 129
58 91 110
60 94 127
60 95 122
57 91 104
60 96 134
60 95 126
56 89 104
60 94 127
60 94 128
58 92 118
59 93 112
58 92 94
58 92 122
57 90 114
55 87 105
56 89 106
58 91 116
55 87 112
53 84 99
95 112 67
122 136 0
130 148 0
124 138 0
129 142 0
130 146 0
132 148 0
130 145 0
142 157 0
137 151 0
126 137 0
134 151 0
131 147 0
128 144 0
137 153 0
140 157 0
135 150 0
135 153 0
133 149 0
128 143 0
133 151 0
141 157 0
147 163 0
134 153 0
130 146 0
145 161 0
130 147 0
137 152 0
147 162 0
145 164 0
125 137 0
148 166 0
152 170 0
147 158 0
136 152 0
143 159 0
148 165 0
141 156 0
138 153 0
141 155 0
128 145 0
155 171 0
153 170 0
152 168 0
145 163 0
151 168 0
139 155 0
152 165 0
149 165 0
150 170 0
150 169 0
155 170 0
143 158 0
156 174 0
151 169 0
149 169 0
156 173 0
148 165 0
158 176 0
155 174 0
151 168 0
151 169 0
153 174 0
159 178 0
163 182 0
146 165 0
149 167 0
156 175 0
154 170 0
156 171 0
154 167 0
153 170 0
151 170 0
142 161 0
151 169 0
153 172 0
159 178 0
154 171 0
150 169 0
161 180 0
150 169 0
162 181 0
150 168 0
152 170 0
148 167 0
157 176 0
159 180 0
154 174 0
155 170 0
156 174 0
152 168 0
168 189 0
152 172 0
143 164 0
169 188 0
158 176 0
159 176 0
158 179 0
162 181 0
158 176 0
150 166 0
165 184 0
154 173 0
164 184 0
166 187 0
163 182 0
164 184 0
162 181 0
170 189 0
151 170 0
169 188 0
163 181 0
166 187 0
164 184 0
166 188 0
161 180 0
162 183 0
164 184 0
166 186 0
163 185 0
170 188 0
163 184 0
164 183 0
157 178 0
169 186 0
167 189 0
164 186 0
174 198 51
176 200 62
170 194 36
173 197 88
175 199 80
169 194 102
169 193 51
173 198 88
173 197 80
172 197 80
173 198 72
174 198 62
172 197 62
175 199 51
168 193 108
173 197 72
176 200 95
168 193 0
173 199 80
173 197 72
171 194 36
172 197 108
177 202 102
174 198 51
176 200 80
177 201 51
172 197 88
172 196 62
177 201 95
172 195 88
171 195 88
171 196 80
168 192 102
179 201 80
172 196 62
175 197 72
173 196 102
170 195 88
177 201 80
170 194 95
177 200 88
174 197 95
171 195 80
173 197 72
170 195 88
171 193 88
174 197 88
168 193 95
176 200 114
170 194 108
171 195 114
175 199 114
172 196 108
174 198 108
170 194 102
169 192 120
170 191 102
173 197 95
174 196 88
168 190 80
174 197 95
179 202 102
166 190 80
166 190 108
175 197 88
172 195 72
170 193 62
162 187 102
174 197 88
173 198 80
166 188 51
167 190 102
163 185 72
167 189 80
173 197 102
160 184 88
166 189 88
165 189 102
174 196 88
161 186 88
167 191 62
170 191 72
165 188 80
163 185 80
163 186 51
164 187 88
166 187 88
146 170 72
161 184 36
167 190 88
153 176 72
151 174 62
153 175 62
151 173 36
160 183 62
165 188 80
158 181 72
149 170 72
155 178 36
160 181 80
159 182 95
146 168 80
157 180 72
148 170 88
113 135 116
101 125 126
102 127 124
111 136 150
93 119 110
85 112 128
91 118 119
101 125 143
102 128 160
107 131 139
97 122 133
83 110 127
96 122 145
99 125 147
91 119 122
111 135 128
95 122 131
100 124 117
111 136 139
113 137 134
103 127 139
74 105 135
95 121 141
95 122 163
81 111 165
96 123 169
80 110 159
81 111 164
68 100 136
61 96 139
60 95 136
61 97 144
59 94 131
60 96 149
60 95 142
60 95 150
62 97 137
59 94 137
66 100 135
67 100 130
67 99 134
64 97 136
55 89 117
58 92 130
58 92 126
100 125 116
58 92 133
60 95 137
57 91 112
61 96 139
58 92 120
59 93 132
56 89 110
59 93 134
60 95 128
58 92 127
59 94 134
60 95 137
60 95 136
60 96 124
59 93 125
59 94 131
60 95 140
59 93 132
62 98 144
62 97 150
60 94 132
59 94 125
59 95 139
62 98 144
61 96 137
59 94 137
60 95 138
61 96 133
61 96 139
62 97 151
58 92 122
59 94 129
61 96 141
60 94 142
61 95 141
61 96 146
58 93 119
61 95 135
61 97 139
62 97 130
62 97 129
60 96 135
62 97 144
60 95 148
61 97 139
59 93 114
60 95 134
60 95 139
62 97 139
61 96 135
63 98 157
61 96 150
63 98 148
61 97 146
60 96 137
58 94 134
61 97 132
61 97 139
60 95 139
61 96 132
60 95 141
60 94 141
60 95 122
63 98 146
59 93 130
60 95 137
60 95 143
61 97 139
61 96 135
63 98 145
60 95 134
59 94 125
63 99 146
60 95 134
61 96 142
61 97 137
60 95 134
59 94 124
62 97 144
63 99 148
62 97 144
59 93 126
60 95 135
62 98 137
62 98 139
58 92 129
60 95 122
61 96 144
62 98 132
57 92 119
58 92 119
60 95 127
60 95 119
61 96 134
59 94 122
61 96 127
59 94 124
61 97 134
59 94 132
61 96 137
60 94 130
57 91 111
61 96 136
57 91 101
61 96 139
59 93 119
61 95 127
58 92 124
60 95 123
59 92 126
60 94 121
58 92 121
59 93 121
59 93 128
57 90 121
55 87 97
56 88 114
53 85 117
59 94 123
54 86 92
55 87 115
52 81 111
77 100 88
124 140 0
122 139 0
127 141 0
131 149 0
134 150 0
117 132 0
135 151 0
135 149 0
131 147 0
138 154 0
132 150 0
122 140 0
127 143 0
129 148 0
156 176 0
127 145 0
127 141 0
136 153 0
131 148 0
123 137 0
138 158 0
136 151 0
131 148 0
134 153 0
135 149 0
147 162 0
132 147 0
140 157 0
145 162 0
133 149 0
139 157 0
143 159 0
142 158 0
152 169 0
139 150 0
147 165 0
155 171 0
147 165 0
140 156 0
134 148 0
153 169 0
153 170 0
149 169 0
146 163 0
148 164 0
149 166 0
160 180 0
140 155 0
156 173 0
137 153 0
151 169 0
153 171 0
145 160 0
153 170 0
151 168 0
145 164 0
153 172 0
144 157 0
151 169 0
151 166 0
152 169 0
151 167 0
157 176 0
148 163 0
156 173 0
161 180 0
157 174 0
157 174 0
155 175 0
160 180 0
161 180 0
164 184 0
162 178 0
144 159 0
156 173 0
152 171 0
155 173 0
152 168 0
163 180 0
160 175 0
157 177 0
163 180 0
156 174 0
156 172 0
167 188 0
153 170 0
162 182 0
160 178 0
161 179 0
154 173 0
165 184 0
160 181 0
152 171 0
154 172 0
161 182 0
154 175 0
165 182 0
159 177 0
166 186 0
162 182 0
159 178 0
159 175 0
166 186 0
163 183 0
157 177 0
168 187 0
163 183 0
167 187 0
167 188 0
161 180 0
159 179 0
165 187 0
164 184 0
164 185 0
172 190 0
162 182 0
161 178 0
162 180 0
163 184 0
170 189 0
169 188 0
163 185 0
167 186 0
164 185 0
161 180 0
158 178 0
158 178 0
173 197 62
173 197 72
173 199 80
175 200 62
167 192 51
167 192 95
172 197 62
176 200 72
172 195 62
170 194 51
164 188 36
176 201 80
173 199 72
174 199 72
174 198 72
174 197 72
175 199 51
170 194 95
172 197 72
172 196 62
169 194 80
170 195 95
176 200 62
172 197 51
180 204 72
166 190 88
173 196 80
171 194 80
166 190 51
170 195 95
167 190 62
169 195 51
170 197 88
178 202 88
175 198 80
165 189 88
173 198 51
171 196 72
181 204 125
164 189 95
172 196 95
173 196 114
166 190 88
172 198 108
171 195 80
175 197 88
169 193 80
168 191 140
167 191 62
175 198 95
172 196 88
173 198 88
167 190 108
175 198 102
169 191 72
175 198 108
178 200 140
168 193 80
160 183 80
165 188 88
181 203 120
168 191 80
165 187 108
166 189 88
167 189 80
173 196 95
171 195 108
173 196 80
164 188 108
162 186 88
171 195 108
166 190 80
163 186 36
167 191 114
164 187 80
158 181 80
173 197 95
168 193 80
168 191 95
164 187 95
168 192 72
154 175 88
159 182 72
157 181 72
160 182 62
160 184 80
161 183 95
165 187 51
168 192 80
156 178 62
154 176 51
160 182 72
171 193 80
162 185 62
153 175 62
162 185 80
162 184 80
157 179 95
163 186 80
150 169 51
141 162 72
144 165 51
151 175 62
159 181 80
150 171 98
94 117 125
89 115 123
98 124 126
96 122 135
84 113 117
89 117 116
91 119 134
98 123 112
88 113 122
127 149 149
93 117 123
101 126 132
75 105 120
90 117 135
78 109 133
85 113 116
95 122 127
96 122 144
82 112 127
87 114 137
72 102 132
92 118 139
79 108 154
69 102 151
75 107 159
75 106 153
74 105 157
75 105 155
61 97 138
60 96 139
60 96 146
59 93 143
65 100 148
59 93 119
60 95 137
60 95 133
60 95 138
61 97 144
68 101 141
61 97 137
61 94 126
59 93 125
60 94 133
57 90 118
76 105 113
77 107 113
59 93 129
60 95 143
58 92 136
57 91 116
60 95 139
58 92 124
58 92 131
58 92 130
60 94 137
58 93 124
61 96 135
60 95 132
61 96 125
62 97 141
59 94 126
60 95 144
59 94 145
59 94 137
61 96 137
56 90 127
60 95 129
59 93 126
61 96 152
62 98 144
60 94 143
62 97 144
62 98 141
59 93 124
62 97 151
61 95 143
61 97 132
59 93 127
59 94 117
62 97 146
61 96 139
61 97 137
60 95 131
60 96 128
61 96 132
61 96 144
60 96 139
59 93 134
61 96 139
60 95 130
59 94 122
60 95 130
61 96 139
62 97 134
60 94 137
59 94 146
61 95 143
61 97 143
59 93 132
61 97 139
59 94 127
60 95 122
61 97 141
61 96 132
61 96 132
59 93 130
61 96 146
60 95 132
61 96 129
61 96 139
60 95 134
64 99 153
61 96 151
60 96 129
59 93 127
61 96 134
59 93 125
60 96 134
59 94 129
60 95 126
61 97 131
59 93 129
59 94 122
59 93 119
59 93 137
61 97 144
62 97 142
59 94 127
60 95 130
60 94 127
61 96 132
58 93 110
58 92 117
62 96 132
59 93 122
59 93 127
60 94 125
63 99 144
58 92 119
61 97 137
62 97 146
58 92 122
62 97 145
60 95 127
60 95 127
60 95 139
61 95 127
59 94 119
61 96 141
58 91 113
59 93 126
61 95 138
58 92 124
60 95 124
59 93 123
60 94 126
59 95 116
59 93 109
56 88 120
57 90 115
57 90 120
56 88 114
57 90 124
55 86 104
55 87 106
57 89 121
63 90 104
141 161 40
132 148 0
101 115 0
130 147 0
118 130 0
122 136 0
132 148 0
124 138 0
127 143 0
127 143 0
139 156 0
144 161 0
118 132 0
110 127 0
125 138 0
140 158 0
129 145 0
131 148 0
137 155 0
140 158 0
134 152 0
130 145 0
142 160 0
146 167 0
134 150 0
145 163 0
132 148 0
133 152 0
136 153 0
138 157 0
148 163 0
140 156 0
129 144 0
147 162 0
139 156 0
143 161 0
144 160 0
132 147 0
141 160 0
160 176 0
167 185 0
143 160 0
157 175 0
150 165 0
151 168 0
148 165 0
158 179 0
143 162 0
135 151 0
154 173 0
158 177 0
158 177 0
157 175 0
147 165 0
148 167 0
148 163 0
158 175 0
145 163 0
157 175 0
158 179 0
147 165 0
151 169 0
155 171 0
154 172 0
148 169 0
153 172 0
146 164 0
152 170 0
161 182 0
149 166 0
152 169 0
154 172 0
153 169 0
149 167 0
148 163 0
155 175 0
155 170 0
151 170 0
147 166 0
155 175 0
158 180 0
162 179 0
154 170 0
159 178 0
158 177 0
159 176 0
166 184 0
162 182 0
158 176 0
165 184 0
149 167 0
162 181 0
157 176 0
147 165 0
169 190 0
164 183 0
164 183 0
156 173 0
160 179 0
163 181 0
163 182 0
163 180 0
163 181 0
161 178 0
168 185 0
164 182 0
169 188 0
159 179 0
155 175 0
169 189 0
157 176 0
157 177 0
158 176 0
159 179 0
165 186 0
159 178 0
164 184 0
160 179 0
167 186 0
168 187 0
170 191 0
162 182 0
167 187 0
163 184 0
170 191 0
158 174 0
168 191 0
168 188 0
174 198 108
170 193 62
173 197 36
176 200 95
173 199 95
169 195 72
172 196 72
173 198 72
167 192 72
171 195 36
176 200 95
170 194 62
178 204 114
170 195 95
169 194 88
177 202 95
176 200 72
168 193 88
174 198 80
176 200 36
177 200 80
172 197 51
175 199 62
172 197 62
180 204 95
171 195 62
179 203 80
174 199 102
170 195 88
169 194 62
172 197 95
171 195 95
169 193 80
172 196 108
180 203 72
175 198 51
169 192 72
179 202 120
178 201 120
171 196 88
178 202 88
173 197 102
172 196 108
173 198 95
163 187 62
169 191 102
171 194 72
165 188 51
175 196 125
177 201 125
178 200 102
173 197 88
172 196 135
169 194 88
167 189 95
172 195 88
169 192 62
173 197 114
173 197 95
166 190 72
173 195 120
166 189 51
170 194 114
173 195 88
165 188 80
173 196 125
169 192 95
170 193 108
174 196 120
161 185 102
161 186 88
173 195 95
169 191 114
166 189 95
166 189 95
165 188 88
159 182 62
168 190 88
165 189 102
167 191 80
160 183 51
167 192 95
154 177 72
178 200 125
161 185 95
164 185 62
155 176 51
161 184 80
168 191 51
162 185 88
163 186 62
163 186 88
155 178 62
165 188 88
157 180 51
161 183 0
140 161 36
157 179 62
163 185 62
150 172 51
167 189 72
161 182 80
158 181 72
155 178 62
148 171 88
113 135 84
90 114 125
101 125 131
100 124 120
77 104 111
97 123 131
101 124 132
92 118 141
96 122 114
106 131 128
113 135 119
85 111 111
85 113 122
111 135 132
78 108 129
100 126 133
82 111 144
87 115 107
78 107 117
118 141 149
95 120 137
114 137 144
77 107 146
69 102 146
75 106 144
96 123 165
61 96 155
81 110 146
65 99 143
61 97 134
62 97 149
60 96 146
61 97 136
60 96 140
60 95 134
62 97 145
58 93 125
65 99 133
59 95 136
58 92 138
73 103 134
67 97 121
67 99 125
61 94 119
77 105 91
84 112 107
58 92 134
57 91 115
58 91 104
60 95 133
61 95 129
58 91 121
59 93 122
62 98 146
61 95 145
58 92 113
59 94 102
59 94 134
60 94 126
60 95 129
58 92 137
57 91 122
61 96 130
58 91 125
60 94 134
60 95 137
57 91 124
61 96 130
59 94 127
60 95 119
58 93 127
56 90 120
61 96 134
63 99 135
61 96 142
59 94 135
60 95 132
61 95 130
58 92 127
63 98 150
61 95 146
61 97 137
62 97 142
61 96 127
61 96 139
59 93 119
62 96 139
59 92 124
61 96 142
60 95 135
60 95 122
62 98 137
61 97 146
59 94 134
62 97 132
62 98 150
61 97 144
58 92 119
61 95 146
60 95 139
61 96 130
61 97 132
61 97 144
61 95 127
60 95 137
60 95 146
60 94 122
58 93 124
59 94 119
61 96 137
62 98 144
59 94 119
59 93 137
59 94 122
61 96 146
60 95 139
59 93 139
62 97 142
62 98 146
61 95 129
61 97 134
61 97 141
60 94 132
60 95 129
61 95 124
61 95 148
61 96 132
60 94 124
62 98 132
60 94 125
60 94 137
61 96 135
60 94 132
60 94 121
61 96 122
60 95 121
61 96 139
60 94 137
60 95 136
60 95 132
59 93 124
61 96 127
59 94 127
63 98 150
60 95 119
61 96 139
58 92 115
58 93 129
58 92 124
59 93 122
60 95 127
59 93 113
60 95 129
60 95 133
62 97 143
58 92 107
58 92 110
56 89 118
58 91 115
57 91 124
57 90 114
58 92 119
58 92 112
55 87 117
54 84 94
57 87 110
102 121 45
115 129 0
117 134 0
110 128 0
107 122 0
124 139 0
120 132 0
139 156 0
129 145 0
132 146 0
123 140 0
123 138 0
126 141 0
136 149 0
141 159 0
135 152 0
117 131 0
124 140 0
142 157 0
134 150 0
132 151 0
135 152 0
141 155 0
133 151 0
147 162 0
140 158 0
144 163 0
129 145 0
137 153 0
148 166 0
142 158 0
148 165 0
127 140 0
141 159 0
133 151 0
136 152 0
150 168 0
142 158 0
143 162 0
147 162 0
149 167 0
136 154 0
142 157 0
137 156 0
137 153 0
161 179 0
147 163 0
135 151 0
150 168 0
158 174 0
153 172 0
145 164 0
142 159 0
155 173 0
132 151 0
141 159 0
159 176 0
150 171 0
140 157 0
148 164 0
155 174 0
151 167 0
151 170 0
151 169 0
154 172 0
152 169 0
154 172 0
157 176 0
165 184 0
159 177 0
146 164 0
154 172 0
154 172 0
152 168 0
148 168 0
148 168 0
155 174 0
152 167 0
156 173 0
151 169 0
168 186 0
164 181 0
161 179 0
169 189 0
162 180 0
154 171 0
158 177 0
152 171 0
160 177 0
162 182 0
167 186 0
160 180 0
158 175 0
165 184 0
152 170 0
161 182 0
162 180 0
154 172 0
161 179 0
156 173 0
164 180 0
158 179 0
161 180 0
154 174 0
158 177 0
165 184 0
166 186 0
156 178 0
164 184 0
161 182 0
158 179 0
159 178 0
164 185 0
153 173 0
164 184 0
166 187 0
170 191 0
166 185 0
162 180 0
154 171 0
170 189 0
164 184 0
165 185 0
158 177 0
170 190 0
169 187 0
164 184 0
173 191 0
166 187 0
173 198 51
175 198 80
167 191 88
172 197 88
173 197 62
171 195 62
172 196 95
172 197 80
177 202 80
171 196 80
177 202 80
170 194 72
174 198 62
172 197 72
173 197 80
175 199 95
166 191 80
175 199 88
167 192 88
171 197 62
170 193 72
176 199 72
173 197 72
168 194 95
173 198 108
168 193 62
172 197 95
175 199 88
168 192 80
180 204 95
173 199 80
175 200 88
169 194 72
176 198 62
166 191 125
178 201 80
165 190 102
178 200 62
177 199 102
175 199 108
168 191 88
173 195 88
180 202 108
175 199 120
174 197 88
172 194 102
175 198 108
178 202 120
169 192 80
172 196 102
168 191 80
170 193 95
177 201 120
167 191 95
176 199 120
163 188 108
173 196 72
173 196 88
168 191 88
172 195 88
164 188 88
167 190 102
160 183 80
174 196 102
165 190 120
174 197 114
170 191 88
170 192 95
171 194 88
164 187 72
166 189 95
165 188 114
172 194 102
166 189 95
166 189 72
163 186 95
167 190 102
163 187 88
175 198 120
172 194 62
164 187 88
168 190 102
154 175 36
166 189 95
159 182 72
156 179 102
160 182 95
166 189 102
164 187 108
163 185 95
146 169 72
156 178 108
153 174 80
159 180 72
159 181 72
137 159 36
159 182 80
150 172 62
153 177 51
146 167 51
151 173 72
162 185 120
159 179 72
146 167 95
144 165 36
145 167 62
98 119 127
100 123 126
70 101 114
100 126 131
86 112 101
78 106 115
103 127 136
85 112 128
100 125 118
74 103 114
110 134 127
102 126 137
116 138 148
105 130 124
88 115 108
89 117 131
98 126 141
92 119 131
104 129 127
82 111 132
94 121 119
105 130 137
60 96 146
79 109 139
91 118 163
80 109 157
80 108 148
71 104 133
59 94 141
61 96 146
62 99 150
60 95 140
61 96 139
61 96 139
59 94 137
61 96 137
59 94 127
64 97 121
70 102 122
62 96 132
63 95 129
80 109 129
57 91 110
72 102 107
88 114 101
58 91 116
61 96 136
61 96 137
57 91 116
60 95 140
60 95 136
59 93 113
58 93 129
57 90 122
58 93 131
59 93 121
58 93 134
58 91 120
58 92 132
58 92 113
61 96 128
58 92 127
59 94 132
59 93 127
57 91 127
57 90 126
60 96 139
59 94 145
60 95 135
61 97 151
60 95 132
58 92 119
60 95 127
59 94 139
61 97 148
59 94 143
60 95 125
60 96 134
57 91 116
58 92 116
60 96 130
59 93 122
59 94 127
59 94 139
58 94 116
59 94 124
59 93 122
58 92 127
59 93 122
59 93 127
61 96 125
59 94 128
61 96 134
59 94 119
60 95 127
61 95 130
60 95 127
60 95 127
63 99 150
61 96 119
60 95 137
60 95 122
61 96 137
59 94 125
61 97 130
60 95 139
62 97 132
60 95 139
60 95 129
60 95 132
59 94 141
62 97 144
62 98 135
59 94 121
57 92 122
61 96 142
61 96 129
59 94 134
61 95 135
59 93 125
61 96 134
62 97 137
60 95 139
61 96 129
60 95 139
59 95 119
60 95 129
60 94 127
59 94 124
60 94 127
59 94 119
60 94 132
60 94 119
60 96 132
59 93 127
60 95 136
57 91 119
60 94 127
62 97 146
61 96 127
61 96 141
61 96 127
59 94 123
59 93 133
62 98 137
58 92 113
56 89 107
61 96 131
61 95 127
61 95 127
60 94 131
59 93 113
58 91 104
61 96 145
56 89 107
60 94 120
57 90 101
57 90 115
58 91 127
56 89 102
56 88 89
59 92 128
55 87 88
54 86 106
109 126 62
127 143 0
110 123 0
129 145 0
118 132 0
144 156 0
137 150 0
124 140 0
126 145 0
140 157 0
127 142 0
120 130 0
130 144 0
122 135 0
115 132 0
136 153 0
125 142 0
133 149 0
120 137 0
135 154 0
134 152 0
133 151 0
140 157 0
137 153 0
123 138 0
124 145 0
140 158 0
133 150 0
149 164 0
147 162 0
131 149 0
154 174 0
154 172 0
146 162 0
143 160 0
139 152 0
140 158 0
150 168 0
142 162 0
145 163 0
141 156 0
138 154 0
152 171 0
152 169 0
152 168 0
155 174 0
144 159 0
147 164 0
147 164 0
157 176 0
139 157 0
155 171 0
139 154 0
149 167 0
138 153 0
146 167 0
143 161 0
142 161 0
150 166 0
143 160 0
153 170 0
160 178 0
158 177 0
143 161 0
151 170 0
156 176 0
152 172 0
157 172 0
141 159 0
148 165 0
153 171 0
151 167 0
162 181 0
144 162 0
153 169 0
155 173 0
162 178 0
151 169 0
163 180 0
162 181 0
151 169 0
155 174 0
157 175 0
153 172 0
151 168 0
157 175 0
155 174 0
164 181 0
159 176 0
163 183 0
156 174 0
165 184 0
159 178 0
160 178 0
167 186 0
169 188 0
163 182 0
165 186 0
154 174 0
166 185 0
162 181 0
164 182 0
152 168 0
163 185 0
170 191 0
160 181 0
161 180 0
157 176 0
160 179 0
161 178 0
159 179 0
172 192 0
162 182 0
162 184 0
163 184 0
158 177 0
159 178 0
165 185 0
160 183 0
165 184 0
168 186 0
161 181 0
165 183 0
163 184 0
169 186 0
168 189 0
169 190 0
168 189 0
157 176 0
163 184 0
174 198 80
167 192 72
175 200 62
174 198 80
175 200 72
179 202 62
171 195 80
173 197 72
173 199 72
175 199 72
167 193 95
177 201 72
170 194 51
175 199 72
172 197 51
176 200 80
170 196 80
177 201 72
171 194 62
166 190 51
175 198 72
172 196 51
174 199 88
176 200 95
168 191 72
174 199 88
175 200 80
174 199 80
169 193 80
175 199 72
174 197 80
168 190 62
172 195 114
171 192 102
170 193 72
173 198 102
173 196 120
166 190 102
172 195 108
172 196 120
171 194 88
178 200 102
174 199 95
177 201 108
173 197 72
179 201 120
178 202 108
172 195 88
169 193 95
162 186 80
169 192 102
168 192 88
168 191 88
176 200 95
164 187 80
176 198 102
172 195 120
178 200 114
173 196 80
170 193 95
167 188 108
172 196 95
168 191 88
166 190 88
170 192 108
167 189 120
172 194 102
171 193 102
169 192 108
173 197 95
169 192 114
169 191 102
171 194 108
165 187 108
156 180 88
166 190 95
149 172 51
169 192 102
173 196 95
165 187 120
160 185 62
163 185 102
168 192 102
147 169 36
162 184 102
161 184 80
168 190 108
158 182 80
168 190 88
164 186 120
163 184 108
162 184 95
156 180 72
161 183 36
163 186 95
158 180 80
162 184 62
156 178 72
151 172 80
136 157 36
166 187 102
157 178 51
148 169 72
140 160 36
156 176 102
149 169 51
134 155 83
72 100 104
102 127 120
98 121 121
73 101 100
96 121 123
106 129 116
102 126 138
113 134 146
94 119 147
98 123 122
116 138 146
118 142 130
108 134 137
68 97 116
113 137 143
91 119 137
96 124 135
93 120 149
90 117 131
92 119 145
90 118 126
90 117 151
80 109 154
81 111 154
61 97 148
76 107 144
85 116 134
60 95 141
62 98 146
61 96 148
60 94 140
62 96 150
60 95 137
60 95 132
67 101 142
62 94 127
62 95 112
61 96 127
64 97 127
60 96 139
64 97 124
64 96 123
54 86 119
100 126 102
57 90 110
57 90 119
55 87 127
60 95 131
58 92 110
59 94 117
57 92 104
57 91 131
59 93 122
60 94 127
62 97 134
58 92 129
60 95 119
61 96 129
61 96 113
58 92 111
59 93 119
59 94 129
59 94 134
61 96 137
60 94 122
60 95 124
59 93 133
59 93 116
59 93 131
59 94 113
60 95 137
60 95 137
60 95 139
61 96 132
60 94 125
61 96 133
60 95 135
60 96 136
61 97 137
59 94 129
61 96 125
60 95 134
62 97 141
57 91 113
58 93 132
60 95 151
59 94 130
60 95 127
61 95 137
60 96 139
62 97 137
61 96 150
63 98 152
60 95 127
62 97 130
59 93 122
59 94 129
61 97 129
61 96 131
62 98 131
62 98 144
61 95 136
60 95 134
58 93 119
62 97 132
58 92 130
60 95 134
59 94 132
60 95 134
61 96 137
60 95 127
62 97 135
59 94 132
59 94 126
60 95 130
60 95 127
59 94 127
58 93 129
60 96 120
61 96 129
59 93 116
61 95 134
58 93 111
60 96 127
58 92 119
59 94 122
60 95 125
60 95 119
58 93 121
59 94 116
60 95 139
61 96 139
59 93 119
60 95 126
60 95 139
62 96 143
60 95 132
60 95 119
59 93 132
61 97 131
60 94 116
60 94 131
60 95 126
59 93 114
62 97 137
58 92 116
58 92 119
60 95 131
60 94 129
60 95 122
61 95 133
58 91 119
61 96 147
59 94 125
57 89 112
57 90 117
57 90 127
56 89 119
57 89 105
58 91 128
51 81 88
53 84 105
104 120 62
112 131 0
114 129 0
120 136 0
131 147 0
116 129 0
130 145 0
134 149 0
125 142 0
126 141 0
135 153 0
129 144 0
132 150 0
140 156 0
138 156 0
117 132 0
143 159 0
144 159 0
138 155 0
124 139 0
129 145 0
130 147 0
143 160 0
136 151 0
157 175 0
132 148 0
137 155 0
150 167 0
142 159 0
149 166 0
137 153 0
132 151 0
138 155 0
145 161 0
144 161 0
148 164 0
148 165 0
147 164 0
133 149 0
141 158 0
143 159 0
135 152 0
140 160 0
147 164 0
142 161 0
154 172 0
141 158 0
150 165 0
148 166 0
142 159 0
150 170 0
146 164 0
157 175 0
155 174 0
149 168 0
153 172 0
148 165 0
151 168 0
144 157 0
148 164 0
150 169 0
151 167 0
151 167 0
146 163 0
161 179 0
157 178 0
147 168 0
153 172 0
156 173 0
147 165 0
155 173 0
145 165 0
161 178 0
148 168 0
150 171 0
160 181 0
162 182 0
162 181 0
157 174 0
156 176 0
167 187 0
151 167 0
155 173 0
154 172 0
156 176 0
164 186 0
162 184 0
155 174 0
154 173 0
160 180 0
158 180 0
158 175 0
151 169 0
156 175 0
166 182 0
165 184 0
163 184 0
159 179 0
160 181 0
160 179 0
161 180 0
159 180 0
161 180 0
165 185 0
161 181 0
155 175 0
162 181 0
164 185 0
165 183 0
166 187 0
168 186 0
157 178 0
160 180 0
159 177 0
163 181 0
164 188 0
162 182 0
169 188 0
165 188 0
167 187 0
165 187 0
162 181 0
171 192 0
160 181 0
166 188 0
161 182 0
164 183 0
163 181 0
163 183 0
162 183 0
168 189 0
177 201 95
171 195 72
176 201 102
164 188 72
174 198 80
174 198 95
173 197 80
175 199 102
175 200 102
171 196 80
172 195 36
175 199 51
176 200 80
171 195 72
176 201 51
173 196 51
170 194 36
173 196 102
169 193 72
174 199 102
174 200 102
174 198 51
170 194 88
178 202 120
178 203 130
164 187 51
181 204 95
184 207 130
172 196 135
166 191 88
171 195 102
175 199 102
170 194 72
169 193 102
174 197 95
173 197 102
168 190 102
178 201 114
175 199 120
167 190 88
173 197 120
173 197 88
172 195 102
170 193 102
174 197 125
169 193 95
171 195 88
172 195 88
163 187 80
170 193 88
169 194 95
178 200 88
160 184 80
167 190 95
163 187 80
167 190 88
160 185 72
164 187 80
166 190 72
177 199 114
174 196 95
172 195 88
169 192 108
169 192 95
169 192 95
169 192 102
170 193 95
169 194 114
175 198 80
165 189 88
167 189 88
179 201 114
169 193 88
165 187 114
171 194 120
158 180 95
170 193 120
166 188 95
170 190 114
167 190 114
163 185 88
174 196 114
148 171 72
165 188 62
164 186 108
167 189 108
174 197 80
164 188 114
159 182 88
150 173 51
155 178 62
175 197 108
168 190 114
156 179 62
156 179 80
166 188 80
166 189 80
160 184 36
153 175 102
147 168 95
148 168 62
149 171 72
149 171 72
148 171 36
151 173 72
147 168 88
122 143 0
90 114 63
81 108 110
82 109 97
93 119 115
88 113 113
91 116 110
94 120 127
97 122 113
97 122 118
80 108 125
83 110 125
91 118 139
100 124 148
92 118 124
105 131 130
91 119 119
107 133 137
90 117 105
97 121 121
81 110 122
103 128 119
84 113 137
68 101 154
69 103 153
79 108 146
81 112 137
69 104 153
64 98 141
59 94 126
60 96 145
62 97 153
61 96 134
60 95 146
59 94 139
60 95 145
59 94 135
59 93 131
66 98 124
64 98 137
58 92 137
59 93 125
60 94 137
57 91 120
81 109 109
75 104 101
59 93 118
59 92 119
60 94 133
58 91 120
60 95 116
56 89 110
58 92 119
57 90 120
58 92 124
58 91 110
60 96 136
61 95 132
60 94 132
59 93 132
58 92 119
59 93 116
60 95 139
59 93 132
58 93 101
60 95 129
61 96 144
59 94 139
59 93 114
59 94 139
58 92 129
60 95 124
62 98 139
60 95 137
59 94 130
61 96 125
61 96 137
61 95 130
62 97 141
59 93 130
63 98 135
60 95 137
59 93 122
60 94 124
58 93 116
60 95 130
60 96 133
58 92 124
61 96 125
57 91 114
58 93 129
60 95 132
60 96 132
60 95 124
61 96 130
60 94 134
58 92 132
61 95 132
61 97 139
58 93 126
60 95 132
60 94 121
60 95 137
59 94 124
60 95 139
61 96 137
63 98 150
60 95 140
62 98 148
60 95 137
61 97 139
60 94 129
60 96 137
60 95 134
59 93 113
59 94 122
60 95 132
60 95 132
60 94 124
61 97 132
61 96 124
59 93 116
59 93 124
61 96 137
58 92 132
60 95 134
60 95 131
60 95 136
60 95 127
59 93 119
61 96 146
59 94 124
60 95 127
59 94 124
61 96 130
58 92 116
62 97 127
58 92 113
60 95 116
62 97 144
61 95 136
60 95 129
58 93 119
58 92 119
58 92 107
59 94 124
59 94 124
59 93 124
61 96 136
59 94 129
59 94 124
60 95 133
60 94 128
61 95 128
57 90 118
57 90 112
57 89 122
57 90 121
56 89 90
55 87 111
54 85 97
53 84 101
102 124 73
105 118 0
109 127 0
128 146 0
127 139 0
127 144 0
116 134 0
103 114 0
133 150 0
124 140 0
135 151 0
134 149 0
128 144 0
137 156 0
137 155 0
138 156 0
125 139 0
125 143 0
137 152 0
132 147 0
134 150 0
130 150 0
131 148 0
133 153 0
136 150 0
134 153 0
134 153 0
139 155 0
131 146 0
146 163 0
155 174 0
143 160 0
141 159 0
143 162 0
118 135 0
154 175 0
151 165 0
144 161 0
141 156 0
142 158 0
156 176 0
145 161 0
151 168 0
147 167 0
144 163 0
152 169 0
147 166 0
159 177 0
151 168 0
146 159 0
157 179 0
136 153 0
142 159 0
144 162 0
154 172 0
152 171 0
161 180 0
141 157 0
155 172 0
155 173 0
153 170 0
137 156 0
154 171 0
140 158 0
155 176 0
150 169 0
164 183 0
155 174 0
148 170 0
149 168 0
155 175 0
159 177 0
161 179 0
154 169 0
165 182 0
157 176 0
153 171 0
160 177 0
165 183 0
149 168 0
143 156 0
156 174 0
139 157 0
155 173 0
166 186 0
162 181 0
163 182 0
152 170 0
160 179 0
162 180 0
161 179 0
160 181 0
146 160 0
161 180 0
161 180 0
162 181 0
161 182 0
151 168 0
159 180 0
155 175 0
162 179 0
158 179 0
160 177 0
156 174 0
165 183 0
163 181 0
167 190 0
170 190 0
153 172 0
160 180 0
157 178 0
166 187 0
146 164 0
159 177 0
173 193 0
162 180 0
171 191 0
165 186 0
163 182 0
158 178 0
162 182 0
166 187 0
167 188 0
166 189 0
161 183 0
162 183 0
161 177 0
168 188 0
162 180 0
160 177 0
174 193 0
167 187 0
178 202 80
171 195 62
175 200 80
176 201 88
179 204 80
175 198 80
175 200 80
181 203 80
180 204 80
170 195 62
176 201 102
177 201 51
179 202 36
169 194 72
177 201 72
171 195 36
178 201 95
180 204 80
168 191 72
175 199 102
175 199 102
178 203 80
165 189 36
173 196 95
179 202 120
177 200 102
180 203 88
180 203 108
171 194 108
168 192 80
175 198 120
175 198 80
176 200 120
170 195 95
166 191 72
173 196 72
172 197 95
170 194 114
170 193 95
177 200 114
177 201 125
172 194 72
165 189 102
168 191 88
172 196 102
175 197 114
167 189 88
171 195 88
172 197 102
173 197 108
167 190 80
179 202 120
172 197 135
174 198 108
165 189 95
170 194 102
165 188 88
169 193 80
167 192 95
171 194 102
170 192 95
167 188 102
168 192 88
175 197 88
172 195 120
164 187 88
164 188 88
162 186 95
160 183 88
172 195 88
162 186 88
165 186 102
164 187 72
169 192 88
169 193 80
160 183 88
164 188 102
164 186 108
169 192 102
171 195 95
167 189 88
160 183 95
155 176 108
167 189 108
161 185 95
153 176 80
168 190 120
159 182 95
166 187 62
166 187 102
171 192 102
158 180 88
165 187 80
160 183 72
151 172 72
155 177 62
157 179 36
150 173 72
148 170 102
150 171 62
160 181 80
155 177 80
157 179 36
163 183 88
150 171 88
162 183 80
149 168 95
142 163 88
98 121 123
90 115 111
87 112 115
105 128 133
107 129 122
99 122 122
102 128 104
89 113 107
109 133 141
106 130 123
90 117 102
90 116 115
100 124 123
100 125 120
105 130 135
87 114 144
112 137 144
95 121 123
92 118 144
92 118 156
104 129 142
85 113 155
70 103 157
88 117 159
80 109 147
87 118 125
77 108 124
60 95 132
60 95 137
61 95 139
60 96 134
58 92 124
59 94 131
63 99 153
59 94 127
68 101 121
59 94 130
58 92 127
60 94 131
57 91 118
58 91 116
59 93 125
86 115 111
86 114 117
57 91 113
59 94 104
54 86 124
59 93 136
57 91 105
61 96 135
60 94 132
58 91 120
58 93 117
59 94 133
59 94 117
59 94 127
59 93 107
60 95 136
60 95 125
58 92 132
59 94 129
61 96 132
58 93 116
59 94 128
61 96 139
60 94 138
59 94 129
60 95 132
62 97 148
59 94 135
60 95 135
59 94 127
61 96 136
62 97 139
59 94 124
61 96 122
61 96 137
60 95 127
61 95 137
59 93 122
60 95 124
61 96 140
60 95 133
59 94 127
59 94 124
56 90 101
61 96 141
59 94 114
62 97 142
61 96 127
59 95 130
60 95 141
61 96 144
60 95 130
60 95 124
62 98 127
60 95 130
60 95 140
61 96 132
59 94 119
60 95 127
61 96 137
61 95 135
62 97 127
60 94 137
61 96 125
61 96 122
58 92 110
59 94 133
58 92 116
58 93 111
61 96 132
60 96 130
60 95 139
61 96 136
57 91 113
59 93 117
59 94 130
60 94 127
61 95 141
60 94 132
62 97 150
59 93 121
61 96 132
60 95 121
59 93 127
60 96 129
60 94 127
60 95 124
59 93 119
62 97 136
60 95 127
60 94 122
58 93 104
61 96 142
60 95 119
62 97 137
62 98 148
60 94 115
58 92 119
61 95 137
60 93 129
57 91 110
60 94 119
59 93 116
59 93 129
59 92 131
60 94 121
57 91 94
57 91 110
60 94 131
55 87 97
61 95 132
55 87 102
56 89 114
58 92 117
53 85 104
52 82 93
52 82 104
89 108 57
119 136 0
131 146 0
118 134 0
129 146 0
125 142 0
127 141 0
132 149 0
119 134 0
122 140 0
122 138 0
124 142 0
137 155 0
121 137 0
137 150 0
117 132 0
123 137 0
124 141 0
118 132 0
136 148 0
132 151 0
136 153 0
136 154 0
130 146 0
130 145 0
127 145 0
136 152 0
145 163 0
138 155 0
133 151 0
133 149 0
137 152 0
144 162 0
140 157 0
146 162 0
133 150 0
141 162 0
134 153 0
132 152 0
133 150 0
155 171 0
156 173 0
138 157 0
147 164 0
145 160 0
153 172 0
153 169 0
145 161 0
134 150 0
138 156 0
144 161 0
155 172 0
147 164 0
150 170 0
149 168 0
147 169 0
156 175 0
134 153 0
135 150 0
141 158 0
154 173 0
153 170 0
149 167 0
160 181 0
159 179 0
152 173 0
145 162 0
146 164 0
157 175 0
156 177 0
151 171 0
152 169 0
161 180 0
157 175 0
150 169 0
149 167 0
145 163 0
156 175 0
150 169 0
155 175 0
150 166 0
150 169 0
162 184 0
156 174 0
154 173 0
160 180 0
153 172 0
168 187 0
161 179 0
162 183 0
156 176 0
158 178 0
157 174 0
163 184 0
162 183 0
160 178 0
160 179 0
165 184 0
170 189 0
165 185 0
156 176 0
157 173 0
165 185 0
159 179 0
156 177 0
161 180 0
171 192 0
161 182 0
159 178 0
163 183 0
161 181 0
166 185 0
163 180 0
160 182 0
160 178 0
158 177 0
167 191 0
154 171 0
164 184 0
159 179 0
158 177 0
172 192 0
164 183 0
165 184 0
168 188 0
166 187 0
156 173 0
158 178 0
164 185 0
169 189 0
162 180 0
170 191 0
164 185 0
175 199 51
174 199 51
171 195 62
171 195 72
170 194 88
179 203 72
174 198 72
172 197 62
173 198 80
172 197 88
172 198 102
179 204 95
171 196 80
170 194 72
169 194 88
173 198 51
176 199 80
176 200 102
162 186 72
171 195 108
168 192 72
169 193 51
174 197 95
177 200 95
175 199 88
173 196 114
171 195 120
175 198 95
177 202 130
170 193 88
181 203 102
175 199 88
170 193 88
170 193 51
177 200 120
173 196 108
172 196 102
177 200 120
170 193 80
180 203 114
181 203 125
167 191 72
173 197 95
173 197 88
172 196 114
169 191 51
173 196 108
177 200 88
175 198 102
181 204 114
173 197 80
172 195 95
166 190 80
172 196 95
175 200 114
167 191 102
172 195 51
166 190 88
165 188 72
174 197 95
172 195 108
167 191 102
170 194 108
168 192 88
176 198 114
162 185 98
173 197 95
165 188 72
174 197 125
176 199 95
162 186 80
164 187 95
170 192 120
173 197 95
164 188 102
164 186 114
162 184 114
164 188 72
160 184 102
158 181 108
162 184 72
170 192 102
158 181 80
168 191 102
155 177 72
171 192 88
154 176 102
156 178 88
163 184 108
165 186 88
155 179 72
159 181 80
150 172 80
169 189 125
151 172 80
161 181 88
156 178 51
153 175 62
140 163 62
153 175 72
157 178 80
152 174 80
142 163 72
151 175 51
152 174 62
155 176 88
155 177 80
156 177 72
121 140 97
89 113 110
99 124 121
102 124 110
110 132 121
116 139 130
94 119 109
88 115 111
90 116 131
85 113 135
92 119 111
113 135 155
105 128 130
86 113 112
105 131 132
97 123 133
93 120 120
106 132 129
110 134 132
93 121 135
98 122 132
91 118 165
87 115 166
70 103 153
61 96 139
63 98 132
77 109 148
63 96 124
59 94 143
61 96 139
60 96 132
60 94 134
61 96 137
59 94 127
59 94 136
59 93 125
68 100 119
62 95 118
62 95 108
58 93 130
65 97 115
56 88 104
94 119 94
82 112 112
58 92 133
59 93 129
58 92 117
57 91 123
56 90 101
58 92 123
58 93 116
62 97 132
55 89 116
59 93 119
58 92 120
60 94 122
59 93 136
59 93 122
61 96 129
59 94 136
60 95 125
60 95 137
61 96 135
58 92 124
59 93 127
60 94 122
60 95 127
60 96 127
57 90 122
59 94 124
62 97 136
61 96 137
59 93 127
61 96 137
60 94 124
61 96 143
60 95 119
60 95 122
63 98 150
58 92 127
61 96 122
59 94 122
59 94 121
59 94 116
59 94 116
60 95 136
58 93 127
61 96 139
61 97 144
59 94 127
60 95 116
61 96 127
60 95 130
61 96 144
59 94 122
62 97 150
60 95 127
59 94 127
59 93 127
62 97 127
61 96 144
60 95 132
60 95 134
60 95 134
62 98 144
60 95 130
59 94 134
60 96 135
58 93 117
60 94 124
60 95 143
60 95 127
61 96 141
63 98 142
59 94 139
60 95 122
60 96 139
59 94 125
60 95 129
61 96 142
61 96 137
60 95 124
60 95 132
59 94 129
58 92 119
59 94 118
57 91 113
60 95 131
60 95 131
61 96 124
60 95 129
62 97 132
59 93 124
59 93 116
60 95 127
59 94 111
61 96 136
59 92 134
59 93 129
60 94 119
60 95 137
60 94 141
60 95 104
59 93 104
60 94 116
58 93 116
59 93 119
60 94 131
58 92 110
58 92 115
58 92 121
59 92 118
60 94 120
56 88 103
54 86 113
57 91 128
56 89 108
52 84 84
81 102 93
120 138 22
132 147 0
116 133 0
116 137 0
140 158 0
125 140 0
123 139 0
106 121 0
118 135 0
116 135 0
137 155 0
126 144 0
120 135 0
135 155 0
125 142 0
132 149 0
120 136 0
141 158 0
131 146 0
132 147 0
150 169 0
139 155 0
130 148 0
147 168 0
140 156 0
140 159 0
124 141 0
139 155 0
149 166 0
133 147 0
149 167 0
149 166 0
152 172 0
138 158 0
149 166 0
144 162 0
147 166 0
132 151 0
141 159 0
157 174 0
151 170 0
139 158 0
150 169 0
157 178 0
150 168 0
152 171 0
144 161 0
146 164 0
144 163 0
141 155 0
156 177 0
149 166 0
148 165 0
156 177 0
147 166 0
148 164 0
157 178 0
141 160 0
155 172 0
149 167 0
143 161 0
154 172 0
157 178 0
150 165 0
155 175 0
151 171 0
141 160 0
149 164 0
152 171 0
154 175 0
157 176 0
153 171 0
150 167 0
153 173 0
150 168 0
154 171 0
153 173 0
163 182 0
151 169 0
153 172 0
153 174 0
160 178 0
160 178 0
162 181 0
163 183 0
162 183 0
153 172 0
161 181 0
159 177 0
163 180 0
164 185 0
158 177 0
162 183 0
158 176 0
153 171 0
162 182 0
167 190 0
162 180 0
168 188 0
159 179 0
166 186 0
156 173 0
165 184 0
157 175 0
155 176 0
170 190 0
165 187 0
174 193 0
168 189 0
165 185 0
163 185 0
166 188 0
165 186 0
156 175 0
161 183 0
163 183 0
164 185 0
170 187 0
165 183 0
162 184 0
167 189 0
166 188 0
166 187 0
158 177 0
170 190 0
172 194 0
168 188 0
163 183 0
168 188 0
164 185 0
164 183 0
159 182 0
160 180 0
177 202 88
176 199 72
176 200 62
174 199 62
165 190 95
178 202 80
172 197 62
176 198 62
173 198 95
173 198 72
170 194 80
172 196 80
175 198 62
182 206 95
175 198 62
182 206 72
176 199 88
178 201 80
177 202 62
171 196 102
173 197 80
173 197 88
174 198 114
170 193 80
174 198 72
176 200 95
172 195 72
178 200 80
178 202 108
170 194 108
177 202 130
174 197 72
173 197 95
178 201 125
175 200 108
178 202 102
175 199 80
176 198 102
181 204 88
176 200 114
173 197 120
172 196 108
172 195 95
169 192 88
174 199 108
171 194 80
173 196 88
178 201 120
180 202 125
173 197 108
169 193 88
174 196 88
169 192 102
168 191 102
170 193 108
164 188 102
167 190 108
169 193 80
167 191 95
168 193 102
164 187 102
169 193 88
163 185 98
172 195 117
166 189 114
170 193 88
167 190 76
171 195 84
162 185 88
169 192 102
173 196 114
158 181 88
167 190 95
164 186 62
167 190 95
154 177 88
171 192 120
167 190 108
162 185 114
162 185 80
164 186 72
165 189 108
156 178 80
170 193 114
165 187 120
152 173 80
151 173 80
174 197 102
163 184 125
169 191 88
163 186 62
164 186 80
152 174 80
168 190 99
170 191 114
158 179 95
152 175 95
160 183 88
151 175 80
160 182 95
150 172 62
151 173 51
153 175 114
140 160 72
155 175 80
156 177 88
141 161 36
159 179 88
138 158 62
90 114 104
97 121 131
94 118 113
120 141 153
102 127 125
88 114 129
97 120 122
92 117 123
100 125 125
98 123 124
92 119 127
86 114 105
84 113 111
94 118 126
105 131 132
104 130 125
118 142 116
103 128 114
92 119 111
100 125 113
80 109 129
67 100 140
69 102 145
67 99 137
77 107 137
81 111 124
78 109 127
71 103 135
59 93 119
61 96 141
66 99 138
60 95 134
60 96 136
58 92 122
60 95 134
60 95 113
62 96 119
66 98 138
58 92 128
64 97 136
69 102 131
93 116 96
96 123 95
58 88 111
58 91 122
56 90 122
58 91 127
57 91 126
59 93 113
59 94 116
59 92 132
56 89 122
59 94 127
55 88 117
59 94 126
56 90 109
59 94 129
57 90 115
57 89 116
58 92 116
60 94 127
59 94 127
61 96 119
59 94 114
55 88 117
60 95 116
60 95 127
60 95 141
60 95 142
61 97 132
63 98 141
61 96 137
59 93 127
58 93 125
60 95 127
60 95 124
60 94 134
60 96 130
60 94 127
56 90 113
61 97 139
62 98 130
61 96 134
61 96 127
61 97 139
60 95 135
59 93 122
60 94 117
62 97 142
62 96 137
61 96 134
60 95 127
59 94 113
59 94 129
60 96 127
58 92 127
59 94 124
61 96 134
58 92 124
60 95 139
63 98 148
61 96 127
60 94 130
61 96 130
62 97 132
61 96 127
60 95 110
59 94 119
59 94 127
59 93 127
59 93 119
60 96 127
61 95 121
61 95 132
58 92 124
61 96 122
60 95 134
59 93 124
59 93 121
61 96 130
60 95 127
61 96 139
58 93 111
61 96 114
60 95 125
59 93 126
60 95 111
58 92 112
62 98 141
61 96 121
61 96 129
60 95 127
61 96 134
60 93 124
61 96 129
56 90 95
60 95 134
58 92 132
60 95 132
61 96 130
60 96 122
59 92 129
60 95 119
58 92 121
58 93 126
55 88 101
58 92 115
57 91 110
56 89 107
59 93 111
56 89 120
56 88 100
55 87 91
59 93 125
58 91 122
55 87 109
85 105 67
120 133 0
118 133 0
110 124 0
131 146 0
130 147 0
116 135 0
136 152 0
126 142 0
130 148 0
129 145 0
120 136 0
133 148 0
127 142 0
128 144 0
131 146 0
128 146 0
142 161 0
115 131 0
137 151 0
129 147 0
136 153 0
126 141 0
131 149 0
142 163 0
158 177 0
138 155 0
145 165 0
142 157 0
150 169 0
150 166 0
122 140 0
149 168 0
145 163 0
150 167 0
153 172 0
145 163 0
137 156 0
126 143 0
144 161 0
131 148 0
153 170 0
159 179 0
147 167 0
154 173 0
135 155 0
135 150 0
143 164 0
141 159 0
139 157 0
145 161 0
143 164 0
156 174 0
148 165 0
143 161 0
143 164 0
155 176 0
137 152 0
153 171 0
151 170 0
153 172 0
148 169 0
153 172 0
143 160 0
154 173 0
148 168 0
137 156 0
149 166 0
153 167 0
156 174 0
158 179 0
147 166 0
145 162 0
161 180 0
157 174 0
152 172 0
149 169 0
153 172 0
155 175 0
164 184 0
157 173 0
163 184 0
159 180 0
154 170 0
153 172 0
151 170 0
155 176 0
156 174 0
158 175 0
150 169 0
158 178 0
165 185 0
167 186 0
156 177 0
156 178 0
172 194 0
147 165 0
164 183 0
152 170 0
158 176 0
152 172 0
166 186 0
169 186 0
154 172 0
165 184 0
165 182 0
156 175 0
163 181 0
164 182 0
162 180 0
164 185 0
165 187 0
163 181 0
172 193 0
163 185 0
161 180 0
153 173 0
168 190 0
155 178 0
168 189 0
159 181 0
158 175 0
162 181 0
166 184 0
162 183 0
168 191 0
168 188 0
167 186 0
167 186 0
172 192 0
159 178 0
165 188 0
165 185 0
159 177 0
172 193 0
172 196 80
172 197 88
170 194 72
176 200 120
178 202 88
169 194 36
180 205 95
172 197 95
172 197 95
176 199 80
182 206 95
175 200 88
173 196 80
174 198 88
181 204 140
175 198 62
180 205 102
171 195 88
171 194 62
180 203 108
181 204 130
171 195 72
175 199 120
179 202 95
177 201 80
172 196 80
176 200 120
178 201 108
176 201 102
167 190 72
172 197 72
179 203 114
178 201 102
175 198 108
177 202 125
170 194 62
172 195 80
167 190 72
173 197 108
173 198 95
167 192 80
175 199 95
172 194 88
164 188 62
175 200 114
176 199 88
174 197 95
168 191 95
166 190 102
176 199 114
164 188 102
169 193 51
166 190 114
170 194 95
164 188 72
171 196 80
169 194 108
176 199 102
169 192 95
163 185 95
158 182 88
172 196 80
170 194 125
163 184 102
166 189 88
165 188 62
168 191 117
171 195 80
169 192 122
162 185 102
161 185 114
159 182 95
172 194 51
163 187 125
166 189 80
160 183 88
160 182 102
172 195 108
171 194 120
162 185 95
160 182 88
169 192 130
161 183 80
158 180 95
156 180 88
165 187 36
171 193 95
163 186 80
173 194 102
152 173 88
163 185 120
166 187 88
165 186 95
162 184 80
153 175 72
173 194 102
165 186 95
161 183 88
166 187 95
158 181 62
152 173 80
143 163 62
145 166 95
161 181 72
139 160 62
146 167 72
157 178 80
146 166 72
143 162 80
142 161 79
88 113 102
84 110 93
102 125 127
104 127 134
94 120 121
86 111 123
93 117 135
85 113 107
86 111 123
107 131 127
111 134 143
105 130 129
113 138 118
94 120 115
99 124 127
90 117 112
90 116 125
89 115 135
91 118 127
99 126 137
80 108 145
97 122 159
75 107 139
80 113 151
68 101 144
67 101 139
67 99 122
59 94 126
60 95 132
60 95 136
56 90 116
58 94 129
65 99 127
61 96 140
63 96 114
63 96 114
65 99 141
62 95 120
67 98 122
62 95 101
66 97 115
97 121 85
62 94 109
59 93 139
57 90 119
59 93 121
55 88 113
62 97 131
59 93 118
58 92 110
57 90 110
58 91 129
60 96 138
60 96 129
60 94 129
58 92 127
60 95 124
57 90 119
62 96 139
58 92 113
58 92 132
59 93 105
59 93 142
59 94 119
60 94 142
59 93 114
56 89 116
59 94 130
57 91 117
61 96 140
60 95 134
61 96 132
61 96 130
59 93 122
61 96 127
60 95 124
59 92 127
59 94 111
58 94 124
61 96 124
60 95 124
59 93 124
61 96 139
59 93 125
59 93 127
60 94 116
58 93 122
60 94 127
61 96 122
58 92 122
59 94 126
58 93 121
59 93 122
61 96 127
58 92 132
62 97 129
61 96 132
60 94 132
58 92 122
59 93 132
59 94 130
60 95 116
61 97 141
59 94 127
60 95 130
61 96 135
59 93 132
59 92 139
62 97 146
58 92 119
59 94 113
59 94 127
61 96 134
58 92 104
61 95 134
58 92 136
60 94 119
60 94 130
59 94 116
60 95 114
61 97 121
61 95 122
59 93 129
59 93 132
62 98 129
58 91 101
60 95 137
58 92 110
59 93 119
59 93 124
61 97 122
59 93 141
62 97 141
58 92 116
60 95 134
58 91 119
59 94 113
57 91 98
58 93 124
57 90 116
60 94 124
58 91 107
56 89 113
61 96 129
57 91 112
55 88 105
59 93 114
57 89 114
56 89 119
56 89 105
56 88 107
56 89 107
56 88 114
51 81 98
104 124 77
137 153 0
106 124 0
125 140 0
124 139 0
131 147 0
118 132 0
131 147 0
125 140 0
112 128 0
137 154 0
126 143 0
121 139 0
135 154 0
120 136 0
129 148 0
131 148 0
143 162 0
131 148 0
136 154 0
139 158 0
132 149 0
133 149 0
123 139 0
131 151 0
140 156 0
143 160 0
118 135 0
128 144 0
148 167 0
133 148 0
144 164 0
137 155 0
141 158 0
145 165 0
145 164 0
142 162 0
142 160 0
153 173 0
153 171 0
129 147 0
144 161 0
151 171 0
144 163 0
144 161 0
136 156 0
138 154 0
153 173 0
148 166 0
154 171 0
150 169 0
151 167 0
148 167 0
145 165 0
149 167 0
139 157 0
161 180 0
154 173 0
144 163 0
148 167 0
140 158 0
146 163 0
148 164 0
133 152 0
156 175 0
149 167 0
143 160 0
150 169 0
144 161 0
150 168 0
154 172 0
157 175 0
160 178 0
150 167 0
154 174 0
158 176 0
159 181 0
152 173 0
161 177 0
141 160 0
160 174 0
156 174 0
156 175 0
166 188 0
164 185 0
163 182 0
161 180 0
153 175 0
155 176 0
160 179 0
161 179 0
160 179 0
152 173 0
157 177 0
155 170 0
157 178 0
167 185 0
174 194 0
164 185 0
160 176 0
165 187 0
163 183 0
157 179 0
158 179 0
170 189 0
161 181 0
159 178 0
161 181 0
156 177 0
153 170 0
158 177 0
158 179 0
162 181 0
163 186 0
158 179 0
169 190 0
163 184 0
159 181 0
154 174 0
159 178 0
171 192 0
165 186 0
174 195 0
162 181 0
165 185 0
163 184 0
161 183 0
167 188 0
164 186 0
167 188 0
156 174 0
168 188 0
164 185 0
172 194 0
156 175 0
168 189 0
171 195 62
172 196 62
171 196 72
173 198 72
176 200 62
172 196 72
171 197 95
173 197 72
178 202 108
175 199 102
182 205 95
181 204 88
177 201 72
177 201 95
175 200 80
167 192 88
176 198 102
169 193 102
176 199 95
172 196 88
175 199 102
176 200 95
174 198 102
177 200 125
175 200 114
173 196 88
171 194 88
178 201 108
169 193 80
178 202 95
173 197 95
172 196 108
176 199 88
179 201 80
175 199 88
178 200 88
175 198 95
178 201 88
168 191 108
176 200 80
170 195 62
168 191 102
170 193 102
168 191 88
175 199 102
162 186 95
169 192 102
168 191 80
176 199 102
172 196 102
175 198 108
169 192 72
176 198 108
165 188 120
166 190 108
169 193 72
164 187 88
175 198 88
167 190 125
167 191 51
168 191 95
171 193 114
170 193 102
164 188 95
171 194 95
171 195 88
168 190 72
170 194 80
171 194 95
172 195 108
168 192 80
164 187 102
164 186 88
171 193 120
162 184 88
170 193 108
169 192 120
168 191 102
155 177 80
168 189 108
163 186 62
166 189 88
154 174 102
158 181 108
154 177 95
164 186 51
167 190 72
160 181 88
156 178 108
164 187 102
160 183 114
167 189 88
164 186 95
155 177 88
167 188 102
132 152 62
172 193 125
153 176 51
148 168 51
143 164 72
147 169 80
160 183 95
150 172 51
139 161 36
140 162 80
150 171 51
145 165 72
148 167 88
139 160 80
149 168 72
127 146 115
80 105 101
92 116 121
105 128 110
85 110 104
87 113 110
83 108 122
88 113 119
96 121 118
93 119 117
98 123 133
97 121 137
115 139 122
124 146 109
105 130 144
83 111 122
95 120 108
91 117 136
105 132 121
86 114 113
61 96 147
79 108 127
80 110 119
65 98 132
78 109 135
79 110 122
88 117 119
67 101 154
57 91 122
61 96 132
61 96 130
58 92 123
59 93 138
59 92 112
80 109 111
57 91 116
70 103 127
58 92 122
60 94 124
58 92 116
60 91 100
113 136 69
78 107 118
58 92 116
57 90 114
59 93 128
56 89 98
57 90 109
60 94 130
58 92 123
55 87 111
58 92 108
60 94 119
57 91 134
59 93 108
62 98 134
59 94 111
60 94 124
60 95 122
58 92 110
60 94 114
58 93 101
60 94 137
57 90 113
55 88 113
59 94 111
58 92 113
57 91 104
61 96 128
59 93 121
58 93 121
60 96 139
59 93 116
59 94 130
59 93 123
60 95 131
62 98 142
61 96 142
60 95 117
59 93 118
59 94 129
60 95 129
59 93 108
59 93 127
60 95 129
61 95 142
62 98 135
60 94 125
59 94 121
58 92 122
59 93 114
59 94 119
61 96 142
61 97 132
60 95 141
61 96 141
57 91 116
60 94 132
59 94 113
60 96 139
60 95 135
59 94 125
58 92 116
60 95 131
60 95 132
60 95 130
59 94 120
59 93 124
60 95 125
59 93 129
60 95 129
60 94 121
61 96 146
59 93 116
59 94 124
61 96 139
59 94 119
61 95 129
59 94 117
60 95 132
57 91 104
60 96 115
60 95 137
61 96 132
59 94 122
60 95 137
62 96 141
58 93 111
58 92 121
57 92 116
60 93 119
60 95 121
60 96 136
57 90 101
56 90 113
59 93 127
59 93 121
57 91 116
58 92 113
60 95 134
59 93 115
58 92 118
60 94 126
60 95 128
58 91 115
60 95 125
58 91 122
56 89 103
54 86 88
56 88 121
53 84 98
55 87 111
52 81 83
95 116 74
121 138 0
114 131 0
114 127 0
122 139 0
125 140 0
115 129 0
118 134 0
120 137 0
127 145 0
123 140 0
123 141 0
122 137 0
133 150 0
130 149 0
143 159 0
126 144 0
145 162 0
129 147 0
112 131 0
123 140 0
142 159 0
138 158 0
131 150 0
139 156 0
140 158 0
140 157 0
129 145 0
138 152 0
146 165 0
147 164 0
143 163 0
149 167 0
138 157 0
141 158 0
152 170 0
147 168 0
152 170 0
132 149 0
152 169 0
150 167 0
138 158 0
147 167 0
140 157 0
154 176 0
150 170 0
141 160 0
151 167 0
141 160 0
144 165 0
158 179 0
148 167 0
148 166 0
140 157 0
145 163 0
147 166 0
136 155 0
144 162 0
150 167 0
162 181 0
151 170 0
149 166 0
156 175 0
147 165 0
154 172 0
141 160 0
157 178 0
160 177 0
145 161 0
151 168 0
157 176 0
159 179 0
154 170 0
156 176 0
158 179 0
145 161 0
160 179 0
154 174 0
157 178 0
159 175 0
155 173 0
144 163 0
153 170 0
156 175 0
151 170 0
153 172 0
152 170 0
158 177 0
158 178 0
157 178 0
163 184 0
158 176 0
161 180 0
163 182 0
155 176 0
156 176 0
163 182 0
159 176 0
156 176 0
155 173 0
164 185 0
168 189 0
157 176 0
168 186 0
162 180 0
169 188 0
166 187 0
173 193 0
159 179 0
170 192 0
164 184 0
165 185 0
160 181 0
157 179 0
165 186 0
162 181 0
162 183 0
162 181 0
165 186 0
173 195 0
169 190 0
171 190 0
164 186 0
168 189 0
161 182 0
164 183 0
158 178 0
156 174 0
162 180 0
168 190 0
163 182 0
161 183 0
164 187 0
160 180 0
171 194 0
166 186 0
167 188 0
171 196 108
169 194 62
174 198 36
174 198 80
174 197 51
175 199 80
175 198 95
180 203 95
171 194 95
177 201 72
173 198 95
174 197 51
175 197 51
177 200 125
169 194 102
175 198 80
177 201 88
176 199 88
170 193 51
174 198 95
181 203 120
170 194 62
175 199 62
172 197 62
165 189 88
171 194 72
170 193 88
179 202 95
175 199 80
169 194 62
173 196 88
167 191 95
168 192 88
173 196 80
176 199 80
171 195 114
172 195 102
167 191 88
170 195 108
165 190 80
172 195 95
171 196 108
176 200 102
178 201 80
164 188 88
164 188 95
173 197 108
177 200 80
173 197 88
175 198 80
163 186 108
175 197 72
165 190 72
161 185 80
171 194 80
174 198 117
171 195 105
165 188 108
169 191 102
154 179 72
169 192 95
168 192 120
159 184 95
173 196 95
168 192 125
165 189 102
156 179 51
167 189 88
167 190 72
164 188 62
172 196 130
158 180 105
170 194 102
166 188 108
175 199 120
170 193 95
169 191 102
162 183 88
164 186 102
165 187 135
155 176 80
173 194 108
168 189 95
168 190 80
165 188 80
166 189 135
156 177 88
162 184 102
172 193 120
153 175 88
161 184 102
165 186 88
169 189 108
169 191 108
161 183 108
156 177 95
161 182 88
158 179 95
158 178 80
158 179 102
156 177 80
146 168 80
148 169 62
156 179 88
153 172 62
144 165 51
157 178 80
150 171 80
147 166 95
136 155 62
130 150 84
95 116 108
87 110 107
97 120 114
97 122 115
75 105 115
72 100 121
95 119 122
82 109 130
98 123 108
85 112 127
89 116 106
121 145 120
109 133 132
88 116 115
97 122 124
113 134 131
105 130 146
82 110 107
108 131 152
94 121 162
61 97 134
85 115 137
63 96 121
88 118 102
71 104 139
68 101 135
77 108 121
62 97 142
61 96 130
57 91 119
59 93 130
58 92 118
59 93 111
56 89 108
69 100 119
62 94 119
63 95 119
57 91 124
59 93 118
67 97 107
116 139 72
90 116 107
57 91 113
59 93 113
57 91 107
57 91 118
59 93 122
58 91 120
56 89 99
57 91 111
61 95 141
55 88 101
61 96 129
60 94 124
59 93 119
57 90 119
60 95 124
59 93 130
60 94 129
56 90 107
56 90 113
58 92 111
60 95 138
58 92 113
58 92 116
60 95 130
59 93 119
59 93 116
57 91 118
60 95 134
62 98 137
59 94 139
59 94 111
58 91 101
60 94 130
59 93 129
59 93 114
60 94 127
58 92 105
61 95 135
59 94 126
57 92 113
59 93 123
59 94 119
60 96 111
59 94 119
59 94 111
56 90 124
60 95 137
60 95 119
59 94 132
61 95 127
59 94 124
60 95 119
58 92 130
61 96 127
57 91 113
59 93 139
57 91 113
59 92 134
59 93 124
60 94 119
58 93 124
57 91 119
61 96 130
59 94 130
61 96 129
60 95 113
60 95 124
62 97 146
60 96 124
58 91 116
59 94 127
60 94 132
60 94 125
58 92 116
57 91 115
60 95 119
58 92 130
62 97 129
59 93 127
59 94 129
60 95 129
60 96 124
59 94 128
57 91 124
58 92 121
59 93 116
58 91 127
60 94 124
59 93 119
60 95 116
61 96 124
59 93 119
57 91 116
60 94 126
58 92 109
58 92 118
59 92 118
60 94 124
57 89 112
58 91 118
57 90 90
58 91 125
57 89 109
55 88 97
52 83 89
53 84 99
55 87 102
53 84 106
49 78 75
99 120 69
110 127 0
121 138 0
109 125 0
134 152 0
120 136 0
123 140 0
114 133 0
134 150 0
114 132 0
130 147 0
124 142 0
129 144 0
138 157 0
130 143 0
147 164 0
133 149 0
147 166 0
133 152 0
119 138 0
125 142 0
132 148 0
130 147 0
147 165 0
146 162 0
127 145 0
122 141 0
137 155 0
124 138 0
133 154 0
142 161 0
136 154 0
128 146 0
138 156 0
146 163 0
147 165 0
142 162 0
151 168 0
149 167 0
140 160 0
145 165 0
147 167 0
149 168 0
147 168 0
147 165 0
136 157 0
147 166 0
152 169 0
149 167 0
151 171 0
153 169 0
147 167 0
144 162 0
151 171 0
144 161 0
148 167 0
146 163 0
143 164 0
136 154 0
147 168 0
153 173 0
153 172 0
155 174 0
156 175 0
142 158 0
152 171 0
149 168 0
143 163 0
153 171 0
155 175 0
160 181 0
150 168 0
151 172 0
157 177 0
155 172 0
157 178 0
152 175 0
153 172 0
162 181 0
155 175 0
156 173 0
154 174 0
158 177 0
153 172 0
146 165 0
162 180 0
156 176 0
154 175 0
156 175 0
155 175 0
164 183 0
169 189 0
162 184 0
165 188 0
157 175 0
157 175 0
161 179 0
156 174 0
160 176 0
156 172 0
169 190 0
160 180 0
159 181 0
158 177 0
161 181 0
158 182 0
166 186 0
164 185 0
156 177 0
166 187 0
166 188 0
156 177 0
165 187 0
164 184 0
162 181 0
162 181 0
166 186 0
152 171 0
161 180 0
165 187 0
164 184 0
161 182 0
172 195 0
168 191 0
161 181 0
168 187 0
160 181 0
167 189 0
165 185 0
169 191 0
172 192 0
161 181 0
172 194 0
166 188 0
161 181 0
160 180 0
168 188 0
168 191 0
170 195 72
178 201 36
170 194 80
172 197 62
177 201 102
174 198 102
172 196 80
171 194 51
178 203 95
178 203 72
182 204 114
175 199 80
182 204 108
175 200 80
176 199 95
168 191 80
167 191 62
177 199 88
172 194 88
172 196 108
172 196 88
174 197 62
166 190 108
176 199 80
170 195 88
171 195 80
169 193 88
169 193 88
175 197 95
173 196 102
175 200 88
166 190 80
165 188 80
170 193 72
169 194 102
172 196 80
172 196 95
176 200 102
174 198 102
174 197 95
174 197 114
178 201 114
173 195 114
173 196 80
177 199 114
176 199 80
171 194 80
165 190 95
175 199 114
170 194 88
178 199 120
167 189 62
163 186 80
167 191 125
164 188 125
173 196 95
178 201 88
177 199 114
168 192 72
166 188 108
159 182 72
167 191 62
171 194 72
159 183 72
164 188 111
160 184 88
171 194 95
178 202 117
170 193 95
167 190 88
163 186 80
167 190 72
166 189 80
161 184 95
157 181 95
170 193 108
167 189 72
173 196 114
168 191 108
163 185 114
170 192 108
164 187 102
169 191 114
163 184 72
153 175 80
171 192 102
167 188 102
159 181 114
159 179 108
160 183 62
154 177 95
156 176 102
165 187 120
142 163 88
166 187 114
159 180 88
160 181 102
157 179 51
154 176 102
157 178 95
158 179 95
153 175 72
151 172 72
139 160 0
155 175 36
124 146 36
126 146 72
158 180 72
132 152 72
127 146 62
138 157 51
136 157 90
71 97 106
79 106 99
93 116 113
94 119 121
81 109 118
110 133 116
90 117 101
111 134 132
95 120 114
113 134 118
88 116 111
83 111 108
113 138 115
104 129 116
114 137 150
111 133 137
77 106 127
74 104 101
94 120 137
88 117 154
80 109 130
79 110 120
75 106 124
77 108 127
69 102 134
69 102 127
69 102 133
59 94 129
59 93 136
58 93 134
59 94 130
58 93 135
59 93 121
66 98 125
58 92 137
58 93 120
58 91 116
56 89 107
54 86 101
101 126 67
86 113 103
57 90 110
58 91 106
55 88 98
55 87 98
58 93 116
57 91 102
58 92 116
55 89 104
60 94 129
58 92 129
58 92 110
60 95 119
61 95 124
59 93 119
60 94 130
57 92 134
59 94 127
58 93 118
57 90 98
57 91 116
61 96 129
59 94 132
59 94 134
61 96 119
62 98 132
60 94 124
60 94 125
58 92 119
57 91 119
59 93 119
62 97 137
59 93 116
58 91 127
60 95 127
59 94 114
59 94 127
59 94 124
60 95 127
57 91 105
58 92 129
60 95 130
60 95 124
59 94 125
61 96 127
59 94 139
58 92 129
60 94 124
60 95 125
60 95 132
61 96 127
58 92 113
60 94 129
60 94 124
58 93 119
58 92 107
60 94 132
61 95 135
61 96 141
61 96 122
59 93 127
60 94 124
59 92 116
59 94 113
58 93 111
60 95 127
61 95 125
62 98 129
61 96 134
59 93 116
59 94 116
61 96 127
59 93 127
59 92 122
61 96 121
56 90 103
59 94 119
59 93 113
60 95 119
59 93 119
61 96 132
58 92 113
59 93 127
59 93 116
60 95 131
60 95 124
60 94 101
59 93 104
57 92 119
57 90 101
59 94 124
58 91 119
58 91 119
60 95 140
60 94 113
55 87 101
61 96 138
58 91 110
57 90 113
59 93 107
57 90 106
59 93 122
57 90 112
55 88 108
55 86 99
52 83 99
54 86 95
52 84 87
50 80 89
81 101 45
124 139 0
116 134 0
109 126 0
108 122 0
132 149 0
115 132 0
128 143 0
124 142 0
107 123 0
130 147 0
133 146 0
145 163 0
126 145 0
137 153 0
118 139 0
118 137 0
128 145 0
119 136 0
125 142 0
137 153 0
116 133 0
113 127 0
130 150 0
128 144 0
137 153 0
127 144 0
140 161 0
132 149 0
134 152 0
136 152 0
128 145 0
148 166 0
142 162 0
132 150 0
138 157 0
148 168 0
133 149 0
147 165 0
123 141 0
140 159 0
152 173 0
138 155 0
130 145 0
146 164 0
132 151 0
135 154 0
143 162 0
156 173 0
135 153 0
153 170 0
147 163 0
144 165 0
156 177 0
156 176 0
143 162 0
153 175 0
142 160 0
144 164 0
146 161 0
156 174 0
151 170 0
142 163 0
161 181 0
153 172 0
155 175 0
158 179 0
162 181 0
158 175 0
151 171 0
147 167 0
154 175 0
156 175 0
138 158 0
149 165 0
145 161 0
151 172 0
157 177 0
156 175 0
164 180 0
154 173 0
156 174 0
152 171 0
148 167 0
155 176 0
157 177 0
157 175 0
147 162 0
157 177 0
153 173 0
159 178 0
170 190 0
153 172 0
148 166 0
155 171 0
162 181 0
166 186 0
165 184 0
160 178 0
157 178 0
146 167 0
169 187 0
155 176 0
152 171 0
162 185 0
169 189 0
165 186 0
152 173 0
158 178 0
155 176 0
164 185 0
164 184 0
158 176 0
170 188 0
162 182 0
158 177 0
165 187 0
153 174 0
165 185 0
159 179 0
164 185 0
165 188 0
160 181 0
162 182 0
156 178 0
166 187 0
173 194 0
166 183 0
168 188 0
167 187 0
169 190 0
171 194 0
167 187 0
162 182 0
168 189 0
171 193 0
166 187 0
158 178 0
170 191 0
175 199 62
176 200 72
173 197 72
175 199 72
173 197 62
175 199 88
170 192 80
176 200 102
175 200 88
173 196 72
180 204 120
174 198 102
172 196 80
173 196 120
175 199 95
172 195 36
175 199 108
171 195 80
173 196 95
172 195 72
180 204 88
174 196 102
176 198 125
171 195 95
172 195 72
173 197 102
175 199 114
171 194 95
169 193 95
180 201 108
175 199 95
163 186 62
175 198 114
164 188 95
171 194 95
174 199 114
176 198 80
174 197 108
161 186 62
173 196 102
172 197 114
172 195 80
176 201 108
170 193 102
180 203 125
170 194 80
172 197 114
172 196 102
176 199 95
170 195 88
170 193 88
165 188 72
161 184 72
167 191 102
169 193 117
172 195 102
175 199 120
164 188 88
176 200 102
167 191 88
176 199 120
167 189 102
172 196 95
159 183 88
171 194 108
171 193 114
163 185 62
172 194 84
161 184 80
165 187 95
170 194 122
167 190 84
160 184 80
161 184 108
166 190 102
164 188 102
166 189 72
159 182 88
162 184 108
167 190 125
162 183 80
175 197 120
160 182 80
155 177 95
161 183 88
168 190 95
170 192 108
162 185 80
157 180 80
157 179 88
167 188 114
163 184 108
161 182 95
148 170 95
158 180 80
140 160 62
162 183 108
168 189 120
155 176 108
152 171 88
142 162 88
152 172 80
164 185 108
153 173 62
152 174 62
153 173 62
136 155 62
140 160 72
149 167 80
133 153 72
125 145 36
138 156 88
123 142 106
84 107 96
73 98 99
95 118 110
103 126 110
107 131 126
98 120 118
87 112 84
103 125 136
111 134 127
81 109 101
86 113 105
103 128 92
83 110 126
113 137 135
103 127 111
102 127 135
104 128 129
96 122 131
82 112 148
66 101 139
74 107 146
67 101 130
90 118 121
76 108 145
69 102 129
73 105 144
60 95 129
60 95 129
59 93 124
62 98 141
60 95 131
65 100 127
59 93 118
64 98 133
61 94 107
70 99 108
60 91 112
56 89 125
103 128 86
113 137 108
57 89 97
54 88 89
57 90 116
56 89 115
59 92 113
56 90 113
57 91 98
57 91 116
56 88 116
57 91 114
59 94 129
58 92 118
59 93 135
59 92 113
59 93 122
59 93 131
58 92 113
59 93 126
61 96 137
61 96 124
59 94 113
58 92 110
57 91 114
58 93 129
57 90 117
60 96 134
57 91 110
57 91 104
61 96 141
60 95 123
59 93 125
60 94 127
60 94 127
60 94 127
60 95 127
59 94 131
59 94 132
59 95 122
58 91 111
57 92 105
59 93 119
61 97 141
61 96 122
60 95 124
60 95 137
60 95 122
61 96 136
61 96 132
59 93 124
59 93 116
59 93 119
59 93 105
60 95 122
59 94 122
62 97 139
58 92 116
58 93 119
57 90 116
59 93 130
59 93 134
61 96 134
59 94 132
58 92 119
59 94 124
59 94 125
57 91 132
59 94 119
59 93 116
59 92 130
60 94 125
59 94 119
59 92 119
59 93 124
61 97 132
58 91 113
60 95 118
59 94 119
58 92 108
60 94 129
60 95 127
61 94 141
58 91 116
59 93 126
60 94 124
57 91 113
58 92 120
58 93 121
59 93 119
58 92 105
60 95 119
59 93 124
58 92 118
58 93 113
56 89 101
58 92 115
56 89 107
56 88 103
58 91 120
54 86 100
58 91 115
57 90 114
56 89 105
54 86 95
55 87 104
55 88 104
53 84 96
57 86 97
105 124 41
113 128 0
112 128 0
136 154 0
134 150 0
120 139 0
126 141 0
119 137 0
120 136 0
121 140 0
126 144 0
135 153 0
129 146 0
136 153 0
117 133 0
123 142 0
118 132 0
131 149 0
111 129 0
121 138 0
131 149 0
129 146 0
134 154 0
144 163 0
134 153 0
136 154 0
112 130 0
143 160 0
124 144 0
136 153 0
134 152 0
127 146 0
138 157 0
156 175 0
145 163 0
140 156 0
142 163 0
144 164 0
132 151 0
136 156 0
144 160 0
145 164 0
140 161 0
142 160 0
152 170 0
134 153 0
153 171 0
147 165 0
156 177 0
163 181 0
144 163 0
145 163 0
149 167 0
149 169 0
149 169 0
144 162 0
153 174 0
138 158 0
147 166 0
148 168 0
139 159 0
149 167 0
144 161 0
154 173 0
150 169 0
160 180 0
161 181 0
150 170 0
150 167 0
157 175 0
162 183 0
154 174 0
157 175 0
151 171 0
153 173 0
153 170 0
159 178 0
162 181 0
162 181 0
154 174 0
157 174 0
147 168 0
160 179 0
155 172 0
155 176 0
163 183 0
155 177 0
165 184 0
149 170 0
158 179 0
158 179 0
157 177 0
152 171 0
164 186 0
166 186 0
154 175 0
161 181 0
149 167 0
160 180 0
152 173 0
163 181 0
159 179 0
161 181 0
160 176 0
166 186 0
163 184 0
158 178 0
165 186 0
153 171 0
162 181 0
165 185 0
163 184 0
168 190 0
166 186 0
162 183 0
168 187 0
164 183 0
163 184 0
158 181 0
166 188 0
162 182 0
170 189 0
168 188 0
165 185 0
164 183 0
155 174 0
162 184 0
171 192 0
169 190 0
167 187 0
167 187 0
167 187 0
159 179 0
169 188 0
159 177 0
169 190 0
168 190 0
169 188 0
157 178 0
170 191 0
174 198 62
176 202 102
177 201 72
174 197 62
173 197 95
175 197 102
170 194 95
176 200 72
179 203 108
169 191 80
172 196 102
181 203 102
178 201 114
174 198 108
175 197 135
175 197 125
177 201 102
176 199 120
173 195 95
177 200 95
173 196 108
171 195 125
177 200 95
171 194 95
173 196 108
169 193 95
175 199 80
176 200 102
174 198 95
175 198 80
174 198 88
175 197 72
164 189 80
178 202 125
180 202 102
169 194 102
169 193 114
168 193 125
174 199 120
170 194 95
176 200 102
175 198 80
166 190 102
172 196 108
171 195 102
184 206 114
164 186 80
173 196 51
168 192 102
168 190 95
168 192 102
170 195 102
173 197 114
175 199 88
168 192 108
170 194 105
165 189 102
170 193 114
168 192 122
163 186 105
177 199 108
168 191 105
168 192 102
172 195 114
176 199 102
163 187 76
170 193 114
174 198 95
167 190 80
155 178 102
169 192 114
159 182 95
162 185 57
163 186 91
162 186 114
163 187 108
170 192 62
168 190 80
172 195 114
167 189 102
162 183 108
160 182 102
172 194 108
154 176 72
161 184 62
165 187 62
170 191 114
163 184 95
162 182 102
158 180 95
155 176 80
165 185 120
166 186 114
160 181 114
162 183 108
153 175 88
150 171 102
150 172 80
148 170 72
151 173 80
158 179 62
151 172 108
155 178 88
152 172 72
145 165 88
145 166 51
143 164 80
138 157 62
149 170 62
128 147 62
139 157 72
139 158 80
129 148 62
92 115 87
92 113 116
101 124 104
112 134 138
93 118 115
104 129 129
91 116 122
116 138 131
94 119 128
95 123 124
89 114 104
85 114 113
116 140 127
117 140 139
119 141 114
105 128 114
101 127 111
98 124 122
63 96 126
67 101 134
69 101 131
65 99 132
75 108 139
67 100 132
75 104 114
88 117 119
67 99 110
57 90 129
58 93 129
60 96 127
60 94 123
59 93 133
57 90 101
61 93 124
57 91 116
55 87 84
67 98 110
62 94 122
115 138 50
103 129 94
54 86 98
56 89 116
56 89 101
56 89 98
55 88 84
56 89 100
52 83 92
58 92 110
59 93 107
59 94 101
57 90 111
57 90 113
56 90 116
58 91 107
56 89 84
59 93 108
56 90 112
60 95 114
60 94 119
58 92 110
57 90 118
57 91 111
59 93 119
61 96 132
59 93 125
59 94 108
60 95 124
61 96 127
59 93 132
60 94 117
57 91 111
60 95 137
60 95 113
61 96 124
60 93 138
57 92 111
57 91 113
60 95 124
59 94 122
59 93 130
57 91 95
58 92 123
60 94 122
57 91 122
60 94 132
59 93 113
60 94 130
61 96 124
59 93 139
59 93 121
59 93 105
59 93 122
58 91 124
57 91 116
57 91 113
61 96 141
59 94 127
59 94 129
62 98 130
57 90 113
60 94 124
59 94 122
59 93 126
58 92 124
59 94 113
59 94 124
58 92 127
60 95 127
58 92 119
58 92 116
59 94 124
60 95 119
58 93 102
58 93 122
59 94 126
58 92 119
61 95 124
59 94 129
60 95 119
57 91 101
57 91 127
61 96 127
57 91 116
58 91 110
56 89 101
57 91 107
60 95 125
58 91 121
60 94 116
56 90 112
57 90 106
57 90 110
58 91 113
57 90 101
58 92 128
55 88 83
62 96 142
57 90 112
55 87 96
56 89 106
58 91 111
53 84 82
56 88 110
53 84 85
52 82 96
71 95 82
123 140 40
115 131 0
116 131 0
88 105 0
115 131 0
113 132 0
126 144 0
140 160 0
113 133 0
99 115 0
121 140 0
132 150 0
134 152 0
135 153 0
133 152 0
142 159 0
129 147 0
130 148 0
126 145 0
140 156 0
129 149 0
134 153 0
142 160 0
131 150 0
127 143 0
125 139 0
129 148 0
139 156 0
123 140 0
139 159 0
129 145 0
133 153 0
138 158 0
133 151 0
125 140 0
146 165 0
140 156 0
150 169 0
151 171 0
139 156 0
142 161 0
151 169 0
148 167 0
140 157 0
154 174 0
147 166 0
145 163 0
147 167 0
139 156 0
127 145 0
153 171 0
137 155 0
144 167 0
151 169 0
154 174 0
146 166 0
148 168 0
149 167 0
152 170 0
146 165 0
149 166 0
149 168 0
154 174 0
152 171 0
158 175 0
127 145 0
150 168 0
147 166 0
155 177 0
151 170 0
156 175 0
149 171 0
155 174 0
140 159 0
141 160 0
159 181 0
151 171 0
148 167 0
155 176 0
154 174 0
154 175 0
146 164 0
152 170 0
153 175 0
156 177 0
155 174 0
152 172 0
159 179 0
158 179 0
162 184 0
151 172 0
158 176 0
156 176 0
159 178 0
162 182 0
164 184 0
160 178 0
159 177 0
156 174 0
156 175 0
159 180 0
160 181 0
164 185 0
170 189 0
166 185 0
162 181 0
159 179 0
167 185 0
168 189 0
162 180 0
145 166 0
162 182 0
161 183 0
165 187 0
164 184 0
162 183 0
157 176 0
168 190 0
159 179 0
169 190 0
161 182 0
164 185 0
162 182 0
168 189 0
163 183 0
158 177 0
165 186 0
167 190 0
165 186 0
171 192 0
161 180 0
161 182 0
174 197 0
162 184 0
173 195 0
160 180 0
162 181 0
165 186 0
160 181 0
165 187 0
156 178 0
174 197 72
177 201 80
179 202 80
178 200 88
172 196 51
174 198 108
176 199 72
183 206 120
172 195 72
175 198 80
168 192 125
177 200 108
175 198 95
179 203 120
169 191 88
173 197 95
174 197 102
180 202 130
175 199 114
174 199 72
172 194 72
166 189 72
172 195 108
172 197 95
169 192 108
174 197 102
167 190 51
178 200 88
172 193 80
176 199 114
170 194 95
172 195 72
175 199 120
173 198 95
170 194 108
171 195 95
177 201 80
173 197 108
168 192 114
170 192 88
177 201 95
168 192 95
173 197 108
167 190 95
171 195 95
177 201 102
174 198 130
162 187 88
175 199 88
171 194 114
170 194 88
176 199 130
173 197 120
173 196 88
164 185 111
171 194 80
167 190 88
164 187 95
171 196 72
168 192 108
167 191 95
171 193 108
172 195 114
171 195 102
168 189 80
170 193 117
172 195 72
157 181 117
161 183 72
164 187 99
174 196 114
166 189 120
165 187 72
166 189 88
162 185 88
170 193 88
155 177 102
159 182 95
163 185 102
163 185 102
163 186 108
167 189 88
156 177 62
159 181 102
160 182 88
162 184 120
163 185 88
161 183 95
165 187 102
161 183 95
155 176 102
165 187 102
168 189 102
161 182 108
152 173 108
160 181 102
172 194 114
151 172 108
155 176 80
162 184 95
155 175 120
156 177 95
135 155 62
154 174 108
153 174 80
141 162 80
161 181 80
152 172 62
147 168 72
141 161 80
144 162 108
156 176 108
148 166 108
127 145 72
94 116 101
102 124 124
84 110 112
106 129 107
88 111 109
77 105 104
102 127 98
92 117 117
89 116 105
98 124 119
113 136 119
115 140 122
100 124 113
97 121 112
112 135 126
106 129 129
104 128 122
60 94 137
73 104 116
74 107 133
66 100 127
81 112 132
73 105 132
78 109 127
74 105 142
85 113 116
57 90 127
60 95 116
59 93 119
60 94 127
60 94 131
59 94 127
63 96 119
65 96 108
58 91 124
58 91 113
71 101 106
109 133 66
95 120 72
86 114 99
54 86 101
53 85 90
56 89 83
55 87 96
58 91 119
55 88 80
56 88 101
57 91 116
59 93 119
59 93 118
57 90 107
58 92 107
61 95 129
58 91 119
59 94 122
60 94 113
58 92 116
56 89 96
56 89 108
59 93 111
55 88 108
58 92 116
58 92 105
59 94 125
60 94 121
59 94 119
61 96 137
60 94 122
57 91 119
58 92 124
59 93 119
60 94 137
58 92 121
60 95 127
60 95 129
59 93 111
58 92 110
61 95 132
59 93 124
60 94 139
58 92 113
59 93 130
59 93 127
57 90 127
59 93 119
61 96 132
59 94 132
59 93 132
59 94 119
57 90 113
59 93 139
60 94 132
59 93 122
61 95 130
59 93 125
57 91 113
58 91 113
59 94 118
61 96 129
59 93 111
59 93 111
59 93 124
58 92 119
60 94 119
59 94 124
61 95 129
60 95 122
57 91 119
60 95 122
59 93 132
60 94 111
60 95 113
58 92 113
58 91 110
59 93 124
57 90 108
61 96 136
58 93 119
59 92 124
58 92 110
61 95 145
61 95 127
61 96 122
60 95 131
59 93 113
59 93 127
60 93 129
57 91 113
59 93 116
57 90 95
57 90 116
57 90 104
59 92 123
55 88 104
57 90 111
54 85 99
56 88 100
56 89 100
52 84 92
55 87 96
55 86 116
59 92 133
50 80 89
77 98 78
120 139 0
115 130 0
112 124 0
127 144 0
126 142 0
119 135 0
112 128 0
110 128 0
112 128 0
119 137 0
124 140 0
109 127 0
132 146 0
126 142 0
135 152 0
114 130 0
131 148 0
125 143 0
137 153 0
135 153 0
125 142 0
132 150 0
129 144 0
130 147 0
110 128 0
140 161 0
141 162 0
145 161 0
121 137 0
135 154 0
122 139 0
123 141 0
141 161 0
142 160 0
140 156 0
146 164 0
149 171 0
151 172 0
138 157 0
138 158 0
139 158 0
150 168 0
144 161 0
148 166 0
145 163 0
137 155 0
138 156 0
155 175 0
148 166 0
148 165 0
134 152 0
141 158 0
144 163 0
134 151 0
132 153 0
140 155 0
151 170 0
150 169 0
153 173 0
149 169 0
151 168 0
131 149 0
138 157 0
142 164 0
144 163 0
149 171 0
149 170 0
149 171 0
161 183 0
146 163 0
151 170 0
154 173 0
153 172 0
162 182 0
146 165 0
156 175 0
149 167 0
148 167 0
156 177 0
141 160 0
157 177 0
159 177 0
156 171 0
159 178 0
155 173 0
159 177 0
159 179 0
159 176 0
158 174 0
156 178 0
153 169 0
157 178 0
163 182 0
157 177 0
162 182 0
155 174 0
159 179 0
154 177 0
165 185 0
155 177 0
159 177 0
160 179 0
163 185 0
159 181 0
160 179 0
162 180 0
158 178 0
160 180 0
160 183 0
160 182 0
164 183 0
158 175 0
171 189 0
160 179 0
162 184 0
163 181 0
170 190 0
159 180 0
162 182 0
167 187 0
150 170 0
160 181 0
167 185 0
163 184 0
173 194 0
163 183 0
161 181 0
163 184 0
159 182 0
169 191 0
159 181 0
167 188 0
169 190 0
163 184 0
159 181 0
155 175 0
164 184 0
165 188 0
169 191 0
172 194 0
167 189 0
163 183 0
175 200 95
175 198 72
174 197 102
167 193 62
177 201 114
178 201 95
175 198 72
170 193 62
174 198 88
177 200 95
182 205 130
173 196 80
177 200 88
175 198 108
172 197 88
173 197 88
173 197 88
173 195 114
181 204 102
179 202 114
173 194 108
179 202 95
172 195 120
177 201 130
167 188 72
167 190 88
165 190 72
176 199 80
169 192 95
178 200 95
168 192 88
173 196 95
174 198 72
175 198 95
177 202 102
170 193 88
166 188 72
174 198 108
174 198 120
177 201 114
173 197 125
170 194 62
169 192 72
175 198 102
166 191 88
174 197 88
176 198 95
171 194 88
167 191 102
179 202 108
173 197 102
168 191 72
171 195 95
163 186 80
158 181 108
168 190 88
166 190 95
168 192 105
164 187 88
171 194 120
169 191 108
166 189 88
169 192 114
163 185 80
162 186 51
165 188 72
165 189 88
164 187 80
173 196 80
168 192 72
166 189 95
161 185 102
164 186 80
162 185 72
169 191 108
163 185 102
161 183 72
159 181 88
164 188 72
161 182 95
166 189 80
159 182 102
168 189 108
163 184 80
162 184 135
155 177 95
147 169 80
173 195 108
155 177 62
159 181 95
165 186 102
155 176 95
159 181 88
157 178 108
162 183 95
166 187 95
154 176 72
169 190 108
147 167 80
159 181 88
150 171 80
141 163 72
167 188 80
156 176 95
141 162 72
153 174 80
139 160 62
147 167 62
138 158 76
145 163 80
140 159 72
148 165 80
142 161 88
134 154 88
109 127 106
86 109 86
93 116 115
89 115 91
106 128 127
112 134 142
96 120 113
117 140 109
107 132 120
117 141 126
81 111 83
109 132 130
99 122 113
85 113 113
98 122 114
85 113 137
98 124 129
81 111 137
61 97 126
85 115 113
72 103 134
65 99 127
74 104 135
69 101 122
80 108 124
65 99 139
67 98 124
60 94 119
58 92 108
58 92 116
59 93 124
58 92 119
66 99 124
58 92 116
56 89 116
63 95 101
62 94 94
107 129 71
100 124 87
65 95 99
58 92 106
56 90 106
57 89 113
58 93 100
56 89 107
55 87 107
56 88 94
52 83 84
57 91 115
59 92 107
58 91 101
58 93 125
56 90 110
58 92 123
56 88 111
58 92 108
58 93 124
56 89 87
58 93 111
59 93 116
57 91 116
59 93 116
58 92 111
60 95 113
59 94 125
58 92 104
59 94 108
58 93 126
58 93 121
60 93 119
58 92 110
57 90 113
58 92 108
59 93 124
59 94 124
57 91 105
61 95 129
58 92 116
57 91 102
58 92 116
59 93 122
59 93 132
60 94 119
58 92 111
59 93 121
60 94 129
58 92 124
58 93 108
58 92 113
63 99 132
60 95 129
60 95 111
58 92 119
59 93 110
59 93 116
60 94 130
57 91 121
58 92 98
60 94 91
60 94 131
59 94 119
60 94 113
59 93 113
59 93 116
59 94 124
59 94 116
59 93 129
58 92 121
61 97 134
58 92 114
62 97 121
59 94 124
60 94 119
57 92 113
60 95 118
59 93 122
59 93 105
59 93 113
60 95 107
58 91 107
59 93 116
61 95 129
60 94 121
61 95 123
60 95 107
57 91 110
58 92 116
62 96 140
59 93 107
58 92 116
55 87 104
58 92 117
56 88 103
57 90 114
56 88 112
56 88 100
55 88 106
55 87 111
57 90 121
54 85 92
51 82 80
52 82 85
85 105 53
127 145 0
116 133 0
102 119 0
116 134 0
100 117 0
124 138 0
129 147 0
137 153 0
122 139 0
123 143 0
117 132 0
128 147 0
137 156 0
133 149 0
126 145 0
124 143 0
128 146 0
125 144 0
141 157 0
124 142 0
139 156 0
128 145 0
143 162 0
137 156 0
112 126 0
133 151 0
112 129 0
133 153 0
136 155 0
138 159 0
146 166 0
139 157 0
144 164 0
132 150 0
146 167 0
135 152 0
131 150 0
146 160 0
130 150 0
156 176 0
162 181 0
141 159 0
147 166 0
141 159 0
150 169 0
145 163 0
135 152 0
154 174 0
150 167 0
130 147 0
133 150 0
144 161 0
141 160 0
141 159 0
147 169 0
142 160 0
148 169 0
150 171 0
149 169 0
153 173 0
151 170 0
137 156 0
142 160 0
148 166 0
144 163 0
148 169 0
157 178 0
135 155 0
146 162 0
142 161 0
149 169 0
149 168 0
156 176 0
158 179 0
158 179 0
143 163 0
152 174 0
154 173 0
159 179 0
155 178 0
151 168 0
146 167 0
154 175 0
151 171 0
163 181 0
158 179 0
165 185 0
149 169 0
161 182 0
167 186 0
155 177 0
167 189 0
165 187 0
151 171 0
164 184 0
150 170 0
154 175 0
153 174 0
157 177 0
167 188 0
152 169 0
156 175 0
160 178 0
163 184 0
155 174 0
155 174 0
163 184 0
155 177 0
157 177 0
159 177 0
165 184 0
160 181 0
167 188 0
156 177 0
158 180 0
165 188 0
163 183 0
159 180 0
159 180 0
160 182 0
163 183 0
160 179 0
160 181 0
149 170 0
160 182 0
157 176 0
165 185 0
167 188 0
166 186 0
158 180 0
167 186 0
165 188 0
163 184 0
162 181 0
155 176 0
163 186 0
164 184 0
173 195 0
155 175 0
169 189 0
160 181 0
165 189 0
165 186 0
169 193 102
176 199 80
174 197 62
178 201 102
173 197 88
171 194 80
182 204 130
181 203 80
174 198 95
178 201 88
177 199 102
175 199 102
176 200 95
181 203 120
176 201 102
178 200 102
174 197 88
175 198 108
175 199 114
170 194 102
166 191 88
178 202 95
182 204 120
173 198 88
179 203 120
173 197 102
165 190 102
173 198 114
168 191 80
177 200 62
173 197 95
165 189 80
169 193 80
166 189 88
170 194 88
169 193 88
172 197 80
166 190 95
172 195 102
164 187 80
173 198 114
167 191 80
172 196 88
170 194 80
172 195 114
171 194 114
173 196 102
172 197 102
170 195 108
174 197 95
177 200 120
172 195 120
169 192 108
160 184 51
156 181 114
170 193 95
170 193 125
159 182 91
175 198 120
166 190 80
171 195 108
159 183 108
173 195 102
160 183 95
167 190 95
169 191 125
171 195 72
166 190 95
178 201 130
163 185 80
164 186 95
163 187 80
160 182 111
173 196 114
166 189 102
166 189 102
161 184 62
153 175 72
160 183 102
164 186 102
148 171 88
162 184 72
160 183 95
178 200 120
158 180 88
172 193 120
162 182 108
168 189 114
168 189 102
157 178 125
154 175 80
158 179 95
159 181 62
161 181 130
157 178 130
161 183 88
162 183 108
161 182 80
153 174 108
150 170 62
153 174 80
149 169 80
154 174 108
144 164 72
154 174 102
144 164 88
141 162 62
151 171 88
135 154 72
127 149 36
134 154 62
137 157 51
141 159 0
132 151 72
144 163 80
112 131 115
84 108 94
91 115 104
98 120 113
83 108 118
113 137 126
98 124 113
104 128 101
111 135 119
87 111 111
103 127 132
111 135 103
113 136 102
110 132 106
109 133 119
96 123 124
80 109 118
68 100 134
73 103 126
69 101 126
71 102 128
69 101 129
82 111 119
79 108 114
79 108 116
61 95 101
57 91 120
57 91 119
59 94 111
63 95 114
58 92 121
68 98 108
65 98 108
68 99 113
66 97 107
57 87 87
101 125 84
100 125 74
87 114 92
54 87 90
53 85 97
57 91 98
55 88 97
57 91 113
56 89 110
56 89 98
54 86 101
58 92 91
59 93 110
58 92 111
57 89 98
56 89 107
56 90 101
59 93 116
58 91 114
57 90 111
58 92 116
57 89 108
59 93 116
59 93 131
60 94 111
58 93 113
59 93 122
60 95 129
60 94 122
57 90 106
60 94 122
58 91 117
59 93 121
61 96 121
57 90 119
58 93 119
59 93 122
59 94 129
59 93 127
59 94 127
59 93 113
59 94 108
60 94 119
59 93 127
57 89 119
58 93 113
58 93 113
59 93 127
58 92 114
60 93 113
58 92 129
58 92 121
58 92 104
61 96 119
60 95 122
58 92 114
58 92 130
58 92 127
57 91 108
58 92 114
57 91 116
60 95 132
59 94 124
59 94 127
61 96 129
59 94 122
59 93 121
58 92 116
60 94 119
59 93 127
57 91 107
59 94 122
55 88 108
60 94 122
59 93 121
58 93 113
59 93 122
59 93 111
59 93 105
58 92 116
57 90 98
56 89 110
59 93 127
56 89 116
58 92 118
58 93 107
59 93 118
58 91 112
56 89 107
61 96 131
57 90 110
55 88 83
57 90 109
57 91 106
58 92 123
56 89 100
55 88 103
60 94 127
57 89 116
54 86 105
54 85 101
53 84 98
52 82 100
61 87 83
106 124 51
119 134 0
115 132 0
111 127 0
119 134 0
119 135 0
115 132 0
131 148 0
123 139 0
123 140 0
121 139 0
120 137 0
120 137 0
115 130 0
125 144 0
130 146 0
121 139 0
120 137 0
116 135 0
126 143 0
140 158 0
123 141 0
130 149 0
137 156 0
139 158 0
122 143 0
123 140 0
120 138 0
120 136 0
133 151 0
129 146 0
135 153 0
154 176 0
129 148 0
128 147 0
126 144 0
134 152 0
135 150 0
141 159 0
133 149 0
130 147 0
129 148 0
144 164 0
151 170 0
157 176 0
144 164 0
139 158 0
149 167 0
142 161 0
144 161 0
146 162 0
131 150 0
141 161 0
146 164 0
151 168 0
151 168 0
146 167 0
155 175 0
143 163 0
151 170 0
150 170 0
132 151 0
139 157 0
151 171 0
138 158 0
160 181 0
156 176 0
152 173 0
150 167 0
161 182 0
152 171 0
162 184 0
166 185 0
143 161 0
148 169 0
159 178 0
156 176 0
158 178 0
156 176 0
157 177 0
164 185 0
155 173 0
153 173 0
166 186 0
160 181 0
151 170 0
160 181 0
149 167 0
148 169 0
158 179 0
144 163 0
158 181 0
151 173 0
155 175 0
165 184 0
156 176 0
156 175 0
146 165 0
161 181 0
161 185 0
161 180 0
165 187 0
158 179 0
168 188 0
158 178 0
170 192 0
167 187 0
150 170 0
160 182 0
162 182 0
152 172 0
167 189 0
156 173 0
156 177 0
158 177 0
160 178 0
163 185 0
167 187 0
160 181 0
163 183 0
161 182 0
159 180 0
168 191 0
160 180 0
168 191 0
167 188 0
159 179 0
162 184 0
173 194 0
160 180 0
169 190 0
169 191 0
169 189 0
167 190 0
175 197 0
156 177 0
162 183 0
165 185 0
164 185 0
162 185 0
156 176 0
169 191 0
159 180 0
166 184 0
170 192 0
175 199 72
179 202 72
178 202 102
177 200 95
177 200 95
175 198 88
174 197 88
184 207 130
170 192 72
179 204 102
172 197 88
172 194 80
172 194 88
171 194 95
176 199 72
175 198 62
165 189 88
171 195 102
178 202 114
181 204 108
177 200 114
173 196 88
174 198 108
171 195 108
172 196 88
167 189 114
169 192 120
176 199 102
171 195 62
172 196 114
164 188 72
169 193 88
173 197 95
168 192 108
169 194 88
172 196 95
165 188 80
167 189 72
175 199 102
170 193 95
175 199 120
166 190 108
164 187 80
169 191 102
168 192 80
173 196 108
171 195 114
167 191 80
160 184 72
169 192 114
166 191 72
166 189 80
178 202 120
164 188 95
169 192 88
169 193 88
160 184 80
167 191 117
169 192 102
168 191 108
171 195 92
162 186 92
158 182 92
157 181 80
171 195 114
164 186 88
156 180 72
164 188 114
165 189 72
171 194 102
161 186 72
166 188 88
174 197 135
158 180 95
156 180 105
168 191 111
151 173 72
165 188 88
160 183 88
164 186 80
163 184 95
161 184 102
159 181 51
165 188 72
155 178 80
161 183 88
164 187 80
155 177 95
164 186 108
156 178 80
165 186 95
164 186 108
158 180 80
155 178 72
159 179 114
160 181 108
160 181 72
153 174 102
165 187 102
145 167 108
165 184 125
127 147 72
140 160 62
151 170 108
145 165 88
154 175 88
144 163 88
149 168 88
150 170 51
151 171 88
139 159 72
143 163 62
137 157 72
123 141 80
141 160 80
125 143 95
98 120 89
77 104 96
97 120 113
93 116 95
101 124 127
101 125 107
104 130 101
97 123 118
97 122 120
109 134 123
114 137 137
97 122 98
140 157 135
103 126 127
104 129 115
80 109 98
65 98 134
60 94 126
58 91 108
93 121 105
68 101 111
78 109 120
80 112 139
59 93 137
80 110 121
59 93 116
62 94 110
57 90 111
64 97 119
72 103 107
61 94 116
57 90 116
62 93 99
54 86 87
60 92 102
108 130 76
114 138 84
87 114 101
53 85 90
58 91 103
56 88 100
52 83 85
57 90 110
58 91 98
54 87 97
57 90 107
56 90 113
55 88 94
56 89 104
58 92 120
57 90 111
59 93 113
57 91 91
57 90 110
56 89 102
59 94 119
60 96 124
57 90 111
56 90 113
56 89 116
58 92 110
57 91 105
56 89 87
58 92 119
60 95 124
59 93 127
60 94 124
59 93 116
59 94 121
56 90 116
60 94 116
58 93 111
58 93 119
59 94 119
58 92 108
57 91 111
60 94 122
58 92 107
58 92 111
62 96 129
60 95 116
56 89 116
60 95 137
59 93 124
59 93 119
59 93 119
58 91 116
59 92 118
58 93 116
58 93 121
60 95 116
58 92 119
60 93 122
57 91 102
59 93 124
60 95 122
57 90 105
52 84 100
58 91 107
59 93 117
56 89 95
58 91 116
58 92 116
58 91 104
59 94 110
60 94 119
58 92 104
58 91 122
57 91 113
58 92 113
57 90 116
58 91 118
60 94 129
57 90 111
56 89 107
56 89 116
59 93 108
59 93 116
57 90 110
60 94 132
58 91 113
58 91 112
58 92 118
58 92 109
57 91 97
54 87 94
55 88 101
56 88 111
57 91 100
55 87 97
57 91 112
53 84 103
55 87 110
54 86 99
51 82 107
53 83 91
51 81 96
85 105 62
107 120 0
127 141 0
122 140 0
121 135 0
113 130 0
133 147 0
97 112 0
100 118 0
115 130 0
131 147 0
135 154 0
114 129 0
143 160 0
129 148 0
123 138 0
129 145 0
138 154 0
140 157 0
135 151 0
119 137 0
138 157 0
138 156 0
131 148 0
133 151 0
143 162 0
126 144 0
127 146 0
129 148 0
137 154 0
133 155 0
143 162 0
131 148 0
119 135 0
122 141 0
134 155 0
145 166 0
151 170 0
134 152 0
152 171 0
138 157 0
150 169 0
148 169 0
137 158 0
143 162 0
157 175 0
148 167 0
141 163 0
157 177 0
150 168 0
150 170 0
149 170 0
155 177 0
144 162 0
142 161 0
152 169 0
156 176 0
146 166 0
144 162 0
141 161 0
136 155 0
139 159 0
140 159 0
143 163 0
168 188 0
160 182 0
155 175 0
158 176 0
143 162 0
159 181 0
159 178 0
156 177 0
153 172 0
152 173 0
154 174 0
146 164 0
159 178 0
152 173 0
157 177 0
154 174 0
145 166 0
148 168 0
154 174 0
144 164 0
156 175 0
160 181 0
157 178 0
157 177 0
159 178 0
159 182 0
162 182 0
151 171 0
161 182 0
169 188 0
162 181 0
158 181 0
159 180 0
160 180 0
158 180 0
161 180 0
156 175 0
167 189 0
166 187 0
151 169 0
157 178 0
157 178 0
159 180 0
160 180 0
159 178 0
163 183 0
158 179 0
164 184 0
151 172 0
164 186 0
159 181 0
162 183 0
157 175 0
170 188 0
164 185 0
156 174 0
164 185 0
168 190 0
169 191 0
159 182 0
155 175 0
162 182 0
162 183 0
167 187 0
161 181 0
168 188 0
165 187 0
166 188 0
166 189 0
166 187 0
166 188 0
166 187 0
166 186 0
167 187 0
163 183 0
170 189 0
166 187 0
155 176 0
164 183 0
169 189 0
170 191 0
168 187 0
170 191 0
173 195 72
177 201 95
173 197 80
175 198 95
178 202 102
174 197 95
174 198 102
174 197 95
173 195 62
176 200 80
173 197 72
177 199 72
170 194 108
174 197 102
183 206 114
172 196 114
178 202 102
170 195 95
172 196 95
172 197 88
168 192 95
177 201 102
172 195 102
169 193 108
173 196 102
172 196 114
163 187 80
174 197 62
174 196 108
176 200 102
173 195 102
169 193 95
172 195 88
172 196 88
178 203 95
171 194 102
170 193 95
175 199 72
167 192 72
164 188 72
176 199 95
168 193 88
166 190 102
165 188 95
174 197 108
169 193 95
170 194 102
166 189 102
172 196 114
168 190 80
160 185 88
173 197 80
160 185 88
169 193 95
162 185 88
165 190 108
163 186 51
167 191 102
169 192 72
174 197 95
163 187 102
161 184 88
157 179 57
158 181 84
170 194 114
173 196 120
165 186 80
158 182 99
166 189 72
170 194 108
168 190 125
157 178 72
169 192 120
160 183 80
158 182 95
156 178 102
168 191 72
159 181 80
165 188 108
156 179 51
160 182 120
166 189 88
171 194 88
172 195 88
165 188 80
168 191 125
161 183 108
163 186 80
169 191 95
160 181 102
157 178 108
168 190 108
158 180 102
154 175 72
170 191 140
159 179 102
159 180 88
152 172 102
163 184 125
145 166 62
158 179 102
147 169 72
156 176 102
157 177 80
148 168 102
156 177 72
150 168 102
130 151 36
148 165 102
151 171 95
146 165 62
137 155 80
135 154 72
134 152 62
115 133 51
141 157 120
117 134 72
89 111 108
101 124 90
92 117 94
103 126 107
82 107 95
80 106 98
108 131 122
82 110 84
105 130 115
112 136 88
121 145 125
91 118 119
84 108 105
102 127 76
73 103 110
66 97 109
73 105 127
85 115 118
73 105 149
76 107 122
77 108 121
83 113 104
82 111 119
64 97 119
71 99 108
58 92 120
62 95 119
59 93 104
57 90 119
59 90 104
66 95 92
54 86 91
59 92 108
64 96 112
109 132 76
99 124 67
96 118 79
55 88 96
54 86 93
55 88 107
57 90 115
55 88 97
55 87 97
57 91 108
57 90 116
58 92 112
59 92 107
55 88 88
60 94 129
56 89 98
58 91 123
58 91 105
59 93 128
59 94 107
59 94 124
57 90 98
58 92 105
56 88 103
59 93 124
56 89 119
57 90 123
59 93 116
57 90 100
59 94 116
55 89 92
59 93 119
59 94 119
57 90 94
58 92 114
57 90 113
59 93 119
62 97 129
58 93 110
56 89 119
59 93 121
57 92 115
56 89 98
60 94 129
59 94 132
58 92 114
61 96 125
55 89 95
59 94 116
60 95 124
60 95 127
57 91 98
59 93 119
59 94 127
60 94 124
59 93 119
57 90 107
57 91 107
59 93 118
58 93 107
58 92 114
57 90 111
60 95 124
58 92 116
57 91 113
58 91 113
57 91 121
58 92 118
59 93 116
58 91 108
58 92 113
59 93 113
60 94 121
57 91 105
56 89 105
55 88 98
58 93 110
59 92 110
59 93 116
60 94 119
57 90 104
60 94 129
57 90 104
58 92 121
57 90 107
57 90 107
56 89 100
57 91 94
59 93 109
57 90 90
57 90 102
56 89 109
56 90 117
56 89 99
55 88 106
52 83 74
52 83 102
55 86 110
54 85 103
52 82 101
53 79 76
89 105 47
119 134 0
126 141 0
108 125 0
123 142 0
116 132 0
114 129 0
120 136 0
128 145 0
131 146 0
102 118 0
121 138 0
134 152 0
115 132 0
139 156 0
126 142 0
137 154 0
122 138 0
129 147 0
123 140 0
125 141 0
125 142 0
126 143 0
145 165 0
127 145 0
137 155 0
123 142 0
135 153 0
131 150 0
135 152 0
135 155 0
130 150 0
144 164 0
135 153 0
140 157 0
136 155 0
128 148 0
140 160 0
135 155 0
133 150 0
138 158 0
144 165 0
137 158 0
147 166 0
128 147 0
124 142 0
149 169 0
154 176 0
125 143 0
138 158 0
153 172 0
146 167 0
133 149 0
149 169 0
138 158 0
146 163 0
144 163 0
149 167 0
156 175 0
137 156 0
152 171 0
151 171 0
154 175 0
146 165 0
149 167 0
154 175 0
151 171 0
152 171 0
149 170 0
142 164 0
155 175 0
159 180 0
144 165 0
163 185 0
156 173 0
146 164 0
150 169 0
151 171 0
154 175 0
161 184 0
151 169 0
157 177 0
157 176 0
154 174 0
151 173 0
146 169 0
158 180 0
151 171 0
151 171 0
160 180 0
157 177 0
158 178 0
151 170 0
163 185 0
147 164 0
158 174 0
159 180 0
159 178 0
143 159 0
159 176 0
165 186 0
161 185 0
158 181 0
147 169 0
156 175 0
150 169 0
159 179 0
159 179 0
157 175 0
167 189 0
164 184 0
166 187 0
152 171 0
165 187 0
162 181 0
155 175 0
153 173 0
162 182 0
167 186 0
172 192 0
161 179 0
167 186 0
171 193 0
161 181 0
162 182 0
170 193 0
159 178 0
170 189 0
156 178 0
167 188 0
162 183 0
164 187 0
162 183 0
166 187 0
165 185 0
157 178 0
157 176 0
167 187 0
166 188 0
165 186 0
161 182 0
170 193 0
167 186 0
158 178 0
168 188 0
166 189 0
167 189 0
168 191 0
178 202 95
180 202 102
183 206 125
173 196 120
180 203 80
173 197 88
183 207 114
179 202 114
171 196 88
173 197 80
170 194 95
175 198 80
178 201 95
173 196 95
172 196 95
177 200 108
168 192 95
172 195 108
178 203 144
179 201 108
183 206 114
177 200 88
174 196 114
164 188 72
171 194 102
171 195 120
173 195 114
176 199 88
176 199 95
174 198 102
169 192 72
170 195 114
174 198 62
172 196 95
170 195 88
171 195 72
169 193 114
162 187 88
166 190 62
172 196 88
170 193 108
171 194 72
168 191 120
162 186 62
173 196 88
172 196 114
169 194 108
175 199 102
165 189 102
164 187 51
175 199 95
160 183 51
179 202 108
169 194 102
166 190 95
168 190 99
166 189 51
168 191 80
165 188 80
164 188 102
171 193 102
168 191 95
164 187 130
170 192 111
160 183 95
163 185 102
174 197 88
163 185 95
164 186 91
160 183 72
157 178 51
159 184 88
162 184 51
157 180 99
162 185 88
163 185 88
159 182 102
149 171 80
172 194 108
169 191 108
156 179 88
166 189 80
177 201 125
170 192 108
158 179 108
165 186 130
176 197 88
155 176 108
168 190 95
168 190 95
171 192 120
164 186 95
164 186 95
153 174 88
159 179 108
169 190 102
164 184 114
142 163 95
144 165 80
144 165 88
141 163 88
144 164 80
156 177 95
150 169 80
152 174 80
151 172 72
143 163 72
132 152 72
151 173 80
138 158 51
130 148 80
139 158 72
131 150 36
125 144 72
130 148 80
125 143 51
119 135 72
124 143 80
103 125 103
111 131 129
98 123 91
106 128 104
112 135 116
111 135 105
98 124 98
73 102 101
83 112 94
107 132 93
111 134 111
123 143 114
80 109 107
87 113 98
65 98 130
66 100 136
60 95 141
73 104 118
69 102 127
79 110 101
71 103 122
81 111 119
76 106 119
77 107 107
76 105 129
58 91 121
66 98 111
66 99 113
69 101 122
63 95 108
62 95 119
64 94 98
54 83 93
111 133 62
117 140 76
102 128 71
53 85 74
53 86 101
54 86 83
55 87 83
55 87 115
52 84 85
57 90 115
54 86 97
54 87 96
55 88 104
55 88 87
55 88 87
56 88 107
58 91 101
56 89 101
57 90 110
57 90 116
57 91 113
60 95 107
55 88 104
56 89 116
59 93 110
58 92 113
58 92 101
60 94 116
56 88 107
56 89 88
59 92 127
58 92 113
59 93 113
58 92 105
58 91 119
57 90 119
57 91 116
57 90 101
58 93 121
58 92 119
59 93 114
61 96 122
61 96 122
56 89 116
60 95 130
58 91 101
58 92 113
59 92 121
58 92 116
55 89 95
59 94 129
57 91 105
59 93 130
58 92 111
59 94 113
58 92 105
60 95 108
56 89 101
61 95 137
60 94 134
61 96 143
56 89 91
57 90 98
59 93 116
59 93 105
60 95 127
59 93 116
58 91 104
59 93 107
58 92 116
55 88 107
56 89 101
58 92 104
59 94 124
57 90 104
57 90 116
57 91 100
59 94 129
57 91 113
58 92 116
57 90 107
58 92 119
57 90 101
57 91 107
56 89 97
58 92 107
53 85 97
52 84 94
57 90 112
56 88 104
56 88 103
56 89 100
57 91 109
55 88 105
55 86 110
54 85 107
53 84 101
53 84 105
50 80 87
63 85 67
110 128 0
111 129 0
114 131 0
107 125 0
117 134 0
113 129 0
131 146 0
130 149 0
114 129 0
105 121 0
120 137 0
113 130 0
134 151 0
110 128 0
143 160 0
133 148 0
117 133 0
114 127 0
122 138 0
139 157 0
121 141 0
128 144 0
125 144 0
134 152 0
130 145 0
122 138 0
119 134 0
143 160 0
130 147 0
139 159 0
122 140 0
129 148 0
140 159 0
132 152 0
133 151 0
138 158 0
143 163 0
147 166 0
148 169 0
146 165 0
134 153 0
137 155 0
144 164 0
151 171 0
152 172 0
140 159 0
130 147 0
139 159 0
145 165 0
146 163 0
141 162 0
151 171 0
144 165 0
155 171 0
151 169 0
143 162 0
135 154 0
138 157 0
131 149 0
148 167 0
138 155 0
149 169 0
149 169 0
151 172 0
137 157 0
151 171 0
137 157 0
157 174 0
141 159 0
153 173 0
154 174 0
156 178 0
139 156 0
151 170 0
136 156 0
155 173 0
154 173 0
153 173 0
159 182 0
153 171 0
147 168 0
160 180 0
162 180 0
153 174 0
139 159 0
154 173 0
152 171 0
164 187 0
162 183 0
154 174 0
157 178 0
156 179 0
156 177 0
161 183 0
158 177 0
156 177 0
155 175 0
154 173 0
152 172 0
152 172 0
151 173 0
159 178 0
165 184 0
153 171 0
156 175 0
168 188 0
165 184 0
160 181 0
159 179 0
154 175 0
151 172 0
168 190 0
162 182 0
158 176 0
165 186 0
166 188 0
153 176 0
158 180 0
163 184 0
159 180 0
164 184 0
163 182 0
153 172 0
163 185 0
163 186 0
161 179 0
165 186 0
154 173 0
155 177 0
174 195 0
161 181 0
165 184 0
151 171 0
170 193 0
170 192 0
171 192 0
171 192 0
166 189 0
170 191 0
165 185 0
165 185 0
162 183 0
162 182 0
168 191 0
168 189 0
170 193 0
166 186 0
163 182 0
166 185 0
178 201 102
178 201 108
178 201 114
177 200 102
179 203 102
181 204 114
176 200 120
179 202 130
175 198 102
170 194 80
174 197 102
178 201 114
178 201 95
174 199 108
175 197 72
175 199 95
166 190 62
177 201 114
176 201 114
168 192 62
179 201 120
170 193 95
168 191 95
174 198 88
159 182 72
172 196 114
170 195 108
180 203 120
167 189 88
159 183 108
181 203 102
172 196 72
170 194 88
165 189 72
171 195 95
173 197 95
168 192 88
175 199 88
171 195 88
174 197 102
162 186 51
168 191 88
167 191 95
166 190 80
161 185 95
174 197 108
168 192 108
166 188 88
176 201 114
176 199 108
158 183 95
176 200 95
170 194 120
172 195 88
167 189 80
174 198 95
159 184 80
160 184 95
163 187 62
162 185 80
165 189 95
157 180 62
175 199 130
163 186 80
173 196 108
161 183 102
168 192 99
166 189 95
169 192 102
159 183 114
165 189 102
166 189 108
169 192 92
164 186 105
169 192 108
160 183 84
176 198 120
158 181 95
166 189 108
154 177 80
161 185 62
158 180 102
164 187 88
154 177 102
155 177 80
158 181 62
156 179 108
170 191 95
162 184 114
167 190 88
167 189 144
161 182 102
158 179 95
164 185 95
150 171 80
157 179 114
160 182 72
154 174 95
155 176 80
145 166 102
157 176 95
162 181 108
157 178 72
163 184 80
135 154 95
152 172 108
147 167 72
143 162 80
149 169 95
143 163 80
157 179 95
136 154 102
134 152 80
122 140 72
130 150 36
138 155 72
132 150 80
145 163 80
102 121 73
98 120 99
103 128 90
99 122 113
70 100 95
113 135 135
112 135 124
109 131 108
102 125 127
100 124 109
121 145 130
102 127 95
94 121 108
101 127 97
72 104 133
76 107 130
73 105 124
68 100 128
85 115 101
72 102 116
72 102 113
66 98 111
83 110 110
71 100 91
72 104 121
59 93 101
62 94 113
58 91 116
57 89 110
63 97 115
60 92 91
64 93 80
73 101 103
111 133 67
104 129 95
86 113 84
54 86 104
52 84 83
52 84 91
54 86 96
52 83 90
54 86 74
55 88 97
56 89 86
52 84 91
54 87 91
55 87 94
56 89 99
55 88 101
57 89 101
57 90 104
58 92 115
56 90 91
56 89 111
57 91 94
58 91 107
57 90 104
58 91 118
57 91 110
59 93 119
56 90 97
56 89 107
55 88 95
58 92 127
55 88 91
57 91 113
57 91 111
58 92 104
55 87 104
56 90 94
59 93 124
59 94 116
59 92 124
58 92 113
59 94 98
56 90 98
60 94 116
59 93 110
56 90 116
58 92 124
58 92 121
58 91 132
61 95 132
58 90 122
61 96 126
60 95 121
59 93 101
58 93 116
55 88 107
57 90 116
58 92 116
58 91 116
58 92 129
60 94 121
56 89 101
58 92 113
55 88 104
58 92 105
57 90 110
56 91 107
59 93 104
58 92 110
58 91 108
58 92 119
58 91 110
58 93 104
58 92 132
55 88 87
56 89 110
56 88 110
58 93 110
57 91 106
59 92 118
56 90 104
58 93 110
57 90 112
54 86 94
57 90 109
56 89 104
56 89 101
52 84 94
57 90 106
55 87 106
56 89 107
56 88 108
58 91 102
56 89 102
51 81 70
50 79 64
46 75 54
60 86 89
79 97 47
119 135 0
114 132 0
118 134 0
108 123 0
110 127 0
118 136 0
117 132 0
90 106 0
131 148 0
106 123 0
110 128 0
117 134 0
109 127 0
112 131 0
122 141 0
127 144 0
107 125 0
120 138 0
123 138 0
128 146 0
134 152 0
122 139 0
141 159 0
131 150 0
147 167 0
133 152 0
133 153 0
118 132 0
131 151 0
137 153 0
138 155 0
130 149 0
135 154 0
144 165 0
137 156 0
131 149 0
137 157 0
128 146 0
133 149 0
155 174 0
134 153 0
128 147 0
124 139 0
155 175 0
135 155 0
141 160 0
153 172 0
140 160 0
152 171 0
147 166 0
155 175 0
149 168 0
144 162 0
149 170 0
148 168 0
146 165 0
151 169 0
146 164 0
135 148 0
147 164 0
134 153 0
161 181 0
153 175 0
148 169 0
146 166 0
149 171 0
153 174 0
154 175 0
155 177 0
157 177 0
144 164 0
152 174 0
143 163 0
153 173 0
139 158 0
160 180 0
144 164 0
156 173 0
150 168 0
148 167 0
154 174 0
157 177 0
153 173 0
154 175 0
155 176 0
152 174 0
157 179 0
161 182 0
157 178 0
155 175 0
155 173 0
156 177 0
160 181 0
162 183 0
162 181 0
156 178 0
161 183 0
158 178 0
157 175 0
161 182 0
164 187 0
167 186 0
152 171 0
146 165 0
153 175 0
160 182 0
161 180 0
154 173 0
160 182 0
157 178 0
161 181 0
159 183 0
161 182 0
166 189 0
166 187 0
161 178 0
163 183 0
157 179 0
158 178 0
174 193 0
159 179 0
164 185 0
158 178 0
163 185 0
162 183 0
164 184 0
170 190 0
155 176 0
158 181 0
165 185 0
169 192 0
168 191 0
171 192 0
172 192 0
165 188 0
173 193 0
161 183 0
170 191 0
166 188 0
162 180 0
172 194 0
172 195 0
156 176 0
162 184 0
166 190 0
161 183 0
171 194 0
169 191 0
170 191 0
173 195 0
177 200 88
181 204 120
182 205 114
177 200 102
172 195 88
173 197 72
172 194 120
178 202 125
178 202 102
176 199 108
178 200 95
173 197 114
175 199 120
174 197 95
178 202 95
177 200 108
167 191 102
178 201 108
177 201 125
173 197 108
178 202 120
171 195 114
174 198 72
169 193 88
182 204 108
170 194 80
173 196 120
172 197 108
167 191 80
176 200 108
175 197 95
175 197 95
177 200 102
166 191 108
167 190 95
177 201 95
170 193 102
172 196 95
175 199 102
172 196 95
180 203 120
172 196 108
169 193 108
176 200 120
172 196 114
168 191 95
167 191 102
163 187 72
162 186 80
160 184 80
176 200 114
170 194 88
167 191 72
167 191 80
166 190 62
168 191 95
174 198 80
175 200 120
165 189 95
174 198 120
162 186 72
165 187 36
165 188 80
163 187 88
165 189 102
164 188 80
163 187 108
172 195 95
171 195 114
166 190 120
157 181 51
161 182 80
166 190 95
158 180 95
180 203 140
175 197 114
162 184 80
164 187 88
168 190 95
156 178 62
160 182 108
176 198 102
168 190 80
169 191 102
154 176 80
167 188 102
159 181 120
170 193 95
167 189 80
141 162 62
166 187 102
153 175 72
155 176 114
159 179 95
162 183 88
156 177 80
153 175 95
166 186 95
156 176 108
164 185 114
167 187 114
166 187 114
147 168 72
154 175 80
145 166 80
159 180 102
149 168 80
152 172 72
152 172 72
146 167 80
132 151 95
138 159 62
147 168 51
142 160 80
136 154 72
118 138 0
128 144 88
138 154 102
117 133 83
86 106 61
116 138 98
98 124 99
99 124 90
87 112 80
96 122 101
106 130 97
108 133 101
96 121 101
90 116 94
106 130 98
89 115 94
88 115 113
83 112 111
72 102 109
72 104 133
78 108 121
63 96 121
67 98 110
78 109 88
71 103 131
62 96 129
88 116 117
69 100 84
79 107 104
63 96 125
64 96 113
67 97 116
68 99 116
69 95 94
55 88 90
64 90 87
113 134 57
109 132 84
100 123 80
52 82 77
54 86 92
54 85 102
52 83 65
54 86 81
53 85 93
53 85 79
56 89 102
52 83 71
57 90 104
54 86 86
57 90 104
56 88 115
56 90 103
58 90 109
52 84 77
55 88 91
57 89 101
56 89 101
56 89 99
58 91 121
57 90 107
58 91 116
57 91 119
59 93 124
57 91 121
58 92 124
61 95 122
56 89 101
56 88 107
56 89 107
57 91 111
59 94 122
58 92 113
58 91 114
58 91 116
56 88 111
55 88 101
56 89 101
58 92 124
59 92 124
60 94 121
60 93 116
58 92 121
58 92 108
56 91 91
58 92 119
57 91 108
58 91 110
57 90 119
57 90 105
59 93 116
58 93 122
59 93 132
57 91 98
56 90 95
58 92 98
59 93 133
58 92 105
56 89 90
56 89 110
59 93 124
56 89 97
57 90 108
57 91 104
59 93 108
55 88 98
60 94 121
55 88 98
55 88 97
57 90 107
57 90 116
57 90 94
58 91 110
57 91 110
57 91 104
61 95 126
58 92 107
56 89 122
58 92 107
56 89 101
58 91 118
55 88 97
52 83 101
53 85 89
54 86 112
54 87 75
56 88 106
53 84 102
54 85 85
56 87 103
51 81 87
49 78 87
91 111 63
119 135 0
113 129 0
108 123 0
121 136 0
110 126 0
118 135 0
103 121 0
93 110 0
112 130 0
116 131 0
106 121 0
116 134 0
132 149 0
137 154 0
106 123 0
122 140 0
112 128 0
106 122 0
120 138 0
114 129 0
124 141 0
125 142 0
118 136 0
120 138 0
147 165 0
131 150 0
134 152 0
145 160 0
121 138 0
114 133 0
147 165 0
111 129 0
129 148 0
135 155 0
143 162 0
128 146 0
139 159 0
124 138 0
129 148 0
138 160 0
141 158 0
137 157 0
123 144 0
135 156 0
137 156 0
155 177 0
142 161 0
140 160 0
133 155 0
145 165 0
138 157 0
148 167 0
149 169 0
139 159 0
144 161 0
143 162 0
135 152 0
150 173 0
147 168 0
145 161 0
145 164 0
147 164 0
156 177 0
139 159 0
149 170 0
151 172 0
155 177 0
158 178 0
161 180 0
157 179 0
166 187 0
150 171 0
154 173 0
155 175 0
158 179 0
167 187 0
153 171 0
152 172 0
146 164 0
150 168 0
160 180 0
165 186 0
152 170 0
144 165 0
157 178 0
161 180 0
150 170 0
157 177 0
152 171 0
157 175 0
153 174 0
156 176 0
157 178 0
151 169 0
167 189 0
154 174 0
157 177 0
160 183 0
163 186 0
148 169 0
163 183 0
152 174 0
157 178 0
155 175 0
155 174 0
167 185 0
165 186 0
157 176 0
162 184 0
163 184 0
163 184 0
161 181 0
161 180 0
169 192 0
159 178 0
165 184 0
154 173 0
166 187 0
171 193 0
160 181 0
163 182 0
156 177 0
156 177 0
161 181 0
155 176 0
162 183 0
163 182 0
161 180 0
168 190 0
158 179 0
159 178 0
163 182 0
161 183 0
166 188 0
163 184 0
165 184 0
165 186 0
164 185 0
169 193 0
172 192 0
162 184 0
168 191 0
162 182 0
169 188 0
161 183 0
162 182 0
167 190 0
170 192 0
164 186 0
162 180 0
171 193 0
171 194 0
169 193 102
171 194 80
175 199 102
177 198 88
178 202 114
177 200 95
176 199 108
176 199 95
172 195 102
180 202 108
177 200 95
177 200 88
180 203 102
172 197 88
170 195 72
176 200 108
175 198 108
181 204 102
173 197 88
174 198 120
167 190 80
173 197 114
173 196 125
175 199 108
179 202 95
180 203 120
172 196 95
174 198 62
165 189 72
178 202 102
171 196 114
172 197 120
174 197 80
177 201 120
176 201 114
176 199 80
172 196 114
175 199 95
167 191 88
168 192 102
172 196 108
173 197 114
169 193 95
168 192 88
177 201 102
171 195 108
168 191 95
168 192 88
173 196 114
172 196 80
166 189 102
171 195 102
174 198 120
174 198 108
172 195 114
167 190 80
161 185 67
170 193 108
162 185 102
171 194 125
160 183 76
165 189 95
171 194 102
173 197 88
169 192 62
172 194 95
162 185 80
164 187 80
160 182 80
170 193 108
174 198 114
162 184 125
165 188 95
168 191 80
173 196 114
176 199 135
162 184 102
170 194 102
164 187 102
169 191 102
161 184 102
169 192 108
154 177 80
171 193 114
167 188 108
166 188 114
159 181 102
158 180 72
165 186 125
166 189 102
152 175 36
164 186 120
142 164 80
152 173 62
168 190 108
170 192 114
167 187 108
153 174 95
148 170 88
152 172 102
149 169 88
161 181 114
149 170 108
160 179 80
160 180 95
165 185 114
146 167 88
142 162 72
151 171 88
142 162 72
140 158 80
145 164 88
126 146 36
145 164 72
144 164 80
129 146 72
129 147 62
132 147 51
136 153 72
117 134 36
102 124 99
91 114 96
90 114 75
79 104 113
98 122 88
100 124 109
99 124 101
98 124 95
101 127 105
104 128 88
101 126 101
93 117 111
66 98 128
68 100 122
83 113 103
72 102 115
73 105 111
67 98 121
76 105 113
69 100 127
76 108 124
74 103 88
69 100 121
91 115 104
64 95 104
55 87 98
60 90 109
62 94 101
59 90 91
56 86 90
65 93 79
101 121 72
116 137 56
97 122 56
66 90 84
48 77 77
53 85 87
50 80 74
50 80 69
51 81 85
56 88 100
54 86 106
54 85 111
55 88 103
56 89 97
55 87 100
54 86 87
53 85 97
55 87 96
54 86 83
53 85 91
55 87 80
58 92 110
57 91 97
57 90 94
57 91 95
56 89 100
56 89 101
58 91 116
57 90 126
55 87 107
56 89 98
60 94 119
55 87 104
57 90 113
56 88 104
59 93 110
57 90 104
57 90 91
58 92 98
58 92 113
59 93 116
60 95 122
56 89 91
60 94 124
60 94 113
56 89 98
58 92 113
57 91 113
55 88 107
57 91 98
57 90 104
57 90 110
57 91 108
56 88 98
56 89 109
57 90 94
58 91 110
60 94 124
59 93 124
59 92 110
56 89 98
58 92 107
60 94 122
57 91 112
58 91 107
57 91 110
60 94 129
57 91 110
59 93 121
57 91 110
59 94 107
58 92 104
58 91 98
60 95 118
58 91 113
56 89 87
58 92 109
54 87 95
55 87 100
55 87 98
58 91 115
58 92 103
57 91 103
58 92 109
56 88 115
57 90 121
55 88 100
53 85 100
58 92 114
51 82 89
49 79 74
53 84 95
52 81 99
51 81 88
63 85 74
90 107 24
99 112 0
113 131 0
101 118 0
98 114 0
114 131 0
117 133 0
119 136 0
114 133 0
94 107 0
119 135 0
132 150 0
105 120 0
107 125 0
113 131 0
134 152 0
141 158 0
129 147 0
113 128 0
109 125 0
128 148 0
129 146 0
125 142 0
134 152 0
140 156 0
129 148 0
134 153 0
127 146 0
131 151 0
126 147 0
119 137 0
145 163 0
142 160 0
120 140 0
139 157 0
135 155 0
130 149 0
138 156 0
147 167 0
154 174 0
144 161 0
130 148 0
143 162 0
143 163 0
134 153 0
140 162 0
137 157 0
144 163 0
135 155 0
137 157 0
154 175 0
134 155 0
144 162 0
146 168 0
142 162 0
144 162 0
154 173 0
140 160 0
147 167 0
149 167 0
148 170 0
146 167 0
153 175 0
139 160 0
156 177 0
135 157 0
161 180 0
162 183 0
154 174 0
144 163 0
134 151 0
147 165 0
157 178 0
148 169 0
146 166 0
164 182 0
158 174 0
152 172 0
162 181 0
153 174 0
156 174 0
164 186 0
157 178 0
146 167 0
153 174 0
148 170 0
159 178 0
156 178 0
151 172 0
137 158 0
159 178 0
159 181 0
150 171 0
142 162 0
154 176 0
159 181 0
155 172 0
165 184 0
154 174 0
151 173 0
168 188 0
162 184 0
155 177 0
143 161 0
159 181 0
162 182 0
155 175 0
158 179 0
151 172 0
151 170 0
145 164 0
164 184 0
157 179 0
166 185 0
163 183 0
151 171 0
153 173 0
162 183 0
163 178 0
166 188 0
165 185 0
160 180 0
153 174 0
163 187 0
157 177 0
157 178 0
162 185 0
165 185 0
164 187 0
158 177 0
164 187 0
156 177 0
158 180 0
160 183 0
153 175 0
165 186 0
162 184 0
164 184 0
163 184 0
162 185 0
168 189 0
164 185 0
165 185 0
167 188 0
157 179 0
171 191 0
169 192 0
163 185 0
158 182 0
167 189 0
168 187 0
172 194 0
171 193 0
170 192 0
177 202 114
173 197 102
172 196 88
177 201 108
173 195 95
182 205 125
179 202 88
175 198 102
176 199 88
178 201 72
172 197 80
180 204 95
173 197 95
179 202 72
176 198 114
175 199 88
176 200 108
173 196 108
176 199 108
170 194 88
171 194 108
174 198 95
167 191 102
175 199 95
173 197 95
174 197 95
181 203 114
172 195 72
172 197 95
175 198 108
165 190 80
173 198 88
173 197 114
178 201 125
172 195 62
170 194 108
173 197 88
172 196 95
169 193 114
170 194 102
173 196 102
162 185 62
170 194 114
169 193 95
177 200 95
177 201 95
171 194 120
160 185 108
177 200 72
173 195 108
170 192 108
177 200 88
167 191 72
167 191 108
178 201 135
174 198 95
155 178 98
165 189 84
159 183 108
164 187 88
172 195 88
172 196 95
170 192 120
173 195 72
174 197 120
166 190 72
169 191 102
160 184 88
173 196 120
174 196 102
164 188 88
167 191 88
163 187 102
164 189 88
167 190 98
157 179 51
162 185 88
168 191 108
160 182 108
162 184 80
155 178 72
157 179 88
153 175 80
154 177 102
160 182 95
160 183 102
163 185 108
172 193 114
157 178 114
156 178 95
163 184 108
161 182 102
160 183 102
168 190 88
165 186 125
154 175 80
170 192 120
153 172 102
143 163 80
145 166 80
137 157 111
160 181 108
153 173 80
162 182 80
156 175 108
140 159 80
136 156 62
160 179 102
149 170 95
150 169 102
142 160 80
138 158 62
122 142 51
145 164 72
134 152 36
141 161 72
142 161 80
128 147 62
140 158 62
133 152 88
95 115 61
70 94 77
75 102 86
105 128 101
96 121 80
92 116 107
99 123 95
109 132 113
85 112 110
99 123 88
102 126 76
102 128 98
96 122 101
67 98 108
58 92 117
67 100 116
62 95 106
66 95 109
74 105 124
80 110 123
69 102 134
57 91 107
76 104 88
68 99 107
71 101 98
67 98 104
58 92 110
62 94 101
64 95 104
59 90 97
79 104 78
113 134 57
122 146 71
115 137 62
122 142 34
103 119 23
54 80 78
53 83 91
53 84 83
52 82 92
51 81 91
54 85 89
51 82 78
55 87 103
56 89 90
54 86 90
53 84 86
53 84 83
57 90 100
57 90 94
56 89 112
55 88 115
54 86 97
57 90 97
56 89 98
57 90 100
58 91 113
55 87 101
54 86 84
57 90 100
58 92 116
58 91 110
56 89 101
57 90 107
55 87 91
57 91 98
56 88 107
56 88 98
56 89 94
57 90 104
57 91 94
57 91 101
59 93 98
58 91 121
57 90 107
57 90 103
56 89 91
58 92 107
57 90 114
57 90 110
59 94 119
60 95 119
58 91 101
57 89 104
57 91 94
55 87 98
56 90 101
57 91 119
57 90 98
56 90 101
57 91 113
56 89 104
60 94 112
55 88 98
56 89 112
59 93 110
61 96 141
56 89 104
58 91 110
56 90 91
56 90 98
56 90 100
53 84 84
56 90 101
58 91 113
58 92 110
58 91 97
59 93 123
55 88 101
57 91 104
55 87 100
59 93 120
56 90 104
53 85 83
57 90 87
55 88 103
57 89 93
56 88 108
54 85 99
54 86 95
51 82 85
48 77 59
52 83 98
57 83 76
90 107 45
100 115 0
96 110 0
126 144 0
109 123 0
103 119 0
121 137 0
103 122 0
123 141 0
106 123 0
136 153 0
124 140 0
125 142 0
129 148 0
130 144 0
122 139 0
110 128 0
113 131 0
120 140 0
108 125 0
131 148 0
123 141 0
126 145 0
138 154 0
114 133 0
119 136 0
120 140 0
136 154 0
123 143 0
127 146 0
137 156 0
143 163 0
123 142 0
130 150 0
127 145 0
128 146 0
128 148 0
151 171 0
142 163 0
140 159 0
125 144 0
135 153 0
142 162 0
146 164 0
147 167 0
135 153 0
135 152 0
145 164 0
144 163 0
141 162 0
135 153 0
147 167 0
142 159 0
144 165 0
149 169 0
131 149 0
141 161 0
143 165 0
134 153 0
140 158 0
142 162 0
152 172 0
143 162 0
133 150 0
142 160 0
151 171 0
149 167 0
158 177 0
153 173 0
141 161 0
155 176 0
155 173 0
152 171 0
157 176 0
146 164 0
152 173 0
148 168 0
153 175 0
151 171 0
159 180 0
154 173 0
160 180 0
154 175 0
150 172 0
154 174 0
151 172 0
158 178 0
150 171 0
160 183 0
142 161 0
158 178 0
154 176 0
157 178 0
155 178 0
145 162 0
159 179 0
161 181 0
149 167 0
159 179 0
166 186 0
165 186 0
156 176 0
162 182 0
158 181 0
160 181 0
159 177 0
157 176 0
156 180 0
157 180 0
156 177 0
159 177 0
159 178 0
166 187 0
161 182 0
170 189 0
161 182 0
157 178 0
161 182 0
167 190 0
161 180 0
157 177 0
161 179 0
160 182 0
165 187 0
162 184 0
168 191 0
163 185 0
162 181 0
164 187 0
164 187 0
163 183 0
159 180 0
161 184 0
157 179 0
172 194 0
165 184 0
167 187 0
163 183 0
164 185 0
162 184 0
157 180 0
158 181 0
167 191 0
170 192 0
163 186 0
169 192 0
165 187 0
167 190 0
163 184 0
166 186 0
169 189 0
162 183 0
162 185 0
157 177 0
170 192 0
165 187 0
177 201 95
176 199 114
172 196 95
175 197 114
179 201 125
168 191 102
174 198 102
173 195 80
181 205 88
171 195 108
179 202 114
172 196 108
169 194 88
178 201 125
174 197 72
181 204 135
171 194 88
178 202 135
178 201 120
181 204 114
177 200 102
174 198 72
173 197 95
177 200 95
176 199 114
177 200 108
168 192 102
166 190 80
177 200 108
166 189 72
175 199 130
172 196 108
169 192 80
169 194 62
163 187 51
179 203 120
176 199 80
173 196 80
165 188 95
166 189 80
175 198 102
173 196 95
168 192 102
171 195 125
169 193 108
170 193 88
165 189 95
167 191 102
163 186 102
177 200 102
161 184 88
168 191 120
155 179 80
174 196 95
157 180 88
172 197 114
164 188 102
170 193 72
164 188 80
166 190 72
175 199 95
171 194 108
168 192 102
163 186 95
155 178 108
159 181 88
170 192 51
169 191 102
172 195 88
167 191 88
169 191 108
171 194 95
166 190 102
171 194 102
162 185 72
171 194 114
162 184 72
160 183 95
164 187 95
165 188 102
166 189 95
158 180 72
161 184 88
164 188 72
173 195 120
174 196 125
152 174 88
157 177 102
169 191 108
159 181 108
157 178 108
172 192 108
162 183 102
162 184 102
157 179 80
150 171 80
159 181 80
147 168 80
156 176 95
162 182 88
172 192 125
149 169 95
142 163 95
166 185 120
152 173 95
147 166 102
145 165 72
143 163 72
138 159 72
152 170 108
133 150 102
131 151 51
148 167 95
130 148 72
135 155 72
135 153 72
148 165 102
133 149 114
119 137 72
108 127 51
105 122 51
98 118 75
98 120 94
90 113 87
101 127 62
97 121 104
84 111 110
101 126 118
111 136 88
115 139 55
97 122 91
112 136 76
130 152 62
107 130 78
65 96 89
67 98 123
69 99 98
64 98 126
73 104 110
73 101 101
81 109 101
60 92 105
60 90 110
68 97 116
76 105 121
72 101 91
62 95 94
62 94 100
60 91 94
65 91 89
88 108 50
103 126 35
84 106 62
102 126 62
105 124 35
120 138 0
117 135 0
94 111 32
53 79 74
52 83 79
52 82 85
53 85 101
52 83 87
49 78 88
52 83 93
50 80 67
51 82 82
52 82 83
57 90 99
53 85 99
58 91 111
53 84 100
57 91 83
55 87 107
51 82 90
55 86 104
57 90 107
54 86 100
57 91 118
58 92 110
55 88 91
56 90 104
56 88 100
54 86 84
57 90 98
56 89 104
56 89 101
58 91 131
58 92 113
57 90 104
59 93 126
56 89 91
59 94 124
55 88 113
56 89 103
57 90 113
59 92 116
60 93 127
55 87 98
59 93 126
57 90 104
57 91 101
57 90 110
59 93 110
59 93 132
60 95 119
58 91 100
56 90 110
57 90 110
57 90 88
57 90 110
55 88 91
56 90 95
58 92 107
58 91 110
57 90 110
59 93 101
58 91 107
54 85 107
56 89 95
53 85 94
57 90 106
54 85 98
58 91 118
56 88 106
53 83 87
57 89 107
57 90 106
59 93 118
56 89 83
53 85 96
60 94 115
57 90 112
56 87 90
54 86 93
51 81 85
51 81 89
53 85 101
55 88 98
49 79 83
50 79 80
55 82 80
107 122 33
106 121 0
110 125 0
109 122 0
117 133 0
109 126 0
126 143 0
117 135 0
101 117 0
111 127 0
143 160 0
127 145 0
123 143 0
113 128 0
124 143 0
118 137 0
125 142 0
118 136 0
130 148 0
129 147 0
138 155 0
133 150 0
118 138 0
129 147 0
136 154 0
121 141 0
125 142 0
120 139 0
136 155 0
130 150 0
130 148 0
138 157 0
140 158 0
130 149 0
129 148 0
142 159 0
135 156 0
130 148 0
133 153 0
124 143 0
128 147 0
146 165 0
137 155 0
133 153 0
141 162 0
141 161 0
148 165 0
139 159 0
132 150 0
157 177 0
135 152 0
146 164 0
147 165 0
144 164 0
141 161 0
138 159 0
158 178 0
146 164 0
152 172 0
139 161 0
147 164 0
138 160 0
149 167 0
136 157 0
142 163 0
156 177 0
152 171 0
140 159 0
143 162 0
154 175 0
155 175 0
154 176 0
145 168 0
151 170 0
153 175 0
159 182 0
158 179 0
147 164 0
151 171 0
159 179 0
154 174 0
161 183 0
151 172 0
155 176 0
157 176 0
155 175 0
153 173 0
160 181 0
152 172 0
161 180 0
149 171 0
156 177 0
164 186 0
155 175 0
162 184 0
151 169 0
167 190 0
154 176 0
148 169 0
161 181 0
158 180 0
166 186 0
160 179 0
148 169 0
153 175 0
158 178 0
161 183 0
152 168 0
159 178 0
158 176 0
161 183 0
146 168 0
162 182 0
158 180 0
163 182 0
162 184 0
171 193 0
155 174 0
168 190 0
160 182 0
159 180 0
159 181 0
163 183 0
151 174 0
167 187 0
153 175 0
160 182 0
164 182 0
165 188 0
167 187 0
170 193 0
161 183 0
165 187 0
162 181 0
159 180 0
165 187 0
155 178 0
167 188 0
158 180 0
169 191 0
164 185 0
166 188 0
163 185 0
160 182 0
163 185 0
166 187 0
163 185 0
163 184 0
166 188 0
163 186 0
163 184 0
170 192 0
166 184 0
168 189 0
170 195 0
170 192 0
165 184 0
171 194 0
171 195 88
176 199 95
175 198 102
180 204 108
177 200 114
174 199 72
175 198 125
176 199 102
169 192 72
176 199 120
171 194 108
171 195 95
174 197 62
174 197 114
176 198 88
172 196 95
173 196 88
177 200 88
171 194 88
173 197 95
171 195 108
172 196 88
177 201 108
170 193 95
175 198 102
171 195 108
177 200 102
173 197 108
170 194 114
172 195 88
175 199 88
170 195 108
180 203 130
176 200 80
174 198 88
162 184 80
168 192 95
168 192 102
167 190 80
166 191 114
167 190 95
170 194 102
166 189 62
169 193 95
170 192 80
173 196 95
172 196 125
160 184 72
169 194 102
171 195 102
163 186 51
171 194 80
172 195 108
169 193 125
162 186 80
167 190 80
168 193 102
170 195 122
173 196 88
172 195 114
166 190 108
167 192 84
172 195 108
156 180 88
168 193 95
167 191 95
170 193 88
171 194 80
161 184 102
170 194 114
164 186 102
169 191 105
155 177 95
171 195 80
163 184 108
167 190 88
164 187 62
165 187 80
164 186 108
162 184 114
173 196 114
157 179 125
168 190 102
166 188 108
165 188 114
166 188 108
154 176 72
159 181 102
154 177 62
160 181 95
157 180 72
168 189 120
156 176 95
159 181 88
165 186 102
152 174 72
162 182 95
151 171 95
168 189 102
157 179 125
157 177 108
156 176 102
157 176 95
152 172 102
153 173 108
126 145 72
160 180 88
163 184 125
162 182 95
131 150 36
131 150 88
154 173 95
156 176 102
146 165 80
149 168 80
139 158 80
140 160 62
140 157 102
142 161 36
126 143 62
128 144 95
109 125 62
98 119 75
97 120 79
112 133 121
104 128 107
125 147 94
93 119 87
103 127 91
104 130 90
95 121 75
105 128 67
134 153 62
150 173 23
92 115 82
82 110 110
56 90 97
77 106 70
65 97 101
88 116 98
72 102 110
78 105 107
87 114 105
77 103 91
77 104 87
71 98 89
62 94 106
57 90 104
62 93 120
63 93 90
106 126 61
111 133 76
116 138 62
126 149 62
111 130 24
117 134 0
112 129 0
116 133 0
114 131 0
105 124 40
68 92 64
52 82 73
51 81 81
49 79 81
55 87 93
52 83 89
53 84 93
55 87 99
52 83 79
55 88 75
57 90 99
53 85 100
56 89 96
54 85 86
57 89 113
54 86 100
57 89 94
54 86 100
55 87 106
58 91 110
54 86 104
56 89 106
54 85 80
55 88 94
58 92 113
56 89 118
55 88 101
56 88 107
54 85 94
53 85 94
58 92 91
57 90 98
59 93 131
55 87 91
58 92 113
56 88 104
57 90 118
59 93 121
55 89 101
57 90 104
59 93 118
56 90 113
56 88 98
59 93 107
57 91 110
55 88 98
56 90 95
56 90 107
57 91 101
55 88 98
55 87 103
56 89 87
55 87 112
59 93 113
58 91 116
55 88 97
57 91 104
54 86 95
54 87 107
57 90 118
58 91 112
54 87 87
55 88 94
56 89 97
55 87 107
54 86 90
56 89 106
56 89 71
56 89 103
55 87 89
55 87 100
55 88 89
54 86 93
56 88 108
53 84 101
53 84 101
50 80 98
53 85 100
51 81 77
60 83 75
82 98 41
120 137 0
104 118 0
97 113 0
103 118 0
113 130 0
95 113 0
114 129 0
102 118 0
122 140 0
88 105 0
116 134 0
108 125 0
118 135 0
117 136 0
107 126 0
115 132 0
114 132 0
117 136 0
129 148 0
125 145 0
131 147 0
124 142 0
120 137 0
127 145 0
129 147 0
114 130 0
121 138 0
134 152 0
114 133 0
137 153 0
133 148 0
120 139 0
139 159 0
142 162 0
122 139 0
135 156 0
125 142 0
132 148 0
155 174 0
141 160 0
142 162 0
131 150 0
141 160 0
129 148 0
145 163 0
135 154 0
128 145 0
134 152 0
139 155 0
129 148 0
144 164 0
137 157 0
147 168 0
128 147 0
148 168 0
142 160 0
144 162 0
137 158 0
131 151 0
144 164 0
145 167 0
145 166 0
154 177 0
142 161 0
141 161 0
149 168 0
143 163 0
138 156 0
141 159 0
155 175 0
149 169 0
144 164 0
147 167 0
139 157 0
150 171 0
144 161 0
154 173 0
153 173 0
150 173 0
148 168 0
151 172 0
147 168 0
144 164 0
158 179 0
150 170 0
154 176 0
153 173 0
158 178 0
164 184 0
157 177 0
160 181 0
156 177 0
150 170 0
162 185 0
161 181 0
166 188 0
160 182 0
156 177 0
158 179 0
154 173 0
157 178 0
156 176 0
153 173 0
157 178 0
153 172 0
162 183 0
150 169 0
155 176 0
153 173 0
152 173 0
162 184 0
152 170 0
155 176 0
169 191 0
154 174 0
163 183 0
155 177 0
162 184 0
166 189 0
157 176 0
165 185 0
153 174 0
156 178 0
163 186 0
163 185 0
160 182 0
162 182 0
166 187 0
159 180 0
162 181 0
161 181 0
167 188 0
148 166 0
166 188 0
154 174 0
174 196 0
163 183 0
167 188 0
160 182 0
161 181 0
167 186 0
159 180 0
158 177 0
160 182 0
167 189 0
169 191 0
165 187 0
165 186 0
162 182 0
165 187 0
164 186 0
169 192 0
168 188 0
165 187 0
160 180 0
166 184 0
173 193 0
165 184 0
163 185 0
178 201 88
179 201 114
175 199 108
174 198 95
179 201 125
178 202 114
175 198 95
177 201 88
170 194 88
166 190 62
175 199 80
171 194 95
169 193 95
173 195 80
170 194 80
182 204 108
171 194 72
173 196 80
171 194 120
172 195 80
176 199 108
177 201 102
176 199 114
175 198 120
169 192 62
179 203 102
177 199 62
176 199 95
176 200 72
174 197 102
175 199 102
175 198 102
173 197 114
169 192 88
165 188 80
172 197 114
172 195 88
182 206 144
173 197 88
174 198 80
172 195 88
168 192 80
158 182 72
169 191 102
171 194 80
168 193 95
165 190 102
176 200 114
167 190 80
159 184 95
170 194 95
173 197 80
169 193 95
162 186 114
170 192 125
172 196 80
165 187 88
166 189 95
154 177 80
170 193 88
165 189 122
175 199 114
164 187 76
166 188 62
172 196 88
171 195 108
171 195 108
166 189 120
167 190 102
162 187 95
170 194 114
163 187 62
166 189 114
170 192 88
158 181 114
168 190 120
174 197 125
170 193 88
161 184 88
162 184 80
171 192 108
161 182 72
166 188 95
167 189 108
157 178 102
162 184 114
162 185 114
157 179 72
147 169 88
166 188 114
168 190 95
155 176 108
164 185 120
157 177 72
155 176 88
161 182 108
160 180 125
161 181 135
166 186 120
155 175 80
166 186 102
154 173 114
156 176 108
142 162 72
155 175 95
144 165 102
152 172 102
135 153 114
142 161 88
149 168 72
152 173 88
142 159 102
155 173 102
141 161 80
132 151 88
142 161 95
156 175 72
125 142 88
123 138 62
127 144 51
130 147 51
129 146 51
116 133 49
78 100 69
87 112 94
105 129 97
102 125 113
99 124 80
100 126 101
117 141 83
104 127 91
98 124 97
125 145 50
161 179 0
140 160 52
68 97 101
70 102 124
73 104 104
64 97 110
88 113 104
65 96 84
77 108 108
86 113 87
70 98 104
67 96 110
87 111 91
59 90 111
55 87 109
59 89 79
57 86 82
90 113 56
108 127 56
103 126 62
113 136 91
104 125 49
118 136 0
105 121 0
100 117 0
102 118 0
114 132 0
97 113 0
94 111 21
70 90 41
52 82 91
48 78 69
49 78 64
49 78 74
53 84 82
57 91 96
49 79 61
54 85 93
54 86 82
51 82 79
58 91 103
55 88 83
55 87 97
58 92 112
54 86 100
56 89 87
53 86 77
54 86 87
58 92 112
56 88 100
54 86 104
57 90 104
56 89 104
56 89 84
55 87 97
53 85 86
55 88 104
57 90 97
52 84 56
56 88 98
56 89 101
58 91 104
59 92 121
56 88 100
56 89 115
57 90 106
56 88 87
54 87 101
57 90 91
57 90 98
54 86 87
58 92 107
57 91 101
56 89 98
51 82 91
55 88 101
56 89 107
58 92 106
58 91 113
56 88 101
55 87 107
56 89 98
55 88 87
57 91 110
52 83 79
56 89 97
57 90 106
57 90 91
56 89 120
56 89 106
57 90 109
55 88 90
56 88 93
54 86 92
56 89 103
57 90 114
55 88 85
55 86 102
56 88 102
52 84 92
53 84 98
49 78 85
50 80 80
48 77 68
75 95 48
94 111 41
105 122 0
97 114 0
98 112 0
89 106 0
107 121 0
126 142 0
93 110 0
110 126 0
115 132 0
115 131 0
115 131 0
116 132 0
124 139 0
93 108 0
108 124 0
119 134 0
129 147 0
127 146 0
121 138 0
122 141 0
130 147 0
121 136 0
136 154 0
128 146 0
121 140 0
118 137 0
130 149 0
121 140 0
133 152 0
114 130 0
120 140 0
130 148 0
135 152 0
137 153 0
116 132 0
129 149 0
137 156 0
137 155 0
124 141 0
136 156 0
127 145 0
134 154 0
136 154 0
136 155 0
145 164 0
134 155 0
154 173 0
136 153 0
136 156 0
144 165 0
143 159 0
149 169 0
144 160 0
141 161 0
132 151 0
148 166 0
138 159 0
140 158 0
148 166 0
139 160 0
155 176 0
149 167 0
134 153 0
143 161 0
151 170 0
138 156 0
150 169 0
146 164 0
147 168 0
152 174 0
148 166 0
163 182 0
148 168 0
147 167 0
159 180 0
150 172 0
151 173 0
151 168 0
154 174 0
160 180 0
163 181 0
150 171 0
147 167 0
153 172 0
146 164 0
156 178 0
152 175 0
162 184 0
151 172 0
163 185 0
156 176 0
148 166 0
156 177 0
151 170 0
162 183 0
165 186 0
157 177 0
161 182 0
151 171 0
155 177 0
154 172 0
156 178 0
160 183 0
155 176 0
157 178 0
165 183 0
156 176 0
160 182 0
157 178 0
168 191 0
154 174 0
158 178 0
158 179 0
165 187 0
155 175 0
160 182 0
161 184 0
158 180 0
157 179 0
163 182 0
160 180 0
166 189 0
167 188 0
169 190 0
158 178 0
168 190 0
160 182 0
156 176 0
156 176 0
156 177 0
160 179 0
166 187 0
166 188 0
166 187 0
161 184 0
164 187 0
164 186 0
166 187 0
169 191 0
166 187 0
166 187 0
168 190 0
160 183 0
165 189 0
167 189 0
160 180 0
169 191 0
165 187 0
169 187 0
159 183 0
161 183 0
170 193 0
160 182 0
163 184 0
162 184 0
163 185 0
163 185 0
164 185 0
166 188 0
166 190 0
173 194 0
172 195 95
175 197 102
177 201 108
179 204 108
177 201 95
178 202 125
176 200 95
171 194 88
174 198 102
173 196 108
173 196 80
169 192 80
172 196 102
169 192 88
179 202 120
171 194 120
179 201 102
181 203 120
177 200 108
173 196 95
175 199 62
175 199 95
181 205 120
175 199 102
177 201 125
173 198 108
173 196 95
169 193 88
176 200 88
174 197 102
175 199 102
169 193 95
173 196 95
173 197 80
173 197 95
173 196 114
177 202 108
167 191 72
179 202 125
166 190 51
163 187 95
168 193 72
164 188 80
176 199 114
173 198 120
174 198 88
171 195 114
169 193 102
169 193 114
174 197 108
161 185 88
174 197 95
167 190 120
170 194 95
163 187 80
166 190 95
164 188 114
164 187 102
161 184 62
166 189 108
177 201 114
162 185 72
163 186 62
165 188 108
162 185 88
166 190 88
164 187 102
168 189 80
170 194 114
165 189 108
159 181 76
163 187 120
170 193 108
181 203 135
173 195 108
164 187 88
157 181 76
157 180 72
161 184 95
169 192 114
167 189 102
168 190 80
172 193 102
173 196 140
164 186 102
155 177 95
177 199 135
157 179 120
162 183 114
165 186 125
148 171 88
155 176 80
163 184 114
148 168 80
159 180 125
152 172 108
169 190 120
146 167 102
161 182 135
167 187 130
165 187 88
153 174 95
157 177 102
162 183 102
155 173 108
157 176 108
159 178 120
165 184 120
131 151 36
144 165 80
160 179 108
142 162 36
142 161 62
145 163 88
147 164 80
138 156 80
140 159 80
150 168 62
121 136 62
128 146 36
141 159 72
126 142 62
127 144 72
120 138 67
78 101 69
103 125 110
85 111 83
104 129 71
101 125 84
91 118 76
117 141 80
98 125 94
124 147 56
144 163 25
155 175 0
123 141 41
65 96 102
77 106 105
78 106 106
68 98 127
73 103 104
64 95 90
74 100 94
65 98 98
74 102 98
77 106 101
67 96 71
59 89 85
62 90 82
92 113 69
110 130 54
98 118 36
98 120 50
111 134 65
99 118 61
123 140 0
127 145 0
121 142 0
116 135 0
98 114 0
117 134 0
98 115 0
115 135 0
115 132 0
57 77 48
62 87 67
49 79 60
51 80 91
51 81 92
51 81 70
55 86 105
53 84 102
53 85 85
50 80 74
51 82 89
53 84 89
52 83 87
55 87 94
52 83 102
53 85 96
52 83 86
56 88 103
54 87 100
55 87 94
54 86 100
56 89 97
57 90 107
57 90 109
58 91 118
56 88 101
55 88 107
54 86 79
52 83 87
56 88 107
59 92 109
55 88 79
56 89 94
55 87 94
58 92 123
56 89 100
53 85 84
57 90 110
54 85 109
55 88 106
53 85 75
58 91 118
55 87 115
56 89 97
56 89 109
57 91 94
54 87 100
55 87 94
56 89 97
57 90 110
54 87 91
55 87 87
57 90 113
55 88 103
55 87 90
58 92 106
56 89 96
53 84 90
57 91 90
57 90 106
54 85 79
52 84 78
53 84 74
51 81 103
53 84 102
54 85 96
51 81 77
52 83 78
51 82 81
51 82 102
69 93 80
57 81 53
80 96 31
93 107 0
93 111 0
107 123 0
106 120 0
104 121 0
110 126 0
107 123 0
109 125 0
119 135 0
111 125 0
102 119 0
124 140 0
94 112 0
116 134 0
121 138 0
117 135 0
110 127 0
131 152 0
118 137 0
126 144 0
119 138 0
119 138 0
122 139 0
122 141 0
116 132 0
121 135 0
133 152 0
123 141 0
122 142 0
130 150 0
137 156 0
126 144 0
133 150 0
131 152 0
121 141 0
140 158 0
131 149 0
133 154 0
122 142 0
140 161 0
148 169 0
124 141 0
128 148 0
124 143 0
133 152 0
137 157 0
126 145 0
127 147 0
129 148 0
146 163 0
139 158 0
135 155 0
149 169 0
127 147 0
135 154 0
145 162 0
138 155 0
146 167 0
148 169 0
146 164 0
146 165 0
139 158 0
156 176 0
141 164 0
151 171 0
146 164 0
135 155 0
150 173 0
148 168 0
158 176 0
134 153 0
140 163 0
147 165 0
157 176 0
147 167 0
156 176 0
154 176 0
156 176 0
148 169 0
151 171 0
148 170 0
154 175 0
141 162 0
157 177 0
154 174 0
151 173 0
154 173 0
154 174 0
159 180 0
154 176 0
161 179 0
154 175 0
158 179 0
152 174 0
156 178 0
158 178 0
152 173 0
159 179 0
156 179 0
167 187 0
154 176 0
162 184 0
153 172 0
160 181 0
154 173 0
155 176 0
150 171 0
146 167 0
160 180 0
165 188 0
149 170 0
161 182 0
159 179 0
157 179 0
163 185 0
148 170 0
156 175 0
167 189 0
153 172 0
158 180 0
164 185 0
155 175 0
161 180 0
168 191 0
163 185 0
160 179 0
161 181 0
141 159 0
167 189 0
166 185 0
161 183 0
166 187 0
160 181 0
165 188 0
170 191 0
156 178 0
163 185 0
153 173 0
158 179 0
155 176 0
161 182 0
161 182 0
165 185 0
166 189 0
155 173 0
169 191 0
165 185 0
167 188 0
159 178 0
170 192 0
162 184 0
168 192 0
165 188 0
168 189 0
162 181 0
162 186 0
167 187 0
168 190 0
162 183 0
177 197 0
164 185 0
164 185 0
172 194 0
181 204 108
183 206 120
174 197 80
173 197 114
176 199 95
177 200 130
179 203 114
180 203 114
175 198 114
175 199 80
175 199 95
177 200 102
177 199 88
175 199 108
173 195 108
171 194 88
173 196 72
172 196 88
176 201 88
169 193 80
173 196 95
180 203 102
175 197 72
178 201 88
174 198 95
170 192 62
173 197 120
172 196 108
172 195 80
172 197 114
171 194 88
168 193 108
178 202 102
167 190 95
174 198 125
175 199 114
163 186 95
172 196 108
172 195 88
168 192 62
176 200 108
178 201 95
170 194 95
164 188 72
167 191 114
165 189 80
165 189 88
168 190 95
166 189 88
165 188 95
167 190 102
167 191 80
166 189 102
173 197 108
170 193 102
169 193 72
164 187 80
163 186 72
173 196 114
167 191 108
162 186 88
160 183 88
162 185 51
165 187 80
170 193 114
161 184 88
164 187 95
166 189 62
163 186 80
171 193 108
163 185 102
163 185 102
165 187 102
161 184 95
146 168 95
163 186 95
156 178 36
163 185 72
177 199 130
156 179 62
170 191 88
161 185 88
160 183 62
147 171 80
165 187 108
165 188 114
172 193 135
161 184 114
165 187 102
158 180 80
164 186 102
156 177 95
165 186 80
153 176 88
169 192 88
146 167 95
157 179 108
156 178 108
157 177 95
157 178 88
169 189 108
159 180 108
145 164 72
149 168 108
149 170 95
162 180 114
149 169 102
144 164 88
137 156 95
129 147 72
167 187 95
137 156 72
146 167 62
139 160 72
133 153 51
136 155 62
136 156 72
148 167 72
136 154 51
124 142 0
114 132 51
106 126 0
121 135 72
114 130 72
104 121 79
99 121 90
86 109 41
101 125 83
101 124 75
77 104 50
113 134 67
108 130 62
129 149 60
152 171 25
144 164 25
121 140 25
118 140 67
59 90 98
65 95 114
70 101 103
76 103 90
79 107 87
77 104 76
70 98 91
69 97 87
86 111 79
91 113 61
65 92 89
57 86 82
87 106 24
118 138 50
100 120 56
111 133 71
111 134 61
112 132 24
116 134 0
127 145 0
131 149 0
112 130 0
92 108 0
123 141 0
115 131 0
100 117 0
88 105 0
101 117 0
93 110 0
95 112 53
63 86 67
50 79 76
51 82 69
49 78 65
47 77 54
51 81 92
52 83 81
52 83 74
53 84 96
53 84 70
57 90 93
54 86 85
51 82 74
53 85 86
54 85 97
54 86 94
56 88 103
54 86 82
54 87 97
56 89 100
57 89 91
53 84 82
57 90 106
56 89 94
54 87 94
56 88 103
54 86 90
55 88 100
56 89 98
54 86 103
57 90 94
54 86 87
55 88 87
55 87 87
56 88 109
56 89 112
51 82 87
56 89 104
56 88 115
55 88 106
57 91 106
57 91 101
56 88 104
53 84 93
57 90 112
57 90 110
53 84 87
52 83 61
54 85 97
54 85 90
54 85 83
53 85 94
55 87 103
58 92 114
54 86 90
56 88 100
54 86 96
53 84 96
53 83 90
56 88 105
51 81 85
51 81 85
51 82 88
52 82 90
50 80 83
76 97 77
102 119 33
102 118 0
115 131 0
98 113 0
99 115 0
108 122 0
111 126 0
95 112 0
110 128 0
104 120 0
109 124 0
118 135 0
110 124 0
111 128 0
107 123 0
108 127 0
108 124 0
126 140 0
118 136 0
123 138 0
117 135 0
121 138 0
119 136 0
126 146 0
115 132 0
120 139 0
115 130 0
119 137 0
122 139 0
121 141 0
129 149 0
126 143 0
119 137 0
121 140 0
108 124 0
147 167 0
118 137 0
125 143 0
135 152 0
148 168 0
138 156 0
137 156 0
125 144 0
136 154 0
137 157 0
125 142 0
138 156 0
110 131 0
142 162 0
141 160 0
142 163 0
144 166 0
131 152 0
153 175 0
144 163 0
125 145 0
146 166 0
149 168 0
143 163 0
136 158 0
140 160 0
143 162 0
150 170 0
145 164 0
148 167 0
143 164 0
162 182 0
137 157 0
144 165 0
144 165 0
155 177 0
152 172 0
148 169 0
151 172 0
154 174 0
146 166 0
141 159 0
147 167 0
150 169 0
142 161 0
156 176 0
156 176 0
143 160 0
154 174 0
162 182 0
163 184 0
152 172 0
148 169 0
160 182 0
144 166 0
149 169 0
155 174 0
153 174 0
147 168 0
152 173 0
148 168 0
159 180 0
157 176 0
161 182 0
149 172 0
148 169 0
146 166 0
157 178 0
152 173 0
157 180 0
159 180 0
161 183 0
163 185 0
161 180 0
156 176 0
164 186 0
157 180 0
160 181 0
154 177 0
161 181 0
158 180 0
155 175 0
163 182 0
160 180 0
155 177 0
167 188 0
164 185 0
165 187 0
159 180 0
156 174 0
168 189 0
166 187 0
161 183 0
162 184 0
155 177 0
161 181 0
166 187 0
163 186 0
169 190 0
164 183 0
164 186 0
161 184 0
155 176 0
158 177 0
169 188 0
170 192 0
169 192 0
166 187 0
163 183 0
165 187 0
163 184 0
156 180 0
166 188 0
165 187 0
162 184 0
166 186 0
161 180 0
161 180 0
163 184 0
161 180 0
168 193 0
162 184 0
172 194 0
156 176 0
164 186 0
166 188 0
163 185 0
172 193 0
170 193 0
167 190 0
162 185 0
166 185 0
176 199 95
182 204 114
174 198 102
180 203 80
177 199 120
175 198 88
164 186 72
175 198 88
180 202 102
173 197 95
175 198 108
176 200 88
176 199 114
170 194 102
176 200 108
173 197 108
176 199 102
177 200 108
174 197 108
179 201 120
179 203 108
172 195 95
173 196 88
178 201 114
174 198 114
173 196 95
169 193 95
169 193 95
175 198 95
171 195 62
166 191 108
173 197 95
169 191 72
172 196 80
175 199 135
166 190 80
167 192 108
178 201 108
170 193 108
180 203 72
172 196 88
163 186 88
173 197 88
173 198 114
167 190 95
173 197 88
170 194 88
177 200 120
172 196 102
170 193 102
171 194 95
168 192 125
173 196 120
166 190 102
165 186 62
164 188 80
167 191 95
165 189 80
163 186 95
169 193 102
172 197 80
159 183 95
170 193 95
175 198 120
166 190 88
155 177 92
157 180 108
167 190 88
172 196 102
168 190 80
164 188 102
164 187 108
157 179 67
172 194 102
165 188 62
160 183 72
168 190 95
159 181 120
163 185 88
165 188 80
165 188 135
154 176 72
163 185 102
165 187 125
158 180 72
159 181 72
173 194 108
155 178 80
156 177 108
160 182 108
167 189 108
142 163 72
165 187 120
156 178 120
149 171 88
157 179 72
170 191 120
148 170 80
160 182 102
159 180 102
166 186 95
163 183 120
159 178 95
140 159 88
158 178 95
150 171 72
150 169 120
149 169 80
148 167 95
141 161 72
162 182 114
149 167 95
164 183 95
160 177 95
140 159 88
143 164 62
150 169 51
142 160 36
131 150 51
116 134 51
129 147 51
118 135 51
115 133 51
114 130 36
108 123 36
109 129 56
98 122 69
97 122 55
109 133 97
82 109 80
94 120 83
86 109 83
113 135 65
150 171 0
149 169 25
129 151 0
146 168 0
90 113 75
69 99 92
70 98 111
63 91 83
71 100 87
68 97 75
70 98 106
75 103 90
79 106 90
74 99 70
70 96 69
68 89 42
102 117 35
88 107 35
87 108 55
102 124 43
116 139 64
128 147 24
125 143 0
121 140 0
110 127 0
110 128 0
108 124 0
119 137 0
101 119 0
97 114 0
108 125 0
103 120 0
104 119 0
101 118 0
105 122 0
112 127 24
77 97 47
53 80 72
49 78 68
48 77 81
49 78 60
51 81 98
51 82 92
47 75 60
51 82 65
53 84 69
51 81 93
53 84 78
50 80 93
56 88 97
52 83 79
54 86 103
56 88 87
53 85 79
51 81 70
53 85 90
52 83 96
53 85 79
55 87 90
55 87 111
52 83 79
56 89 97
56 89 99
54 85 94
58 91 115
55 88 103
55 87 103
55 86 100
55 88 109
56 89 103
56 88 100
52 83 83
52 83 86
56 89 100
54 86 79
55 87 93
55 87 90
56 88 106
56 89 105
54 86 108
52 84 79
56 88 106
53 84 103
54 85 93
53 84 112
57 90 106
53 84 100
53 84 86
53 84 92
55 87 114
51 81 82
52 83 84
47 76 76
49 78 76
49 78 88
47 75 76
70 94 89
93 110 24
96 112 37
105 121 0
103 119 0
104 118 0
108 125 0
98 114 0
98 114 0
101 117 0
108 125 0
115 131 0
102 121 0
116 133 0
110 127 0
115 134 0
111 128 0
95 112 0
111 127 0
111 127 0
117 136 0
109 126 0
127 146 0
116 135 0
109 128 0
120 139 0
107 125 0
136 154 0
109 127 0
126 144 0
125 144 0
129 148 0
131 151 0
138 158 0
118 135 0
129 145 0
130 148 0
127 147 0
141 159 0
117 133 0
135 152 0
122 141 0
140 160 0
122 142 0
132 152 0
133 151 0
123 143 0
137 157 0
138 157 0
150 169 0
149 170 0
128 147 0
147 167 0
144 165 0
139 159 0
150 171 0
144 163 0
150 170 0
132 150 0
131 150 0
139 158 0
153 174 0
130 150 0
140 162 0
153 174 0
145 168 0
146 167 0
150 170 0
147 165 0
151 170 0
136 153 0
136 157 0
141 161 0
151 174 0
137 158 0
139 159 0
156 176 0
151 171 0
156 178 0
149 168 0
143 164 0
142 163 0
148 168 0
150 171 0
160 181 0
164 185 0
148 165 0
153 175 0
157 180 0
152 173 0
157 181 0
155 174 0
164 186 0
153 171 0
155 176 0
159 177 0
152 175 0
166 186 0
151 171 0
146 168 0
160 179 0
157 179 0
161 181 0
165 185 0
148 168 0
153 173 0
156 177 0
151 169 0
164 184 0
162 183 0
162 185 0
163 184 0
151 170 0
161 183 0
162 183 0
154 178 0
157 180 0
159 181 0
164 183 0
164 183 0
165 186 0
159 181 0
158 179 0
163 182 0
167 186 0
154 175 0
162 184 0
156 178 0
165 186 0
157 177 0
162 184 0
163 186 0
163 184 0
161 181 0
156 177 0
163 187 0
166 187 0
165 188 0
172 192 0
159 180 0
165 187 0
164 184 0
156 178 0
166 187 0
171 191 0
160 181 0
167 187 0
163 186 0
165 187 0
160 181 0
166 186 0
169 190 0
166 187 0
162 185 0
165 187 0
162 184 0
174 194 0
166 185 0
158 179 0
169 188 0
162 182 0
170 190 0
166 187 0
169 191 0
167 188 0
168 191 0
161 180 0
170 191 0
166 187 0
162 184 0
164 185 0
183 206 130
173 197 102
178 201 120
170 194 88
174 197 95
169 192 88
162 186 62
181 203 108
175 197 88
174 197 88
177 200 120
181 204 108
178 201 108
174 198 95
178 202 114
176 199 88
175 198 108
178 202 102
165 189 72
175 198 51
166 190 62
171 196 95
175 200 114
171 194 102
169 192 72
180 204 114
176 201 130
171 193 80
167 189 62
174 198 102
168 191 95
174 198 95
174 199 130
179 203 120
166 189 80
171 196 102
175 199 95
170 194 95
167 191 72
173 196 95
169 194 80
172 195 114
171 194 80
173 197 72
164 187 72
167 191 120
158 181 51
175 198 88
170 193 108
163 186 108
172 196 108
167 190 72
169 192 80
170 192 88
168 190 88
167 191 88
168 192 120
170 194 120
167 190 95
175 199 88
164 187 72
160 183 80
171 193 88
166 189 108
165 189 80
157 181 88
167 190 108
156 179 102
170 193 114
165 187 88
166 189 67
159 183 36
171 194 88
166 189 62
168 191 88
159 183 95
167 189 95
161 184 80
164 187 130
169 191 108
166 187 80
164 186 102
167 189 62
162 186 102
168 190 95
158 179 102
172 194 120
166 188 88
167 188 135
149 170 88
159 181 102
146 167 51
152 173 102
175 198 120
157 178 80
158 178 102
151 172 72
158 179 88
156 177 80
149 170 95
169 190 130
146 166 102
148 167 108
164 184 102
149 170 95
150 169 102
149 168 88
149 169 108
162 180 120
170 190 108
142 161 72
164 183 114
137 157 51
158 176 108
116 135 36
136 155 62
139 158 62
122 142 36
129 148 51
140 161 51
133 154 62
145 164 51
133 151 36
107 123 36
130 146 80
121 138 0
90 109 60
110 134 102
107 130 61
105 128 55
104 127 83
107 130 79
144 167 67
151 172 0
134 153 0
140 160 25
134 153 24
136 155 0
92 114 61
67 95 92
73 103 99
72 101 93
79 105 90
75 101 90
70 96 66
63 90 86
90 112 61
66 93 74
93 110 0
92 110 33
106 126 35
107 128 55
115 138 66
118 140 49
99 118 0
104 122 0
97 115 0
124 142 0
118 136 0
119 138 0
95 113 0
106 125 0
110 127 0
109 126 0
119 137 0
99 116 0
104 120 0
110 127 0
105 121 0
96 111 0
111 126 0
94 109 0
73 92 41
61 83 33
46 75 70
52 83 80
48 77 74
48 77 85
53 84 65
50 81 65
51 82 89
50 81 66
51 82 78
52 82 70
54 86 82
53 84 86
53 84 99
55 87 96
53 84 93
52 84 89
55 87 97
54 85 90
53 85 86
53 85 87
54 85 100
51 82 66
52 84 78
55 87 103
54 86 97
55 87 83
55 87 97
54 86 94
53 84 97
56 88 90
52 83 87
52 83 83
55 87 89
52 82 103
55 87 97
56 89 112
52 84 83
54 86 103
54 87 82
49 79 81
53 85 83
53 84 74
53 84 78
52 83 93
54 85 92
55 87 105
51 82 74
54 85 85
51 81 81
51 81 84
51 81 100
54 81 80
72 93 76
67 87 46
94 109 0
94 108 0
97 112 0
101 118 0
103 121 0
112 128 0
105 121 0
113 130 0
87 100 0
112 129 0
78 95 0
117 134 0
116 130 0
102 118 0
84 102 0
125 143 0
105 121 0
120 137 0
129 146 0
112 129 0
124 142 0
125 144 0
112 130 0
125 143 0
131 148 0
122 142 0
123 144 0
134 151 0
122 142 0
127 143 0
101 119 0
128 145 0
109 127 0
133 151 0
137 157 0
138 156 0
130 148 0
143 162 0
134 154 0
122 142 0
118 137 0
118 134 0
138 155 0
132 151 0
119 140 0
127 146 0
131 148 0
138 156 0
131 151 0
128 148 0
126 142 0
135 153 0
132 152 0
132 153 0
149 168 0
143 161 0
130 150 0
152 171 0
133 152 0
139 159 0
151 172 0
152 174 0
140 161 0
150 168 0
134 155 0
143 161 0
141 160 0
138 157 0
144 163 0
143 164 0
154 177 0
154 175 0
161 183 0
148 168 0
149 170 0
146 165 0
154 175 0
145 164 0
146 168 0
129 149 0
153 173 0
144 164 0
147 167 0
152 173 0
144 166 0
153 174 0
158 178 0
140 159 0
141 160 0
166 188 0
146 166 0
150 171 0
152 172 0
158 180 0
154 176 0
148 168 0
148 167 0
148 170 0
157 178 0
160 182 0
154 175 0
150 170 0
148 168 0
158 178 0
145 167 0
152 175 0
156 175 0
161 182 0
154 175 0
157 178 0
162 180 0
155 177 0
149 169 0
161 182 0
164 185 0
162 185 0
153 175 0
163 183 0
157 179 0
154 175 0
158 178 0
164 185 0
167 190 0
156 174 0
163 185 0
153 174 0
167 190 0
157 177 0
165 186 0
163 185 0
165 187 0
158 179 0
157 175 0
166 189 0
158 179 0
165 187 0
168 191 0
163 184 0
161 182 0
161 184 0
161 182 0
167 189 0
170 190 0
162 187 0
160 182 0
159 180 0
152 171 0
167 190 0
164 183 0
165 187 0
163 184 0
156 180 0
168 189 0
163 185 0
170 193 0
168 190 0
167 188 0
170 193 0
169 191 0
160 181 0
171 192 0
156 177 0
170 193 0
170 191 0
166 186 0
169 191 0
163 187 0
160 182 0
165 183 0
168 189 0
168 190 0
167 190 0
177 200 88
173 196 102
173 197 62
176 199 114
176 200 72
177 200 88
178 202 102
172 195 72
176 199 108
181 204 102
174 198 102
175 199 88
183 205 95
179 203 114
174 198 125
175 199 102
178 202 114
174 198 125
169 193 102
175 197 108
173 196 80
175 198 80
174 198 88
175 199 130
167 192 108
174 197 95
172 196 95
179 202 102
175 198 114
173 196 88
171 195 95
160 184 80
171 194 88
160 184 80
172 196 102
164 188 80
160 184 88
176 199 108
164 188 62
167 190 95
173 197 95
167 192 80
177 202 153
169 193 88
167 191 88
170 194 108
165 188 88
164 188 88
168 192 80
168 191 108
163 186 72
165 189 80
173 195 95
169 193 95
164 186 80
170 194 108
158 181 36
165 189 80
163 187 120
157 180 88
166 189 108
163 186 88
165 188 102
166 189 62
170 194 102
158 181 102
151 173 95
168 191 108
167 191 76
170 194 88
162 184 88
168 193 125
163 184 102
157 180 80
170 192 108
162 185 108
166 190 108
168 191 130
157 180 62
166 188 88
166 189 108
156 179 88
169 191 130
168 190 120
167 188 120
173 196 120
160 181 114
161 184 80
158 179 95
161 182 88
157 179 88
153 175 88
158 179 62
155 177 95
171 192 108
153 174 80
163 184 88
153 173 95
167 188 102
160 181 80
169 189 120
150 169 72
136 157 80
155 176 72
156 177 36
157 177 125
152 171 114
144 164 72
160 178 120
156 175 72
150 169 95
151 171 88
157 177 88
152 172 62
134 153 62
144 164 62
125 145 62
148 167 80
123 142 36
130 149 0
134 152 62
114 132 36
127 145 51
127 144 80
136 153 51
111 128 0
95 110 0
106 127 34
96 119 55
88 111 86
107 130 49
100 123 74
140 162 50
147 168 0
150 173 0
145 165 0
136 156 0
136 153 25
127 146 0
96 118 54
71 99 90
73 102 95
79 104 105
73 100 105
78 104 74
77 103 60
69 96 69
82 102 48
95 111 0
80 99 34
101 121 59
105 126 49
112 133 49
119 140 48
130 149 0
93 111 0
106 123 0
121 138 0
114 132 0
117 135 0
100 117 0
113 131 0
84 101 0
88 105 0
115 131 0
102 120 0
91 108 0
95 111 0
114 131 0
102 119 0
109 124 0
94 109 0
105 120 0
105 122 0
87 101 34
93 109 47
56 78 34
47 74 69
46 74 42
46 73 83
49 77 77
50 80 59
51 81 81
50 80 69
53 85 93
51 81 82
54 85 82
51 81 86
52 83 89
51 81 60
52 83 85
51 81 86
52 82 89
52 83 89
50 80 78
56 88 99
52 84 70
53 85 86
50 80 66
55 88 93
53 85 97
53 84 90
52 83 95
52 82 86
55 88 86
53 85 82
52 83 82
50 80 86
53 84 79
54 85 89
49 79 78
54 86 78
53 85 89
50 80 74
50 80 92
50 79 92
51 81 77
50 80 82
49 79 84
51 81 69
51 81 93
50 79 92
62 83 58
81 99 42
77 94 57
95 111 23
95 110 0
109 124 0
80 94 0
106 119 0
104 121 0
103 118 0
104 119 0
107 123 0
88 104 0
103 122 0
104 120 0
110 127 0
101 119 0
107 123 0
105 124 0
99 117 0
96 111 0
121 138 0
119 136 0
88 107 0
102 119 0
131 149 0
105 124 0
118 136 0
119 139 0
131 148 0
128 147 0
121 139 0
111 128 0
116 135 0
126 145 0
128 146 0
124 145 0
130 148 0
129 145 0
122 140 0
129 147 0
126 144 0
127 146 0
112 131 0
128 146 0
118 135 0
131 151 0
126 145 0
126 144 0
132 151 0
135 155 0
130 150 0
143 163 0
128 148 0
133 153 0
119 140 0
140 160 0
141 160 0
127 145 0
131 151 0
151 171 0
139 157 0
142 162 0
130 150 0
138 160 0
142 161 0
142 161 0
147 168 0
130 149 0
140 161 0
157 175 0
136 155 0
148 169 0
141 164 0
138 158 0
134 154 0
143 164 0
136 158 0
144 163 0
139 161 0
153 176 0
151 172 0
151 172 0
155 176 0
141 161 0
156 175 0
143 163 0
156 177 0
159 182 0
151 173 0
155 175 0
145 164 0
145 165 0
148 169 0
149 170 0
143 162 0
146 166 0
157 179 0
149 168 0
159 180 0
153 174 0
147 168 0
150 170 0
149 170 0
155 175 0
160 180 0
140 162 0
152 175 0
161 180 0
158 178 0
153 174 0
156 177 0
150 171 0
157 180 0
147 167 0
165 186 0
160 181 0
157 177 0
162 184 0
159 178 0
158 177 0
167 188 0
159 179 0
161 184 0
166 186 0
149 171 0
163 185 0
162 184 0
158 177 0
164 185 0
155 177 0
156 176 0
166 188 0
166 186 0
158 178 0
164 184 0
162 184 0
164 186 0
159 177 0
153 174 0
163 185 0
155 177 0
150 172 0
159 181 0
166 187 0
161 184 0
159 182 0
165 186 0
170 188 0
156 176 0
164 183 0
164 184 0
164 186 0
167 188 0
168 190 0
165 187 0
165 188 0
167 191 0
161 184 0
163 187 0
159 180 0
163 184 0
173 195 0
165 185 0
166 188 0
172 194 0
162 182 0
174 195 0
173 193 0
167 189 0
164 184 0
168 191 0
168 188 0
168 190 0
167 190 0
170 192 0
163 186 0
169 191 0
177 200 88
180 202 114
181 205 120
184 206 108
180 202 120
170 194 114
178 201 72
178 201 108
177 200 108
175 198 80
173 195 108
171 193 72
172 196 88
174 198 108
174 199 72
176 199 95
174 198 95
173 196 88
168 191 62
172 196 80
169 193 80
175 200 102
178 202 120
177 201 108
178 202 114
169 193 51
174 197 95
172 195 102
172 195 72
167 191 88
171 196 95
163 186 80
171 193 95
177 199 108
174 197 102
170 193 72
174 199 108
171 193 51
169 194 95
167 191 114
168 192 108
174 196 114
169 193 95
172 196 72
171 195 80
171 194 95
167 189 88
163 186 114
166 188 62
171 195 108
171 194 95
163 187 80
166 189 80
168 192 130
167 191 80
172 196 88
172 195 95
168 193 102
167 190 102
164 187 88
168 192 88
158 182 102
163 187 80
160 183 72
157 181 80
169 192 120
165 188 95
165 188 114
163 186 95
175 198 108
167 190 108
167 190 95
166 188 114
159 182 108
162 185 88
156 177 108
164 187 95
158 180 95
169 192 95
161 183 88
161 185 88
167 189 140
163 185 80
163 186 108
157 178 72
169 191 108
156 179 88
152 174 62
164 185 62
160 180 108
155 177 51
159 181 88
147 168 102
156 178 88
156 178 114
169 190 125
162 183 114
172 192 120
155 175 114
160 181 88
166 187 125
168 188 102
155 174 95
157 176 88
157 177 120
151 170 95
161 180 125
151 170 51
159 178 102
149 168 95
147 166 102
157 177 72
160 179 88
146 167 62
149 168 80
133 154 51
146 167 0
125 145 36
143 163 62
125 143 51
129 148 36
128 144 80
124 142 62
115 132 36
126 143 36
130 148 0
117 135 51
96 111 0
116 134 34
97 120 60
110 131 60
105 127 76
138 157 0
156 178 0
154 176 25
151 172 0
135 157 0
135 155 0
134 152 0
111 127 0
107 127 53
83 107 87
58 87 69
69 95 69
80 104 59
73 97 73
96 116 59
80 97 0
99 114 0
99 114 0
100 120 20
112 132 49
127 148 34
108 127 24
128 147 0
121 140 0
107 125 0
122 139 0
105 123 0
113 130 0
111 129 0
126 146 0
114 132 0
130 147 0
96 112 0
109 126 0
105 122 0
111 129 0
102 120 0
107 123 0
112 130 0
110 126 0
99 117 0
98 114 0
90 106 0
84 100 0
100 116 0
107 122 0
60 77 0
78 95 40
73 92 47
61 82 53
49 78 77
48 77 80
52 82 90
47 76 65
50 80 81
49 78 65
53 83 98
51 81 88
53 85 82
51 81 60
50 79 85
53 84 85
53 83 89
55 87 98
53 85 86
48 77 89
54 85 110
49 79 78
51 81 98
51 81 98
51 82 65
50 80 89
49 78 74
51 81 84
51 82 78
52 82 85
51 82 85
51 81 82
52 82 69
52 82 81
54 86 85
51 81 84
46 75 48
46 75 53
49 79 63
53 79 63
67 87 41
44 66 33
73 89 41
90 107 24
103 118 0
105 121 0
100 116 0
118 132 0
106 121 0
105 123 0
99 116 0
115 132 0
93 108 0
92 108 0
104 119 0
100 115 0
112 129 0
108 124 0
109 125 0
112 131 0
90 105 0
107 123 0
105 123 0
115 131 0
112 130 0
125 144 0
120 137 0
117 136 0
116 133 0
114 133 0
109 127 0
123 140 0
117 134 0
113 130 0
121 138 0
128 143 0
132 150 0
108 126 0
119 138 0
121 139 0
114 132 0
130 148 0
125 144 0
129 147 0
133 152 0
133 153 0
104 123 0
131 149 0
135 155 0
122 140 0
138 158 0
132 152 0
119 140 0
136 154 0
129 147 0
140 162 0
122 143 0
138 158 0
143 163 0
139 157 0
145 163 0
131 153 0
134 153 0
148 168 0
122 144 0
136 156 0
135 155 0
141 159 0
124 144 0
157 177 0
135 157 0
153 172 0
142 163 0
126 146 0
149 170 0
143 165 0
147 169 0
143 165 0
154 176 0
141 161 0
146 167 0
137 157 0
149 169 0
155 177 0
147 167 0
150 172 0
150 171 0
131 151 0
152 174 0
150 170 0
159 181 0
145 167 0
160 179 0
157 179 0
152 169 0
144 165 0
151 171 0
146 167 0
139 160 0
154 177 0
153 173 0
163 183 0
156 177 0
153 174 0
154 175 0
157 178 0
147 168 0
148 169 0
163 184 0
155 175 0
155 175 0
153 174 0
151 171 0
150 172 0
166 188 0
153 175 0
161 183 0
155 176 0
152 173 0
160 182 0
161 183 0
158 180 0
147 168 0
156 177 0
152 173 0
155 176 0
155 174 0
155 175 0
162 185 0
163 185 0
156 178 0
169 191 0
159 181 0
160 182 0
151 171 0
162 181 0
166 189 0
167 189 0
157 180 0
160 183 0
165 188 0
164 187 0
166 187 0
161 179 0
168 189 0
163 184 0
165 186 0
167 188 0
161 183 0
163 181 0
163 182 0
165 187 0
170 190 0
163 186 0
166 187 0
161 182 0
157 179 0
167 190 0
161 182 0
168 188 0
163 185 0
169 190 0
167 189 0
169 191 0
172 194 0
169 191 0
165 188 0
170 193 0
150 173 0
169 192 0
173 194 0
169 190 0
172 195 0
165 185 0
172 191 0
164 184 0
167 189 0
164 185 0
168 190 0
165 186 0
167 188 0
165 187 0
168 191 72
176 199 108
177 201 72
179 202 95
178 202 120
174 197 88
175 199 108
173 197 102
179 201 108
174 199 80
180 204 102
172 195 88
178 202 125
173 195 88
178 201 95
167 191 88
173 196 108
170 194 95
170 194 95
171 194 80
174 197 102
168 192 95
178 200 95
167 190 95
170 193 95
174 198 88
167 191 125
169 192 80
173 198 102
165 189 72
170 192 88
171 194 114
173 196 95
168 192 80
176 199 88
167 191 95
162 188 108
175 199 102
179 203 114
161 184 80
169 193 95
172 194 102
166 190 80
163 188 102
169 192 95
162 186 88
173 197 120
174 196 102
174 197 102
168 191 80
178 201 120
170 192 80
174 198 114
165 188 95
174 197 80
167 190 88
166 189 88
173 197 125
170 193 114
162 186 108
161 184 102
177 200 102
166 189 80
160 184 114
160 183 80
159 181 102
167 190 120
165 187 114
168 190 140
167 189 62
173 195 102
164 186 72
158 180 88
167 189 95
162 185 88
164 188 102
161 183 102
157 178 108
167 191 108
170 192 120
160 183 80
168 190 51
166 187 114
157 178 62
164 185 102
168 190 95
173 195 102
161 183 88
155 178 72
162 184 88
163 186 102
161 182 140
163 184 114
167 189 102
153 174 80
164 185 108
152 174 72
154 174 88
163 185 88
156 177 95
151 172 102
146 167 80
152 172 88
152 172 114
150 172 72
157 177 88
152 172 102
156 175 108
167 185 108
163 183 102
164 183 114
146 164 102
150 169 88
129 150 36
145 164 88
140 160 62
129 148 62
143 163 0
147 167 51
113 133 51
131 148 51
135 153 51
130 149 36
133 151 36
137 155 51
122 139 0
111 126 0
121 139 0
115 131 0
113 131 0
132 152 43
130 148 0
125 146 0
155 178 0
153 172 0
149 170 0
137 158 0
139 160 0
129 148 0
113 132 0
120 139 0
136 153 0
88 105 33
78 95 42
94 115 47
110 127 0
87 100 0
105 119 0
112 128 0
118 136 0
121 138 0
113 132 0
119 140 41
121 140 0
137 154 0
112 130 0
133 153 0
104 122 0
117 136 0
122 140 0
122 140 0
115 134 0
102 121 0
106 123 0
116 134 0
104 123 0
114 131 0
129 146 0
130 148 0
107 124 0
110 127 0
107 124 0
106 122 0
118 133 0
97 114 0
90 105 0
97 114 0
103 119 0
103 120 0
89 102 0
77 90 0
106 119 0
106 119 0
98 111 0
61 77 41
87 106 63
67 87 48
64 86 58
61 82 49
47 75 76
49 78 93
45 72 64
50 79 68
48 78 84
50 80 84
47 75 77
49 77 73
49 79 77
50 80 64
47 75 64
49 78 85
48 77 55
50 79 78
51 82 65
52 82 73
49 77 81
48 77 73
47 76 64
47 75 73
50 79 84
49 78 86
61 83 68
65 88 68
56 79 53
75 92 47
80 96 33
87 102 23
92 107 0
73 86 0
104 119 0
103 118 0
112 126 0
85 100 0
83 98 0
83 100 0
90 105 0
93 111 0
110 127 0
110 126 0
132 151 0
104 121 0
119 134 0
124 140 0
102 118 0
99 116 0
127 143 0
85 101 0
99 117 0
122 138 0
93 110 0
108 126 0
98 116 0
112 128 0
117 136 0
98 116 0
109 126 0
138 155 0
125 143 0
115 132 0
135 152 0
139 159 0
99 116 0
122 140 0
125 143 0
150 170 0
125 144 0
121 141 0
131 149 0
123 140 0
129 148 0
122 140 0
131 152 0
118 136 0
144 162 0
114 133 0
120 139 0
139 158 0
134 153 0
129 148 0
139 160 0
138 157 0
142 160 0
137 157 0
139 158 0
127 148 0
112 131 0
137 158 0
146 167 0
138 156 0
140 159 0
145 165 0
132 153 0
148 168 0
125 144 0
136 159 0
147 168 0
139 161 0
149 168 0
147 168 0
145 164 0
141 162 0
145 163 0
158 177 0
143 162 0
143 161 0
150 169 0
148 168 0
133 153 0
152 172 0
144 166 0
154 175 0
152 174 0
157 179 0
165 184 0
127 147 0
156 175 0
154 174 0
149 170 0
146 166 0
150 171 0
156 178 0
150 168 0
166 188 0
153 173 0
145 167 0
160 182 0
152 173 0
160 182 0
161 181 0
151 172 0
154 174 0
153 172 0
155 175 0
156 177 0
153 172 0
160 178 0
167 188 0
156 178 0
159 181 0
153 173 0
160 182 0
169 189 0
162 182 0
157 178 0
151 171 0
162 183 0
156 178 0
164 184 0
157 179 0
151 172 0
163 183 0
162 184 0
161 181 0
169 188 0
153 174 0
165 184 0
157 177 0
159 178 0
161 183 0
164 186 0
159 180 0
167 189 0
159 179 0
160 180 0
164 188 0
156 178 0
164 186 0
172 192 0
159 180 0
166 187 0
160 182 0
155 177 0
158 178 0
164 186 0
156 176 0
162 183 0
166 185 0
156 178 0
167 190 0
161 181 0
162 184 0
168 189 0
166 188 0
162 184 0
165 188 0
156 179 0
165 185 0
164 187 0
159 180 0
174 196 0
168 188 0
168 190 0
168 191 0
170 190 0
168 190 0
166 189 0
162 183 0
157 178 0
154 177 0
166 188 0
170 191 0
164 185 0
165 186 0
174 195 0
156 176 0
169 189 0
155 176 0
166 190 0
165 186 0
161 183 0
176 198 102
178 199 108
171 193 88
175 199 114
176 200 72
180 203 108
179 201 102
178 201 120
177 201 95
173 196 72
173 196 95
172 196 80
166 190 95
173 197 108
177 199 108
168 191 108
172 195 108
166 189 72
172 196 88
176 199 114
172 195 51
171 195 80
172 196 102
174 197 108
169 192 72
169 193 88
174 198 95
172 196 95
171 195 51
169 193 80
171 195 102
170 194 88
171 195 114
172 196 120
180 203 114
169 193 80
172 195 95
172 196 51
168 192 80
174 198 108
169 191 72
176 198 102
168 191 80
172 196 102
168 191 72
169 190 80
168 191 108
165 189 102
172 196 102
174 198 102
160 184 88
170 195 88
171 194 95
171 194 88
170 193 114
169 192 102
164 187 72
168 191 88
161 184 72
171 195 95
158 182 36
175 198 108
167 191 88
171 194 95
162 185 72
167 191 108
159 182 102
173 196 95
175 197 108
170 192 102
172 195 120
172 195 72
166 189 88
158 180 102
170 193 102
172 194 114
169 191 88
165 188 102
164 186 88
158 180 114
157 180 51
165 187 95
161 184 80
156 178 62
164 184 80
162 184 95
169 191 95
169 190 125
159 180 114
169 190 108
163 184 88
155 178 62
166 186 120
156 177 88
163 184 114
151 171 88
160 180 108
159 179 114
145 166 88
144 166 72
160 180 108
136 156 36
156 176 80
147 166 88
159 179 125
164 183 114
141 161 72
159 178 120
150 171 80
148 168 88
148 168 88
149 169 88
148 166 80
138 157 62
130 150 0
144 164 51
139 160 36
133 154 36
133 152 36
137 155 88
142 161 72
136 156 62
125 144 0
138 157 36
126 143 51
114 130 36
111 125 51
138 158 36
128 145 36
114 133 0
114 130 36
124 144 36
137 158 51
155 176 0
139 161 0
142 159 0
148 170 0
132 151 0
140 159 0
129 149 0
119 139 0
116 134 0
104 121 0
102 118 0
93 108 0
96 111 0
98 113 0
108 124 0
106 122 0
112 130 0
115 132 0
130 147 0
129 148 0
114 131 0
106 124 0
115 135 0
118 136 0
128 147 0
119 138 0
110 129 0
126 144 0
103 120 0
111 130 0
92 111 0
106 123 0
112 130 0
103 120 0
104 122 0
120 138 0
124 141 0
82 99 0
103 119 0
97 114 0
119 135 0
93 109 0
114 132 0
130 146 0
103 119 0
113 128 0
75 91 0
99 113 0
115 131 0
90 105 0
113 130 0
127 143 0
82 97 0
96 110 0
83 97 0
86 100 0
103 117 0
85 98 33
97 112 21
62 79 23
90 108 41
83 101 34
71 88 45
45 67 40
68 87 41
64 83 47
92 109 54
52 73 40
83 101 33
63 83 59
76 91 41
73 92 54
58 77 48
92 109 22
78 95 53
103 118 24
71 87 23
64 78 0
105 121 0
78 92 0
99 114 0
97 111 0
89 104 0
86 101 0
105 120 0
70 84 0
98 113 0
93 109 0
95 110 0
99 115 0
92 109 0
93 109 0
100 116 0
99 115 0
110 125 0
105 121 0
115 133 0
93 110 0
108 122 0
105 121 0
89 108 0
102 118 0
107 124 0
107 124 0
119 136 0
103 121 0
100 117 0
113 131 0
117 135 0
106 124 0
127 145 0
110 127 0
117 135 0
122 140 0
109 127 0
121 138 0
132 151 0
129 149 0
100 117 0
118 138 0
103 122 0
101 119 0
125 143 0
124 139 0
143 163 0
132 150 0
119 140 0
134 152 0
125 145 0
133 154 0
136 154 0
128 148 0
137 159 0
120 140 0
123 143 0
135 155 0
131 152 0
140 157 0
134 152 0
116 135 0
141 162 0
144 165 0
155 175 0
136 155 0
131 151 0
134 153 0
129 148 0
129 150 0
139 161 0
143 163 0
142 163 0
142 162 0
134 152 0
143 164 0
146 168 0
141 161 0
136 155 0
140 162 0
142 162 0
146 167 0
148 168 0
137 158 0
161 183 0
159 179 0
141 163 0
146 168 0
142 161 0
144 164 0
149 168 0
140 160 0
137 159 0
148 168 0
160 181 0
139 160 0
160 181 0
141 161 0
151 174 0
157 177 0
148 171 0
167 188 0
162 183 0
146 165 0
152 173 0
157 178 0
166 189 0
150 170 0
158 179 0
150 169 0
154 176 0
148 171 0
144 165 0
158 177 0
156 176 0
155 173 0
153 174 0
148 169 0
157 177 0
147 167 0
159 180 0
153 173 0
153 174 0
168 189 0
164 187 0
156 179 0
162 186 0
160 182 0
160 183 0
158 180 0
161 181 0
160 181 0
148 170 0
161 180 0
155 178 0
157 179 0
163 186 0
161 183 0
156 177 0
165 186 0
165 187 0
161 183 0
164 187 0
161 182 0
166 189 0
166 188 0
157 178 0
159 180 0
164 186 0
157 178 0
156 176 0
168 188 0
173 195 0
156 178 0
153 174 0
160 184 0
160 180 0
161 184 0
164 187 0
166 186 0
161 185 0
160 181 0
161 184 0
161 183 0
166 186 0
166 187 0
165 189 0
165 184 0
163 186 0
163 185 0
169 189 0
159 181 0
159 182 0
165 189 0
166 187 0
171 193 0
159 182 0
164 183 0
166 189 0
171 192 0
173 192 0
169 192 0
166 188 0
167 189 0
164 187 0
158 180 0
167 189 0
163 187 0
167 187 0
174 197 88
181 203 120
180 202 114
177 200 114
176 199 114
177 201 108
175 198 102
173 196 88
178 202 102
169 193 88
171 195 120
176 200 114
170 194 80
174 197 88
176 199 102
175 199 95
171 194 88
174 198 108
178 201 108
173 196 95
178 200 95
171 194 80
171 194 88
169 193 102
169 193 95
176 200 102
171 195 51
171 195 72
170 193 102
173 197 62
173 196 80
172 194 108
171 195 80
169 192 95
180 204 114
166 190 102
174 197 80
166 189 88
166 190 62
168 193 102
169 193 108
175 199 108
162 185 80
171 194 62
166 189 80
170 193 88
166 190 51
166 190 102
172 195 102
163 186 88
154 177 95
163 186 80
164 187 95
165 188 88
172 195 102
170 192 125
165 188 72
167 190 72
160 184 102
167 192 125
160 184 88
166 189 108
163 185 72
161 186 72
159 182 62
171 195 102
162 185 80
157 179 102
173 196 95
163 188 88
173 196 102
169 192 72
170 193 102
175 197 88
159 180 102
163 185 114
168 191 114
163 184 125
159 181 62
161 184 95
162 184 88
163 186 80
166 187 95
158 180 88
167 189 95
164 186 120
161 183 95
162 183 80
176 198 108
166 187 102
163 185 95
154 176 102
162 183 95
161 182 72
156 176 102
158 179 108
155 176 108
173 193 114
166 187 88
148 169 72
156 177 72
155 175 95
148 168 80
170 188 125
150 169 114
162 181 102
155 175 72
162 182 88
158 177 125
156 176 95
150 170 95
137 158 51
156 176 51
146 165 62
139 159 51
144 163 80
147 166 51
144 165 62
132 149 72
128 147 36
128 147 36
136 155 72
143 162 51
133 153 0
135 155 51
131 150 0
138 157 51
120 138 0
127 145 36
119 137 0
129 148 0
133 154 51
134 155 0
155 175 0
144 166 0
144 165 0
144 164 0
131 151 0
117 137 0
126 145 0
115 135 0
109 127 0
110 126 0
106 123 0
112 128 0
94 109 0
103 118 0
124 141 0
110 126 0
126 144 0
127 146 0
125 143 0
107 124 0
122 138 0
136 153 0
136 154 0
127 148 0
127 144 0
136 155 0
143 162 0
112 130 0
111 130 0
115 134 0
110 127 0
128 147 0
135 151 0
95 113 0
108 125 0
97 113 0
99 117 0
108 125 0
99 114 0
89 104 0
111 127 0
81 97 0
93 108 0
117 133 0
108 125 0
108 124 0
87 102 0
97 114 0
96 111 0
94 110 0
93 109 0
94 110 0
98 114 0
87 102 0
111 128 0
92 107 0
107 119 0
86 102 0
93 108 0
89 103 0
90 104 0
107 122 0
107 122 0
106 120 0
73 85 0
77 93 0
84 99 0
88 105 0
100 114 0
111 127 0
103 116 0
81 95 0
62 77 0
108 123 0
83 98 0
105 120 0
82 96 0
99 115 0
89 105 0
92 107 0
102 117 0
106 121 0
90 105 0
92 106 0
90 105 0
79 96 0
112 128 0
104 119 0
86 99 0
115 130 0
86 99 0
123 140 0
87 102 0
123 140 0
114 131 0
102 118 0
110 126 0
121 139 0
106 122 0
115 132 0
131 147 0
118 136 0
105 123 0
96 113 0
115 133 0
100 116 0
99 114 0
119 136 0
94 113 0
127 143 0
139 157 0
136 155 0
99 117 0
135 154 0
138 155 0
102 119 0
122 140 0
108 126 0
126 145 0
124 143 0
117 133 0
136 153 0
136 155 0
127 145 0
121 139 0
138 159 0
129 146 0
128 146 0
128 147 0
126 146 0
136 157 0
130 151 0
134 154 0
129 149 0
142 161 0
143 163 0
124 141 0
125 142 0
134 154 0
137 158 0
130 150 0
141 159 0
140 160 0
138 156 0
135 156 0
147 168 0
143 164 0
148 169 0
152 173 0
141 158 0
112 130 0
141 160 0
143 163 0
126 144 0
156 178 0
136 157 0
148 168 0
155 176 0
148 171 0
145 166 0
150 171 0
127 146 0
146 166 0
143 163 0
148 169 0
153 173 0
129 147 0
149 169 0
139 159 0
149 168 0
144 166 0
152 172 0
153 173 0
147 167 0
146 167 0
156 177 0
150 170 0
146 166 0
147 169 0
146 166 0
148 168 0
160 182 0
156 177 0
150 168 0
144 166 0
149 170 0
152 172 0
154 173 0
149 170 0
155 175 0
153 174 0
152 173 0
157 178 0
155 177 0
157 178 0
158 178 0
143 163 0
157 175 0
153 176 0
158 178 0
160 181 0
162 184 0
161 181 0
160 181 0
158 179 0
165 187 0
162 184 0
154 175 0
151 171 0
156 177 0
148 169 0
162 183 0
152 173 0
162 181 0
146 167 0
161 182 0
163 186 0
161 183 0
155 176 0
155 178 0
155 175 0
162 184 0
161 180 0
150 171 0
166 187 0
158 181 0
161 182 0
160 181 0
159 179 0
162 184 0
165 188 0
171 193 0
165 187 0
165 187 0
172 191 0
167 190 0
158 177 0
165 186 0
159 180 0
157 179 0
153 176 0
168 191 0
168 187 0
175 195 0
160 182 0
158 180 0
165 187 0
157 175 0
163 184 0
165 188 0
170 193 0
166 189 0
172 195 0
167 188 0
160 183 0
160 181 0
163 184 0
167 187 0
169 192 0
169 191 0
172 192 0
161 184 0
168 191 0
166 189 0
168 190 0
167 189 0
167 189 0
169 193 88
176 199 88
164 188 72
177 200 95
177 200 108
177 200 80
168 190 80
175 199 72
170 193 72
172 195 36
176 199 95
178 201 108
173 196 95
171 195 102
180 204 102
173 197 95
166 190 51
171 194 62
174 198 114
173 197 95
176 199 62
171 194 88
173 197 102
171 195 88
174 198 102
170 193 88
178 202 114
169 191 80
172 197 102
167 191 88
167 189 88
176 200 95
173 195 88
173 196 88
167 190 102
169 193 88
172 196 88
174 198 114
167 190 51
169 192 88
170 193 72
166 190 88
166 190 102
173 196 102
164 188 88
175 199 114
169 193 88
167 190 80
162 186 108
167 190 102
178 200 95
161 185 88
164 187 88
172 195 95
175 198 108
164 187 88
163 186 88
165 187 95
155 178 88
169 192 95
172 195 95
174 197 108
165 187 88
166 189 108
165 187 80
162 185 88
168 191 95
170 193 120
167 190 108
157 179 108
164 187 80
170 193 80
165 188 102
153 176 72
159 181 72
169 192 120
166 190 88
163 186 80
162 185 72
179 201 108
161 184 120
165 187 102
165 186 108
161 182 95
165 186 108
155 177 88
164 186 88
155 178 80
162 184 102
161 182 102
166 188 130
161 182 108
149 169 88
160 181 95
155 177 72
151 172 51
153 173 102
161 181 102
144 165 80
158 180 80
162 183 95
155 176 120
153 173 102
169 190 108
162 184 80
151 170 108
166 185 108
150 170 102
144 163 88
149 169 72
151 171 88
148 167 88
140 160 51
153 174 36
130 152 51
140 159 88
162 182 80
125 146 0
136 155 62
138 157 0
140 159 62
144 163 62
130 148 0
131 150 36
119 139 36
136 155 51
130 148 36
143 161 0
122 141 0
117 135 0
111 127 0
132 152 51
142 163 36
160 182 0
152 175 0
143 162 0
141 162 0
139 159 0
139 159 0
113 130 0
117 136 0
119 137 0
126 144 0
102 120 0
103 119 0
111 127 0
110 126 0
120 137 0
119 138 0
127 145 0
133 151 0
110 128 0
127 147 0
119 138 0
133 152 0
113 132 0
122 141 0
118 138 0
112 131 0
96 115 0
111 131 0
121 139 0
102 120 0
120 138 0
102 120 0
98 115 0
109 127 0
129 146 0
102 119 0
105 122 0
84 102 0
93 110 0
125 142 0
103 121 0
114 131 0
104 120 0
96 114 0
76 92 0
110 127 0
91 107 0
92 108 0
78 95 0
89 106 0
102 116 0
124 140 0
97 113 0
109 125 0
96 112 0
88 103 0
106 121 0
104 119 0
101 117 0
102 116 0
110 126 0
103 118 0
91 106 0
99 115 0
115 131 0
100 116 0
87 99 0
88 103 0
124 139 0
96 109 0
85 99 0
108 122 0
108 123 0
100 115 0
88 101 0
112 127 0
99 114 0
102 118 0
106 122 0
97 112 0
104 116 0
100 116 0
92 107 0
116 132 0
92 108 0
99 116 0
91 107 0
112 127 0
98 114 0
116 133 0
121 139 0
115 133 0
95 110 0
116 130 0
110 127 0
118 135 0
117 135 0
97 114 0
118 134 0
92 111 0
118 135 0
126 144 0
119 136 0
110 128 0
111 128 0
114 132 0
129 146 0
111 129 0
124 141 0
127 144 0
125 145 0
124 142 0
126 144 0
116 136 0
107 126 0
121 138 0
115 134 0
119 137 0
130 150 0
127 146 0
121 140 0
116 134 0
111 126 0
136 154 0
127 147 0
122 143 0
145 163 0
117 133 0
116 134 0
131 150 0
133 152 0
139 157 0
118 137 0
142 163 0
136 154 0
140 160 0
130 149 0
145 166 0
134 153 0
136 154 0
124 144 0
123 143 0
148 166 0
147 166 0
140 161 0
158 178 0
126 146 0
129 150 0
145 167 0
135 156 0
149 168 0
144 164 0
148 172 0
146 166 0
140 162 0
143 164 0
140 160 0
137 156 0
154 176 0
153 172 0
141 161 0
147 168 0
139 160 0
155 177 0
152 171 0
147 167 0
147 169 0
153 173 0
141 163 0
144 165 0
143 164 0
149 172 0
159 181 0
150 170 0
156 177 0
151 173 0
156 177 0
159 182 0
140 161 0
156 177 0
144 165 0
149 171 0
152 172 0
148 168 0
147 168 0
152 172 0
146 167 0
155 174 0
164 185 0
156 176 0
150 172 0
159 181 0
159 180 0
157 178 0
150 171 0
160 181 0
160 180 0
160 183 0
154 175 0
153 176 0
151 172 0
161 181 0
155 178 0
162 182 0
159 177 0
157 179 0
150 170 0
161 184 0
162 182 0
160 183 0
165 187 0
165 187 0
163 185 0
154 174 0
151 170 0
170 192 0
157 176 0
156 178 0
171 193 0
160 181 0
170 192 0
161 185 0
162 183 0
160 181 0
163 187 0
152 173 0
161 185 0
156 177 0
158 177 0
163 186 0
167 191 0
165 187 0
157 177 0
169 191 0
157 180 0
172 193 0
166 188 0
161 183 0
165 186 0
168 190 0
159 180 0
165 188 0
169 192 0
165 186 0
166 188 0
163 183 0
169 190 0
160 181 0
156 177 0
149 170 0
165 187 0
165 188 0
161 183 0
167 190 0
164 184 0
166 189 0
171 193 0
167 185 0
165 187 0
157 179 0
167 190 0
159 181 0
163 184 0
168 190 0
168 190 0
167 189 0
170 192 0
174 196 72
179 203 102
171 194 95
176 199 95
176 200 114
175 199 72
174 197 95
173 196 95
173 196 88
179 202 95
170 193 108
173 196 80
178 201 108
177 200 80
171 195 95
180 203 114
170 194 80
176 199 95
167 192 88
174 197 95
174 198 95
177 199 102
167 190 88
171 196 80
165 189 72
172 196 62
173 196 62
168 192 72
171 194 95
172 196 114
174 198 114
175 199 130
170 193 120
171 195 108
165 189 95
165 188 95
164 187 80
164 188 88
173 197 108
172 196 62
164 189 114
167 192 120
171 194 114
171 195 102
171 194 62
168 191 102
171 195 88
167 191 72
174 198 95
174 197 114
172 195 102
168 190 102
168 190 72
167 190 72
163 187 88
169 192 114
169 192 88
173 196 88
164 187 88
166 188 80
159 183 102
176 200 114
171 194 114
168 191 108
167 189 88
164 188 120
159 181 80
159 183 88
173 195 114
161 183 95
170 193 62
175 198 120
161 183 95
171 194 102
162 185 108
171 193 114
174 196 102
161 182 88
164 186 95
158 181 88
160 183 72
161 183 102
166 188 114
157 179 102
166 188 80
157 178 102
155 176 80
159 180 80
163 183 95
165 186 88
159 181 88
152 173 95
164 185 88
152 173 88
163 184 102
164 186 62
158 179 95
155 176 95
155 175 114
147 168 88
154 175 95
150 172 62
150 171 108
150 171 51
157 177 108
153 172 114
158 177 120
141 160 88
154 173 80
147 168 72
161 181 88
161 181 62
142 163 62
140 159 88
136 155 80
141 161 0
153 171 102
134 155 0
165 183 80
138 157 62
146 165 72
136 156 0
125 144 36
130 149 36
129 149 51
135 155 51
132 150 36
129 148 0
118 138 0
126 147 0
128 147 36
137 156 0
163 183 0
153 175 0
135 155 0
147 168 0
143 164 0
139 155 0
135 156 0
131 150 0
127 145 0
133 152 0
115 134 0
120 138 0
89 108 0
122 140 0
117 134 0
103 120 0
112 129 0
141 159 0
140 160 0
136 155 0
126 145 0
130 149 0
131 150 0
119 137 0
128 147 0
103 121 0
137 156 0
120 139 0
116 135 0
144 163 0
126 144 0
119 136 0
123 141 0
110 128 0
95 113 0
118 136 0
120 138 0
108 126 0
109 124 0
109 125 0
108 126 0
109 124 0
103 120 0
112 128 0
104 119 0
106 125 0
95 111 0
131 148 0
104 120 0
85 101 0
104 120 0
108 124 0
96 113 0
99 116 0
104 119 0
90 104 0
87 104 0
90 105 0
125 142 0
65 78 0
80 94 0
100 115 0
96 111 0
106 120 0
97 113 0
93 109 0
118 135 0
115 131 0
97 111 0
105 119 0
83 98 0
104 119 0
74 89 0
95 112 0
86 102 0
88 101 0
95 111 0
99 112 0
92 107 0
93 108 0
97 112 0
108 125 0
75 91 0
116 132 0
102 115 0
86 102 0
90 106 0
114 131 0
105 121 0
98 113 0
96 114 0
106 123 0
108 123 0
103 120 0
92 108 0
111 128 0
113 130 0
107 124 0
108 125 0
125 142 0
109 126 0
113 130 0
120 138 0
115 132 0
117 134 0
125 142 0
123 142 0
129 147 0
113 132 0
115 132 0
122 141 0
122 140 0
112 128 0
132 152 0
115 134 0
128 146 0
134 152 0
127 146 0
130 150 0
130 147 0
121 139 0
129 148 0
130 151 0
137 157 0
128 145 0
136 156 0
138 159 0
130 148 0
142 162 0
129 147 0
136 154 0
128 149 0
136 155 0
144 163 0
120 140 0
139 157 0
136 154 0
125 145 0
139 161 0
144 162 0
156 177 0
138 158 0
143 164 0
130 150 0
138 160 0
143 163 0
145 164 0
141 163 0
128 144 0
140 163 0
143 165 0
131 151 0
134 155 0
140 159 0
144 164 0
155 176 0
136 157 0
134 155 0
146 167 0
143 160 0
135 156 0
151 173 0
151 172 0
137 159 0
148 167 0
150 175 0
157 179 0
147 170 0
149 170 0
148 167 0
139 159 0
138 160 0
136 157 0
147 168 0
153 177 0
142 161 0
150 173 0
149 170 0
150 172 0
154 173 0
146 163 0
138 159 0
154 175 0
146 165 0
155 175 0
147 168 0
147 168 0
156 175 0
154 175 0
159 183 0
155 175 0
155 177 0
155 176 0
158 180 0
160 182 0
159 182 0
156 179 0
148 169 0
159 181 0
150 172 0
155 175 0
144 165 0
162 182 0
160 183 0
150 171 0
161 182 0
158 179 0
155 173 0
154 176 0
165 186 0
166 187 0
152 174 0
163 185 0
167 190 0
165 186 0
166 189 0
161 184 0
162 182 0
163 185 0
169 190 0
151 171 0
159 179 0
147 166 0
154 174 0
165 188 0
166 188 0
166 189 0
157 177 0
167 187 0
170 191 0
166 189 0
159 180 0
162 186 0
167 188 0
165 188 0
162 183 0
167 187 0
167 189 0
158 179 0
167 189 0
160 179 0
161 184 0
165 187 0
158 180 0
167 189 0
159 181 0
166 188 0
168 190 0
166 188 0
168 191 0
167 189 0
161 181 0
161 183 0
162 185 0
166 188 0
164 185 0
172 195 0
170 193 0
169 191 0
163 184 0
169 191 0
165 187 0
168 189 0
171 192 0
162 184 0
167 190 0
173 196 0
169 192 0
172 195 95
181 204 102
178 201 95
169 192 80
177 200 95
174 198 88
181 204 102
175 199 88
173 196 51
176 199 88
178 202 130
178 202 114
173 196 80
176 200 80
181 205 114
176 200 108
172 195 114
174 197 80
178 202 125
172 197 120
167 191 88
181 204 114
171 196 102
176 200 95
171 195 130
171 195 102
168 192 62
176 199 95
168 192 114
172 195 102
177 201 95
173 197 130
164 187 80
174 198 102
177 200 130
171 195 88
179 202 120
168 192 80
170 194 114
163 188 80
175 199 114
178 202 114
171 194 114
168 192 125
177 200 120
167 190 95
175 199 120
170 193 36
163 186 120
163 187 95
166 190 102
175 198 88
171 195 88
165 189 108
164 187 88
166 190 102
170 192 88
156 179 62
169 193 95
170 193 108
167 190 80
160 183 88
162 185 88
164 188 108
168 191 120
173 196 114
169 192 120
171 194 108
164 187 72
171 194 88
170 193 108
170 194 108
170 193 102
159 182 72
169 191 88
157 179 88
174 195 114
150 171 72
168 190 80
160 182 102
170 192 120
160 181 72
168 190 144
157 179 62
161 182 88
170 193 108
166 189 114
165 186 108
154 176 95
160 182 80
155 177 80
170 191 120
158 179 88
162 183 108
166 187 95
165 186 114
153 173 102
158 178 95
172 193 125
151 173 88
159 179 108
159 179 130
156 176 80
158 178 95
162 182 102
168 189 95
161 182 80
149 168 95
163 182 120
156 176 88
145 163 102
153 173 62
141 160 88
137 156 80
153 173 80
155 174 72
143 164 36
142 162 36
138 158 0
140 159 51
126 146 51
145 164 36
124 142 36
137 154 62
126 146 51
125 142 36
132 152 0
142 161 51
124 143 0
126 144 51
140 160 51
143 162 0
150 173 36
156 177 0
146 167 0
146 168 0
129 150 0
138 156 0
134 154 0
125 146 0
131 149 0
118 136 0
110 126 0
116 134 0
127 145 0
113 131 0
128 146 0
115 132 0
133 151 0
139 158 0
126 145 0
131 150 0
120 139 0
124 143 0
126 144 0
114 133 0
140 161 0
112 130 0
116 133 0
109 129 0
126 145 0
132 151 0
109 125 0
100 118 0
107 126 0
108 124 0
125 142 0
136 155 0
107 125 0
122 138 0
109 126 0
126 144 0
101 116 0
100 117 0
118 135 0
114 130 0
108 126 0
91 107 0
95 112 0
76 91 0
111 127 0
108 124 0
94 110 0
93 110 0
91 105 0
111 127 0
91 108 0
95 111 0
97 114 0
111 126 0
84 101 0
82 100 0
102 118 0
93 109 0
99 116 0
117 133 0
99 114 0
81 94 0
103 117 0
78 95 0
101 116 0
105 120 0
105 119 0
91 108 0
100 115 0
113 128 0
100 116 0
92 106 0
98 112 0
103 121 0
74 90 0
100 115 0
103 120 0
110 126 0
100 117 0
106 121 0
105 122 0
115 132 0
90 107 0
117 134 0
120 137 0
101 119 0
115 133 0
101 118 0
122 139 0
113 130 0
112 128 0
115 132 0
106 122 0
121 138 0
100 116 0
116 136 0
112 130 0
104 123 0
106 123 0
106 122 0
129 148 0
109 128 0
122 142 0
128 147 0
117 134 0
127 146 0
104 121 0
115 133 0
119 137 0
111 129 0
127 146 0
122 139 0
127 145 0
121 139 0
125 143 0
103 119 0
136 155 0
119 138 0
138 159 0
127 146 0
137 156 0
116 136 0
121 141 0
127 147 0
143 162 0
113 130 0
139 157 0
126 144 0
135 155 0
118 138 0
142 163 0
139 159 0
135 155 0
141 161 0
140 161 0
137 157 0
134 154 0
143 163 0
141 158 0
129 148 0
131 151 0
147 169 0
141 161 0
136 158 0
145 167 0
150 171 0
142 162 0
142 162 0
147 169 0
137 157 0
159 181 0
140 161 0
150 171 0
150 170 0
157 178 0
155 175 0
157 179 0
151 171 0
131 151 0
148 169 0
141 164 0
140 159 0
149 170 0
128 148 0
148 169 0
157 177 0
149 171 0
149 170 0
139 162 0
157 176 0
140 160 0
149 167 0
144 165 0
156 178 0
151 173 0
152 174 0
150 170 0
148 169 0
157 179 0
152 174 0
146 166 0
167 189 0
152 171 0
154 177 0
150 172 0
147 167 0
153 175 0
163 185 0
153 174 0
164 184 0
159 179 0
158 180 0
153 175 0
158 180 0
153 174 0
158 179 0
158 179 0
157 180 0
164 186 0
157 180 0
156 177 0
163 188 0
157 180 0
159 180 0
159 181 0
151 172 0
162 182 0
166 187 0
164 184 0
152 175 0
167 189 0
157 180 0
153 173 0
151 173 0
159 179 0
154 177 0
150 172 0
165 187 0
167 190 0
161 183 0
162 184 0
166 186 0
162 185 0
162 182 0
161 183 0
155 176 0
154 177 0
154 173 0
163 183 0
159 182 0
158 180 0
154 175 0
159 177 0
166 189 0
164 186 0
165 185 0
170 192 0
161 184 0
167 190 0
165 187 0
159 179 0
163 184 0
160 183 0
161 184 0
168 190 0
163 184 0
157 178 0
166 187 0
162 185 0
167 190 0
165 186 0
170 192 0
163 186 0
165 184 0
171 193 0
165 187 0
171 193 0
166 187 0
166 188 0
165 186 0
166 188 0
160 181 0
167 188 0
170 193 0
172 196 36
171 195 102
174 197 62
174 197 108
177 200 114
174 198 88
172 196 62
173 196 102
179 201 88
179 201 62
172 196 88
177 200 95
172 196 80
175 199 88
182 205 125
176 199 102
173 197 72
179 202 95
176 200 114
172 195 88
177 200 95
173 196 108
173 197 80
168 191 88
173 195 108
167 190 88
179 202 114
165 189 62
170 195 88
176 199 95
164 187 80
170 194 102
179 203 108
165 190 80
175 198 102
176 199 72
164 188 102
172 195 62
165 189 80
171 195 102
170 195 102
171 193 95
167 191 108
162 186 72
174 197 95
164 188 62
169 190 95
167 190 80
162 186 120
169 192 102
171 195 102
171 195 102
160 184 114
172 195 108
172 195 88
161 184 88
159 183 95
166 189 102
166 190 120
163 187 114
174 198 135
168 191 114
164 187 95
165 188 120
156 180 88
169 193 114
169 192 125
171 192 88
173 197 102
171 194 108
161 183 62
167 191 80
170 193 88
161 183 108
171 193 102
163 187 95
165 187 120
157 180 80
164 187 120
161 184 80
163 186 102
153 176 88
166 189 95
151 172 62
150 175 72
170 192 95
160 182 114
172 193 114
159 181 88
159 179 95
165 186 80
148 169 62
166 188 95
159 180 120
139 159 95
166 187 88
157 179 80
165 186 95
155 176 108
149 169 62
166 188 114
151 171 88
158 178 125
152 173 80
177 197 114
158 179 114
155 174 102
166 184 144
154 172 102
163 182 102
149 169 88
146 164 88
149 170 72
152 173 62
140 160 72
149 170 72
145 167 0
148 170 62
152 170 72
152 173 0
147 168 0
129 150 0
145 166 0
128 148 0
145 166 0
140 160 0
134 153 0
139 157 36
141 162 36
124 143 36
130 149 0
137 154 0
147 168 0
153 175 0
151 171 0
145 165 0
140 161 0
130 152 0
137 157 0
121 139 0
135 155 0
132 151 0
116 135 0
118 136 0
116 134 0
107 125 0
122 139 0
122 141 0
114 133 0
113 129 0
133 152 0
127 147 0
127 146 0
128 148 0
128 147 0
125 144 0
138 159 0
116 136 0
118 135 0
129 148 0
116 134 0
108 126 0
101 120 0
116 135 0
121 140 0
118 137 0
119 138 0
131 149 0
101 119 0
101 120 0
123 141 0
109 126 0
112 127 0
109 126 0
115 133 0
114 130 0
109 127 0
102 118 0
113 130 0
110 127 0
113 131 0
109 126 0
107 124 0
89 107 0
119 135 0
107 124 0
95 112 0
107 124 0
94 111 0
114 131 0
100 116 0
112 127 0
116 132 0
83 98 0
84 100 0
85 100 0
112 129 0
94 111 0
114 129 0
104 120 0
96 111 0
99 116 0
103 118 0
99 117 0
105 121 0
95 111 0
100 118 0
95 112 0
115 131 0
98 113 0
102 120 0
95 112 0
111 128 0
102 117 0
90 107 0
110 127 0
112 127 0
120 136 0
94 110 0
105 122 0
94 111 0
114 129 0
102 118 0
108 125 0
105 122 0
123 140 0
104 120 0
106 126 0
119 135 0
115 132 0
110 127 0
115 132 0
117 135 0
101 119 0
114 133 0
97 114 0
123 142 0
112 128 0
122 140 0
109 128 0
112 129 0
122 140 0
116 136 0
112 132 0
104 123 0
134 154 0
131 148 0
122 140 0
123 141 0
111 130 0
117 135 0
127 145 0
124 143 0
132 151 0
119 138 0
125 146 0
135 155 0
138 157 0
136 156 0
139 158 0
120 138 0
135 156 0
137 157 0
134 155 0
137 156 0
144 164 0
136 155 0
128 150 0
143 165 0
141 161 0
134 153 0
145 165 0
143 163 0
147 166 0
140 160 0
142 162 0
143 161 0
143 165 0
137 157 0
144 166 0
144 165 0
143 160 0
145 166 0
147 170 0
155 175 0
125 145 0
154 176 0
133 154 0
139 158 0
142 162 0
156 175 0
144 165 0
151 172 0
143 166 0
146 166 0
143 163 0
147 168 0
151 174 0
141 161 0
145 165 0
142 159 0
152 172 0
157 179 0
156 176 0
141 163 0
145 166 0
163 183 0
139 162 0
161 183 0
151 171 0
138 157 0
163 184 0
152 173 0
140 162 0
155 176 0
156 175 0
147 166 0
164 186 0
150 174 0
153 173 0
157 178 0
153 176 0
149 170 0
164 182 0
159 180 0
157 179 0
158 178 0
161 182 0
161 181 0
164 185 0
164 184 0
151 174 0
161 181 0
163 182 0
160 182 0
159 180 0
157 179 0
158 181 0
157 180 0
162 183 0
157 179 0
154 177 0
161 183 0
161 182 0
165 185 0
153 174 0
165 187 0
160 182 0
163 184 0
168 190 0
172 193 0
157 179 0
150 169 0
160 182 0
164 187 0
162 184 0
150 171 0
160 182 0
161 182 0
166 189 0
162 185 0
169 191 0
162 183 0
160 182 0
163 184 0
165 186 0
155 177 0
170 191 0
166 188 0
169 190 0
169 193 0
162 184 0
164 185 0
165 187 0
169 192 0
168 190 0
163 186 0
169 193 0
160 183 0
170 193 0
169 191 0
173 197 0
164 186 0
167 188 0
171 193 0
157 179 0
165 187 0
168 189 0
163 185 0
169 189 0
168 192 0
170 192 0
174 196 0
170 192 0
172 192 0
162 184 0
170 191 0
169 191 0
169 192 0
156 175 0
172 196 62
175 199 108
175 198 80
173 196 102
170 194 80
174 197 125
169 192 88
185 207 108
170 194 80
179 201 102
172 195 88
180 204 108
179 203 120
176 199 108
172 195 72
172 196 95
169 191 88
169 193 72
165 187 80
170 194 95
172 196 95
172 196 95
170 193 62
178 200 108
178 202 108
175 199 120
174 198 95
173 196 95
169 192 102
175 198 108
177 200 102
168 192 88
169 191 72
178 200 72
169 193 102
173 197 114
170 195 108
167 190 80
166 190 62
166 189 51
172 195 102
166 190 120
179 201 102
169 193 114
166 190 108
161 184 62
176 200 80
163 186 95
171 194 88
163 188 114
173 198 120
168 190 102
174 197 114
170 193 80
174 196 95
177 201 135
171 194 72
168 190 102
161 184 88
164 186 80
166 190 108
161 185 95
155 179 80
159 180 51
165 188 108
164 186 95
164 186 114
164 185 88
168 191 88
167 190 102
161 184 95
169 191 80
175 197 114
169 192 95
165 188 88
172 194 102
162 184 88
163 185 72
171 193 108
154 176 88
165 186 102
165 189 108
167 189 80
165 187 120
154 177 80
165 188 108
166 188 108
164 185 88
168 189 95
153 174 88
162 183 102
167 189 120
169 190 125
165 186 114
164 185 95
151 174 80
159 179 80
159 180 108
157 178 72
153 175 88
154 175 88
155 175 80
172 191 108
157 176 114
169 191 88
146 166 80
168 187 120
158 177 95
161 182 72
146 166 80
155 175 88
149 168 88
139 160 51
151 172 62
148 168 72
155 176 95
130 150 51
130 150 36
141 161 51
133 155 0
130 151 36
143 163 36
161 181 62
119 139 36
151 171 51
133 151 36
127 147 0
134 154 36
136 157 51
130 148 0
148 167 36
123 141 0
164 187 0
151 174 0
154 175 0
136 157 0
146 169 0
147 168 0
135 155 0
138 157 0
117 136 0
115 133 0
128 145 0
125 144 0
126 142 0
114 133 0
102 120 0
115 135 0
134 153 0
140 158 0
122 142 0
127 147 0
129 150 0
123 141 0
141 161 0
118 136 0
136 155 0
123 143 0
132 152 0
107 127 0
122 141 0
128 148 0
131 151 0
119 138 0
113 131 0
130 148 0
136 154 0
108 127 0
122 141 0
132 149 0
105 123 0
128 146 0
119 138 0
118 136 0
121 138 0
99 116 0
108 125 0
93 110 0
105 122 0
105 122 0
111 128 0
117 133 0
108 125 0
127 144 0
110 127 0
109 124 0
83 99 0
99 117 0
86 105 0
85 102 0
92 107 0
105 122 0
108 125 0
68 83 0
95 111 0
93 108 0
95 110 0
99 116 0
91 107 0
107 124 0
118 135 0
111 128 0
94 112 0
105 122 0
103 120 0
100 115 0
86 101 0
87 103 0
119 134 0
107 124 0
89 103 0
107 122 0
99 116 0
97 115 0
115 131 0
104 123 0
105 120 0
100 117 0
85 101 0
109 125 0
101 118 0
110 128 0
120 139 0
88 104 0
115 134 0
99 115 0
98 114 0
113 130 0
112 129 0
115 132 0
123 141 0
105 123 0
100 119 0
112 132 0
135 153 0
86 104 0
122 140 0
98 117 0
121 141 0
137 156 0
122 142 0
114 132 0
123 141 0
98 115 0
106 124 0
117 134 0
112 131 0
143 162 0
94 115 0
119 137 0
113 134 0
139 158 0
128 146 0
133 153 0
127 146 0
127 147 0
133 154 0
125 145 0
126 145 0
137 156 0
127 147 0
141 161 0
132 151 0
126 145 0
132 151 0
137 155 0
140 160 0
140 159 0
149 170 0
140 158 0
135 156 0
128 149 0
141 160 0
129 150 0
134 154 0
141 162 0
130 150 0
130 149 0
151 169 0
138 157 0
147 169 0
142 162 0
149 171 0
151 173 0
141 161 0
143 162 0
146 169 0
140 159 0
138 162 0
145 166 0
148 170 0
126 147 0
137 157 0
149 169 0
141 161 0
152 171 0
157 179 0
153 174 0
156 177 0
161 184 0
145 167 0
148 169 0
165 185 0
150 171 0
149 169 0
149 172 0
152 174 0
152 173 0
152 169 0
158 179 0
164 184 0
153 174 0
156 179 0
152 174 0
141 162 0
156 178 0
151 173 0
145 165 0
152 174 0
152 174 0
162 184 0
159 180 0
165 187 0
163 184 0
152 174 0
147 167 0
146 166 0
157 179 0
166 186 0
158 178 0
164 187 0
159 181 0
155 176 0
150 172 0
154 173 0
157 179 0
157 179 0
162 182 0
162 184 0
161 182 0
162 185 0
151 173 0
158 181 0
156 177 0
162 183 0
160 183 0
162 184 0
154 175 0
156 175 0
168 187 0
165 186 0
159 180 0
157 179 0
169 190 0
154 177 0
159 181 0
166 189 0
154 175 0
168 190 0
157 179 0
166 188 0
155 180 0
162 183 0
159 181 0
155 176 0
159 181 0
160 179 0
162 183 0
167 189 0
165 189 0
163 186 0
165 187 0
159 176 0
165 186 0
161 181 0
166 188 0
168 190 0
162 183 0
163 182 0
157 181 0
167 189 0
171 191 0
165 187 0
163 186 0
169 190 0
171 194 0
162 184 0
166 188 0
163 185 0
169 191 0
162 184 0
165 187 0
161 182 0
168 189 0
162 182 0
164 185 0
159 180 0
167 188 0
167 189 0
174 196 0
168 191 72
174 197 62
178 201 140
170 193 80
178 201 120
175 198 120
173 196 108
174 197 95
174 199 88
177 200 95
180 202 72
177 199 108
176 200 114
180 204 120
170 193 102
176 199 102
174 197 125
170 193 80
175 199 95
173 196 108
166 190 125
172 194 108
176 198 80
176 199 102
179 203 114
177 200 120
173 196 102
164 188 72
176 199 140
170 193 108
168 191 80
175 199 95
174 198 102
170 194 80
172 195 114
169 193 114
172 195 120
169 193 102
174 198 125
163 187 108
177 200 125
175 198 95
166 188 72
173 196 125
179 202 120
169 193 102
174 197 95
177 201 125
176 200 125
171 194 108
175 197 114
167 190 102
171 194 88
163 186 102
166 188 80
167 190 72
168 191 120
168 191 72
174 197 102
171 194 80
171 194 95
164 187 72
166 189 80
169 191 102
165 187 108
172 195 114
162 185 108
171 194 114
160 183 95
161 184 108
153 176 72
157 180 114
153 176 80
162 184 88
154 176 95
158 180 88
160 181 88
156 178 95
171 194 140
159 181 72
164 186 102
164 186 114
154 176 36
166 188 102
167 189 120
161 182 108
156 179 72
163 185 80
172 193 114
162 183 95
169 192 95
163 185 88
169 191 108
161 182 102
163 184 51
157 178 95
158 179 72
155 176 95
159 180 120
151 172 88
158 179 114
165 185 88
154 175 72
152 173 95
159 179 114
153 173 80
163 182 120
164 184 88
165 184 102
161 182 102
149 170 88
152 171 102
143 164 80
144 166 0
144 163 80
135 155 51
155 176 51
152 171 72
158 180 0
142 162 0
145 166 0
151 173 0
133 152 0
144 164 36
119 139 0
142 162 0
135 153 51
106 125 0
155 176 51
141 160 36
130 150 0
129 148 0
137 158 0
150 170 0
134 155 0
143 162 0
135 155 0
143 164 0
138 159 0
143 165 0
118 137 0
119 139 0
115 132 0
109 128 0
116 135 0
104 123 0
112 130 0
119 138 0
125 146 0
123 142 0
130 149 0
126 144 0
145 167 0
127 146 0
116 135 0
110 129 0
125 146 0
113 130 0
112 131 0
118 137 0
136 156 0
130 149 0
109 128 0
115 133 0
130 150 0
112 130 0
123 142 0
109 126 0
120 137 0
105 123 0
101 120 0
125 144 0
124 141 0
120 139 0
93 111 0
125 142 0
131 149 0
127 144 0
121 136 0
109 126 0
111 128 0
118 135 0
103 119 0
109 124 0
113 129 0
105 122 0
83 99 0
120 136 0
104 119 0
85 102 0
131 147 0
94 110 0
124 140 0
124 141 0
97 116 0
122 137 0
102 117 0
109 124 0
112 129 0
102 119 0
97 113 0
105 123 0
114 132 0
91 108 0
119 135 0
101 116 0
94 111 0
118 135 0
100 116 0
112 128 0
101 118 0
121 139 0
106 122 0
114 132 0
97 112 0
116 134 0
116 133 0
118 135 0
111 127 0
107 122 0
105 123 0
115 133 0
108 127 0
111 127 0
115 131 0
117 134 0
128 148 0
108 127 0
120 139 0
114 131 0
101 119 0
117 137 0
110 128 0
126 144 0
112 131 0
115 135 0
113 130 0
127 145 0
123 141 0
107 126 0
132 151 0
121 141 0
117 136 0
133 151 0
111 132 0
95 114 0
124 143 0
133 152 0
131 150 0
123 140 0
133 151 0
127 147 0
122 141 0
135 155 0
142 161 0
118 135 0
145 164 0
125 143 0
138 156 0
119 140 0
139 158 0
119 139 0
136 156 0
139 158 0
136 154 0
140 161 0
134 153 0
153 174 0
140 161 0
138 158 0
120 140 0
123 142 0
140 161 0
145 165 0
134 154 0
145 166 0
145 165 0
138 159 0
134 154 0
142 164 0
139 161 0
152 175 0
129 150 0
145 166 0
139 159 0
135 154 0
144 165 0
142 162 0
145 164 0
138 158 0
149 170 0
150 172 0
143 167 0
139 160 0
128 150 0
152 171 0
135 155 0
146 168 0
148 170 0
161 181 0
148 169 0
133 155 0
156 176 0
157 180 0
140 162 0
150 169 0
145 166 0
144 165 0
147 169 0
153 174 0
161 183 0
171 194 0
144 165 0
150 173 0
142 164 0
159 181 0
151 172 0
152 174 0
150 172 0
164 184 0
154 174 0
156 178 0
151 169 0
152 173 0
159 182 0
155 175 0
153 176 0
155 176 0
158 180 0
156 176 0
161 183 0
156 177 0
160 179 0
154 175 0
153 174 0
161 183 0
161 183 0
151 174 0
167 189 0
161 183 0
165 186 0
154 176 0
170 193 0
170 191 0
163 183 0
163 184 0
160 179 0
165 184 0
158 182 0
148 167 0
163 184 0
165 186 0
159 183 0
166 188 0
160 181 0
163 183 0
167 190 0
163 187 0
158 179 0
156 179 0
162 185 0
166 188 0
159 182 0
161 181 0
167 190 0
159 179 0
165 187 0
164 189 0
161 183 0
172 193 0
153 175 0
167 185 0
174 194 0
157 179 0
170 192 0
170 193 0
170 192 0
161 182 0
162 186 0
160 183 0
165 187 0
172 192 0
163 186 0
167 187 0
161 182 0
167 188 0
168 190 0
169 191 0
169 192 0
169 190 0
160 179 0
173 194 0
168 191 0
163 185 0
167 191 0
167 189 0
173 195 0
169 193 0
162 187 0
169 190 0
174 197 62
170 194 72
169 192 95
181 204 125
170 193 88
180 203 88
174 197 95
177 201 120
177 200 80
173 196 72
176 199 51
171 194 88
169 193 72
170 192 108
168 193 51
181 203 108
172 197 72
168 192 108
177 201 125
179 202 108
165 188 95
173 197 88
171 194 88
176 199 114
178 201 95
171 195 88
175 199 108
175 198 62
178 200 88
172 195 80
174 197 88
172 196 102
177 200 120
172 196 114
177 200 88
166 190 95
170 192 72
169 193 108
174 197 102
166 189 88
168 191 95
172 195 114
167 190 80
169 192 125
170 192 108
173 195 72
171 194 80
180 204 108
170 193 114
169 192 95
166 188 88
171 195 62
159 182 62
169 192 102
172 196 135
169 193 114
166 189 95
168 192 108
166 190 108
173 196 95
164 187 95
165 187 95
165 188 80
167 191 102
167 190 114
174 198 114
161 184 62
166 189 95
164 187 120
163 187 88
173 195 88
158 181 88
176 198 108
163 186 102
165 187 120
167 188 102
152 174 88
149 171 62
168 191 88
167 188 95
160 183 88
164 186 72
170 192 114
165 186 102
165 186 88
161 183 88
171 192 95
159 182 88
158 179 114
152 173 88
157 178 62
153 174 88
167 187 120
154 175 80
160 180 95
163 184 102
142 161 51
161 181 130
147 167 72
155 176 102
168 190 102
162 183 88
151 172 72
154 172 108
157 178 80
146 165 88
145 164 80
154 174 80
150 172 62
151 171 72
157 178 51
154 175 72
154 175 51
145 165 62
149 169 62
146 167 72
148 168 80
154 175 36
156 176 0
140 161 0
143 164 0
143 163 0
133 154 36
147 167 36
142 161 51
150 172 0
140 161 0
122 140 0
142 161 0
132 151 36
129 151 36
148 170 0
151 173 0
150 173 0
144 165 0
144 167 0
150 172 0
155 176 0
135 156 0
132 150 0
132 152 0
122 141 0
121 141 0
126 145 0
120 141 0
137 156 0
116 134 0
114 131 0
127 146 0
137 155 0
121 138 0
130 147 0
113 132 0
138 158 0
127 146 0
118 137 0
136 154 0
123 143 0
118 136 0
129 148 0
124 142 0
133 152 0
138 157 0
119 137 0
126 146 0
121 140 0
110 128 0
97 114 0
133 153 0
115 131 0
131 149 0
118 137 0
138 155 0
131 150 0
111 129 0
122 139 0
120 139 0
116 133 0
105 122 0
122 139 0
93 110 0
118 135 0
93 111 0
114 131 0
93 109 0
115 132 0
97 114 0
98 114 0
111 127 0
119 134 0
94 111 0
97 114 0
119 136 0
104 121 0
110 128 0
128 145 0
112 129 0
95 112 0
95 112 0
114 133 0
107 126 0
123 140 0
122 138 0
106 125 0
115 132 0
108 124 0
99 115 0
113 130 0
116 133 0
116 135 0
111 128 0
82 99 0
99 117 0
114 131 0
104 122 0
105 120 0
101 116 0
106 122 0
94 111 0
109 125 0
116 133 0
116 133 0
113 131 0
104 121 0
113 131 0
126 145 0
124 141 0
119 136 0
117 135 0
123 141 0
123 141 0
109 126 0
119 134 0
117 136 0
110 129 0
125 142 0
108 125 0
117 136 0
128 147 0
138 158 0
128 145 0
122 140 0
141 160 0
118 137 0
127 145 0
115 134 0
122 143 0
116 136 0
111 129 0
120 140 0
143 161 0
122 141 0
143 162 0
132 151 0
146 165 0
134 155 0
134 153 0
127 148 0
126 143 0
143 162 0
132 152 0
137 158 0
132 153 0
145 165 0
136 155 0
144 165 0
130 151 0
133 153 0
133 151 0
144 167 0
151 173 0
136 158 0
143 164 0
135 156 0
162 183 0
123 143 0
148 170 0
129 150 0
141 160 0
142 160 0
137 159 0
147 168 0
142 163 0
135 154 0
145 168 0
144 164 0
153 176 0
133 152 0
155 176 0
137 158 0
151 171 0
147 170 0
145 165 0
147 168 0
146 167 0
154 175 0
157 178 0
158 178 0
151 171 0
153 176 0
150 170 0
152 172 0
153 173 0
144 165 0
150 168 0
138 158 0
148 171 0
132 153 0
154 174 0
152 174 0
151 170 0
155 176 0
157 178 0
150 172 0
158 178 0
162 184 0
149 172 0
152 174 0
159 181 0
145 163 0
163 185 0
157 178 0
145 165 0
154 174 0
151 174 0
156 177 0
152 171 0
147 168 0
157 180 0
152 176 0
154 176 0
164 186 0
160 180 0
157 177 0
162 184 0
157 179 0
151 171 0
155 174 0
147 167 0
156 177 0
163 186 0
161 183 0
157 178 0
149 169 0
149 171 0
155 174 0
160 184 0
170 190 0
160 181 0
164 187 0
168 190 0
157 179 0
165 187 0
161 182 0
158 179 0
169 192 0
155 175 0
164 187 0
165 189 0
163 185 0
157 178 0
167 190 0
165 187 0
164 186 0
161 183 0
158 177 0
159 181 0
167 188 0
160 179 0
149 170 0
160 181 0
168 192 0
171 192 0
172 196 0
164 186 0
162 184 0
167 188 0
169 192 0
163 186 0
164 186 0
161 184 0
165 185 0
166 187 0
169 189 0
162 184 0
169 192 0
163 187 0
159 182 0
160 185 0
169 190 0
171 193 0
173 196 0
166 190 0
167 188 0
167 188 0
166 189 0
165 186 0
164 187 0
167 188 0
172 193 0
174 197 102
169 192 88
177 201 80
175 197 125
175 199 102
170 194 88
175 199 95
172 195 95
173 196 80
172 196 80
183 205 80
175 199 108
175 198 80
177 201 88
171 195 88
173 197 72
176 198 120
167 191 95
167 191 95
172 195 80
169 192 108
173 196 95
165 189 88
171 194 80
178 200 95
176 199 80
173 197 80
176 199 80
166 187 95
170 194 80
168 192 88
169 193 51
175 199 95
172 195 114
174 196 95
166 190 80
170 194 108
173 195 80
166 189 102
169 192 102
173 197 130
171 194 102
171 194 120
169 192 88
173 195 95
169 192 62
171 195 95
167 190 95
165 187 72
166 188 88
168 192 108
160 183 80
170 192 102
168 191 95
169 192 102
170 192 120
164 189 102
170 193 108
173 195 72
168 190 95
172 195 95
170 193 102
168 190 88
175 198 95
169 192 80
172 195 88
174 194 95
153 176 114
164 186 80
168 190 95
164 187 88
163 185 102
169 191 88
168 190 108
166 189 102
156 179 95
172 194 125
173 196 95
155 177 88
168 191 108
161 183 88
162 183 114
159 182 114
169 191 95
162 184 88
162 185 80
170 192 102
170 191 114
167 188 95
153 174 88
165 186 62
156 178 95
157 178 80
159 181 114
162 183 120
160 182 51
161 182 114
163 185 88
156 178 88
154 176 62
151 170 62
152 172 108
156 175 102
160 180 102
158 179 95
165 185 108
158 177 102
163 183 95
150 170 88
155 174 80
141 163 62
166 186 108
151 173 62
164 185 102
146 168 51
160 179 72
154 176 36
156 177 0
145 166 0
133 153 36
135 156 0
144 165 0
115 133 36
155 176 36
125 145 36
139 160 0
140 159 0
135 154 36
145 165 0
134 154 36
131 150 0
141 162 0
160 183 0
161 184 0
153 173 0
130 151 0
138 160 0
137 158 0
143 161 0
133 153 0
135 156 0
130 151 0
134 154 0
130 149 0
135 155 0
118 137 0
129 149 0
123 141 0
122 141 0
129 148 0
118 138 0
145 167 0
131 150 0
141 160 0
133 153 0
115 135 0
119 137 0
112 132 0
126 145 0
127 147 0
122 140 0
128 148 0
134 153 0
133 152 0
131 151 0
131 150 0
121 140 0
128 147 0
116 134 0
130 148 0
114 132 0
115 134 0
103 122 0
123 141 0
126 142 0
117 135 0
151 169 0
116 133 0
113 131 0
93 110 0
126 144 0
96 114 0
86 104 0
123 139 0
117 134 0
98 117 0
100 117 0
115 131 0
121 140 0
114 130 0
125 144 0
102 119 0
87 104 0
106 124 0
120 138 0
105 122 0
118 135 0
93 109 0
101 118 0
109 127 0
102 119 0
130 146 0
101 119 0
104 120 0
99 116 0
115 131 0
93 110 0
92 109 0
122 140 0
88 106 0
112 129 0
111 128 0
120 138 0
119 136 0
121 138 0
100 119 0
122 140 0
88 103 0
108 126 0
111 128 0
99 116 0
115 133 0
94 113 0
117 136 0
131 150 0
101 117 0
104 121 0
127 145 0
112 130 0
115 132 0
121 139 0
122 140 0
121 138 0
113 132 0
124 142 0
141 161 0
117 137 0
136 155 0
116 134 0
119 137 0
110 128 0
118 137 0
125 142 0
127 146 0
133 155 0
148 168 0
118 136 0
114 134 0
125 144 0
121 141 0
125 146 0
131 152 0
139 159 0
118 140 0
139 157 0
131 152 0
132 151 0
133 152 0
136 157 0
129 150 0
133 151 0
134 153 0
140 162 0
140 160 0
141 162 0
129 148 0
139 160 0
137 157 0
119 139 0
149 169 0
139 159 0
147 167 0
138 158 0
130 152 0
134 154 0
134 154 0
147 169 0
146 167 0
146 167 0
142 162 0
135 156 0
146 167 0
140 160 0
131 152 0
155 175 0
158 178 0
149 170 0
145 163 0
149 171 0
145 166 0
152 172 0
144 167 0
142 163 0
146 166 0
129 150 0
152 172 0
148 168 0
148 169 0
149 171 0
148 168 0
149 172 0
152 171 0
145 167 0
144 164 0
152 173 0
141 161 0
152 173 0
153 174 0
159 180 0
165 187 0
144 163 0
162 182 0
147 170 0
147 168 0
151 173 0
146 168 0
142 162 0
160 182 0
157 178 0
152 174 0
157 179 0
157 180 0
151 172 0
153 175 0
152 172 0
151 170 0
160 180 0
156 177 0
154 173 0
151 170 0
162 182 0
145 165 0
162 182 0
165 187 0
159 180 0
155 175 0
161 180 0
166 189 0
142 163 0
158 181 0
166 187 0
159 182 0
150 171 0
162 183 0
161 182 0
160 182 0
162 185 0
152 172 0
167 188 0
159 181 0
166 185 0
162 186 0
163 186 0
154 176 0
162 185 0
154 175 0
157 180 0
162 184 0
170 192 0
164 183 0
160 179 0
168 191 0
164 187 0
152 173 0
171 193 0
154 176 0
166 189 0
164 186 0
158 181 0
159 181 0
166 186 0
158 181 0
165 187 0
169 190 0
164 186 0
170 191 0
168 192 0
164 185 0
165 188 0
164 185 0
167 189 0
160 185 0
161 183 0
170 192 0
165 187 0
162 185 0
168 191 0
162 184 0
165 188 0
169 191 0
161 182 0
174 196 0
174 195 0
166 188 0
168 191 0
165 187 0
165 186 0
167 189 0
170 195 0
163 187 0
168 191 88
174 197 95
176 198 80
175 199 88
183 206 125
175 198 95
180 203 125
163 187 72
176 198 80
177 200 108
171 194 95
181 205 130
179 201 114
174 197 102
173 196 88
171 194 51
180 203 108
169 193 102
174 197 125
174 196 102
173 196 72
160 182 102
168 192 102
167 190 95
175 198 95
175 197 95
169 194 80
174 198 88
175 198 95
174 196 72
177 201 80
179 202 88
168 193 95
178 202 102
168 192 62
175 199 108
163 186 62
173 196 102
175 198 88
175 199 88
174 197 95
166 190 88
166 189 114
165 190 114
174 197 95
170 194 95
174 198 62
166 189 80
164 188 88
164 187 72
172 196 108
163 187 114
171 196 120
172 194 95
170 192 72
177 200 95
172 195 102
161 183 72
160 182 88
161 184 72
163 186 95
161 185 80
164 187 95
163 185 51
168 191 88
163 184 51
174 197 80
164 186 95
155 177 80
167 190 108
165 188 108
166 188 108
168 188 108
164 187 80
164 187 95
171 194 95
160 182 80
155 177 62
166 187 130
169 191 102
165 187 88
162 182 88
165 185 108
167 188 95
162 184 80
175 196 108
160 180 88
161 183 102
159 180 95
165 185 72
166 188 114
168 190 102
157 179 102
154 175 88
164 185 108
163 184 120
155 176 102
161 182 72
157 177 80
163 184 114
162 181 102
165 184 102
161 182 114
169 189 95
148 169 102
161 181 95
169 190 102
164 184 102
154 174 102
148 166 72
173 192 108
158 176 130
152 173 51
132 153 51
132 152 62
147 165 72
135 157 36
156 178 0
152 172 51
152 174 51
139 159 0
131 151 36
138 160 36
149 169 36
139 159 0
125 145 0
144 164 0
133 154 0
134 154 0
142 163 0
138 158 36
153 176 0
151 174 0
145 167 0
152 174 0
146 166 0
147 167 0
143 164 0
151 172 0
137 157 0
134 154 0
121 141 0
130 149 0
123 143 0
136 156 0
132 152 0
124 143 0
131 151 0
118 137 0
115 134 0
136 155 0
138 158 0
130 151 0
141 161 0
127 147 0
139 159 0
126 145 0
131 149 0
121 140 0
138 158 0
139 159 0
121 141 0
120 138 0
129 148 0
115 136 0
122 142 0
130 148 0
124 143 0
115 133 0
116 135 0
130 150 0
128 147 0
115 133 0
123 142 0
113 133 0
126 144 0
115 133 0
102 119 0
123 140 0
125 142 0
112 130 0
123 141 0
120 139 0
111 128 0
117 136 0
130 149 0
117 136 0
123 143 0
105 122 0
103 119 0
116 133 0
107 124 0
124 143 0
122 140 0
119 137 0
111 129 0
127 146 0
117 135 0
105 122 0
94 112 0
125 141 0
110 126 0
97 116 0
96 115 0
125 144 0
101 119 0
125 143 0
115 133 0
114 133 0
113 132 0
113 132 0
119 136 0
107 125 0
108 125 0
108 125 0
116 133 0
117 135 0
92 110 0
136 154 0
110 128 0
102 120 0
116 134 0
108 126 0
131 150 0
129 147 0
110 129 0
127 145 0
125 143 0
130 148 0
113 133 0
131 150 0
125 143 0
111 130 0
120 138 0
113 131 0
142 160 0
116 135 0
112 128 0
114 132 0
106 126 0
136 156 0
115 134 0
148 168 0
125 143 0
132 149 0
141 159 0
130 150 0
130 148 0
123 141 0
136 154 0
146 167 0
122 141 0
139 159 0
137 156 0
129 149 0
118 138 0
135 154 0
128 147 0
136 157 0
140 160 0
133 153 0
141 162 0
142 161 0
140 159 0
146 167 0
129 147 0
144 164 0
131 153 0
129 150 0
143 164 0
130 151 0
129 150 0
132 152 0
140 162 0
114 133 0
150 171 0
142 162 0
150 170 0
139 162 0
141 160 0
136 154 0
154 174 0
135 156 0
144 163 0
153 172 0
149 170 0
138 158 0
145 167 0
154 175 0
137 157 0
149 171 0
143 164 0
147 166 0
142 162 0
140 159 0
153 174 0
151 171 0
130 148 0
148 168 0
146 168 0
140 162 0
159 181 0
151 172 0
151 172 0
160 182 0
148 171 0
168 189 0
145 163 0
151 170 0
154 175 0
155 174 0
152 174 0
151 171 0
149 169 0
162 184 0
158 179 0
156 178 0
147 169 0
161 181 0
156 177 0
149 171 0
156 178 0
150 167 0
152 172 0
150 172 0
151 170 0
154 174 0
162 184 0
151 173 0
160 183 0
161 180 0
162 183 0
157 180 0
157 178 0
159 181 0
156 178 0
157 179 0
162 182 0
161 185 0
171 192 0
161 183 0
165 186 0
150 170 0
158 181 0
159 180 0
164 184 0
161 184 0
156 178 0
160 180 0
154 175 0
166 187 0
153 175 0
164 187 0
164 186 0
160 180 0
157 178 0
157 180 0
167 190 0
168 189 0
166 189 0
160 183 0
170 188 0
157 180 0
161 182 0
161 183 0
165 188 0
161 184 0
165 186 0
167 188 0
168 191 0
160 183 0
167 189 0
171 191 0
167 189 0
161 181 0
164 188 0
163 185 0
155 177 0
172 194 0
163 184 0
164 188 0
168 188 0
165 189 0
168 189 0
167 188 0
165 189 0
168 191 0
166 189 0
149 171 0
163 185 0
168 192 0
170 191 0
165 187 0
168 191 0
169 193 0
153 175 0
166 188 0
171 194 0
169 192 0
165 186 0
179 201 125
176 199 120
181 204 108
184 206 125
181 204 95
178 200 80
178 202 114
175 199 95
174 198 62
175 198 88
179 201 88
182 205 108
176 199 95
169 192 114
177 201 120
177 200 80
171 195 95
172 195 88
170 193 88
184 207 125
168 191 95
177 199 95
174 197 108
171 195 36
169 192 51
170 194 114
175 197 80
169 191 95
172 195 102
171 193 88
172 195 80
178 200 88
175 198 108
177 201 102
177 200 102
173 196 95
170 194 108
169 192 114
170 194 102
175 198 80
174 197 102
168 190 72
163 186 108
161 184 80
164 188 72
174 197 80
170 193 102
171 194 62
164 187 95
169 192 51
162 185 108
166 189 88
171 194 95
172 196 80
174 196 80
177 199 88
175 198 108
166 189 88
172 194 95
169 192 108
162 186 80
151 174 80
162 184 72
162 184 80
171 193 95
163 186 80
170 193 88
167 190 102
166 188 88
167 190 80
176 198 108
158 180 62
158 181 80
159 180 102
169 192 102
164 186 88
162 186 72
171 192 108
170 191 102
161 183 114
153 175 102
161 183 102
163 184 72
168 190 80
169 190 95
164 186 80
167 188 102
166 188 108
166 186 88
161 182 88
160 181 62
177 198 135
176 197 102
170 191 108
165 187 95
149 170 51
161 182 108
168 188 114
163 182 108
160 180 114
171 191 108
159 178 95
156 177 102
147 166 95
163 185 95
155 175 102
155 175 88
158 179 80
154 175 80
152 172 102
148 168 72
164 183 95
153 176 36
147 167 80
156 177 80
151 173 51
160 180 72
160 183 0
151 172 36
142 162 0
142 162 0
148 168 51
151 171 36
143 164 36
134 155 0
143 164 0
139 160 51
122 141 0
141 164 0
145 165 36
148 169 51
148 169 0
150 171 0
153 176 0
151 173 0
144 166 0
155 177 0
136 157 0
144 164 0
138 159 0
124 145 0
125 146 0
121 141 0
132 152 0
120 140 0
127 148 0
120 139 0
122 141 0
132 151 0
115 136 0
131 152 0
132 153 0
110 130 0
125 143 0
120 141 0
131 152 0
134 153 0
127 147 0
136 156 0
119 139 0
115 135 0
141 161 0
116 135 0
127 145 0
117 138 0
127 146 0
125 144 0
122 141 0
118 137 0
126 144 0
125 144 0
120 137 0
113 132 0
117 137 0
96 114 0
117 136 0
115 133 0
129 147 0
128 146 0
120 139 0
119 136 0
122 142 0
122 139 0
125 143 0
117 135 0
96 113 0
120 136 0
132 150 0
117 135 0
101 119 0
124 143 0
128 146 0
110 127 0
108 126 0
110 129 0
117 135 0
121 138 0
94 112 0
122 139 0
103 121 0
103 120 0
117 132 0
130 147 0
110 127 0
128 145 0
99 117 0
104 122 0
106 123 0
125 144 0
127 145 0
107 125 0
105 122 0
126 144 0
134 153 0
126 145 0
120 138 0
120 138 0
129 147 0
117 134 0
101 117 0
135 152 0
115 135 0
135 155 0
126 146 0
118 135 0
108 125 0
132 151 0
119 138 0
126 146 0
110 126 0
121 140 0
101 118 0
114 133 0
113 132 0
125 145 0
131 149 0
123 141 0
123 141 0
142 163 0
112 133 0
113 132 0
137 156 0
115 132 0
142 160 0
127 145 0
118 136 0
118 138 0
134 150 0
111 132 0
119 140 0
128 149 0
123 143 0
115 135 0
128 146 0
142 161 0
128 146 0
132 151 0
141 161 0
131 151 0
145 166 0
132 153 0
136 155 0
130 151 0
124 143 0
133 153 0
136 155 0
134 154 0
129 150 0
146 168 0
138 159 0
144 164 0
144 165 0
142 160 0
137 157 0
143 164 0
132 152 0
138 157 0
145 165 0
136 157 0
139 160 0
147 168 0
154 176 0
144 166 0
150 173 0
139 160 0
140 161 0
148 169 0
146 168 0
146 168 0
150 171 0
157 180 0
155 177 0
145 167 0
144 167 0
144 166 0
134 155 0
148 169 0
151 171 0
140 161 0
144 165 0
157 178 0
150 171 0
145 166 0
157 179 0
156 177 0
152 174 0
140 161 0
146 166 0
147 167 0
154 174 0
147 170 0
153 174 0
157 177 0
157 178 0
142 162 0
164 185 0
156 177 0
160 182 0
152 175 0
149 170 0
145 166 0
163 185 0
159 180 0
160 181 0
159 179 0
161 183 0
156 177 0
150 173 0
158 181 0
159 180 0
157 179 0
168 188 0
152 173 0
166 189 0
165 188 0
154 174 0
162 183 0
161 183 0
146 168 0
162 183 0
155 176 0
165 186 0
154 176 0
165 188 0
157 178 0
156 177 0
165 187 0
155 176 0
161 184 0
158 180 0
169 190 0
159 182 0
165 187 0
164 184 0
162 183 0
156 177 0
163 185 0
154 177 0
159 181 0
153 177 0
163 184 0
164 186 0
162 184 0
166 188 0
155 174 0
161 183 0
172 195 0
163 186 0
166 189 0
164 184 0
155 176 0
171 193 0
157 179 0
165 188 0
155 175 0
161 184 0
162 183 0
171 192 0
167 189 0
170 192 0
159 181 0
171 193 0
169 191 0
167 189 0
166 188 0
168 190 0
161 183 0
163 183 0
162 184 0
164 186 0
166 188 0
165 186 0
167 190 0
167 190 0
161 182 0
164 186 0
166 189 0
166 188 0
163 185 0
175 196 0
175 198 114
174 197 80
175 198 95
175 198 62
179 202 80
181 203 114
173 196 102
178 202 88
176 198 80
179 202 95
175 199 88
171 194 95
179 201 125
176 200 108
173 196 120
173 196 88
176 198 80
175 198 51
170 193 62
169 193 88
173 197 114
177 200 95
173 197 72
178 200 95
177 200 95
177 199 114
172 195 102
170 193 95
171 194 95
171 195 114
175 198 108
164 187 88
174 197 120
172 196 102
180 203 120
168 191 72
165 187 72
171 194 88
168 192 88
172 196 108
173 195 114
163 186 88
167 190 80
173 195 102
173 195 114
167 190 72
164 187 88
174 197 125
165 188 95
175 198 120
163 185 95
167 190 80
170 193 120
164 188 88
175 197 114
160 184 102
171 194 95
167 190 72
166 190 88
173 195 102
166 190 88
168 192 108
166 188 108
157 180 80
162 185 95
162 184 62
164 187 108
162 183 114
171 194 102
174 195 102
165 188 72
164 186 102
155 177 80
175 197 102
175 197 108
168 190 51
170 192 125
166 189 88
172 196 114
162 183 114
156 177 80
164 184 88
157 179 108
152 174 88
170 190 108
163 184 62
170 190 108
172 193 80
166 187 95
147 169 108
155 175 102
175 195 95
161 181 88
169 190 102
171 191 125
165 185 108
158 178 88
157 177 114
154 175 95
167 187 108
163 184 95
160 180 120
153 173 80
156 176 72
145 165 51
165 185 88
160 180 80
145 166 51
158 179 88
150 169 62
151 171 62
148 168 72
148 168 51
161 181 51
143 164 36
145 167 51
148 168 36
164 186 36
151 172 36
153 175 36
133 154 0
136 155 36
131 152 0
146 166 36
141 161 0
150 170 0
136 157 0
126 146 0
146 166 36
144 165 36
146 168 0
156 181 0
150 171 0
144 165 0
145 167 0
155 177 0
140 161 0
137 158 0
147 169 0
133 154 0
134 154 0
113 132 0
138 158 0
124 145 0
127 146 0
119 139 0
129 149 0
108 126 0
151 172 0
132 153 0
121 140 0
131 150 0
142 163 0
133 154 0
133 153 0
117 137 0
127 148 0
144 163 0
132 152 0
132 152 0
143 162 0
114 136 0
140 160 0
132 151 0
109 128 0
102 121 0
106 124 0
150 170 0
132 150 0
129 147 0
132 150 0
111 129 0
124 144 0
119 138 0
118 135 0
121 137 0
116 134 0
113 132 0
115 133 0
118 135 0
107 125 0
122 141 0
121 139 0
94 111 0
108 125 0
127 146 0
117 134 0
131 150 0
92 110 0
119 137 0
104 122 0
114 132 0
117 133 0
126 144 0
110 129 0
105 122 0
124 143 0
113 131 0
122 140 0
103 122 0
112 130 0
118 137 0
108 124 0
139 157 0
119 137 0
106 124 0
110 129 0
126 143 0
118 136 0
109 128 0
108 127 0
120 139 0
119 139 0
108 125 0
124 141 0
138 155 0
120 138 0
138 156 0
133 151 0
115 132 0
116 134 0
115 135 0
103 122 0
132 151 0
123 141 0
116 134 0
136 155 0
142 161 0
131 152 0
133 152 0
122 140 0
133 152 0
121 140 0
126 144 0
111 131 0
113 131 0
142 161 0
130 150 0
124 143 0
124 142 0
128 148 0
126 144 0
131 150 0
121 141 0
112 132 0
123 144 0
143 163 0
134 151 0
127 146 0
135 156 0
117 136 0
136 157 0
144 166 0
120 141 0
139 158 0
135 156 0
146 167 0
132 154 0
132 149 0
143 160 0
129 149 0
153 173 0
124 145 0
137 157 0
130 151 0
143 161 0
142 162 0
136 157 0
145 165 0
139 158 0
154 176 0
121 140 0
145 165 0
135 156 0
147 169 0
156 176 0
133 156 0
131 152 0
146 165 0
129 149 0
157 178 0
136 155 0
139 162 0
138 159 0
152 174 0
153 175 0
146 167 0
154 177 0
144 165 0
141 162 0
149 171 0
150 173 0
150 170 0
141 162 0
149 170 0
151 171 0
149 168 0
148 169 0
155 176 0
156 177 0
133 153 0
152 172 0
155 178 0
149 169 0
156 178 0
151 173 0
155 178 0
152 175 0
144 163 0
149 170 0
147 168 0
156 177 0
151 172 0
150 172 0
150 170 0
157 177 0
160 182 0
158 179 0
154 176 0
149 172 0
159 180 0
143 163 0
151 173 0
154 177 0
159 182 0
162 183 0
161 183 0
155 177 0
166 185 0
143 164 0
168 190 0
161 183 0
155 177 0
163 185 0
160 181 0
146 167 0
154 175 0
162 184 0
151 173 0
163 182 0
162 183 0
158 180 0
161 181 0
160 181 0
157 180 0
157 178 0
166 189 0
171 193 0
166 187 0
165 187 0
163 182 0
174 196 0
172 194 0
166 186 0
164 186 0
161 184 0
166 190 0
162 183 0
161 181 0
166 185 0
168 188 0
160 183 0
170 190 0
168 190 0
159 181 0
159 182 0
160 184 0
167 189 0
167 188 0
156 178 0
167 189 0
167 190 0
170 192 0
165 188 0
164 185 0
166 186 0
155 177 0
166 188 0
173 195 0
162 184 0
170 193 0
169 190 0
163 186 0
169 190 0
165 186 0
171 194 0
166 188 0
166 187 0
161 181 0
166 188 0
168 188 0
170 191 0
170 193 0
173 195 0
163 184 0
155 176 0
171 193 0
174 197 0
167 189 0
169 192 0
184 206 88
174 197 72
177 200 114
174 197 72
179 201 80
174 198 88
177 199 125
174 199 88
178 201 80
174 197 114
169 192 108
175 197 88
169 193 88
172 194 72
171 195 95
176 199 72
168 192 88
175 198 80
167 190 102
166 188 80
176 198 80
170 193 80
173 196 88
172 195 114
171 194 88
178 201 108
172 195 88
167 190 72
166 187 51
164 188 88
171 195 62
169 192 102
171 193 88
165 188 62
163 187 88
162 185 51
177 200 108
168 191 114
177 199 80
172 195 108
169 191 72
174 196 88
169 192 95
175 198 108
171 195 114
164 188 80
169 192 88
173 198 125
173 196 80
174 197 95
174 196 88
163 186 114
174 197 114
169 192 80
176 199 114
174 196 108
172 194 108
166 189 88
162 184 72
160 184 88
168 190 108
165 188 88
174 197 108
165 189 114
156 179 80
161 184 108
171 191 80
170 193 88
172 194 120
165 186 102
162 185 114
168 191 102
169 191 88
164 186 72
171 194 114
156 179 62
163 184 72
168 190 120
173 194 114
166 189 95
165 186 88
168 191 88
165 188 88
163 184 88
170 192 95
160 182 62
171 192 108
164 187 108
164 186 108
154 175 88
167 188 108
167 189 80
161 181 95
157 178 80
163 184 108
169 189 102
157 178 80
160 180 114
147 167 95
166 186 102
161 181 102
164 184 62
159 179 114
171 190 72
164 184 88
160 179 102
158 180 95
159 179 102
155 176 72
161 181 95
152 172 80
159 177 102
152 173 36
150 170 62
150 172 0
147 169 36
152 173 62
150 172 0
152 174 51
138 159 0
145 167 0
146 166 0
148 169 51
136 156 51
160 180 51
153 175 0
147 169 0
143 164 0
138 159 0
145 166 36
142 162 0
153 174 0
145 168 0
150 171 0
151 172 0
157 178 0
139 161 0
149 171 0
142 164 0
149 169 0
142 162 0
139 161 0
122 144 0
138 158 0
132 152 0
134 154 0
130 151 0
129 149 0
132 152 0
131 152 0
125 147 0
130 150 0
137 157 0
125 145 0
146 163 0
129 149 0
120 141 0
107 128 0
133 155 0
130 148 0
134 154 0
117 137 0
119 138 0
133 151 0
122 143 0
138 156 0
135 155 0
131 149 0
108 129 0
130 150 0
117 136 0
117 136 0
121 140 0
117 136 0
115 134 0
114 133 0
124 145 0
126 145 0
130 148 0
120 139 0
117 136 0
125 144 0
124 143 0
132 151 0
122 141 0
135 154 0
117 136 0
103 122 0
113 133 0
114 133 0
111 130 0
114 134 0
127 145 0
103 122 0
128 147 0
112 132 0
106 125 0
101 119 0
110 126 0
125 141 0
99 118 0
114 134 0
124 142 0
104 122 0
112 130 0
121 140 0
121 138 0
91 110 0
118 137 0
121 139 0
104 124 0
127 146 0
116 135 0
126 145 0
102 119 0
117 136 0
132 151 0
120 139 0
103 122 0
117 135 0
113 131 0
120 139 0
115 134 0
125 145 0
117 135 0
114 134 0
113 133 0
143 163 0
125 146 0
125 143 0
114 134 0
133 153 0
129 148 0
136 157 0
128 147 0
113 132 0
114 132 0
139 157 0
133 153 0
140 158 0
116 136 0
126 144 0
138 156 0
134 154 0
129 149 0
131 150 0
142 163 0
128 147 0
140 159 0
138 159 0
118 136 0
132 152 0
129 148 0
145 166 0
144 164 0
114 134 0
144 164 0
144 165 0
126 144 0
136 155 0
135 153 0
131 150 0
128 147 0
144 165 0
141 161 0
137 157 0
145 167 0
142 164 0
123 144 0
144 163 0
131 152 0
143 162 0
146 167 0
142 162 0
147 169 0
140 159 0
152 173 0
148 170 0
145 166 0
146 167 0
150 172 0
145 166 0
144 164 0
151 172 0
158 179 0
147 168 0
147 170 0
153 174 0
141 162 0
154 174 0
157 180 0
140 162 0
160 181 0
155 173 0
152 175 0
157 178 0
160 182 0
146 168 0
146 169 0
159 181 0
169 192 0
155 178 0
155 177 0
155 176 0
150 172 0
151 174 0
151 171 0
143 166 0
145 166 0
153 174 0
150 170 0
153 176 0
155 176 0
154 175 0
163 186 0
151 173 0
162 181 0
157 180 0
152 174 0
151 173 0
167 189 0
139 159 0
160 182 0
148 167 0
146 167 0
165 188 0
159 180 0
156 177 0
155 177 0
165 187 0
157 178 0
157 181 0
155 177 0
152 171 0
169 193 0
153 174 0
157 179 0
162 183 0
163 185 0
165 187 0
153 171 0
153 174 0
163 185 0
161 183 0
145 163 0
157 180 0
160 182 0
161 181 0
158 181 0
174 197 0
161 182 0
162 184 0
166 188 0
166 188 0
163 186 0
164 185 0
159 181 0
162 185 0
158 179 0
154 175 0
166 189 0
159 179 0
166 186 0
156 177 0
171 194 0
173 195 0
162 183 0
169 192 0
160 182 0
162 184 0
170 191 0
167 190 0
167 188 0
165 188 0
163 186 0
170 192 0
169 192 0
154 175 0
165 187 0
159 180 0
160 183 0
169 191 0
169 192 0
164 187 0
160 181 0
173 195 0
163 183 0
163 186 0
164 187 0
162 184 0
166 187 0
165 188 0
166 188 0
164 188 0
160 183 0
169 191 0
167 187 0
174 197 0
171 194 0
169 190 0
173 196 106
180 202 102
176 199 51
176 198 80
183 206 120
175 197 102
183 205 120
176 199 95
174 197 120
174 197 95
170 193 88
178 201 114
177 200 95
166 190 62
174 198 80
179 201 108
175 198 102
177 200 125
178 201 102
172 195 95
175 198 102
171 194 108
178 201 108
169 192 88
173 196 102
179 202 80
173 197 102
178 201 120
169 192 62
165 188 88
171 194 108
170 195 88
169 193 102
172 194 114
168 192 80
162 186 80
171 194 88
167 190 102
171 194 80
170 193 88
173 196 102
169 193 80
171 194 120
172 195 80
174 198 102
179 201 102
166 188 80
178 202 135
170 193 114
172 192 72
168 192 88
168 192 88
168 192 88
169 193 108
160 183 88
176 198 120
173 196 95
173 196 108
171 193 88
172 194 102
173 196 108
161 183 72
175 198 130
170 192 108
151 174 88
170 190 95
170 193 80
159 180 72
164 185 102
168 190 95
170 191 51
168 190 102
170 191 95
162 185 95
169 192 125
153 175 95
169 191 102
159 181 80
162 183 80
155 178 88
156 177 102
169 190 102
162 184 114
162 182 88
155 176 51
151 171 88
163 184 72
159 181 108
175 197 102
164 184 114
170 192 102
160 180 80
160 181 102
161 181 95
159 179 80
161 182 95
158 180 80
158 177 80
155 175 88
163 184 80
163 182 102
152 172 80
153 173 62
162 184 88
154 175 102
162 181 125
162 182 108
152 171 72
159 179 72
150 171 80
163 183 88
153 172 102
156 177 62
149 171 36
142 163 36
161 182 62
155 176 36
162 182 0
148 169 0
142 163 36
138 160 0
144 164 36
150 172 0
141 161 51
157 179 0
140 162 36
132 153 0
150 172 0
141 161 0
133 153 36
162 183 36
145 166 0
150 170 0
141 165 0
131 153 0
147 169 0
127 149 0
151 172 0
149 170 0
147 166 0
138 159 0
124 143 0
140 160 0
145 167 0
135 154 0
125 146 0
130 149 0
135 153 0
127 147 0
118 137 0
141 161 0
138 159 0
129 148 0
131 152 0
136 156 0
133 153 0
114 134 0
129 148 0
134 152 0
130 151 0
111 132 0
147 166 0
140 160 0
137 155 0
135 154 0
121 141 0
132 152 0
133 153 0
125 144 0
114 135 0
135 153 0
141 161 0
130 149 0
125 144 0
118 137 0
130 150 0
134 154 0
106 124 0
130 150 0
130 148 0
130 148 0
113 132 0
115 133 0
132 151 0
125 144 0
122 141 0
112 130 0
121 139 0
123 142 0
119 138 0
115 132 0
112 131 0
116 135 0
117 136 0
121 141 0
117 136 0
122 141 0
123 140 0
107 127 0
135 155 0
116 132 0
131 147 0
128 147 0
117 136 0
112 131 0
121 140 0
130 148 0
121 140 0
122 139 0
114 132 0
82 101 0
130 150 0
116 134 0
129 148 0
123 142 0
106 125 0
133 151 0
122 139 0
102 121 0
140 159 0
125 143 0
107 124 0
124 142 0
124 144 0
130 147 0
125 144 0
122 142 0
132 151 0
129 148 0
117 136 0
126 146 0
128 147 0
131 151 0
116 136 0
138 159 0
150 170 0
128 147 0
127 147 0
126 147 0
137 158 0
122 140 0
123 142 0
122 141 0
118 137 0
119 140 0
137 157 0
128 148 0
134 154 0
133 153 0
137 156 0
125 146 0
129 148 0
138 157 0
118 137 0
137 157 0
133 154 0
132 152 0
127 148 0
133 152 0
138 159 0
144 164 0
135 155 0
133 153 0
155 173 0
132 154 0
148 168 0
144 165 0
147 166 0
139 162 0
143 165 0
138 157 0
142 163 0
140 161 0
147 168 0
143 165 0
150 171 0
135 157 0
146 168 0
160 180 0
143 165 0
134 155 0
140 162 0
164 184 0
139 162 0
145 167 0
147 168 0
146 168 0
131 152 0
135 154 0
142 163 0
153 174 0
150 170 0
154 177 0
143 164 0
140 162 0
163 184 0
143 166 0
153 173 0
151 173 0
167 190 0
151 173 0
145 165 0
159 180 0
152 175 0
144 164 0
141 162 0
149 171 0
159 181 0
156 176 0
155 176 0
162 185 0
146 168 0
157 179 0
154 174 0
158 181 0
168 190 0
160 182 0
149 170 0
161 182 0
161 182 0
154 177 0
159 181 0
147 169 0
158 181 0
159 180 0
155 175 0
162 184 0
162 182 0
159 181 0
159 180 0
164 187 0
155 176 0
161 184 0
166 187 0
153 176 0
159 181 0
160 182 0
164 186 0
161 184 0
152 174 0
152 174 0
153 175 0
154 176 0
162 182 0
158 178 0
160 184 0
161 181 0
167 189 0
164 184 0
160 181 0
151 172 0
165 184 0
155 176 0
161 183 0
174 197 0
164 186 0
161 185 0
160 183 0
157 180 0
163 184 0
168 191 0
169 190 0
162 184 0
161 183 0
166 187 0
165 187 0
163 187 0
161 183 0
157 179 0
163 184 0
168 190 0
165 188 0
166 187 0
167 191 0
167 190 0
172 193 0
169 190 0
162 185 0
167 189 0
161 183 0
154 177 0
165 187 0
163 186 0
168 190 0
163 184 0
169 192 0
172 194 0
172 192 0
161 185 0
163 183 0
168 191 0
167 191 0
172 193 0
165 186 0
159 181 0
164 187 0
163 184 0
171 193 0
170 193 0
168 190 0
166 189 62
173 196 88
180 204 114
170 193 95
176 199 80
175 197 102
181 204 108
176 199 95
177 200 72
179 203 95
177 200 88
176 199 102
179 203 120
171 193 108
176 199 72
175 198 88
176 200 125
172 195 88
164 186 102
174 196 102
177 201 130
169 192 111
176 199 102
172 196 125
176 199 114
168 191 80
164 187 88
162 185 62
172 196 120
174 197 114
176 199 120
171 195 120
175 198 72
170 193 95
170 193 102
170 191 95
180 203 114
168 192 88
174 197 88
169 193 108
176 200 102
172 196 72
171 195 102
174 198 88
173 196 125
168 191 88
176 198 95
167 189 88
171 195 108
159 182 62
173 196 95
165 188 102
161 184 36
159 181 80
169 191 88
169 192 120
166 189 102
158 181 88
170 192 108
165 188 95
174 196 102
164 186 80
161 185 95
166 188 95
171 193 108
166 189 95
164 186 80
176 199 114
167 188 95
177 199 135
166 187 72
162 183 80
167 191 120
158 180 80
172 195 114
161 183 108
170 192 72
176 197 88
164 186 72
169 191 95
169 190 114
164 186 102
166 188 102
160 182 88
169 190 114
164 187 95
165 187 114
169 191 88
165 186 88
163 184 95
166 187 120
156 177 102
160 181 120
166 187 88
168 189 102
163 183 72
164 183 108
160 180 88
166 186 108
159 181 72
166 188 80
150 171 88
157 178 95
176 196 108
165 186 72
159 179 95
157 177 51
160 181 72
148 171 62
145 166 0
177 196 102
159 179 72
144 165 62
164 188 0
159 180 51
138 160 36
154 176 0
153 175 0
141 163 0
151 172 0
147 168 36
144 165 0
158 179 36
143 163 51
154 174 72
146 167 36
141 163 0
143 163 0
118 140 0
165 185 51
149 171 0
149 172 0
157 179 0
147 169 0
152 174 0
137 158 0
152 175 0
135 156 0
143 165 0
153 174 0
146 167 0
139 161 0
136 156 0
117 137 0
136 157 0
127 147 0
138 159 0
142 163 0
146 167 0
130 150 0
131 150 0
142 161 0
138 157 0
131 151 0
131 151 0
117 135 0
138 157 0
140 160 0
125 145 0
138 159 0
143 163 0
117 136 0
125 145 0
143 163 0
116 134 0
119 138 0
121 139 0
126 146 0
119 137 0
129 149 0
146 166 0
115 134 0
141 162 0
144 166 0
115 135 0
120 139 0
130 150 0
141 161 0
123 142 0
118 139 0
121 140 0
100 120 0
109 128 0
122 140 0
121 140 0
146 164 0
105 124 0
114 132 0
141 159 0
126 144 0
121 140 0
118 137 0
125 145 0
121 141 0
112 131 0
110 129 0
118 137 0
109 127 0
115 134 0
114 132 0
124 143 0
121 142 0
115 134 0
126 145 0
110 130 0
138 158 0
100 119 0
115 134 0
132 152 0
124 143 0
118 137 0
99 116 0
133 152 0
123 143 0
116 135 0
110 128 0
128 146 0
117 138 0
123 141 0
114 133 0
133 152 0
144 163 0
122 143 0
146 164 0
128 148 0
138 157 0
113 132 0
124 144 0
153 173 0
138 157 0
136 154 0
123 143 0
122 142 0
126 145 0
145 166 0
137 158 0
123 145 0
134 154 0
133 151 0
139 159 0
128 147 0
145 164 0
124 145 0
139 161 0
119 137 0
129 150 0
133 155 0
131 150 0
126 146 0
136 155 0
137 156 0
138 159 0
131 151 0
151 171 0
143 163 0
141 163 0
141 163 0
139 161 0
132 153 0
138 159 0
127 147 0
129 146 0
154 175 0
138 159 0
142 164 0
140 162 0
135 158 0
148 171 0
145 167 0
155 176 0
140 160 0
140 161 0
131 151 0
137 156 0
145 166 0
147 169 0
156 178 0
148 167 0
150 171 0
134 155 0
135 156 0
149 168 0
143 162 0
149 170 0
158 180 0
160 182 0
152 176 0
153 175 0
152 173 0
137 158 0
127 148 0
154 175 0
144 164 0
156 177 0
150 172 0
146 167 0
145 167 0
149 170 0
158 181 0
138 160 0
162 184 0
159 182 0
153 173 0
160 181 0
167 189 0
159 179 0
164 184 0
152 174 0
155 177 0
153 174 0
159 179 0
152 174 0
161 183 0
158 179 0
158 181 0
153 175 0
162 182 0
146 168 0
151 174 0
158 181 0
154 176 0
153 176 0
161 184 0
160 182 0
156 177 0
164 186 0
154 175 0
152 174 0
161 184 0
165 188 0
153 177 0
157 178 0
160 182 0
164 185 0
160 183 0
153 175 0
159 180 0
154 174 0
165 187 0
155 178 0
166 187 0
157 178 0
157 179 0
165 188 0
163 184 0
156 179 0
165 186 0
168 190 0
161 185 0
149 170 0
164 186 0
155 176 0
167 191 0
163 185 0
168 190 0
162 182 0
168 191 0
159 180 0
163 185 0
154 174 0
163 186 0
155 175 0
166 186 0
166 189 0
167 191 0
162 187 0
164 186 0
165 185 0
164 185 0
154 177 0
163 186 0
161 185 0
167 190 0
170 192 0
167 189 0
164 188 0
169 191 0
166 189 0
168 190 0
164 185 0
166 189 0
162 183 0
165 187 0
165 187 0
167 189 0
170 191 0
164 187 0
168 190 0
162 181 0
169 192 0
166 189 0
166 189 0
165 188 0
172 194 0
171 194 0
168 190 0
166 188 0
167 187 0
167 187 0
170 191 0
182 205 114
168 192 82
176 199 80
172 195 72
172 195 95
177 199 114
177 200 80
175 197 95
176 199 102
173 197 88
174 198 102
172 196 102
178 201 108
173 196 102
168 192 102
176 199 114
176 200 114
176 200 108
172 194 80
171 193 88
176 197 95
172 197 95
178 200 120
169 192 80
170 193 95
178 202 108
177 200 102
175 198 84
165 189 88
174 197 108
182 205 120
166 190 95
165 188 108
177 200 88
176 198 114
159 182 72
167 191 108
179 203 130
155 177 51
173 196 130
166 190 88
177 200 88
163 187 72
174 198 114
175 198 80
169 191 72
170 193 102
169 190 88
171 194 95
166 189 88
166 189 62
173 194 95
165 187 88
173 196 108
170 195 114
169 191 72
168 191 95
160 182 51
163 186 80
174 196 108
162 186 72
170 193 102
175 198 88
174 197 125
174 196 88
165 188 80
172 195 120
173 197 120
166 188 108
162 185 102
163 184 72
163 185 95
169 190 102
166 187 95
172 193 108
182 204 108
176 197 72
152 174 108
175 195 130
169 191 125
163 185 114
162 184 62
160 181 108
173 197 108
176 198 102
159 180 80
173 195 88
159 181 102
166 187 114
162 183 102
171 192 102
161 182 95
165 186 120
161 182 62
176 197 114
158 178 102
167 188 95
154 173 95
164 185 102
158 178 108
146 169 62
168 190 72
167 188 95
165 185 95
169 188 120
157 178 108
160 181 95
164 185 80
160 180 95
164 186 72
151 172 51
167 188 72
164 185 36
141 162 36
157 178 36
155 177 62
128 150 36
147 169 36
159 182 62
138 158 0
154 175 0
147 167 0
125 146 36
147 169 0
146 168 0
149 168 62
142 163 0
159 181 0
155 177 36
152 175 0
154 176 0
155 180 0
156 179 0
141 163 0
148 170 0
150 172 0
140 160 0
146 169 0
142 163 0
133 154 0
146 165 0
120 141 0
141 162 0
130 149 0
137 157 0
150 170 0
138 158 0
141 161 0
132 153 0
129 148 0
137 157 0
139 159 0
142 162 0
123 143 0
122 141 0
148 169 0
133 153 0
113 133 0
127 148 0
129 148 0
122 141 0
119 140 0
130 150 0
133 155 0
120 140 0
121 140 0
124 141 0
132 152 0
147 167 0
125 146 0
139 159 0
144 162 0
123 144 0
137 156 0
128 147 0
131 151 0
136 156 0
140 160 0
115 134 0
123 141 0
114 132 0
112 131 0
134 154 0
124 142 0
126 143 0
107 124 0
114 132 0
115 132 0
106 124 0
123 142 0
126 146 0
134 153 0
113 132 0
125 143 0
132 151 0
122 142 0
118 136 0
118 138 0
132 150 0
118 137 0
112 130 0
132 152 0
131 149 0
111 129 0
108 128 0
132 150 0
126 146 0
120 138 0
119 137 0
131 149 0
110 128 0
119 138 0
122 141 0
119 139 0
116 136 0
110 129 0
141 161 0
108 126 0
127 145 0
116 134 0
132 151 0
132 152 0
131 150 0
130 149 0
130 150 0
124 143 0
100 119 0
136 154 0
125 144 0
119 138 0
133 153 0
131 150 0
133 154 0
116 136 0
126 146 0
147 167 0
132 152 0
133 152 0
147 167 0
143 162 0
118 139 0
125 142 0
117 137 0
134 155 0
131 150 0
141 162 0
122 142 0
147 169 0
124 144 0
142 162 0
124 142 0
134 155 0
137 157 0
134 157 0
135 156 0
139 161 0
145 166 0
139 160 0
126 145 0
133 153 0
137 155 0
130 152 0
140 162 0
154 173 0
125 146 0
145 167 0
132 154 0
131 152 0
150 170 0
145 165 0
141 161 0
143 163 0
144 164 0
143 166 0
149 169 0
138 159 0
132 151 0
150 172 0
135 156 0
145 166 0
140 161 0
147 168 0
156 176 0
150 172 0
140 162 0
149 170 0
153 175 0
154 174 0
148 168 0
148 169 0
143 163 0
149 171 0
154 176 0
151 175 0
129 149 0
146 167 0
157 178 0
148 170 0
146 167 0
141 162 0
143 164 0
150 172 0
163 184 0
168 189 0
150 172 0
148 169 0
153 176 0
160 181 0
152 173 0
154 176 0
144 165 0
155 176 0
150 169 0
147 168 0
161 183 0
151 173 0
151 171 0
166 188 0
168 190 0
153 174 0
150 172 0
154 177 0
160 181 0
154 172 0
151 173 0
163 187 0
155 178 0
156 180 0
157 178 0
161 182 0
149 172 0
152 175 0
157 178 0
160 183 0
161 182 0
166 189 0
159 182 0
162 186 0
147 168 0
160 182 0
159 183 0
159 182 0
171 192 0
158 180 0
167 187 0
151 173 0
168 191 0
165 186 0
159 181 0
156 178 0
160 181 0
166 188 0
168 190 0
167 188 0
161 182 0
160 180 0
162 185 0
156 178 0
159 182 0
167 188 0
166 188 0
163 185 0
158 182 0
164 185 0
164 188 0
170 193 0
169 191 0
163 184 0
170 193 0
169 188 0
158 181 0
165 188 0
167 189 0
161 184 0
170 193 0
164 187 0
168 190 0
167 189 0
172 194 0
162 185 0
162 184 0
163 184 0
160 184 0
161 183 0
168 190 0
165 186 0
160 182 0
171 193 0
165 188 0
167 189 0
173 195 0
169 191 0
176 198 0
167 188 0
173 193 0
163 186 0
172 195 0
163 186 0
165 188 0
170 191 0
179 202 99
178 200 80
178 201 92
174 197 88
175 199 95
168 190 72
175 198 95
175 198 95
169 192 102
176 199 120
172 194 95
172 196 102
178 200 102
170 194 80
178 201 95
174 198 88
178 201 102
174 196 80
166 190 72
174 198 62
165 189 62
179 203 125
171 193 88
174 198 80
172 196 88
168 192 95
174 197 88
174 198 125
177 199 80
175 199 102
172 195 108
177 200 120
168 192 95
173 196 95
171 194 102
173 196 120
173 196 95
172 196 88
168 191 88
177 201 88
169 192 102
172 196 102
174 196 88
175 198 120
172 195 88
167 189 95
172 195 95
172 195 95
171 195 120
174 197 108
169 191 95
169 192 102
168 193 120
165 187 80
166 189 72
168 191 72
167 190 95
160 183 62
170 192 51
163 186 95
165 188 72
169 190 88
171 194 62
178 199 102
160 182 51
160 182 51
171 193 95
166 188 102
165 187 95
160 181 95
166 189 95
166 188 108
175 198 120
172 193 102
170 192 120
173 194 114
159 180 114
165 188 108
168 190 88
153 174 80
155 177 80
165 185 72
164 186 95
170 192 108
163 184 88
177 198 102
164 185 72
165 186 102
168 192 80
152 173 88
160 180 80
168 191 130
174 195 120
159 179 108
161 181 95
158 178 102
152 174 72
160 181 108
163 184 80
159 180 72
145 166 51
164 185 80
164 186 62
151 171 72
165 187 88
156 177 102
161 181 72
161 181 120
160 180 95
153 174 51
151 172 51
154 174 95
149 170 36
160 181 51
157 177 51
154 176 36
150 173 36
154 175 0
153 174 0
153 174 36
153 174 36
147 169 0
159 180 0
148 171 51
131 154 0
146 168 51
151 173 0
142 164 0
152 174 0
150 171 0
153 175 0
155 177 0
147 170 0
146 168 0
131 151 0
145 167 0
143 165 0
150 173 0
142 163 0
146 167 0
138 159 0
145 166 0
141 162 0
129 149 0
131 151 0
133 153 0
145 164 0
135 156 0
127 147 0
137 158 0
134 155 0
136 158 0
142 162 0
121 142 0
137 157 0
128 147 0
146 165 0
125 144 0
136 156 0
125 146 0
134 153 0
123 144 0
130 150 0
121 140 0
126 145 0
142 162 0
122 142 0
111 132 0
147 166 0
124 144 0
126 146 0
129 148 0
123 142 0
128 149 0
134 154 0
131 152 0
130 148 0
121 140 0
130 149 0
128 149 0
137 157 0
132 151 0
133 152 0
123 141 0
128 148 0
132 152 0
129 148 0
126 145 0
127 146 0
114 132 0
130 150 0
120 140 0
114 131 0
128 148 0
109 127 0
123 142 0
131 151 0
119 139 0
138 158 0
126 145 0
124 145 0
132 151 0
108 127 0
115 134 0
111 130 0
128 148 0
128 148 0
146 165 0
130 149 0
115 132 0
118 138 0
107 126 0
124 143 0
131 149 0
134 152 0
134 154 0
117 136 0
115 135 0
124 142 0
129 148 0
129 149 0
139 157 0
121 140 0
122 140 0
126 146 0
127 145 0
114 133 0
125 146 0
135 154 0
135 154 0
124 143 0
135 155 0
118 137 0
129 149 0
121 141 0
153 173 0
132 153 0
131 151 0
130 151 0
128 146 0
141 162 0
146 167 0
134 154 0
117 137 0
138 157 0
140 160 0
114 136 0
135 158 0
127 147 0
120 140 0
142 163 0
137 157 0
130 148 0
133 154 0
139 160 0
148 170 0
135 155 0
147 168 0
129 149 0
129 149 0
131 151 0
139 160 0
144 165 0
135 154 0
134 155 0
128 150 0
135 156 0
142 164 0
163 183 0
142 165 0
145 166 0
144 164 0
149 169 0
133 156 0
143 164 0
151 172 0
140 162 0
150 170 0
147 170 0
138 159 0
139 161 0
153 177 0
142 163 0
158 180 0
147 167 0
133 154 0
141 163 0
143 163 0
144 165 0
146 166 0
148 169 0
136 158 0
151 174 0
149 173 0
156 178 0
151 173 0
148 169 0
132 151 0
144 165 0
148 169 0
152 173 0
149 171 0
159 181 0
141 163 0
148 169 0
152 173 0
149 169 0
151 174 0
166 188 0
150 171 0
163 185 0
152 173 0
147 168 0
159 180 0
159 179 0
161 182 0
156 178 0
154 176 0
155 179 0
167 187 0
158 180 0
154 178 0
149 171 0
158 181 0
151 174 0
158 181 0
155 177 0
165 188 0
156 177 0
153 173 0
167 189 0
164 186 0
165 185 0
156 175 0
161 182 0
169 191 0
164 188 0
160 182 0
159 179 0
158 182 0
153 175 0
159 182 0
160 182 0
165 188 0
161 182 0
165 187 0
163 186 0
155 176 0
168 191 0
160 182 0
160 183 0
159 181 0
160 182 0
154 175 0
164 187 0
159 181 0
166 188 0
163 185 0
166 187 0
168 190 0
163 185 0
167 191 0
165 188 0
167 189 0
165 187 0
167 189 0
164 186 0
162 183 0
160 182 0
160 181 0
164 187 0
163 185 0
167 191 0
162 185 0
170 192 0
152 176 0
160 183 0
167 188 0
157 180 0
164 185 0
166 188 0
166 187 0
170 191 0
163 186 0
164 185 0
175 197 0
168 190 0
158 180 0
165 186 0
165 187 0
164 187 0
161 182 0
166 187 0
166 188 0
162 185 0
163 186 0
161 183 0
165 188 0
173 195 0
152 175 0
174 197 51
176 198 95
173 196 107
171 193 91
169 193 120
178 200 95
179 202 130
181 205 120
174 197 95
178 201 95
179 202 102
177 200 108
171 194 102
178 201 95
172 195 102
173 197 95
172 196 72
178 200 108
166 189 95
173 196 84
183 206 114
178 201 114
179 201 108
171 194 120
171 194 72
177 201 102
175 199 72
172 194 88
176 199 108
177 199 95
179 203 120
166 189 72
168 191 108
173 195 88
168 191 51
182 204 130
174 196 88
169 192 72
179 202 95
165 187 95
171 195 120
172 195 88
173 197 108
166 190 80
171 193 95
175 197 120
174 196 88
175 197 130
156 178 95
166 189 88
175 198 72
170 193 108
172 195 102
163 186 88
166 190 125
171 196 95
163 186 62
171 193 72
169 191 88
171 193 95
172 193 80
155 179 72
169 190 95
166 187 88
169 192 102
176 199 108
156 180 88
167 190 88
164 185 95
177 199 80
167 189 88
167 189 95
176 198 125
169 191 95
155 176 88
173 193 95
168 189 95
154 175 102
164 185 108
168 189 120
160 181 88
172 194 120
164 186 108
161 182 114
157 178 80
166 188 80
174 195 102
166 187 95
160 181 88
171 191 80
169 190 108
158 179 108
150 170 102
181 202 108
155 177 95
153 173 72
164 185 102
152 172 80
165 185 95
169 190 102
171 193 88
157 179 51
167 188 72
170 191 130
156 178 88
143 164 62
154 173 95
161 182 72
152 173 62
153 174 72
153 176 62
153 175 62
141 164 51
163 185 51
149 170 36
162 183 62
148 169 36
149 171 36
149 170 36
146 167 0
145 165 36
138 158 36
144 166 0
143 163 36
140 162 36
146 167 0
145 165 0
142 163 0
145 166 0
142 165 0
163 184 0
146 169 0
161 184 0
154 176 0
149 171 0
140 161 0
136 158 0
141 163 0
151 172 0
140 161 0
143 164 0
141 163 0
148 170 0
134 155 0
140 160 0
132 152 0
141 163 0
132 154 0
143 165 0
146 165 0
144 165 0
146 166 0
140 161 0
141 162 0
150 171 0
136 156 0
136 155 0
133 154 0
132 151 0
144 163 0
141 161 0
119 139 0
142 161 0
145 164 0
130 150 0
137 156 0
131 151 0
126 146 0
117 137 0
120 141 0
123 142 0
133 153 0
130 148 0
140 161 0
131 149 0
134 153 0
136 155 0
130 150 0
123 143 0
120 139 0
104 124 0
128 147 0
124 143 0
129 148 0
130 151 0
121 141 0
128 148 0
111 130 0
113 132 0
142 162 0
125 143 0
128 147 0
130 148 0
135 153 0
112 131 0
112 131 0
116 134 0
112 130 0
126 146 0
128 147 0
129 148 0
106 125 0
112 132 0
141 160 0
130 151 0
109 128 0
106 126 0
98 117 0
118 137 0
121 140 0
111 131 0
140 160 0
104 124 0
128 148 0
132 151 0
120 139 0
123 141 0
120 139 0
111 128 0
130 149 0
139 158 0
122 142 0
108 127 0
148 167 0
130 150 0
132 151 0
108 128 0
136 156 0
122 141 0
138 157 0
141 161 0
124 143 0
113 133 0
139 159 0
124 144 0
130 150 0
129 148 0
140 159 0
139 160 0
130 151 0
141 161 0
148 168 0
134 154 0
146 167 0
110 130 0
139 160 0
125 146 0
128 147 0
145 166 0
136 156 0
147 167 0
131 151 0
131 153 0
147 167 0
153 174 0
140 160 0
142 163 0
128 147 0
129 148 0
135 157 0
134 154 0
140 162 0
142 162 0
132 153 0
153 174 0
149 169 0
134 155 0
148 170 0
136 156 0
144 165 0
152 175 0
137 158 0
138 156 0
133 153 0
132 152 0
142 162 0
150 171 0
161 181 0
150 172 0
146 169 0
147 168 0
144 165 0
154 175 0
157 178 0
146 166 0
147 169 0
147 168 0
140 162 0
159 179 0
150 172 0
151 175 0
148 169 0
144 165 0
153 174 0
159 179 0
151 174 0
156 175 0
147 169 0
156 177 0
154 174 0
153 175 0
154 175 0
161 182 0
148 169 0
154 175 0
143 166 0
158 181 0
160 181 0
160 181 0
158 180 0
153 175 0
154 177 0
163 185 0
148 169 0
154 174 0
150 174 0
160 181 0
159 181 0
156 176 0
161 181 0
157 179 0
147 169 0
157 181 0
149 171 0
158 179 0
154 176 0
149 171 0
161 183 0
156 179 0
165 188 0
148 169 0
163 187 0
168 189 0
163 185 0
160 183 0
149 172 0
153 174 0
158 182 0
162 185 0
161 184 0
162 184 0
162 183 0
164 187 0
159 180 0
164 187 0
161 183 0
155 178 0
163 186 0
165 188 0
161 182 0
168 190 0
162 183 0
166 189 0
163 185 0
165 187 0
167 190 0
161 182 0
155 176 0
163 185 0
158 180 0
168 189 0
165 187 0
169 191 0
161 183 0
170 191 0
166 189 0
171 193 0
166 188 0
169 188 0
165 188 0
161 183 0
164 187 0
163 186 0
163 184 0
159 180 0
165 187 0
171 192 0
168 188 0
165 188 0
171 193 0
173 194 0
158 180 0
166 188 0
171 195 0
171 193 0
167 190 0
167 189 0
164 186 0
169 192 0
166 189 0
172 194 0
171 194 0
167 191 0
167 189 0
162 185 0
170 191 0
171 195 0
170 192 0
170 192 0
168 191 0
181 203 120
175 198 102
174 197 88
166 189 62
188 209 125
177 200 88
173 197 114
177 200 95
177 200 80
172 195 102
180 202 95
176 200 72
179 203 108
176 199 102
169 192 62
177 200 102
170 192 72
181 203 80
179 202 108
177 200 108
170 193 108
176 199 51
171 195 95
169 192 88
178 202 114
171 193 88
174 198 120
170 193 102
167 189 95
172 195 80
178 201 102
177 200 95
178 202 108
176 200 114
171 194 125
175 198 108
166 190 102
170 193 72
175 198 114
169 192 88
175 196 108
168 191 102
172 194 72
172 194 95
170 193 95
166 190 108
168 191 95
172 195 88
171 193 102
165 187 88
167 189 72
162 184 88
171 194 120
159 181 36
166 188 88
161 184 72
157 181 102
172 195 108
167 190 80
172 194 108
158 180 80
160 182 88
168 191 95
172 195 80
170 193 114
172 193 114
173 196 114
168 191 95
169 191 95
169 190 95
169 191 88
168 188 114
168 188 114
158 178 72
162 184 80
171 193 102
162 184 72
149 172 80
166 189 108
161 182 108
164 186 95
162 183 80
165 186 95
172 194 114
156 178 80
166 188 72
165 186 120
155 178 88
165 185 102
156 179 80
180 201 135
174 195 114
156 178 95
167 188 120
169 190 95
155 178 95
163 183 95
171 192 108
157 177 51
157 179 72
154 175 95
156 177 80
155 176 36
158 177 102
157 179 80
155 175 62
157 177 95
156 177 88
160 183 36
163 183 88
149 170 51
154 174 51
157 178 62
158 179 62
160 182 51
155 177 62
161 183 51
159 182 36
152 173 51
150 173 0
141 162 36
144 164 36
146 168 0
142 163 0
146 169 36
155 177 0
137 158 0
143 165 36
143 166 0
159 181 0
152 174 0
156 179 0
153 174 0
148 169 0
154 176 0
147 170 0
145 166 0
154 176 0
140 163 0
129 151 0
149 171 0
144 164 0
124 147 0
141 162 0
130 151 0
137 157 0
130 150 0
149 171 0
136 156 0
147 167 0
136 156 0
134 154 0
132 151 0
136 158 0
130 151 0
142 162 0
145 164 0
126 145 0
132 153 0
140 159 0
123 142 0
126 146 0
127 145 0
135 155 0
133 153 0
138 158 0
141 161 0
148 167 0
131 152 0
135 156 0
124 142 0
127 147 0
118 136 0
132 150 0
141 162 0
117 136 0
119 139 0
139 160 0
134 154 0
113 132 0
145 164 0
137 156 0
129 148 0
129 148 0
115 136 0
110 129 0
134 153 0
130 149 0
125 145 0
124 144 0
125 144 0
107 127 0
126 145 0
134 154 0
126 147 0
130 150 0
118 138 0
117 134 0
138 157 0
124 144 0
117 137 0
115 135 0
142 161 0
137 155 0
152 170 0
124 144 0
130 148 0
130 151 0
123 143 0
129 148 0
118 138 0
135 154 0
129 149 0
127 147 0
118 136 0
127 147 0
120 139 0
132 150 0
136 156 0
135 155 0
146 166 0
143 163 0
131 151 0
122 142 0
139 159 0
119 139 0
128 147 0
141 160 0
133 153 0
123 142 0
133 152 0
139 157 0
147 167 0
128 149 0
111 131 0
138 158 0
123 141 0
139 160 0
118 138 0
129 150 0
134 155 0
136 155 0
144 164 0
140 161 0
127 147 0
129 148 0
136 157 0
140 159 0
141 162 0
122 143 0
141 163 0
138 160 0
141 162 0
143 163 0
142 164 0
142 163 0
142 162 0
144 166 0
146 167 0
132 153 0
139 161 0
139 159 0
151 172 0
147 168 0
134 154 0
149 172 0
137 159 0
128 149 0
153 173 0
139 159 0
147 167 0
142 164 0
148 171 0
150 171 0
144 166 0
140 162 0
141 164 0
153 175 0
149 172 0
139 162 0
144 165 0
146 169 0
160 180 0
151 174 0
154 178 0
135 157 0
153 175 0
150 174 0
151 173 0
153 174 0
159 180 0
149 169 0
156 177 0
148 167 0
150 172 0
152 171 0
144 165 0
162 183 0
148 168 0
159 181 0
158 180 0
152 174 0
161 184 0
149 170 0
165 184 0
150 172 0
156 177 0
159 181 0
143 163 0
146 168 0
154 175 0
163 184 0
155 179 0
151 174 0
154 174 0
152 174 0
160 181 0
147 168 0
153 174 0
156 179 0
159 181 0
160 182 0
155 176 0
165 188 0
158 180 0
156 177 0
164 185 0
163 186 0
154 174 0
161 184 0
167 189 0
161 182 0
166 186 0
159 181 0
156 179 0
155 178 0
157 178 0
166 189 0
162 183 0
146 167 0
166 190 0
160 183 0
158 180 0
162 184 0
160 183 0
165 186 0
168 189 0
165 188 0
164 187 0
156 176 0
161 183 0
168 190 0
163 185 0
166 188 0
162 184 0
168 191 0
156 180 0
156 177 0
167 190 0
170 194 0
169 191 0
161 184 0
169 192 0
169 191 0
172 192 0
169 191 0
160 181 0
164 186 0
168 191 0
161 183 0
166 187 0
159 180 0
163 185 0
162 184 0
165 187 0
169 191 0
165 187 0
162 184 0
162 184 0
171 195 0
166 188 0
176 198 0
162 183 0
167 189 0
159 179 0
163 187 0
168 192 0
167 190 0
164 185 0
167 190 0
165 188 0
171 194 0
167 188 0
164 187 0
159 181 0
174 197 0
168 192 0
174 196 0
170 192 0
175 196 0
