P3
400 225
255
157 179 0
159 180 0
150 171 0
166 187 0
154 175 0
164 184 0
157 178 0
157 178 0
162 182 0
158 178 0
161 183 0
152 174 0
157 177 0
156 177 0
161 182 0
160 181 0
151 173 0
152 173 0
150 171 0
154 175 0
161 180 0
156 177 0
157 177 0
153 173 0
160 181 0
161 181 0
159 179 0
157 178 0
157 179 0
156 176 0
156 177 0
161 182 0
157 178 0
155 176 0
158 179 0
155 176 0
159 180 0
152 172 0
160 182 0
152 172 0
150 171 0
153 173 0
161 182 0
155 175 0
160 180 0
155 176 0
159 180 0
158 180 0
152 173 0
150 171 0
152 172 0
158 179 0
157 177 0
151 173 0
156 177 0
158 180 0
157 177 0
148 169 0
152 171 0
156 177 0
155 176 0
154 175 0
161 181 0
155 175 0
156 177 0
159 178 0
157 178 0
158 179 0
157 177 0
158 178 0
157 178 0
154 175 0
152 172 0
159 179 0
149 170 0
167 187 0
152 173 0
156 176 0
158 179 0
152 173 0
156 176 0
153 174 0
163 184 0
156 176 0
153 175 0
159 180 0
152 172 0
157 177 0
158 179 0
154 174 0
156 177 0
159 180 0
158 179 0
158 180 0
156 177 0
158 178 0
156 176 0
162 182 0
151 171 0
156 177 0
156 176 0
151 171 0
153 173 0
154 175 0
156 176 0
155 175 0
152 171 0
151 172 0
160 180 0
151 173 0
153 174 0
159 179 0
154 176 0
162 182 0
161 181 0
152 172 0
157 177 0
157 177 0
154 174 0
150 170 0
154 174 0
149 170 0
153 174 0
154 174 0
154 175 0
160 181 0
157 177 0
153 173 0
159 179 0
158 179 0
159 180 0
156 176 0
155 176 0
156 177 0
159 178 0
158 179 0
159 178 0
150 171 0
158 178 0
152 172 0
154 175 0
154 174 0
150 170 0
156 177 0
154 174 0
155 175 0
149 170 0
153 174 0
151 172 0
155 175 0
151 171 0
165 184 0
153 173 0
154 176 0
162 183 0
156 176 0
152 173 0
156 176 0
152 173 0
157 178 0
157 177 0
148 169 0
154 174 0
156 178 0
157 178 0
152 172 0
160 182 0
154 173 0
159 180 0
150 170 0
149 168 0
159 180 0
154 175 0
152 173 0
147 168 0
156 176 0
150 171 0
153 174 0
153 173 0
158 179 0
157 177 0
153 174 0
157 178 0
156 176 0
154 175 0
162 182 0
154 174 0
154 175 0
150 170 0
153 172 0
152 172 0
153 175 0
158 179 0
154 174 0
152 174 0
156 176 0
158 177 0
155 177 0
163 183 0
153 173 0
158 177 0
155 176 0
163 185 0
160 181 0
150 171 0
156 178 0
154 175 0
158 179 0
154 175 0
157 178 0
155 176 0
150 170 0
152 171 0
152 173 0
160 178 0
151 172 0
160 181 0
153 173 0
154 174 0
154 175 0
150 170 0
155 174 0
153 172 0
153 174 0
153 174 0
158 178 0
158 178 0
153 174 0
156 178 0
157 176 0
159 178 0
162 182 0
155 174 0
151 171 0
159 180 0
155 174 0
157 178 0
154 175 0
156 177 0
151 170 0
152 173 0
152 173 0
152 173 0
152 172 0
153 173 0
155 176 0
157 177 0
154 176 0
144 157 32
123 118 62
129 123 62
138 131 75
128 123 68
142 136 85
151 145 87
132 127 75
151 143 85
151 144 84
139 134 82
145 140 85
154 149 91
144 139 84
162 156 97
158 153 95
158 151 95
158 152 97
164 158 102
161 155 100
156 151 97
147 143 91
160 154 97
163 157 102
159 154 102
166 161 104
158 154 100
168 162 106
157 154 102
161 156 103
162 158 105
161 156 101
147 143 94
156 152 99
157 153 99
164 160 106
160 156 103
156 151 100
164 161 107
164 161 107
162 158 104
157 155 102
152 150 99
164 162 107
155 153 103
159 157 104
164 161 107
157 153 102
157 154 103
161 157 104
166 163 109
169 167 112
162 160 107
164 161 108
168 165 109
161 159 106
159 157 104
162 159 106
164 162 108
159 157 104
164 162 108
158 155 103
162 160 107
162 160 107
163 161 108
157 155 103
164 162 108
162 160 107
166 165 110
164 161 107
170 167 112
160 158 106
158 157 106
168 167 112
164 161 107
168 167 112
167 164 109
166 164 109
165 163 109
163 161 108
167 165 110
165 163 109
165 162 108
163 160 107
171 167 110
166 163 108
156 153 102
160 157 104
163 160 107
159 156 103
163 160 107
171 167 110
163 160 106
159 155 103
146 143 94
162 158 104
165 161 107
159 156 103
167 163 108
163 160 106
158 153 99
157 155 103
165 160 104
163 157 99
156 151 99
166 161 104
154 150 98
158 153 98
157 152 98
156 151 97
152 147 94
161 158 102
155 151 95
144 140 93
159 153 98
160 155 98
141 137 82
158 151 95
166 160 104
146 141 85
149 143 84
148 142 88
143 137 84
140 134 79
150 145 90
152 146 90
146 140 80
151 146 84
133 128 79
133 126 75
144 137 79
153 152 74
158 178 16
156 176 0
155 175 0
154 173 0
158 179 0
158 178 0
150 169 0
159 179 0
151 171 0
154 176 0
152 172 0
163 184 0
163 183 0
154 173 0
157 178 0
153 175 0
157 178 0
159 180 0
159 179 0
156 176 0
158 178 0
156 177 0
155 175 0
151 172 0
156 176 0
154 176 0
155 176 0
164 184 0
154 174 0
153 174 0
162 183 0
155 176 0
158 178 0
159 180 0
155 175 0
155 175 0
157 178 0
160 181 0
152 173 0
154 175 0
159 180 0
159 179 0
161 182 0
159 179 0
159 179 0
153 175 0
154 175 0
157 177 0
156 177 0
155 176 0
159 179 0
155 176 0
150 170 0
150 171 0
157 178 0
151 170 0
162 182 0
156 176 0
153 174 0
153 174 0
156 177 0
159 180 0
154 175 0
157 178 0
154 175 0
156 177 0
159 180 0
155 176 0
155 175 0
154 176 0
163 184 0
166 187 0
161 181 0
155 177 0
154 175 0
159 180 0
163 183 0
156 177 0
156 176 0
149 170 0
147 169 0
161 182 0
160 180 0
156 178 0
154 174 0
146 166 0
159 180 0
162 183 0
158 179 0
159 180 0
149 169 0
151 172 0
155 176 0
152 173 0
154 174 0
155 176 0
151 172 0
149 171 0
156 176 0
151 171 0
151 171 0
157 178 0
162 183 0
151 173 0
154 175 0
152 172 0
158 179 0
156 176 0
152 173 0
162 182 0
158 177 0
151 172 0
155 177 0
156 177 0
154 174 0
157 178 0
156 177 0
151 170 0
158 177 0
158 178 0
159 179 0
152 173 0
152 173 0
157 178 0
155 176 0
157 177 0
157 179 0
152 173 0
152 172 0
156 176 0
159 179 0
163 183 0
155 176 0
155 176 0
158 178 0
151 172 0
153 173 0
158 179 0
160 180 0
164 184 0
160 180 0
149 170 0
157 177 0
151 172 0
158 180 0
155 175 0
153 175 0
150 170 0
153 173 0
154 176 0
157 179 0
154 174 0
154 175 0
158 178 0
167 187 0
151 172 0
156 177 0
153 173 0
153 173 0
155 175 0
151 172 0
153 175 0
153 174 0
154 174 0
158 179 0
156 177 0
157 178 0
157 177 0
154 174 0
156 176 0
154 176 0
156 176 0
155 176 0
154 175 0
155 176 0
165 185 0
154 175 0
155 175 0
154 175 0
151 172 0
157 177 0
151 172 0
155 175 0
153 174 0
153 174 0
156 176 0
153 174 0
152 173 0
155 177 0
159 179 0
158 178 0
160 181 0
155 175 0
159 179 0
153 173 0
152 173 0
155 175 0
157 177 0
156 177 0
157 179 0
161 182 0
157 178 0
147 168 0
153 173 0
148 168 0
155 175 0
153 174 0
157 176 0
153 173 0
154 174 0
156 175 0
154 175 0
155 175 0
157 176 0
152 173 0
154 175 0
155 175 0
158 180 0
153 174 0
151 173 0
149 170 0
156 177 0
157 179 0
151 170 0
154 174 0
157 177 0
155 176 0
155 175 0
155 174 0
156 177 0
157 176 0
156 178 0
151 172 0
154 175 0
154 174 0
157 178 0
155 176 0
156 176 0
152 172 0
154 175 0
154 173 0
153 173 0
150 170 0
154 175 0
154 174 0
153 173 0
155 175 0
161 182 0
161 181 0
160 180 0
156 176 0
151 171 0
156 175 0
159 180 0
159 178 0
160 181 0
157 177 0
157 178 0
152 172 0
155 175 0
160 180 0
155 175 0
151 171 0
156 176 0
158 178 0
158 179 0
160 179 0
155 173 22
127 121 66
141 135 85
124 119 70
146 139 79
143 138 80
147 140 82
145 139 80
146 139 85
148 142 85
138 132 79
139 135 84
155 149 93
148 143 91
154 149 95
154 149 94
155 151 97
161 157 101
145 142 88
149 145 90
158 153 97
160 155 100
158 155 102
163 157 102
167 162 106
173 167 105
150 146 94
155 152 99
164 160 104
166 161 105
159 155 102
143 141 92
163 161 106
151 147 96
165 161 104
155 153 99
166 162 106
169 165 108
158 155 102
150 147 97
165 162 108
172 167 109
169 163 107
163 160 106
163 160 107
169 167 112
162 159 106
154 152 102
162 160 107
162 159 106
158 157 105
162 160 107
159 156 104
168 165 109
162 159 106
170 167 112
163 160 107
166 164 109
171 168 112
172 169 113
160 158 106
162 160 107
166 164 109
174 170 113
161 160 107
167 164 109
161 158 106
164 163 109
163 160 107
169 166 110
163 161 108
172 169 113
163 162 108
165 162 108
166 164 109
167 164 109
160 158 106
159 157 104
158 156 104
160 158 106
163 160 107
156 153 102
166 163 108
167 164 109
164 161 107
165 161 107
165 163 109
163 160 107
160 157 104
162 160 107
165 163 109
160 158 106
163 161 107
168 164 108
166 163 108
169 164 107
159 155 102
162 159 106
168 163 107
155 151 98
160 156 102
165 160 104
158 154 102
158 154 102
154 150 98
157 152 99
169 164 108
156 151 98
162 155 101
160 156 101
150 147 97
160 155 98
141 138 91
154 150 97
149 145 94
163 156 101
154 149 97
153 149 93
151 146 93
159 153 97
158 152 98
151 145 90
146 141 88
166 159 99
151 145 90
140 135 85
146 140 88
145 140 84
147 140 85
146 139 79
136 130 77
149 141 84
117 112 64
144 152 48
161 181 0
155 176 0
153 174 0
157 177 0
158 177 0
162 183 0
157 178 0
160 180 0
151 171 0
159 179 0
152 171 0
152 174 0
161 182 0
153 175 0
154 175 0
158 178 0
152 173 0
156 176 0
156 177 0
155 176 0
149 170 0
156 177 0
162 182 0
157 176 0
156 178 0
152 172 0
153 175 0
161 182 0
160 181 0
158 178 0
159 180 0
151 171 0
161 182 0
154 174 0
158 180 0
157 178 0
159 181 0
153 174 0
157 178 0
160 180 0
164 184 0
158 178 0
150 170 0
157 178 0
156 177 0
152 172 0
159 180 0
156 177 0
158 178 0
153 173 0
155 177 0
155 176 0
154 175 0
153 173 0
153 173 0
158 179 0
157 177 0
152 172 0
158 179 0
163 184 0
165 186 0
160 181 0
154 175 0
156 178 0
154 175 0
153 173 0
153 174 0
165 186 0
151 171 0
160 180 0
153 174 0
157 179 0
160 180 0
158 180 0
153 175 0
157 176 0
158 179 0
154 175 0
153 174 0
150 171 0
158 179 0
152 172 0
154 175 0
154 174 0
159 178 0
163 183 0
150 170 0
154 174 0
155 176 0
164 184 0
159 178 0
160 181 0
161 181 0
157 177 0
161 182 0
149 170 0
152 173 0
154 175 0
164 184 0
154 175 0
152 173 0
150 171 0
151 171 0
154 175 0
152 173 0
159 180 0
158 179 0
157 178 0
164 185 0
160 180 0
159 179 0
156 177 0
153 174 0
159 179 0
161 181 0
160 181 0
156 175 0
151 171 0
154 174 0
152 173 0
153 174 0
148 169 0
150 171 0
158 180 0
157 177 0
148 169 0
150 171 0
153 173 0
149 170 0
159 180 0
154 174 0
155 176 0
154 175 0
164 184 0
152 172 0
153 173 0
153 175 0
153 172 0
152 173 0
152 172 0
153 174 0
150 170 0
150 169 0
160 181 0
150 170 0
155 176 0
159 180 0
153 172 0
157 177 0
156 176 0
161 182 0
152 173 0
150 171 0
153 173 0
157 177 0
156 176 0
153 174 0
154 175 0
153 174 0
156 176 0
155 176 0
157 178 0
156 178 0
156 177 0
153 173 0
163 183 0
153 174 0
153 173 0
153 174 0
158 178 0
164 183 0
154 173 0
158 178 0
152 172 0
153 172 0
156 176 0
150 172 0
154 175 0
147 167 0
154 175 0
157 177 0
153 170 0
151 172 0
150 171 0
153 174 0
151 171 0
154 174 0
155 174 0
150 170 0
146 166 0
160 181 0
154 174 0
156 175 0
155 175 0
153 172 0
153 173 0
157 178 0
156 177 0
157 177 0
158 179 0
151 171 0
155 175 0
149 170 0
156 176 0
155 176 0
155 176 0
153 173 0
154 175 0
160 180 0
157 177 0
151 171 0
151 170 0
151 172 0
155 175 0
156 177 0
154 175 0
155 175 0
159 179 0
156 176 0
159 180 0
153 173 0
152 173 0
157 177 0
157 177 0
156 177 0
152 171 0
153 174 0
154 173 0
156 176 0
151 171 0
159 180 0
150 172 0
157 178 0
148 170 0
156 178 0
152 172 0
151 172 0
154 174 0
155 175 0
155 176 0
154 175 0
150 170 0
154 174 0
155 175 0
154 174 0
154 174 0
155 176 0
155 176 0
155 176 0
154 175 0
155 175 0
161 182 0
154 175 0
152 173 0
160 179 0
158 179 0
157 176 0
161 181 0
153 174 0
158 179 0
154 175 0
150 170 0
158 179 0
157 178 0
153 173 0
150 170 16
135 132 64
121 116 60
127 122 64
137 132 74
134 128 75
143 138 77
144 138 77
147 142 85
162 154 94
150 144 90
141 137 84
144 138 84
145 139 84
159 153 94
128 125 78
157 151 94
149 144 93
158 153 94
158 152 98
152 147 91
156 150 96
151 145 91
156 150 95
155 150 98
164 159 101
148 144 94
160 155 101
164 159 101
161 158 104
161 157 103
161 157 104
163 159 106
163 158 101
163 159 104
159 155 101
153 151 100
164 160 103
158 154 103
158 155 103
163 160 106
163 160 104
161 158 105
165 161 106
157 155 103
155 153 103
160 157 104
165 163 108
163 159 106
163 160 107
155 152 101
167 165 110
165 162 108
163 161 107
168 165 109
167 164 110
159 155 103
166 163 109
171 168 112
162 159 106
171 167 110
164 161 107
159 156 104
162 160 108
163 161 108
166 164 109
164 162 108
164 163 109
167 164 109
170 167 112
157 155 103
168 166 110
166 163 109
162 161 108
162 160 107
163 160 107
165 163 109
162 160 107
162 159 106
168 165 110
165 163 109
163 160 107
166 163 109
156 154 103
170 167 112
165 162 108
173 170 113
165 161 107
160 157 104
160 156 103
153 150 98
161 158 106
166 163 108
169 164 108
165 162 108
166 162 107
159 157 103
164 162 107
159 155 102
164 160 104
156 152 99
157 154 102
163 160 106
171 167 110
171 167 110
164 160 106
161 159 106
163 158 103
169 164 107
162 156 102
159 154 101
150 145 94
151 147 95
152 148 97
158 153 101
163 158 99
153 148 95
146 142 90
154 149 93
155 150 95
154 148 94
157 151 97
156 150 93
155 149 97
155 148 91
149 143 85
145 138 80
152 145 87
157 150 93
142 135 84
129 124 70
139 133 75
149 143 85
127 122 70
146 140 79
145 162 22
151 171 0
158 178 0
155 175 0
158 178 0
155 177 0
166 184 0
153 174 0
154 175 0
154 175 0
155 176 0
160 179 0
153 173 0
157 177 0
156 178 0
161 180 0
156 175 0
156 176 0
157 176 0
156 177 0
153 173 0
163 183 0
152 172 0
152 174 0
152 173 0
161 182 0
153 173 0
158 178 0
155 176 0
155 176 0
155 176 0
157 177 0
153 173 0
156 177 0
156 176 0
164 184 0
154 175 0
158 180 0
157 177 0
160 180 0
160 181 0
154 174 0
156 177 0
157 177 0
160 180 0
159 180 0
153 174 0
159 179 0
152 173 0
153 174 0
160 180 0
156 176 0
155 175 0
154 175 0
154 176 0
158 178 0
158 178 0
152 173 0
161 181 0
153 175 0
150 171 0
153 175 0
155 176 0
155 176 0
161 182 0
153 174 0
160 181 0
158 179 0
157 177 0
155 177 0
156 177 0
153 174 0
155 176 0
158 179 0
160 180 0
152 173 0
156 175 0
155 176 0
159 179 0
158 179 0
148 168 0
162 182 0
163 184 0
157 177 0
161 182 0
155 176 0
154 175 0
151 171 0
158 178 0
151 172 0
162 183 0
154 174 0
159 180 0
158 179 0
158 179 0
160 180 0
157 178 0
158 178 0
158 179 0
158 179 0
151 171 0
154 175 0
149 169 0
156 177 0
159 180 0
158 179 0
154 176 0
155 176 0
153 174 0
157 177 0
155 177 0
152 173 0
157 177 0
155 177 0
153 173 0
159 180 0
154 176 0
161 183 0
158 178 0
153 174 0
162 183 0
157 177 0
158 178 0
147 169 0
156 176 0
156 177 0
156 176 0
159 180 0
148 168 0
153 173 0
152 172 0
159 180 0
155 176 0
157 178 0
157 176 0
152 173 0
160 179 0
159 178 0
158 177 0
152 173 0
155 176 0
156 176 0
155 176 0
154 174 0
154 174 0
156 177 0
152 173 0
152 173 0
154 175 0
153 174 0
153 173 0
154 174 0
158 179 0
158 178 0
156 176 0
158 177 0
160 180 0
154 174 0
155 176 0
153 173 0
149 171 0
159 179 0
154 174 0
161 180 0
149 169 0
149 170 0
157 178 0
155 176 0
157 176 0
150 169 0
155 175 0
163 184 0
154 175 0
160 181 0
151 171 0
154 174 0
156 177 0
151 172 0
156 177 0
154 175 0
150 172 0
153 173 0
162 183 0
164 184 0
155 175 0
152 172 0
153 174 0
157 178 0
153 174 0
154 173 0
152 171 0
153 173 0
153 174 0
153 173 0
153 172 0
150 171 0
148 169 0
154 174 0
155 175 0
156 176 0
160 181 0
155 175 0
152 173 0
150 169 0
154 175 0
152 173 0
157 176 0
152 172 0
153 174 0
149 170 0
149 170 0
156 176 0
159 180 0
150 171 0
159 178 0
157 177 0
151 171 0
152 174 0
151 172 0
153 174 0
153 174 0
158 178 0
151 169 0
154 173 0
161 181 0
154 174 0
153 174 0
150 171 0
157 177 0
161 179 0
157 176 0
155 176 0
151 171 0
159 179 0
159 180 0
151 170 0
154 174 0
154 172 0
152 173 0
154 174 0
155 175 0
151 172 0
153 173 0
157 176 0
149 168 0
156 176 0
155 175 0
154 175 0
159 180 0
160 179 0
158 178 0
152 172 0
155 175 0
157 179 0
153 173 0
160 181 0
154 174 0
153 174 0
156 177 0
154 173 0
156 176 0
149 170 0
160 181 0
157 177 0
161 181 0
134 140 53
137 131 70
141 136 75
148 141 82
134 129 77
152 145 82
151 144 88
134 129 72
159 153 95
146 140 79
150 144 88
146 140 82
153 148 90
159 151 93
151 145 84
155 150 91
146 140 90
162 155 98
154 148 95
165 159 100
160 156 98
156 151 94
158 153 95
161 157 99
154 150 95
164 158 98
153 149 97
165 161 106
166 159 103
160 155 102
153 151 98
161 158 105
166 162 107
154 151 100
160 157 103
166 163 106
159 155 102
159 155 102
168 163 107
167 164 108
169 164 109
160 157 104
166 163 107
164 161 108
160 158 104
169 166 110
164 161 107
168 166 110
165 162 108
159 155 103
156 154 103
159 156 104
164 162 108
166 165 110
168 165 109
159 158 106
173 170 113
164 162 108
170 167 112
165 162 108
162 159 106
163 159 106
167 164 109
168 166 110
160 158 106
166 163 108
171 168 112
168 165 110
163 160 107
166 164 109
170 167 112
167 165 110
169 166 110
167 165 110
164 162 108
164 162 108
163 161 108
166 164 109
163 160 107
170 167 112
159 158 106
164 162 108
161 159 106
169 166 110
165 162 108
164 161 107
167 164 109
155 153 102
165 163 109
163 159 104
167 164 109
164 161 107
172 167 110
157 153 101
169 164 108
160 158 104
163 161 107
162 159 106
165 162 108
163 160 106
160 156 101
158 155 103
159 156 103
160 157 104
161 158 104
161 157 102
161 158 103
174 170 113
163 158 103
159 153 99
149 145 93
158 155 102
147 142 93
161 156 101
159 154 99
158 152 99
157 152 97
147 144 93
149 144 93
155 150 97
148 143 87
157 152 94
160 154 98
150 144 94
149 144 91
155 150 93
153 148 90
143 139 87
134 129 74
139 135 84
139 134 84
149 142 85
135 130 77
137 132 74
136 130 77
125 127 53
160 180 16
154 174 0
158 179 0
158 177 0
158 178 0
157 177 0
150 171 0
152 173 0
163 183 0
158 178 0
154 174 0
157 178 0
160 180 0
161 181 0
161 181 0
165 185 0
157 177 0
155 176 0
160 181 0
155 175 0
156 178 0
158 179 0
156 176 0
155 175 0
155 176 0
158 178 0
161 180 0
158 179 0
154 173 0
163 185 0
156 177 0
151 172 0
156 177 0
164 184 0
156 177 0
158 179 0
155 176 0
148 169 0
152 172 0
152 172 0
155 176 0
160 180 0
157 177 0
161 182 0
155 175 0
158 179 0
164 185 0
158 179 0
156 177 0
163 184 0
162 183 0
151 172 0
154 174 0
154 175 0
159 180 0
150 170 0
161 182 0
151 171 0
158 178 0
151 172 0
155 175 0
163 182 0
158 178 0
152 173 0
157 177 0
154 174 0
152 172 0
154 175 0
153 174 0
156 178 0
153 174 0
153 174 0
157 177 0
153 173 0
157 178 0
157 178 0
151 172 0
153 174 0
159 179 0
151 173 0
160 180 0
149 169 0
154 175 0
155 176 0
156 177 0
158 178 0
160 180 0
155 175 0
153 172 0
151 171 0
159 179 0
156 176 0
156 176 0
155 176 0
156 176 0
159 180 0
159 178 0
155 176 0
151 173 0
157 177 0
156 176 0
153 173 0
159 179 0
152 173 0
158 178 0
153 174 0
154 175 0
160 180 0
162 183 0
157 178 0
156 175 0
159 180 0
152 172 0
153 173 0
160 180 0
153 176 0
160 180 0
160 181 0
153 174 0
156 177 0
152 173 0
151 172 0
155 177 0
159 179 0
152 172 0
158 177 0
155 175 0
160 181 0
154 174 0
156 177 0
153 173 0
158 178 0
156 176 0
155 176 0
160 180 0
154 174 0
156 177 0
152 172 0
156 176 0
154 173 0
150 172 0
155 176 0
154 175 0
154 175 0
157 178 0
154 175 0
153 172 0
154 175 0
155 176 0
154 174 0
158 178 0
148 168 0
154 175 0
168 188 0
153 172 0
161 182 0
158 178 0
159 180 0
158 179 0
152 172 0
160 180 0
153 173 0
154 174 0
158 179 0
151 171 0
154 175 0
153 173 0
152 171 0
147 169 0
156 176 0
155 175 0
160 182 0
154 174 0
154 175 0
152 172 0
159 179 0
155 176 0
158 178 0
154 174 0
154 174 0
151 170 0
158 179 0
156 176 0
158 178 0
159 179 0
156 175 0
155 176 0
150 170 0
152 172 0
160 182 0
154 175 0
155 177 0
156 176 0
156 175 0
154 175 0
157 177 0
152 172 0
154 174 0
153 174 0
158 179 0
158 179 0
158 179 0
156 176 0
152 172 0
154 174 0
158 178 0
160 181 0
156 176 0
156 177 0
153 174 0
160 178 0
156 176 0
156 176 0
155 176 0
153 175 0
152 171 0
154 174 0
148 169 0
157 177 0
155 175 0
151 171 0
157 177 0
150 171 0
156 175 0
159 178 0
154 174 0
157 177 0
151 173 0
152 173 0
155 175 0
154 174 0
151 171 0
153 174 0
157 177 0
150 171 0
155 175 0
152 172 0
148 168 0
158 178 0
158 177 0
157 178 0
154 174 0
155 176 0
148 169 0
151 172 0
158 177 0
152 172 0
153 173 0
158 179 0
152 172 0
149 170 0
159 179 0
150 170 0
153 173 0
154 173 0
151 170 0
151 171 0
154 174 0
156 175 0
156 177 0
150 170 0
152 172 0
152 173 0
139 155 28
111 107 56
127 121 70
129 123 64
122 116 66
140 135 79
155 147 90
143 137 79
142 138 84
151 144 88
142 137 80
150 144 88
137 134 85
159 153 94
161 154 95
153 148 91
164 159 101
163 156 99
149 144 90
162 155 99
155 150 93
160 155 99
154 151 95
153 148 96
156 154 99
156 150 97
157 154 103
155 150 96
162 158 103
153 149 97
163 159 104
162 158 101
161 157 102
168 162 106
166 163 109
164 161 107
160 156 101
165 161 104
169 165 109
164 160 105
167 164 110
164 161 108
171 168 110
163 161 107
163 160 107
161 158 106
157 155 103
166 164 109
155 153 103
170 167 112
166 163 108
158 155 102
170 166 110
165 162 108
163 161 107
167 163 108
172 169 112
165 162 108
168 165 110
172 169 113
170 165 109
163 161 108
169 166 110
162 159 106
168 166 110
173 169 112
167 165 110
163 163 109
165 163 109
170 168 113
165 163 109
173 170 113
164 162 108
169 166 110
171 168 112
166 164 109
159 155 103
166 165 110
171 168 112
167 165 110
162 159 106
170 166 110
161 158 104
164 162 108
163 162 108
161 160 107
162 161 108
162 159 106
167 165 109
166 164 109
167 164 109
164 161 107
159 156 104
157 154 103
158 155 103
158 156 103
166 162 107
166 162 108
152 149 99
164 162 108
162 159 106
162 160 106
160 156 103
161 158 104
166 163 108
156 151 99
171 167 110
166 164 109
163 159 104
165 162 106
161 156 99
148 144 94
163 158 104
155 149 98
151 146 91
154 149 97
163 158 99
161 157 98
168 162 106
149 144 88
152 148 93
146 140 87
146 142 88
156 149 93
160 153 97
157 152 97
150 144 93
144 138 82
153 147 87
149 142 90
143 137 84
136 129 79
121 115 64
144 138 79
121 116 70
136 131 79
114 109 58
130 140 36
153 173 0
153 173 0
154 174 0
158 178 0
161 181 0
160 179 0
155 175 0
167 187 0
149 170 0
157 178 0
161 181 0
156 177 0
152 173 0
160 180 0
160 181 0
152 172 0
153 173 0
157 178 0
150 170 0
155 176 0
151 173 0
156 176 0
151 172 0
156 176 0
154 174 0
159 180 0
158 179 0
155 175 0
158 178 0
150 171 0
156 177 0
156 177 0
154 174 0
162 182 0
157 177 0
156 176 0
154 174 0
155 176 0
160 181 0
155 176 0
157 177 0
159 180 0
152 172 0
156 176 0
154 174 0
159 180 0
159 180 0
160 180 0
149 170 0
157 178 0
151 172 0
159 180 0
155 177 0
158 179 0
154 175 0
158 178 0
158 179 0
156 176 0
159 180 0
163 184 0
154 174 0
159 179 0
155 175 0
156 176 0
153 172 0
154 174 0
151 173 0
157 178 0
161 181 0
154 174 0
152 173 0
157 178 0
157 177 0
152 172 0
155 176 0
147 168 0
158 179 0
161 181 0
156 177 0
147 168 0
154 175 0
156 176 0
162 181 0
155 176 0
157 177 0
155 175 0
153 174 0
156 176 0
156 176 0
153 174 0
156 176 0
156 177 0
152 172 0
157 178 0
154 175 0
160 180 0
151 172 0
155 175 0
158 179 0
155 175 0
155 175 0
155 176 0
158 178 0
152 173 0
150 170 0
161 181 0
155 176 0
154 174 0
156 177 0
160 180 0
155 177 0
152 173 0
154 174 0
156 176 0
160 180 0
153 173 0
149 170 0
157 177 0
156 177 0
160 181 0
150 171 0
153 174 0
153 173 0
154 176 0
160 180 0
155 176 0
160 181 0
154 175 0
163 184 0
157 178 0
159 180 0
159 180 0
161 182 0
159 180 0
150 170 0
151 172 0
156 176 0
149 169 0
152 172 0
148 169 0
154 174 0
148 169 0
153 173 0
159 180 0
157 177 0
154 174 0
154 175 0
156 177 0
148 168 0
152 173 0
148 169 0
151 172 0
156 176 0
161 180 0
156 177 0
160 181 0
156 178 0
155 176 0
159 180 0
153 174 0
153 173 0
160 181 0
154 174 0
156 176 0
152 172 0
154 175 0
153 173 0
154 173 0
157 178 0
150 170 0
158 179 0
156 177 0
148 170 0
154 175 0
150 170 0
161 181 0
156 176 0
150 170 0
156 177 0
152 172 0
149 169 0
155 175 0
154 175 0
158 178 0
152 171 0
158 178 0
156 175 0
155 176 0
158 178 0
153 174 0
152 173 0
158 178 0
155 176 0
147 169 0
154 174 0
156 176 0
157 179 0
152 173 0
155 175 0
156 177 0
154 174 0
155 177 0
155 175 0
153 173 0
155 176 0
147 167 0
155 174 0
160 180 0
156 176 0
150 171 0
155 176 0
156 177 0
153 173 0
151 172 0
149 170 0
153 174 0
154 173 0
153 173 0
158 179 0
154 174 0
152 173 0
157 178 0
156 177 0
156 177 0
147 167 0
155 175 0
158 177 0
158 178 0
152 173 0
153 174 0
158 179 0
159 179 0
157 176 0
152 173 0
152 172 0
154 175 0
156 177 0
147 169 0
158 177 0
155 175 0
152 172 0
155 175 0
158 178 0
152 172 0
149 170 0
146 166 0
160 180 0
156 176 0
157 178 0
154 175 0
153 172 0
150 170 0
155 176 0
159 178 0
155 174 0
155 175 0
151 171 0
151 170 0
148 170 0
152 172 0
155 175 0
153 173 0
138 134 72
120 115 64
134 129 72
126 122 74
127 121 70
147 140 85
144 138 84
144 138 80
137 131 82
146 139 82
144 138 82
155 149 91
147 141 88
136 132 75
147 142 85
150 145 86
153 149 93
142 137 86
152 148 93
157 151 95
154 148 95
162 157 98
164 158 102
161 156 99
165 161 104
157 153 97
160 156 101
158 154 98
155 149 94
161 157 101
163 159 103
155 151 98
160 156 103
158 153 95
165 161 106
165 161 105
159 155 101
172 167 106
155 153 102
155 152 101
166 164 109
160 157 104
170 167 110
167 164 109
162 158 105
167 164 109
164 162 109
164 161 107
162 159 106
161 158 106
165 162 107
171 167 111
163 161 108
166 164 109
163 160 106
170 167 112
171 168 112
168 164 109
164 161 107
165 162 108
159 157 106
163 161 108
175 171 114
169 166 111
165 163 109
162 159 106
168 165 110
166 163 108
171 169 113
163 160 107
168 165 110
170 167 112
164 162 108
167 164 109
157 155 103
165 163 109
168 166 110
158 155 103
168 166 110
168 164 109
168 166 110
169 166 110
164 162 108
169 166 110
162 160 107
167 163 108
165 163 109
166 164 109
163 161 108
153 151 99
167 165 110
168 165 109
165 161 107
166 163 108
159 157 104
170 166 110
167 164 108
157 154 102
168 166 110
174 168 110
163 159 106
166 163 108
162 158 104
160 156 103
161 157 103
157 152 99
169 164 108
166 162 107
166 160 103
158 155 101
156 151 99
150 146 95
162 157 102
161 156 99
164 159 102
151 146 95
159 155 99
154 149 95
158 153 101
168 161 103
159 152 97
154 149 94
162 156 99
139 134 85
147 142 87
149 144 91
150 143 88
158 152 93
143 139 90
134 129 77
130 126 75
142 138 80
135 128 77
152 147 90
135 129 75
119 115 62
135 128 74
133 126 70
153 172 16
161 181 0
159 179 0
158 177 0
160 181 0
160 180 0
160 179 0
160 180 0
166 187 0
152 171 0
154 173 0
157 178 0
156 176 0
158 178 0
165 186 0
156 176 0
154 174 0
157 178 0
155 176 0
152 172 0
157 177 0
160 180 0
155 176 0
150 171 0
156 176 0
160 181 0
162 182 0
155 175 0
157 178 0
155 175 0
161 181 0
158 178 0
156 178 0
156 177 0
156 177 0
161 181 0
163 183 0
162 183 0
154 174 0
159 180 0
155 175 0
150 170 0
160 180 0
162 182 0
155 176 0
158 179 0
151 171 0
160 181 0
161 182 0
159 179 0
156 176 0
164 185 0
159 179 0
161 181 0
158 179 0
159 180 0
153 174 0
155 176 0
154 175 0
154 175 0
157 178 0
148 169 0
164 185 0
157 178 0
152 172 0
156 178 0
154 174 0
150 172 0
151 172 0
158 179 0
152 173 0
157 178 0
150 171 0
159 179 0
152 173 0
150 171 0
154 175 0
156 177 0
152 173 0
150 171 0
162 183 0
155 175 0
156 176 0
156 177 0
146 167 0
151 171 0
152 173 0
154 174 0
159 179 0
156 177 0
161 181 0
150 170 0
154 173 0
150 170 0
153 174 0
158 179 0
157 177 0
156 176 0
153 172 0
157 178 0
149 168 0
158 179 0
146 167 0
157 176 0
152 173 0
155 175 0
153 174 0
158 179 0
156 177 0
148 169 0
161 182 0
153 173 0
155 176 0
149 170 0
151 172 0
155 176 0
158 177 0
153 173 0
156 177 0
154 174 0
157 177 0
154 174 0
156 175 0
150 172 0
152 172 0
152 173 0
159 180 0
156 176 0
154 174 0
159 179 0
153 173 0
156 177 0
155 175 0
152 173 0
158 179 0
160 181 0
157 177 0
154 175 0
151 173 0
158 178 0
159 180 0
154 174 0
158 178 0
150 170 0
153 174 0
151 172 0
155 176 0
151 170 0
155 175 0
156 176 0
156 177 0
153 174 0
156 175 0
153 174 0
158 179 0
156 176 0
153 174 0
156 177 0
154 174 0
150 171 0
158 180 0
151 171 0
155 176 0
156 176 0
155 175 0
162 182 0
156 177 0
154 174 0
158 178 0
152 173 0
150 170 0
155 176 0
156 176 0
158 177 0
152 173 0
152 173 0
154 174 0
159 180 0
156 177 0
159 178 0
151 171 0
152 171 0
159 180 0
153 174 0
156 176 0
156 176 0
151 173 0
156 177 0
158 179 0
161 181 0
155 175 0
153 174 0
150 170 0
155 176 0
162 182 0
159 180 0
157 177 0
154 173 0
151 171 0
152 173 0
154 174 0
156 177 0
155 175 0
161 181 0
152 172 0
157 178 0
157 177 0
153 174 0
155 176 0
153 174 0
151 171 0
151 172 0
158 178 0
155 176 0
159 178 0
152 173 0
153 173 0
152 171 0
152 173 0
150 171 0
157 177 0
156 176 0
158 177 0
154 175 0
156 177 0
155 176 0
147 169 0
153 174 0
151 171 0
153 174 0
155 175 0
156 176 0
155 176 0
163 183 0
156 176 0
159 178 0
149 170 0
153 175 0
155 175 0
154 174 0
153 172 0
151 172 0
153 173 0
151 172 0
153 172 0
155 176 0
158 179 0
150 170 0
151 171 0
148 168 0
155 176 0
155 174 0
150 169 0
153 174 0
148 168 0
156 177 0
154 172 0
150 171 0
152 171 0
153 174 0
155 175 0
136 147 42
119 114 64
144 136 75
125 120 70
148 141 77
144 139 79
145 138 80
135 129 77
150 144 87
155 147 85
158 151 94
159 152 91
148 143 87
140 135 81
158 152 94
156 150 91
153 148 93
144 140 85
144 140 90
156 151 95
157 152 95
151 146 95
155 151 98
166 161 103
161 158 102
163 159 103
166 160 104
155 150 95
145 143 94
167 162 106
155 151 99
159 154 99
166 162 106
165 159 103
159 158 105
167 162 107
162 160 106
161 158 106
168 164 107
172 168 111
162 157 103
156 152 101
163 159 104
149 145 97
159 157 104
160 158 104
171 166 109
164 161 107
164 160 104
164 162 108
169 165 110
166 164 111
159 157 103
162 159 107
163 160 106
169 165 109
167 166 111
163 160 107
160 158 106
172 169 113
169 166 110
165 161 107
164 162 109
159 158 106
167 165 110
164 163 110
160 158 106
171 169 113
165 163 109
167 164 109
163 161 108
168 167 112
161 160 107
168 166 110
163 162 109
171 167 110
167 164 109
169 166 110
158 157 106
171 168 112
160 158 106
165 163 109
167 164 109
175 172 114
168 166 110
163 160 107
168 166 110
159 157 104
163 161 108
162 158 104
170 167 112
168 164 109
168 166 110
167 163 108
167 164 109
171 168 112
164 161 107
157 155 103
169 166 109
165 161 107
161 157 103
163 159 104
163 159 103
164 160 106
164 159 104
162 158 103
169 164 107
165 162 107
157 155 101
164 160 103
165 161 104
148 144 90
156 152 99
167 162 104
154 151 98
162 158 102
150 145 95
153 148 95
150 146 95
153 150 93
156 150 97
155 150 95
152 146 93
154 149 93
147 143 88
159 154 93
165 159 102
148 141 88
154 148 88
148 143 90
149 144 93
136 131 74
137 132 75
154 147 85
141 134 80
147 140 82
128 123 72
122 116 66
135 128 74
131 133 53
154 173 0
159 179 0
159 180 0
158 177 0
156 177 0
159 180 0
153 173 0
155 176 0
160 180 0
156 175 0
164 184 0
155 173 0
149 169 0
149 170 0
161 180 0
154 175 0
158 179 0
151 171 0
153 174 0
154 175 0
155 176 0
155 177 0
157 177 0
158 178 0
161 181 0
160 182 0
154 175 0
158 178 0
155 176 0
157 177 0
161 181 0
154 175 0
153 173 0
159 180 0
156 177 0
153 175 0
153 174 0
150 171 0
154 174 0
159 178 0
160 181 0
159 179 0
157 176 0
155 176 0
152 173 0
156 176 0
158 179 0
162 181 0
154 175 0
155 176 0
160 180 0
159 180 0
158 179 0
152 174 0
156 176 0
157 178 0
158 180 0
153 174 0
154 175 0
159 180 0
153 174 0
154 174 0
158 178 0
158 178 0
153 174 0
155 176 0
159 180 0
158 179 0
163 184 0
155 175 0
148 169 0
154 174 0
155 175 0
155 175 0
153 174 0
158 178 0
166 186 0
156 177 0
152 174 0
162 183 0
160 180 0
158 179 0
160 180 0
154 175 0
152 171 0
155 174 0
157 178 0
160 181 0
160 181 0
149 169 0
159 180 0
165 185 0
153 172 0
158 179 0
157 178 0
152 172 0
153 174 0
159 178 0
155 176 0
153 173 0
160 180 0
157 179 0
151 172 0
147 169 0
154 174 0
155 176 0
150 171 0
157 178 0
157 177 0
160 181 0
155 176 0
151 172 0
152 171 0
151 171 0
159 180 0
152 173 0
157 178 0
162 183 0
158 178 0
147 168 0
152 173 0
159 179 0
158 178 0
154 174 0
151 172 0
160 179 0
156 176 0
156 176 0
157 178 0
153 174 0
153 174 0
158 179 0
159 180 0
158 177 0
153 174 0
158 178 0
150 171 0
152 172 0
152 172 0
159 180 0
155 176 0
155 174 0
161 181 0
150 171 0
149 170 0
161 181 0
159 179 0
152 172 0
151 173 0
151 171 0
159 179 0
158 178 0
156 176 0
149 170 0
161 180 0
155 175 0
149 170 0
155 175 0
154 175 0
154 173 0
146 167 0
149 170 0
155 176 0
158 177 0
156 176 0
156 177 0
153 173 0
150 170 0
147 168 0
152 173 0
154 175 0
151 171 0
161 181 0
156 177 0
153 174 0
153 173 0
152 173 0
153 173 0
160 180 0
154 176 0
154 173 0
159 179 0
148 167 0
157 175 0
154 175 0
155 174 0
161 180 0
152 172 0
153 174 0
158 178 0
152 172 0
152 172 0
156 177 0
157 178 0
154 175 0
154 175 0
150 170 0
157 177 0
153 173 0
155 175 0
152 170 0
152 174 0
162 181 0
153 174 0
153 173 0
158 178 0
154 175 0
151 172 0
152 172 0
153 174 0
157 178 0
154 174 0
154 174 0
152 173 0
159 178 0
153 174 0
158 178 0
155 175 0
157 175 0
161 180 0
153 174 0
158 178 0
158 178 0
153 174 0
153 173 0
157 176 0
153 173 0
154 174 0
154 172 0
160 181 0
154 173 0
158 178 0
154 174 0
154 175 0
150 170 0
154 174 0
158 179 0
153 174 0
148 169 0
151 172 0
155 176 0
158 178 0
152 173 0
157 176 0
153 175 0
152 173 0
157 177 0
156 176 0
151 171 0
152 170 0
150 170 0
160 179 0
157 178 0
154 173 0
152 173 0
153 173 0
159 179 0
158 178 0
156 176 0
151 169 22
136 130 70
136 130 70
129 122 70
139 133 72
146 140 80
128 121 68
149 141 85
132 127 74
157 149 93
135 130 73
142 136 85
141 136 77
144 139 87
158 152 93
158 152 93
148 142 86
148 144 90
144 139 87
145 139 87
158 154 99
160 156 94
153 148 93
162 158 101
171 166 105
154 149 94
161 157 102
161 157 103
156 150 97
151 148 97
166 161 105
156 151 95
165 160 104
161 157 101
159 156 101
158 155 103
176 170 110
170 166 108
174 169 110
162 159 104
161 157 103
160 158 103
164 159 103
170 166 111
173 170 113
161 158 105
168 165 110
173 169 112
164 162 108
163 161 109
174 170 113
161 159 108
167 164 108
170 166 110
159 157 105
156 154 103
165 162 108
168 165 110
174 171 113
167 164 110
169 167 112
162 159 107
162 159 106
164 163 109
165 162 109
171 168 112
171 168 112
162 160 107
172 170 114
169 166 110
164 162 108
165 162 108
167 164 109
171 169 113
163 159 106
172 169 113
173 170 114
163 160 107
170 167 112
172 169 113
159 157 104
167 164 109
167 164 109
162 160 107
162 160 107
164 161 107
170 166 110
162 159 106
166 164 109
171 167 110
162 157 103
163 161 108
170 166 109
164 161 107
157 154 102
164 162 108
166 162 107
171 167 109
170 166 110
172 169 112
157 155 103
166 162 104
163 160 106
169 165 107
161 157 104
161 158 103
165 162 108
168 163 104
160 155 102
170 165 107
165 161 106
151 147 95
159 155 99
161 156 102
164 158 103
157 154 101
155 151 98
160 155 101
162 157 102
151 148 93
159 155 98
158 153 97
164 158 99
164 158 103
154 147 91
160 154 98
153 147 94
151 146 93
155 149 95
151 146 93
163 156 99
156 150 94
149 142 85
151 144 90
151 146 90
141 134 80
148 142 84
135 130 75
130 124 72
114 109 62
137 130 77
146 158 36
161 180 0
152 171 0
154 176 0
156 177 0
163 182 0
150 169 0
155 175 0
160 181 0
161 181 0
152 173 0
161 182 0
153 174 0
157 177 0
162 182 0
157 177 0
157 178 0
151 172 0
160 180 0
161 182 0
164 186 0
152 173 0
154 175 0
162 183 0
159 179 0
158 180 0
155 175 0
160 182 0
157 177 0
155 176 0
154 174 0
150 171 0
156 177 0
152 172 0
158 179 0
156 177 0
160 180 0
161 181 0
156 177 0
154 175 0
155 176 0
157 178 0
155 176 0
155 175 0
155 175 0
158 178 0
155 176 0
153 174 0
154 175 0
161 182 0
152 172 0
150 172 0
161 181 0
154 173 0
156 178 0
157 178 0
158 179 0
157 177 0
155 176 0
155 175 0
154 175 0
156 177 0
156 176 0
156 178 0
157 178 0
156 176 0
163 183 0
160 181 0
153 173 0
156 177 0
156 176 0
155 175 0
150 170 0
152 174 0
153 174 0
153 174 0
159 179 0
154 175 0
147 168 0
154 173 0
149 171 0
166 186 0
159 179 0
153 174 0
153 174 0
153 175 0
157 178 0
159 180 0
150 172 0
155 176 0
159 179 0
151 172 0
153 173 0
153 174 0
155 176 0
154 175 0
149 171 0
160 180 0
156 176 0
154 174 0
152 173 0
156 177 0
157 177 0
157 178 0
151 171 0
153 174 0
153 172 0
157 178 0
151 170 0
163 184 0
152 173 0
157 178 0
156 176 0
153 174 0
152 172 0
157 179 0
153 173 0
155 176 0
149 169 0
152 172 0
151 172 0
155 175 0
148 168 0
154 175 0
157 178 0
162 182 0
154 175 0
156 176 0
151 172 0
154 174 0
157 178 0
157 177 0
155 176 0
150 170 0
149 171 0
157 177 0
154 175 0
156 177 0
154 174 0
156 176 0
159 180 0
154 175 0
155 175 0
156 176 0
155 174 0
160 180 0
153 174 0
159 178 0
155 176 0
157 176 0
150 171 0
151 170 0
157 177 0
147 167 0
156 178 0
155 174 0
154 174 0
154 174 0
158 179 0
152 172 0
150 171 0
151 171 0
156 177 0
154 175 0
151 172 0
158 178 0
155 174 0
158 178 0
155 175 0
151 172 0
149 169 0
153 173 0
161 181 0
152 173 0
153 174 0
154 174 0
156 176 0
156 176 0
151 172 0
154 175 0
157 179 0
159 179 0
151 173 0
154 175 0
157 177 0
155 175 0
163 183 0
164 185 0
156 176 0
150 171 0
150 171 0
151 172 0
157 178 0
159 180 0
151 172 0
155 176 0
156 176 0
155 175 0
162 182 0
153 173 0
154 174 0
157 177 0
151 171 0
154 174 0
156 176 0
155 175 0
160 181 0
155 176 0
157 177 0
149 171 0
153 173 0
159 178 0
156 177 0
154 175 0
160 181 0
149 170 0
149 168 0
156 177 0
153 173 0
150 170 0
154 174 0
150 170 0
151 170 0
153 174 0
152 173 0
159 179 0
150 171 0
157 178 0
158 178 0
154 174 0
149 171 0
148 169 0
153 174 0
148 168 0
153 173 0
155 175 0
151 171 0
156 176 0
160 181 0
157 176 0
152 173 0
149 170 0
154 174 0
160 178 0
155 175 0
160 181 0
151 172 0
157 177 0
159 178 0
155 174 0
154 174 0
156 177 0
155 174 0
155 176 0
151 171 0
154 175 0
153 174 0
156 176 0
158 179 0
132 134 56
136 131 74
127 122 66
124 120 74
118 113 60
123 118 58
154 147 80
146 140 84
146 140 82
145 140 83
138 133 74
140 136 80
158 152 92
140 136 82
154 147 91
146 141 89
157 151 97
153 148 92
159 152 94
153 148 93
166 162 102
157 151 97
151 147 93
155 150 93
160 156 99
143 140 89
154 151 96
153 149 98
152 149 97
162 158 103
161 157 102
164 161 105
151 148 94
150 146 95
153 149 97
159 154 101
156 155 103
166 161 104
156 152 101
166 163 108
170 166 109
163 160 107
164 160 106
160 156 104
161 159 106
155 152 102
165 162 108
160 157 105
171 167 110
162 159 106
160 158 106
161 159 107
170 167 110
162 160 107
159 156 104
162 159 105
165 163 109
163 160 107
166 162 107
166 163 108
165 163 109
159 157 105
169 166 111
170 168 112
171 167 111
169 167 112
170 167 111
165 163 110
164 161 107
166 164 109
171 168 112
165 163 109
172 170 114
167 164 109
173 171 114
167 165 110
167 164 109
170 168 112
167 165 110
167 163 108
170 166 109
169 166 110
169 167 112
162 160 107
167 164 109
169 166 110
161 157 103
171 166 108
170 168 112
167 164 109
169 166 110
166 164 109
161 159 106
172 169 112
169 166 110
167 164 109
167 163 108
169 165 109
159 157 104
166 164 109
166 162 107
160 156 102
172 168 110
168 163 106
166 162 104
151 149 99
158 153 99
171 167 109
169 164 108
165 161 104
163 159 103
159 155 99
170 164 103
155 151 101
149 145 94
155 151 98
165 161 104
161 156 101
151 147 97
159 154 98
149 145 95
159 154 101
164 158 103
166 159 101
148 143 91
164 159 102
158 152 91
155 150 97
151 147 91
154 149 91
150 143 87
138 133 82
152 145 91
153 145 88
141 135 82
132 127 77
153 145 87
145 139 82
138 130 75
127 122 66
133 127 74
125 126 51
159 179 0
153 173 0
151 171 0
150 171 0
158 180 0
155 175 0
159 179 0
153 173 0
157 177 0
155 176 0
158 179 0
155 175 0
158 178 0
158 178 0
162 181 0
148 169 0
154 175 0
159 179 0
163 183 0
159 180 0
158 178 0
157 177 0
157 177 0
160 180 0
158 180 0
165 186 0
157 177 0
153 173 0
160 182 0
156 176 0
154 175 0
154 174 0
160 180 0
150 171 0
155 174 0
158 179 0
162 183 0
151 171 0
155 175 0
161 181 0
155 177 0
165 185 0
157 178 0
155 175 0
162 183 0
148 168 0
153 174 0
160 181 0
157 179 0
150 172 0
156 177 0
159 180 0
156 176 0
152 173 0
154 175 0
164 184 0
159 179 0
157 177 0
155 176 0
151 171 0
149 170 0
157 178 0
161 182 0
158 178 0
161 182 0
156 178 0
150 170 0
156 178 0
160 180 0
154 174 0
154 174 0
157 177 0
156 178 0
163 183 0
157 177 0
154 174 0
149 170 0
160 180 0
151 172 0
159 180 0
153 175 0
154 175 0
157 178 0
152 172 0
159 179 0
160 181 0
150 171 0
160 181 0
158 179 0
156 176 0
158 178 0
155 176 0
158 179 0
157 176 0
161 182 0
160 180 0
155 176 0
157 178 0
159 180 0
151 172 0
155 177 0
157 177 0
152 173 0
150 170 0
157 177 0
153 174 0
152 173 0
157 177 0
155 176 0
154 174 0
156 175 0
157 177 0
151 172 0
156 178 0
155 176 0
155 176 0
158 179 0
160 180 0
159 180 0
153 174 0
152 171 0
156 177 0
155 175 0
152 173 0
152 173 0
153 173 0
157 178 0
148 169 0
155 175 0
155 176 0
155 176 0
160 180 0
155 176 0
156 177 0
155 175 0
154 174 0
156 177 0
154 173 0
156 176 0
156 177 0
160 181 0
157 178 0
160 180 0
155 176 0
159 180 0
156 176 0
158 178 0
155 176 0
158 178 0
157 177 0
156 176 0
161 182 0
156 177 0
155 176 0
150 170 0
153 173 0
155 176 0
160 181 0
157 177 0
154 174 0
159 179 0
156 177 0
154 175 0
148 168 0
159 179 0
149 170 0
151 172 0
153 173 0
156 176 0
153 174 0
153 173 0
154 174 0
151 172 0
148 169 0
157 178 0
152 172 0
154 175 0
156 176 0
156 176 0
153 174 0
155 176 0
154 174 0
154 174 0
153 172 0
159 178 0
154 175 0
150 170 0
153 173 0
148 169 0
156 177 0
155 176 0
152 173 0
156 177 0
152 173 0
155 175 0
157 176 0
155 175 0
149 168 0
155 175 0
158 178 0
152 172 0
148 169 0
150 171 0
156 175 0
159 178 0
159 179 0
154 173 0
159 179 0
149 170 0
155 176 0
155 175 0
155 177 0
156 176 0
152 172 0
161 181 0
155 175 0
150 169 0
147 167 0
150 170 0
158 178 0
157 177 0
153 174 0
162 182 0
154 175 0
156 178 0
156 177 0
153 173 0
161 180 0
155 177 0
156 177 0
152 172 0
152 172 0
156 176 0
153 172 0
154 175 0
160 181 0
154 174 0
161 181 0
149 168 0
153 173 0
160 180 0
152 173 0
156 177 0
158 177 0
153 174 0
153 172 0
161 179 0
154 176 0
154 173 0
160 180 0
161 182 0
152 173 0
160 180 0
153 174 0
157 176 0
152 172 0
150 170 0
144 160 22
128 123 60
132 127 66
134 129 68
154 147 82
137 132 74
137 131 72
131 126 74
146 140 85
140 134 80
144 137 84
139 134 83
150 145 88
137 132 74
140 134 80
162 155 95
148 144 89
149 144 93
141 137 85
163 157 100
140 135 80
158 152 93
148 144 93
154 149 95
158 152 96
150 146 96
152 148 96
153 149 97
150 146 93
155 151 99
166 160 104
161 157 103
157 154 99
162 158 101
148 145 98
168 163 108
158 154 101
158 155 103
157 156 104
161 158 106
170 166 109
163 160 107
162 160 106
168 165 108
168 164 109
168 166 111
169 165 110
162 159 106
158 156 104
164 161 107
165 162 107
168 166 111
170 167 112
166 164 109
158 156 105
166 163 109
163 160 106
169 166 110
161 159 107
168 166 112
167 164 110
161 159 106
171 167 111
171 169 113
168 164 109
169 166 110
169 166 111
163 161 108
166 164 109
169 167 112
166 164 110
164 162 108
162 161 108
170 168 112
170 168 112
169 166 110
162 159 106
164 162 109
172 170 114
171 168 112
169 167 112
173 170 113
166 164 109
156 154 103
168 165 110
168 165 109
165 162 108
167 164 109
170 167 110
167 163 108
169 166 110
157 155 103
164 162 108
160 158 106
163 160 107
163 158 104
165 161 107
166 164 108
158 156 103
170 165 107
170 165 108
161 158 103
170 166 110
162 158 103
163 160 104
167 163 107
169 165 108
162 160 106
164 161 106
169 164 108
163 158 103
161 157 103
160 155 101
158 154 99
159 155 102
161 157 103
162 158 103
161 156 102
158 153 101
159 155 98
154 150 97
150 147 93
172 167 107
156 151 99
156 151 95
159 154 97
162 158 97
152 147 94
156 150 94
157 151 94
148 143 88
150 143 91
144 138 85
152 146 91
151 145 90
151 145 87
143 136 82
153 147 88
138 132 80
147 140 84
130 125 74
134 129 75
115 110 62
145 160 36
152 174 0
160 179 0
153 173 0
151 173 0
156 176 0
155 176 0
156 175 0
155 176 0
155 176 0
156 176 0
154 176 0
158 179 0
156 176 0
154 174 0
156 175 0
158 178 0
158 176 0
159 180 0
149 169 0
160 182 0
156 176 0
159 180 0
155 175 0
155 175 0
162 183 0
155 175 0
152 173 0
150 170 0
155 175 0
155 174 0
160 180 0
156 176 0
153 174 0
158 178 0
154 176 0
161 182 0
157 177 0
155 177 0
157 176 0
154 175 0
150 171 0
160 180 0
157 178 0
161 181 0
151 172 0
162 183 0
153 174 0
152 173 0
153 175 0
160 181 0
153 174 0
158 178 0
163 184 0
153 174 0
156 177 0
151 172 0
165 185 0
157 178 0
151 172 0
157 178 0
161 180 0
161 182 0
150 170 0
153 174 0
154 174 0
156 177 0
156 176 0
149 170 0
154 176 0
157 178 0
161 181 0
152 172 0
161 181 0
156 177 0
151 172 0
159 180 0
157 177 0
151 171 0
162 183 0
153 174 0
156 177 0
155 175 0
152 173 0
154 174 0
153 174 0
157 178 0
155 176 0
158 177 0
160 180 0
152 172 0
158 180 0
150 170 0
149 170 0
152 174 0
154 175 0
154 174 0
157 179 0
156 176 0
154 176 0
157 176 0
151 172 0
149 169 0
158 179 0
160 179 0
157 178 0
150 171 0
156 178 0
151 173 0
158 178 0
148 169 0
152 173 0
156 176 0
155 175 0
158 178 0
157 179 0
155 175 0
154 176 0
149 169 0
152 172 0
154 175 0
158 178 0
155 176 0
152 172 0
156 175 0
152 173 0
159 179 0
152 173 0
157 178 0
153 174 0
153 173 0
157 177 0
156 176 0
147 168 0
148 169 0
156 177 0
159 180 0
150 170 0
158 179 0
155 175 0
161 181 0
159 180 0
156 176 0
151 172 0
154 173 0
151 171 0
155 175 0
154 173 0
150 171 0
151 172 0
151 171 0
150 170 0
156 176 0
153 174 0
152 171 0
148 169 0
149 170 0
152 172 0
152 174 0
158 179 0
159 178 0
158 179 0
155 174 0
153 174 0
151 172 0
154 175 0
155 175 0
157 178 0
153 173 0
155 176 0
158 178 0
151 173 0
156 177 0
161 181 0
154 175 0
158 178 0
151 171 0
164 184 0
152 172 0
146 167 0
151 171 0
154 174 0
152 172 0
150 170 0
147 166 0
148 168 0
149 169 0
155 174 0
154 175 0
154 174 0
159 178 0
156 177 0
153 172 0
151 172 0
157 178 0
159 180 0
151 172 0
154 174 0
150 170 0
154 175 0
154 174 0
153 174 0
157 178 0
155 175 0
156 175 0
155 176 0
152 173 0
154 175 0
153 174 0
154 175 0
161 180 0
152 173 0
157 178 0
154 176 0
155 174 0
156 177 0
155 173 0
152 173 0
159 180 0
156 175 0
156 176 0
155 175 0
152 172 0
151 172 0
149 170 0
159 180 0
155 176 0
152 173 0
157 175 0
151 170 0
154 176 0
162 183 0
155 174 0
154 174 0
148 169 0
157 176 0
147 167 0
150 170 0
149 169 0
158 177 0
155 176 0
157 177 0
155 176 0
156 175 0
158 178 0
153 173 0
145 167 0
156 178 0
152 172 0
153 173 0
154 174 0
154 175 0
153 171 0
157 178 0
158 179 0
156 174 0
152 171 0
138 141 53
140 133 68
141 134 75
135 129 70
137 132 77
135 131 74
131 126 70
143 137 82
144 139 83
150 145 84
143 137 84
156 150 89
149 143 89
145 139 85
159 152 95
153 147 91
147 143 87
152 146 89
155 150 92
159 154 99
145 141 89
162 156 99
153 148 95
165 160 102
160 155 99
148 145 90
162 158 105
162 158 105
166 161 105
159 155 102
158 153 101
156 151 98
159 155 101
159 157 106
168 164 108
159 155 101
169 164 107
163 157 101
163 160 105
163 159 106
165 161 106
163 159 105
166 163 109
166 163 109
164 161 107
157 154 103
158 155 103
168 164 109
166 164 109
171 167 110
160 157 105
168 165 110
170 165 109
167 164 109
170 167 112
171 168 112
168 165 110
169 165 109
173 170 113
158 156 104
169 166 110
167 164 109
163 160 107
162 160 107
167 165 110
169 167 112
165 162 108
166 164 109
171 168 112
169 166 111
166 164 109
167 165 110
172 169 113
172 169 113
164 162 109
167 164 109
171 168 112
169 166 110
168 165 110
172 168 112
168 167 112
171 167 110
167 164 109
162 159 106
169 167 112
167 165 110
165 162 108
173 169 112
168 165 109
164 162 108
173 170 113
166 162 107
172 168 112
160 157 104
166 164 109
165 163 108
171 167 109
170 166 110
170 166 109
159 157 104
163 161 107
168 164 107
165 162 106
170 166 108
161 158 103
168 164 108
169 165 108
163 158 104
164 160 106
162 159 106
161 156 102
159 156 102
168 162 106
160 155 99
170 165 107
165 161 104
162 157 102
163 159 104
169 162 103
153 149 97
166 160 103
159 154 99
154 151 98
162 155 99
157 152 95
164 158 98
153 147 94
148 143 93
162 155 97
142 137 85
152 146 90
159 153 91
154 148 93
144 138 80
155 150 93
151 144 87
138 133 79
156 149 94
156 149 90
131 126 72
130 124 72
124 120 68
122 117 60
133 132 60
156 177 16
153 174 0
151 172 0
156 176 0
156 177 0
157 178 0
157 177 0
157 178 0
154 174 0
156 177 0
155 176 0
158 179 0
153 173 0
156 176 0
150 171 0
156 177 0
152 173 0
153 173 0
156 177 0
156 176 0
160 180 0
158 178 0
156 177 0
151 173 0
158 178 0
154 174 0
155 176 0
151 172 0
157 178 0
158 179 0
157 177 0
151 171 0
155 175 0
158 178 0
160 179 0
161 182 0
153 174 0
158 179 0
159 179 0
154 175 0
160 181 0
150 171 0
154 175 0
155 176 0
155 175 0
156 177 0
158 179 0
158 179 0
152 173 0
159 181 0
154 175 0
156 178 0
161 182 0
157 179 0
154 174 0
160 180 0
154 174 0
148 168 0
159 181 0
151 171 0
155 175 0
158 179 0
164 184 0
152 173 0
152 171 0
153 172 0
151 172 0
157 179 0
154 174 0
153 174 0
158 179 0
160 179 0
158 178 0
155 176 0
157 178 0
160 179 0
151 172 0
150 171 0
152 173 0
160 180 0
157 177 0
160 181 0
154 175 0
155 176 0
157 178 0
156 176 0
157 177 0
153 173 0
158 179 0
153 174 0
158 178 0
157 179 0
159 179 0
155 175 0
161 182 0
153 173 0
154 175 0
153 174 0
158 178 0
168 188 0
147 168 0
152 172 0
152 173 0
150 172 0
156 176 0
160 181 0
159 180 0
155 176 0
160 180 0
150 169 0
153 173 0
154 175 0
157 178 0
157 177 0
157 178 0
149 170 0
150 171 0
153 174 0
153 174 0
152 173 0
154 174 0
150 171 0
152 172 0
160 179 0
152 172 0
156 176 0
150 171 0
151 172 0
162 183 0
156 176 0
152 173 0
148 169 0
151 171 0
157 178 0
164 185 0
151 171 0
154 174 0
158 178 0
157 177 0
158 178 0
158 178 0
150 170 0
153 174 0
158 179 0
156 176 0
154 176 0
153 174 0
153 173 0
151 172 0
155 176 0
153 173 0
156 177 0
157 179 0
152 172 0
154 175 0
156 178 0
159 179 0
155 175 0
154 175 0
155 175 0
154 174 0
152 173 0
155 176 0
155 176 0
152 172 0
158 179 0
151 172 0
154 173 0
156 176 0
153 173 0
153 173 0
153 174 0
155 176 0
151 171 0
158 178 0
154 174 0
150 171 0
154 175 0
152 173 0
156 176 0
158 179 0
157 176 0
151 171 0
152 172 0
157 178 0
158 179 0
156 176 0
151 171 0
149 169 0
148 169 0
154 175 0
151 172 0
157 177 0
155 175 0
153 174 0
154 174 0
156 176 0
154 174 0
155 175 0
152 172 0
148 168 0
150 170 0
151 171 0
153 173 0
155 174 0
159 180 0
151 172 0
152 172 0
154 174 0
153 174 0
155 176 0
154 173 0
151 171 0
152 172 0
155 176 0
154 173 0
156 177 0
152 173 0
147 168 0
154 174 0
152 172 0
148 169 0
158 179 0
153 175 0
152 173 0
152 172 0
156 175 0
157 177 0
154 174 0
156 176 0
157 177 0
156 176 0
151 170 0
155 174 0
159 178 0
152 171 0
159 178 0
149 169 0
152 173 0
163 182 0
152 173 0
153 174 0
151 172 0
150 170 0
159 178 0
149 168 0
150 171 0
155 174 0
157 176 0
154 172 0
149 169 0
149 170 0
158 178 0
153 174 0
153 174 0
142 153 36
120 116 60
124 120 62
126 120 64
140 135 77
134 128 75
123 119 66
138 132 77
148 141 84
142 136 78
145 139 84
152 146 88
146 141 80
153 147 87
139 134 80
156 150 93
149 145 90
149 144 91
152 146 94
155 151 97
157 151 97
145 142 92
160 154 99
152 146 93
153 149 98
153 150 98
167 161 102
156 152 101
156 152 97
168 162 103
155 151 98
157 154 101
163 159 104
166 162 106
162 157 101
164 159 105
153 150 101
164 160 102
160 157 102
174 169 110
166 162 104
162 159 106
169 166 109
159 157 106
165 161 106
165 162 107
165 161 105
157 155 104
164 160 106
154 151 102
171 167 111
163 161 107
160 158 106
165 162 108
159 157 106
164 163 110
166 162 108
167 164 110
168 166 111
165 163 109
170 166 110
166 164 109
163 161 108
163 160 107
166 163 108
175 172 114
173 170 113
167 163 109
167 166 111
171 167 111
174 170 113
158 155 104
173 169 113
167 164 110
172 169 113
166 164 109
167 165 110
172 168 112
167 163 108
168 166 110
168 166 111
175 171 114
169 166 110
167 164 109
171 169 113
174 171 114
174 170 113
171 168 110
164 162 108
165 162 108
171 169 113
172 167 110
166 163 107
165 161 107
169 165 108
167 163 108
166 161 106
176 171 113
170 166 109
170 167 112
167 163 107
164 161 106
172 166 108
173 168 110
171 166 109
166 163 107
169 166 108
159 156 102
166 162 107
162 158 104
171 167 110
164 160 103
174 169 108
167 164 107
156 153 97
162 157 102
162 156 101
151 146 93
164 159 103
148 143 90
155 151 97
161 156 101
166 161 103
162 157 103
163 158 101
157 152 95
158 151 94
156 150 97
149 146 93
153 147 91
139 134 84
155 150 94
155 148 95
140 134 82
155 149 94
136 131 80
151 145 85
150 143 91
145 139 82
138 132 79
155 148 90
154 148 93
139 132 77
130 124 72
136 131 68
144 156 39
160 181 0
160 181 0
158 180 0
155 177 0
152 173 0
154 175 0
160 179 0
157 177 0
158 178 0
163 183 0
156 177 0
154 174 0
154 175 0
160 181 0
150 171 0
156 177 0
159 179 0
154 175 0
160 180 0
160 181 0
159 180 0
149 170 0
161 182 0
160 181 0
155 176 0
156 178 0
155 175 0
154 175 0
146 167 0
157 178 0
153 173 0
155 176 0
166 187 0
152 173 0
156 176 0
160 181 0
154 176 0
166 187 0
151 171 0
150 171 0
156 176 0
157 178 0
158 179 0
158 177 0
156 177 0
158 178 0
151 171 0
153 174 0
161 179 0
157 178 0
157 177 0
156 176 0
160 180 0
158 180 0
159 179 0
157 177 0
154 175 0
156 177 0
155 176 0
160 181 0
157 178 0
153 173 0
155 175 0
160 182 0
152 174 0
149 169 0
157 178 0
153 174 0
162 183 0
159 179 0
162 182 0
152 172 0
161 181 0
150 171 0
157 178 0
156 177 0
159 179 0
154 174 0
158 180 0
155 176 0
157 177 0
156 176 0
154 174 0
154 175 0
159 179 0
157 176 0
158 179 0
157 178 0
162 183 0
153 174 0
152 173 0
157 177 0
157 177 0
152 170 0
153 174 0
156 176 0
157 177 0
153 174 0
156 177 0
155 175 0
153 174 0
156 176 0
159 179 0
156 175 0
155 176 0
151 173 0
154 175 0
155 176 0
153 174 0
154 175 0
149 169 0
154 174 0
154 175 0
153 173 0
159 180 0
155 175 0
156 176 0
153 171 0
155 176 0
158 179 0
154 175 0
149 170 0
156 177 0
154 174 0
164 185 0
155 175 0
150 171 0
156 175 0
152 173 0
155 175 0
153 174 0
160 181 0
151 172 0
149 170 0
156 178 0
157 176 0
157 179 0
160 181 0
153 173 0
153 172 0
158 179 0
156 176 0
157 178 0
151 173 0
156 176 0
153 175 0
162 183 0
151 172 0
154 173 0
151 172 0
154 174 0
155 175 0
152 173 0
154 174 0
155 176 0
155 176 0
161 182 0
152 172 0
156 178 0
160 180 0
152 173 0
149 168 0
155 175 0
152 173 0
156 177 0
152 172 0
152 173 0
153 174 0
151 172 0
153 174 0
151 171 0
155 176 0
158 179 0
150 170 0
157 177 0
149 170 0
153 173 0
149 169 0
152 173 0
151 171 0
149 169 0
150 170 0
153 173 0
158 179 0
150 170 0
152 172 0
146 166 0
153 173 0
158 178 0
148 169 0
153 173 0
155 175 0
156 177 0
152 172 0
159 179 0
151 172 0
154 173 0
153 173 0
162 182 0
162 182 0
154 174 0
153 173 0
160 180 0
155 176 0
151 172 0
152 172 0
156 174 0
153 174 0
153 173 0
148 170 0
162 182 0
154 175 0
160 181 0
160 180 0
151 170 0
154 175 0
151 173 0
160 181 0
156 177 0
152 172 0
147 168 0
150 170 0
157 178 0
158 178 0
150 171 0
152 171 0
151 170 0
153 174 0
150 169 0
153 172 0
156 176 0
144 165 0
148 167 0
153 173 0
153 174 0
158 176 0
156 176 0
158 179 0
157 176 0
152 173 0
158 177 0
149 171 0
156 177 0
162 181 0
156 176 0
155 174 0
154 176 0
157 177 0
153 173 0
153 173 0
154 174 0
150 171 0
150 171 0
155 174 0
129 130 58
142 136 77
122 116 62
129 123 70
141 136 77
143 137 79
146 139 82
133 127 72
139 135 80
135 130 74
146 140 87
155 149 90
149 141 86
159 153 95
150 144 89
146 141 85
140 135 84
159 152 97
164 158 100
152 147 90
160 155 99
160 154 95
152 147 95
150 146 92
156 151 95
139 136 87
141 138 88
151 150 99
153 148 94
164 159 103
151 147 95
154 150 98
157 153 101
158 155 104
159 155 101
156 154 103
155 152 99
160 157 103
156 153 99
159 156 102
156 155 104
165 162 108
160 157 104
159 156 103
167 164 110
170 167 112
170 166 110
164 160 105
167 165 110
164 162 108
156 154 104
165 162 107
163 162 109
167 164 109
155 153 101
161 159 106
171 168 112
172 168 111
162 159 106
167 164 109
161 159 106
166 162 108
166 164 109
168 165 110
169 167 113
171 168 112
168 165 110
169 167 112
169 166 111
166 162 108
172 168 112
173 169 112
170 166 110
170 167 111
163 160 107
169 167 112
166 164 109
168 166 110
162 160 108
164 161 107
164 161 107
175 170 112
173 171 114
169 167 112
175 170 113
172 168 112
169 167 110
168 166 110
176 172 114
171 167 110
168 164 109
172 169 113
171 167 110
170 165 108
163 159 106
163 160 104
164 161 107
164 161 107
167 164 108
168 164 108
174 170 113
163 159 106
164 161 106
174 170 112
162 159 106
173 170 113
173 166 108
175 169 110
161 159 103
158 155 99
168 162 102
160 155 101
161 158 104
164 159 101
157 153 101
159 154 98
168 164 102
164 158 103
161 157 102
166 161 103
167 161 104
160 155 101
163 158 101
158 153 93
163 157 102
163 156 98
156 152 95
162 157 99
156 151 95
156 150 95
145 138 84
141 135 82
144 138 84
155 149 93
139 134 84
152 147 90
152 146 93
156 151 91
151 143 88
145 139 84
155 148 84
140 134 82
139 132 77
128 122 66
133 127 68
132 134 58
156 176 0
148 168 0
150 170 0
156 177 0
157 176 0
158 178 0
153 172 0
162 182 0
152 172 0
157 177 0
155 176 0
159 179 0
152 172 0
155 176 0
158 179 0
153 174 0
159 179 0
155 176 0
152 173 0
153 173 0
157 178 0
156 177 0
154 175 0
159 178 0
156 177 0
153 173 0
159 179 0
158 178 0
156 177 0
163 183 0
157 179 0
155 175 0
154 174 0
159 180 0
157 177 0
155 175 0
153 174 0
156 176 0
157 177 0
159 180 0
157 178 0
150 172 0
156 176 0
155 176 0
159 179 0
154 174 0
156 177 0
156 177 0
158 179 0
158 179 0
161 182 0
158 179 0
156 175 0
157 178 0
155 176 0
158 179 0
155 176 0
153 174 0
158 179 0
159 179 0
152 171 0
155 175 0
161 181 0
155 176 0
154 175 0
154 174 0
149 169 0
154 175 0
151 172 0
158 180 0
155 175 0
149 170 0
158 178 0
153 175 0
157 178 0
154 176 0
157 177 0
148 169 0
156 177 0
154 174 0
158 179 0
158 178 0
151 172 0
155 177 0
154 175 0
152 172 0
154 174 0
150 170 0
153 172 0
158 179 0
158 179 0
161 182 0
155 176 0
156 177 0
155 176 0
153 173 0
157 178 0
146 167 0
153 174 0
159 180 0
156 177 0
152 172 0
152 173 0
158 179 0
156 177 0
153 174 0
154 175 0
159 180 0
156 177 0
160 181 0
152 173 0
153 172 0
149 170 0
151 171 0
150 170 0
154 175 0
151 172 0
157 178 0
152 173 0
159 180 0
155 175 0
153 174 0
152 172 0
161 183 0
158 178 0
153 173 0
157 178 0
157 176 0
155 175 0
153 173 0
160 180 0
158 180 0
154 176 0
151 171 0
157 178 0
148 168 0
153 173 0
153 174 0
155 177 0
158 178 0
150 172 0
155 174 0
155 176 0
149 170 0
150 170 0
156 178 0
152 172 0
153 174 0
153 174 0
152 173 0
154 174 0
156 176 0
150 170 0
158 178 0
154 174 0
154 175 0
161 181 0
155 175 0
151 172 0
157 178 0
152 172 0
152 172 0
153 173 0
154 174 0
152 173 0
153 173 0
152 173 0
151 171 0
161 181 0
153 174 0
153 173 0
158 178 0
151 172 0
151 171 0
151 172 0
147 168 0
152 173 0
154 174 0
161 182 0
158 179 0
154 174 0
164 184 0
151 172 0
151 171 0
149 170 0
158 178 0
159 178 0
155 175 0
151 171 0
149 170 0
155 174 0
153 172 0
155 175 0
151 172 0
148 168 0
153 172 0
155 177 0
160 181 0
152 172 0
162 182 0
153 174 0
154 174 0
158 178 0
154 173 0
158 179 0
161 181 0
155 175 0
157 177 0
157 177 0
156 174 0
151 171 0
159 179 0
149 169 0
151 172 0
153 173 0
148 169 0
154 175 0
147 168 0
157 178 0
151 170 0
158 178 0
160 180 0
150 171 0
158 179 0
154 174 0
156 177 0
153 174 0
152 173 0
158 179 0
150 169 0
158 177 0
151 170 0
151 172 0
154 174 0
158 178 0
155 176 0
152 172 0
153 174 0
156 175 0
152 172 0
156 176 0
153 173 0
155 176 0
153 174 0
152 173 0
151 171 0
160 180 0
151 171 0
156 175 0
152 174 0
153 175 0
151 172 0
157 177 0
132 146 32
122 116 56
130 126 66
128 121 68
142 136 74
133 129 77
129 124 72
154 146 90
131 124 71
137 132 80
129 124 75
136 131 75
146 141 80
148 143 87
149 143 85
157 151 93
145 139 84
152 148 93
147 143 86
155 150 91
158 153 97
145 141 92
158 154 95
165 158 100
159 154 100
162 157 103
154 149 93
161 156 97
157 153 98
159 155 101
153 150 99
167 163 107
151 148 97
161 158 106
161 158 105
151 148 97
147 143 95
156 154 101
169 164 109
161 157 101
157 155 103
157 154 103
154 152 103
158 155 103
156 154 104
167 163 109
160 158 106
165 162 108
168 165 111
156 155 104
161 159 107
167 164 108
170 166 110
164 162 109
171 167 111
161 158 106
156 154 104
167 164 109
166 163 109
167 165 110
166 163 109
169 166 110
168 166 111
166 164 109
168 164 109
169 166 111
166 164 109
171 168 112
170 168 112
171 168 112
171 168 112
168 165 110
168 166 110
166 163 109
172 170 113
170 167 112
172 168 112
169 166 110
175 171 114
167 164 108
169 167 112
167 164 109
163 162 109
170 167 112
171 168 112
174 171 114
168 165 109
165 163 108
171 167 110
173 169 112
166 163 108
170 166 110
171 169 113
170 165 109
168 163 108
170 166 107
171 168 112
169 166 110
164 160 106
170 166 109
170 167 110
169 166 110
166 162 106
163 160 104
170 165 108
166 162 107
168 164 108
170 166 108
165 161 106
174 170 113
159 156 102
166 161 104
169 165 108
167 161 104
167 163 104
171 165 104
166 162 103
159 153 98
166 161 99
167 162 106
169 163 106
159 154 97
150 147 91
157 153 98
161 157 101
164 158 101
157 152 94
168 162 101
142 136 87
147 143 93
161 154 95
148 143 93
164 157 99
158 152 91
156 150 94
145 139 85
156 149 93
146 139 82
148 142 88
142 135 82
146 140 82
143 137 82
142 136 75
130 125 68
138 132 72
131 124 74
124 120 60
144 156 28
159 180 0
150 170 0
157 177 0
163 183 0
156 177 0
158 179 0
157 177 0
154 174 0
157 178 0
156 177 0
156 178 0
155 176 0
150 169 0
158 179 0
161 181 0
154 176 0
152 172 0
156 178 0
160 181 0
156 177 0
155 175 0
156 177 0
156 178 0
156 176 0
159 179 0
152 173 0
160 181 0
154 175 0
153 174 0
150 171 0
153 173 0
154 174 0
154 175 0
155 177 0
155 175 0
157 179 0
157 177 0
150 171 0
158 178 0
153 173 0
157 178 0
154 175 0
155 176 0
156 177 0
152 173 0
154 174 0
158 180 0
158 180 0
158 179 0
151 171 0
159 179 0
159 179 0
161 182 0
153 173 0
152 173 0
156 177 0
162 182 0
149 169 0
155 175 0
155 176 0
153 174 0
161 181 0
156 177 0
151 172 0
149 169 0
156 177 0
159 180 0
159 181 0
161 183 0
158 179 0
157 177 0
152 173 0
156 177 0
154 175 0
154 173 0
154 175 0
157 178 0
156 175 0
156 175 0
155 176 0
159 180 0
157 176 0
152 173 0
157 177 0
155 176 0
155 175 0
156 176 0
160 181 0
155 175 0
149 170 0
157 177 0
158 178 0
155 176 0
153 174 0
157 177 0
152 173 0
158 178 0
159 179 0
158 179 0
157 178 0
158 178 0
148 169 0
155 176 0
150 170 0
153 174 0
159 179 0
156 177 0
155 176 0
153 174 0
153 172 0
151 171 0
155 176 0
163 183 0
149 171 0
155 176 0
159 179 0
148 169 0
157 177 0
158 178 0
155 176 0
157 178 0
151 170 0
157 177 0
157 177 0
153 174 0
150 172 0
156 175 0
152 173 0
158 178 0
155 177 0
152 173 0
150 171 0
153 173 0
151 171 0
160 181 0
157 178 0
155 176 0
158 179 0
151 170 0
161 182 0
154 174 0
159 179 0
151 172 0
150 171 0
157 178 0
155 175 0
152 171 0
156 177 0
159 180 0
157 177 0
156 175 0
153 174 0
150 171 0
150 170 0
159 179 0
162 182 0
156 175 0
156 176 0
149 169 0
156 177 0
153 173 0
154 173 0
155 176 0
155 175 0
160 180 0
155 177 0
150 171 0
150 169 0
153 172 0
152 173 0
157 177 0
150 170 0
151 172 0
155 175 0
153 173 0
158 178 0
152 173 0
156 176 0
150 171 0
154 175 0
150 170 0
154 174 0
150 171 0
157 177 0
152 173 0
155 175 0
157 176 0
149 169 0
156 176 0
157 177 0
147 167 0
156 175 0
155 175 0
153 174 0
153 173 0
158 179 0
158 177 0
151 171 0
150 170 0
154 173 0
156 176 0
150 171 0
152 171 0
156 178 0
157 179 0
154 175 0
153 174 0
147 167 0
155 176 0
156 175 0
154 175 0
153 172 0
150 170 0
154 174 0
153 174 0
156 176 0
152 172 0
154 175 0
149 169 0
155 176 0
156 176 0
154 175 0
154 173 0
155 173 0
154 174 0
156 176 0
154 174 0
154 172 0
153 174 0
152 171 0
153 174 0
152 172 0
150 171 0
157 177 0
155 175 0
151 171 0
154 174 0
157 177 0
152 172 0
155 176 0
150 172 0
154 173 0
148 168 0
153 172 0
151 171 0
152 174 0
157 177 0
156 175 0
148 168 0
151 173 0
152 172 0
155 176 0
125 124 53
128 123 62
135 129 72
128 123 68
137 131 64
141 133 78
143 138 76
140 136 79
133 130 75
146 140 74
156 148 93
142 137 85
154 148 90
137 132 81
151 145 89
153 147 93
141 137 82
154 149 90
142 138 90
153 148 95
158 152 97
158 153 93
151 146 93
159 154 97
136 133 87
166 162 103
156 152 101
166 161 105
155 150 97
165 160 104
160 155 97
161 156 102
167 162 106
156 152 98
148 146 99
159 157 105
159 155 100
160 157 103
163 157 103
165 160 105
158 154 103
162 158 105
163 159 106
170 166 110
156 154 104
163 161 107
168 165 110
157 155 106
158 156 105
162 159 106
167 164 111
166 163 108
158 156 106
166 164 110
165 162 108
165 161 107
164 161 107
167 164 110
165 163 109
171 167 110
165 163 109
165 163 109
171 167 111
169 166 110
163 160 107
170 166 110
170 167 110
166 164 110
172 169 113
168 166 110
172 169 113
168 165 110
171 167 110
166 164 110
165 162 109
169 166 110
167 164 110
167 164 109
176 172 114
168 166 111
164 161 107
161 157 104
171 170 114
170 167 112
166 163 108
171 167 110
169 167 112
174 170 113
168 165 109
174 170 112
171 166 109
169 165 109
163 160 107
169 165 109
168 164 107
168 164 108
171 168 112
169 166 110
166 163 107
162 159 104
167 165 109
164 161 107
171 167 107
171 166 109
167 163 107
167 163 107
176 172 113
165 161 104
167 162 106
164 160 103
170 166 108
165 161 104
170 166 108
153 150 98
158 154 101
155 151 97
170 165 106
157 153 99
162 158 101
176 169 109
166 161 106
147 142 90
163 158 99
157 152 97
166 159 102
161 156 99
153 147 95
154 150 94
156 150 95
166 159 103
143 139 84
147 142 88
162 156 97
158 152 94
151 146 88
155 150 88
139 134 84
146 140 85
152 147 88
145 139 85
142 137 87
138 131 75
141 135 77
134 128 75
135 128 74
132 126 68
133 126 70
137 143 51
150 171 0
160 180 0
155 176 0
153 174 0
149 170 0
158 178 0
157 178 0
158 178 0
152 172 0
151 172 0
155 174 0
160 179 0
160 181 0
156 176 0
157 177 0
161 183 0
151 171 0
151 172 0
159 180 0
153 173 0
153 174 0
151 173 0
161 181 0
155 176 0
155 175 0
162 183 0
161 181 0
156 178 0
155 177 0
159 179 0
157 177 0
156 176 0
162 182 0
163 185 0
157 178 0
154 175 0
149 170 0
156 175 0
154 175 0
160 179 0
153 173 0
154 174 0
154 175 0
158 179 0
159 180 0
157 178 0
157 177 0
154 174 0
159 179 0
156 177 0
152 173 0
149 170 0
157 177 0
156 177 0
148 167 0
155 177 0
149 168 0
155 176 0
159 178 0
149 169 0
157 176 0
154 175 0
151 173 0
150 171 0
155 175 0
150 171 0
149 171 0
152 173 0
155 176 0
156 176 0
161 182 0
154 175 0
154 175 0
163 184 0
159 180 0
154 174 0
148 169 0
156 176 0
150 171 0
148 169 0
159 178 0
156 177 0
158 180 0
157 176 0
155 175 0
154 174 0
154 174 0
161 180 0
156 177 0
153 173 0
153 174 0
151 172 0
154 174 0
155 176 0
155 176 0
150 171 0
159 178 0
157 178 0
158 178 0
158 178 0
152 171 0
152 172 0
154 175 0
154 174 0
143 163 0
151 172 0
149 169 0
157 178 0
151 170 0
159 180 0
156 176 0
153 174 0
150 171 0
151 172 0
153 173 0
153 172 0
157 177 0
149 170 0
158 179 0
152 173 0
148 169 0
160 180 0
153 173 0
154 175 0
153 173 0
158 178 0
156 176 0
158 179 0
150 170 0
155 175 0
153 173 0
155 176 0
154 175 0
156 176 0
148 169 0
153 172 0
152 172 0
154 175 0
144 165 0
154 174 0
153 172 0
153 175 0
156 175 0
158 178 0
155 175 0
155 175 0
154 174 0
146 166 0
154 173 0
154 173 0
149 169 0
154 173 0
151 171 0
162 181 0
154 173 0
155 175 0
153 174 0
156 176 0
156 177 0
152 172 0
151 173 0
157 178 0
153 173 0
155 175 0
151 172 0
152 173 0
157 178 0
159 179 0
156 175 0
153 174 0
146 167 0
154 175 0
156 177 0
157 176 0
160 180 0
150 169 0
154 175 0
152 173 0
150 171 0
154 175 0
159 180 0
156 177 0
152 173 0
153 173 0
157 178 0
160 180 0
156 177 0
162 182 0
153 175 0
152 173 0
151 172 0
154 175 0
153 174 0
146 168 0
153 172 0
154 174 0
154 174 0
152 172 0
153 174 0
156 177 0
153 173 0
148 169 0
154 174 0
160 179 0
159 180 0
148 169 0
156 177 0
151 171 0
151 170 0
145 166 0
158 178 0
156 176 0
154 175 0
153 173 0
155 174 0
158 176 0
154 175 0
151 171 0
152 173 0
151 172 0
157 176 0
159 177 0
162 181 0
154 173 0
155 176 0
150 171 0
149 169 0
148 167 0
161 181 0
152 172 0
154 173 0
157 178 0
153 173 0
151 171 0
150 171 0
152 171 0
154 174 0
149 167 0
150 171 0
155 175 0
153 172 0
148 168 0
155 175 0
158 179 0
156 177 0
152 173 0
155 175 0
157 178 0
156 176 0
154 174 0
154 173 0
138 155 16
126 120 70
119 114 62
144 138 74
135 130 68
143 138 72
147 141 77
145 139 82
146 140 77
147 139 85
154 146 91
144 139 80
152 146 86
141 136 82
150 145 88
147 142 88
153 148 93
159 153 95
141 138 84
151 146 90
167 160 97
150 145 89
153 148 95
151 147 90
151 147 95
151 148 97
151 149 95
159 154 95
159 154 99
155 151 97
155 151 96
154 151 99
153 151 100
162 160 106
164 159 105
160 158 105
155 151 101
152 149 101
155 152 101
156 153 102
162 158 105
167 163 107
158 155 101
157 154 100
173 168 110
164 160 107
162 159 106
150 149 103
158 156 105
170 166 110
167 164 110
172 168 112
161 158 105
167 164 110
164 163 110
167 164 110
165 163 108
156 154 104
163 158 104
168 165 111
166 164 110
165 163 109
159 158 107
158 157 107
171 167 110
162 159 107
168 165 109
167 166 111
169 165 110
169 166 110
169 166 110
171 167 111
167 164 109
169 168 113
175 172 114
167 164 110
174 170 113
173 169 112
171 168 112
172 168 112
167 164 109
172 170 114
168 165 110
168 166 112
168 164 109
170 168 112
167 163 108
174 169 112
171 168 112
169 165 109
166 164 109
175 172 114
172 168 109
169 165 109
168 165 109
172 169 112
171 168 112
164 160 106
171 167 110
176 171 113
166 163 108
167 164 107
173 169 112
172 166 109
162 158 103
174 169 108
159 156 102
166 163 108
174 169 110
163 159 103
167 164 108
167 162 106
163 159 103
163 159 103
165 160 103
165 160 102
165 161 104
166 160 103
153 151 97
167 162 104
168 163 104
157 152 94
151 147 95
165 159 101
157 152 94
163 158 99
159 155 97
160 155 99
154 151 97
144 138 90
151 146 91
156 150 94
150 146 88
156 150 91
153 148 93
154 147 94
149 144 87
144 138 82
155 150 91
144 138 84
137 133 80
146 141 80
160 153 85
148 142 82
139 133 77
148 142 79
133 127 75
130 125 64
117 112 58
144 162 0
153 173 0
156 177 0
159 180 0
153 174 0
156 176 0
155 176 0
153 173 0
162 183 0
156 177 0
158 179 0
152 172 0
158 179 0
151 171 0
157 178 0
160 180 0
148 168 0
152 172 0
160 181 0
155 176 0
160 180 0
152 173 0
157 177 0
157 179 0
160 181 0
156 175 0
157 178 0
147 168 0
153 173 0
160 181 0
157 177 0
153 174 0
154 175 0
156 176 0
154 175 0
150 171 0
151 172 0
163 184 0
161 182 0
153 173 0
156 176 0
158 178 0
155 176 0
154 175 0
155 176 0
155 176 0
153 174 0
162 181 0
153 175 0
156 177 0
155 176 0
156 176 0
155 176 0
155 176 0
160 181 0
156 176 0
146 167 0
158 177 0
154 175 0
155 177 0
155 177 0
156 177 0
159 180 0
152 173 0
156 176 0
153 174 0
155 175 0
155 175 0
163 183 0
151 172 0
156 176 0
155 175 0
155 176 0
159 180 0
150 170 0
153 173 0
158 177 0
159 180 0
154 174 0
153 175 0
155 175 0
157 177 0
159 179 0
155 176 0
157 177 0
156 177 0
159 181 0
155 175 0
164 185 0
156 176 0
157 178 0
156 177 0
150 171 0
154 174 0
154 174 0
160 180 0
158 179 0
154 175 0
155 176 0
158 177 0
157 177 0
154 174 0
153 174 0
153 174 0
153 173 0
159 180 0
153 174 0
154 175 0
151 171 0
158 178 0
158 179 0
152 173 0
154 176 0
156 177 0
155 176 0
155 175 0
156 177 0
152 170 0
151 172 0
159 179 0
151 172 0
157 176 0
152 173 0
158 179 0
153 174 0
157 178 0
152 172 0
158 178 0
152 173 0
148 169 0
150 171 0
154 175 0
154 174 0
153 175 0
154 174 0
148 168 0
157 176 0
149 168 0
152 171 0
154 173 0
152 173 0
159 179 0
156 176 0
151 172 0
153 174 0
154 175 0
144 165 0
159 179 0
154 174 0
152 172 0
155 176 0
151 171 0
159 179 0
152 173 0
154 174 0
156 177 0
157 178 0
152 172 0
146 167 0
152 173 0
157 177 0
153 173 0
146 167 0
158 178 0
155 175 0
163 184 0
156 176 0
154 175 0
149 169 0
158 179 0
157 177 0
156 177 0
154 173 0
153 173 0
153 172 0
154 174 0
155 176 0
155 176 0
150 170 0
153 174 0
154 175 0
152 170 0
152 172 0
153 175 0
150 172 0
148 169 0
149 169 0
152 173 0
159 180 0
152 172 0
148 168 0
154 175 0
155 175 0
148 169 0
151 171 0
150 171 0
150 170 0
155 175 0
154 174 0
152 172 0
157 177 0
155 174 0
152 173 0
159 180 0
152 172 0
150 170 0
152 173 0
158 179 0
152 172 0
149 169 0
153 173 0
156 176 0
152 172 0
155 174 0
151 171 0
156 175 0
154 173 0
152 172 0
151 171 0
157 177 0
151 171 0
158 178 0
152 173 0
149 167 0
148 168 0
150 170 0
156 175 0
154 173 0
154 172 0
151 171 0
151 172 0
159 180 0
157 176 0
159 179 0
152 172 0
148 169 0
158 177 0
154 174 0
157 178 0
156 176 0
154 174 0
151 169 0
157 177 0
158 179 0
152 173 0
158 179 0
157 178 0
153 172 0
153 173 0
151 170 0
157 178 0
123 125 51
127 121 64
133 127 68
134 129 66
130 126 70
138 132 68
137 131 75
137 131 68
151 146 88
150 145 87
151 145 88
143 137 82
145 140 85
141 136 78
157 151 92
157 152 93
153 147 91
145 141 81
150 146 92
154 149 94
163 158 100
150 145 93
162 157 99
145 140 89
151 148 93
163 157 103
162 157 99
160 157 101
160 156 102
156 151 96
157 152 99
158 154 98
161 157 102
156 154 102
156 152 99
154 151 102
147 145 95
160 157 103
159 156 103
157 154 102
144 144 99
166 162 107
158 156 103
157 154 101
162 159 105
154 152 103
154 151 99
154 152 104
163 159 106
165 163 109
170 165 109
165 162 108
160 158 106
160 157 106
166 164 110
156 153 102
163 160 107
162 160 108
169 167 112
160 158 106
166 163 109
171 168 111
160 158 106
169 166 110
168 165 109
165 163 109
169 165 109
167 165 109
163 162 109
167 165 111
168 165 110
172 168 111
173 170 113
175 172 114
166 163 108
168 164 109
165 162 108
169 165 109
172 169 112
175 172 114
172 168 112
166 162 107
166 165 110
173 170 113
174 170 113
173 169 112
161 158 106
171 168 112
170 165 109
172 169 112
169 166 110
170 165 109
171 167 110
170 168 110
171 167 110
172 168 110
173 170 113
164 160 106
173 169 110
166 162 107
174 169 110
170 167 109
169 165 108
170 166 108
159 155 102
169 165 107
166 162 106
168 164 108
170 166 108
172 166 109
167 163 106
166 162 106
167 163 108
156 150 95
162 158 102
176 170 103
169 164 107
172 166 108
162 158 101
161 157 99
153 148 95
153 149 87
166 161 99
164 159 102
163 157 101
159 154 99
166 160 101
167 163 102
163 158 97
159 154 97
151 147 94
155 150 95
161 155 98
158 154 97
152 147 91
148 144 87
162 155 97
165 157 97
157 151 91
150 145 90
157 150 85
153 147 85
128 122 68
151 144 84
139 134 66
138 132 70
142 135 77
147 141 77
120 114 62
130 140 39
156 176 0
158 177 0
156 175 0
158 178 0
156 177 0
155 175 0
163 184 0
160 179 0
156 176 0
155 176 0
153 173 0
162 182 0
150 171 0
154 176 0
158 178 0
155 175 0
160 180 0
161 181 0
151 172 0
160 180 0
152 173 0
155 176 0
153 174 0
151 172 0
151 172 0
157 178 0
155 175 0
155 176 0
153 174 0
150 170 0
154 175 0
154 174 0
152 172 0
161 181 0
153 173 0
152 173 0
158 178 0
154 175 0
155 176 0
152 173 0
158 179 0
151 172 0
158 178 0
159 179 0
156 177 0
158 177 0
156 177 0
155 175 0
153 174 0
153 174 0
155 176 0
155 174 0
154 175 0
155 177 0
157 178 0
154 175 0
157 177 0
159 180 0
158 178 0
157 177 0
157 179 0
156 175 0
152 173 0
153 174 0
156 176 0
151 170 0
155 175 0
157 177 0
153 173 0
158 178 0
154 176 0
151 172 0
154 174 0
150 170 0
155 175 0
152 172 0
152 173 0
152 172 0
154 175 0
159 180 0
154 174 0
160 181 0
160 181 0
156 178 0
159 180 0
158 178 0
154 174 0
151 172 0
153 173 0
156 177 0
154 175 0
156 177 0
154 175 0
153 173 0
159 181 0
162 183 0
150 171 0
154 176 0
150 171 0
153 174 0
154 175 0
152 172 0
151 171 0
152 172 0
160 181 0
152 173 0
155 176 0
153 174 0
153 175 0
155 176 0
150 171 0
153 173 0
154 174 0
152 173 0
158 178 0
153 174 0
158 179 0
151 172 0
155 175 0
160 179 0
155 175 0
160 181 0
157 177 0
152 173 0
153 174 0
157 179 0
153 175 0
159 180 0
163 184 0
154 174 0
155 176 0
154 175 0
152 172 0
153 173 0
149 170 0
155 176 0
154 175 0
155 175 0
153 174 0
151 171 0
147 167 0
146 167 0
150 171 0
153 173 0
155 174 0
158 179 0
150 171 0
153 174 0
150 172 0
147 167 0
149 168 0
156 177 0
156 176 0
152 172 0
148 169 0
154 175 0
150 169 0
152 172 0
152 172 0
157 178 0
157 177 0
156 177 0
158 178 0
149 169 0
157 178 0
152 172 0
154 174 0
150 169 0
149 169 0
152 172 0
151 170 0
155 175 0
151 171 0
152 172 0
151 171 0
159 179 0
154 172 0
151 171 0
151 172 0
153 174 0
155 175 0
148 167 0
153 172 0
148 169 0
153 173 0
156 176 0
148 169 0
149 169 0
156 176 0
154 173 0
152 172 0
156 176 0
151 171 0
151 172 0
153 173 0
157 177 0
162 182 0
153 173 0
154 174 0
156 177 0
157 176 0
154 174 0
152 173 0
153 174 0
151 171 0
155 176 0
149 169 0
153 174 0
150 170 0
155 174 0
152 172 0
152 172 0
153 172 0
154 174 0
154 174 0
153 173 0
151 172 0
153 174 0
154 175 0
152 173 0
150 170 0
156 176 0
155 174 0
152 172 0
152 174 0
157 176 0
160 180 0
148 168 0
150 170 0
157 174 0
159 178 0
157 178 0
156 176 0
152 171 0
148 169 0
158 178 0
147 167 0
150 171 0
154 174 0
160 181 0
156 176 0
153 173 0
154 173 0
157 177 0
148 167 0
158 177 0
149 169 0
156 176 0
149 171 0
149 168 22
125 120 68
129 123 64
128 124 66
134 128 66
157 150 88
122 118 58
145 139 80
135 130 72
147 141 80
134 128 72
147 142 83
138 133 81
141 137 80
146 139 86
151 146 93
144 139 85
157 151 90
156 150 96
141 139 88
160 154 99
148 144 94
158 153 95
150 146 91
160 154 96
137 135 92
151 147 93
140 136 85
150 146 94
153 150 100
164 158 102
156 152 100
161 156 103
153 149 99
151 148 99
160 156 102
160 156 102
156 153 102
170 166 108
156 153 102
162 159 106
152 150 101
157 155 103
152 150 99
169 165 108
162 159 105
162 159 107
159 158 106
163 160 108
159 158 106
162 159 106
173 168 110
163 160 108
164 162 109
150 149 101
161 159 106
162 160 106
159 157 106
167 163 108
161 159 107
165 163 109
166 164 111
168 164 109
167 164 110
161 160 109
161 159 106
169 166 111
166 164 110
165 163 109
170 166 110
163 161 109
164 162 110
167 164 109
171 168 112
168 165 110
172 168 112
170 166 111
167 163 108
173 170 113
171 167 111
172 169 112
174 170 113
171 168 112
173 170 113
169 166 110
168 164 107
166 163 109
169 166 110
170 166 109
170 167 110
172 170 114
172 167 110
174 170 113
168 164 108
169 166 110
171 168 112
172 167 109
168 164 108
170 166 108
171 168 110
167 163 107
169 165 108
169 166 110
168 164 108
173 169 112
170 167 110
171 166 108
164 160 104
170 166 109
168 164 108
173 169 110
167 162 106
159 155 99
164 161 106
169 165 104
158 153 97
173 169 112
166 160 103
161 157 99
160 154 99
154 149 94
159 155 101
168 162 101
158 154 102
167 161 102
165 159 102
158 153 91
169 163 103
159 153 95
168 163 104
163 158 102
148 143 87
164 158 99
165 159 97
153 147 93
157 153 97
158 151 94
167 159 98
149 144 87
142 137 82
145 140 88
150 145 87
140 134 77
140 134 72
143 138 80
145 139 82
133 127 79
143 136 79
141 133 79
134 128 72
132 129 66
153 174 0
153 173 0
156 177 0
153 174 0
153 174 0
153 174 0
151 171 0
155 176 0
153 173 0
153 173 0
161 182 0
159 179 0
159 179 0
161 182 0
151 171 0
152 172 0
152 172 0
154 174 0
159 178 0
154 175 0
155 176 0
152 173 0
155 175 0
165 185 0
156 178 0
150 171 0
155 175 0
152 173 0
147 169 0
154 175 0
158 178 0
154 174 0
153 174 0
150 171 0
152 173 0
158 178 0
159 179 0
154 175 0
159 180 0
157 177 0
150 172 0
156 176 0
159 179 0
154 174 0
159 179 0
156 177 0
154 174 0
159 180 0
154 175 0
155 175 0
157 179 0
158 179 0
152 172 0
156 177 0
154 175 0
156 177 0
158 179 0
154 175 0
151 171 0
157 178 0
153 174 0
157 178 0
154 175 0
158 177 0
159 179 0
158 178 0
160 182 0
153 174 0
151 172 0
158 179 0
158 179 0
154 174 0
153 174 0
151 170 0
159 179 0
148 168 0
153 174 0
156 176 0
157 178 0
150 172 0
154 174 0
156 176 0
161 182 0
158 179 0
150 170 0
154 175 0
159 179 0
154 174 0
154 175 0
153 173 0
157 177 0
159 179 0
153 174 0
159 179 0
149 170 0
149 170 0
150 171 0
153 173 0
154 175 0
153 173 0
154 175 0
151 171 0
153 173 0
154 174 0
156 177 0
151 173 0
155 176 0
155 175 0
152 173 0
156 178 0
155 176 0
154 175 0
150 171 0
157 178 0
155 176 0
154 175 0
162 184 0
153 173 0
156 177 0
151 172 0
149 168 0
151 172 0
156 177 0
154 175 0
149 170 0
156 177 0
154 174 0
158 177 0
157 178 0
153 174 0
155 175 0
148 168 0
155 175 0
153 173 0
155 175 0
151 171 0
154 175 0
155 175 0
152 172 0
157 177 0
151 172 0
160 180 0
155 175 0
148 169 0
154 174 0
152 172 0
153 174 0
162 182 0
145 166 0
155 176 0
147 168 0
158 180 0
149 169 0
155 175 0
156 177 0
159 180 0
153 173 0
159 180 0
150 171 0
155 176 0
152 172 0
147 168 0
159 179 0
152 171 0
147 167 0
151 172 0
148 170 0
152 172 0
158 179 0
152 172 0
155 175 0
156 176 0
156 176 0
159 180 0
153 174 0
154 176 0
151 172 0
152 171 0
152 173 0
153 174 0
155 175 0
158 178 0
150 170 0
149 169 0
156 176 0
148 168 0
154 173 0
153 173 0
154 175 0
151 172 0
154 175 0
151 171 0
156 177 0
152 173 0
151 170 0
151 172 0
151 172 0
151 171 0
146 167 0
151 171 0
154 175 0
155 175 0
150 169 0
149 168 0
156 175 0
151 170 0
152 171 0
153 174 0
151 172 0
154 175 0
157 177 0
155 176 0
152 171 0
151 171 0
155 175 0
151 170 0
160 180 0
153 174 0
155 175 0
159 178 0
153 172 0
152 171 0
153 173 0
156 177 0
150 171 0
155 175 0
151 171 0
155 174 0
156 175 0
151 172 0
151 169 0
150 171 0
156 177 0
159 178 0
150 171 0
154 173 0
154 174 0
150 169 0
152 174 0
151 171 0
149 170 0
150 170 0
154 174 0
152 172 0
153 173 0
154 174 0
158 179 0
152 171 0
156 175 0
130 135 51
123 118 66
118 114 60
136 130 62
137 133 75
119 114 67
157 149 82
144 139 75
139 133 77
143 137 77
142 138 80
146 140 85
149 142 87
152 147 94
145 141 84
153 148 92
155 149 95
149 142 88
155 147 88
152 146 88
157 152 99
147 144 90
152 148 91
158 153 93
152 149 98
161 156 98
156 152 97
148 144 90
150 147 94
156 152 100
147 145 94
144 141 88
159 156 103
152 149 96
145 142 94
160 156 102
156 151 99
163 160 107
159 153 101
161 158 105
159 156 106
147 144 96
157 154 101
163 159 102
160 157 106
158 156 104
152 149 100
165 163 110
159 158 105
150 149 101
171 167 110
156 154 105
165 163 109
167 164 109
162 158 104
163 161 109
171 168 112
159 156 105
167 164 109
162 159 107
167 163 107
169 167 110
169 166 111
166 164 110
166 163 109
169 166 110
169 166 111
171 167 110
163 160 108
168 166 110
169 166 110
169 166 110
167 165 110
175 171 114
170 167 112
174 170 113
174 168 109
171 168 112
171 166 109
166 163 108
170 167 112
170 165 108
173 170 113
175 171 113
175 171 113
175 172 114
169 166 109
171 169 112
177 173 114
168 164 109
169 166 109
174 170 113
177 171 112
172 168 110
171 169 112
171 167 110
159 156 103
173 169 110
174 171 113
164 161 107
168 165 109
176 171 110
172 168 112
176 170 109
165 162 107
167 163 108
168 165 107
171 165 108
172 167 108
168 164 108
157 154 101
171 166 106
163 160 104
167 162 98
161 158 101
163 159 103
165 160 106
160 154 98
172 167 109
160 155 99
168 164 104
156 151 98
162 158 101
155 151 97
163 157 101
164 158 102
150 146 93
169 162 103
161 156 97
159 154 97
156 150 94
155 150 90
161 156 98
159 152 94
160 153 95
152 147 88
163 155 98
155 151 94
151 145 87
151 144 84
150 144 88
145 139 84
148 142 87
148 141 88
145 138 84
142 135 75
133 129 77
126 121 62
143 137 75
130 123 66
124 118 62
145 157 42
151 171 0
155 176 0
153 172 0
157 179 0
156 175 0
159 178 0
156 176 0
155 174 0
157 177 0
155 175 0
151 172 0
157 178 0
153 173 0
153 173 0
158 179 0
163 183 0
163 184 0
152 173 0
154 174 0
152 172 0
156 177 0
152 172 0
154 174 0
159 180 0
154 174 0
160 180 0
163 184 0
154 174 0
152 173 0
159 180 0
158 178 0
152 173 0
152 171 0
152 173 0
157 178 0
151 173 0
162 183 0
159 181 0
162 183 0
153 174 0
154 174 0
154 175 0
157 176 0
158 178 0
161 181 0
158 178 0
152 173 0
152 172 0
154 174 0
152 173 0
159 180 0
155 175 0
150 171 0
156 178 0
159 180 0
154 175 0
158 178 0
156 177 0
156 176 0
154 175 0
157 179 0
153 174 0
153 174 0
158 179 0
154 174 0
159 180 0
154 175 0
153 173 0
150 171 0
154 173 0
157 178 0
158 179 0
157 178 0
151 172 0
156 177 0
148 169 0
153 174 0
148 168 0
156 177 0
157 178 0
158 178 0
153 175 0
158 179 0
156 178 0
153 174 0
155 175 0
150 171 0
156 177 0
161 181 0
155 176 0
161 182 0
156 175 0
151 171 0
156 176 0
149 170 0
158 179 0
160 181 0
164 185 0
154 174 0
162 182 0
150 171 0
154 175 0
154 174 0
154 175 0
156 177 0
158 178 0
160 180 0
151 173 0
154 175 0
156 176 0
157 178 0
152 172 0
152 173 0
153 173 0
154 174 0
155 175 0
151 171 0
157 179 0
152 172 0
150 170 0
159 179 0
158 179 0
150 171 0
156 176 0
150 170 0
151 171 0
153 173 0
152 173 0
147 167 0
148 169 0
152 172 0
156 176 0
154 174 0
156 177 0
160 180 0
151 172 0
153 173 0
151 171 0
149 170 0
152 172 0
154 175 0
150 170 0
151 172 0
152 173 0
158 179 0
150 169 0
154 175 0
155 175 0
153 172 0
153 173 0
158 179 0
152 172 0
159 179 0
159 179 0
152 173 0
151 172 0
150 171 0
147 167 0
155 173 0
154 176 0
155 176 0
155 176 0
150 172 0
150 171 0
150 170 0
148 170 0
149 169 0
153 172 0
154 174 0
151 173 0
151 172 0
155 175 0
155 176 0
151 172 0
160 179 0
155 176 0
156 175 0
156 176 0
152 172 0
153 174 0
149 170 0
152 172 0
155 175 0
157 177 0
150 171 0
148 167 0
152 172 0
150 169 0
152 171 0
155 175 0
152 173 0
154 174 0
154 175 0
156 175 0
153 172 0
153 173 0
154 174 0
158 179 0
158 177 0
151 171 0
155 174 57
146 168 72
137 158 89
131 153 98
133 155 85
126 149 117
105 131 144
121 145 124
111 136 138
113 138 130
106 132 133
120 144 130
108 135 143
103 129 141
122 146 122
130 154 105
127 150 118
129 151 103
149 169 56
150 169 50
155 173 0
153 172 0
154 174 0
148 168 0
154 175 0
153 173 0
158 178 0
152 171 0
149 167 0
156 175 0
151 170 0
155 174 0
151 172 0
150 170 0
153 174 0
150 171 0
156 176 0
149 169 0
150 170 0
153 172 0
155 175 0
150 171 0
152 172 0
156 174 0
155 175 0
149 169 0
152 171 0
153 172 0
123 120 60
126 121 66
119 115 62
132 127 59
141 133 74
140 134 75
138 133 74
152 146 85
151 146 88
138 132 75
141 134 83
136 131 77
146 141 89
140 136 85
163 157 95
153 148 91
141 136 83
138 134 84
130 127 80
145 141 79
155 150 90
156 151 93
157 152 98
152 147 95
148 145 97
152 148 99
151 148 92
153 149 99
154 150 96
157 154 101
148 146 97
148 145 95
156 153 101
154 150 97
152 150 99
147 145 95
151 148 95
155 151 101
155 150 99
147 145 99
159 155 104
158 155 104
159 155 103
154 151 103
155 152 100
159 156 105
167 163 108
168 164 108
160 158 107
154 151 102
159 157 106
162 159 107
160 158 106
165 161 108
173 169 112
159 157 107
161 158 107
173 169 112
167 164 110
173 169 113
155 153 103
163 161 108
165 163 110
159 158 106
168 165 109
169 166 111
170 166 110
165 164 110
167 164 109
172 168 111
162 159 107
169 166 110
176 172 114
169 166 110
168 166 111
172 169 112
172 169 112
171 168 112
174 169 112
165 162 108
174 169 112
176 172 114
171 169 113
175 169 111
171 168 112
176 171 113
164 161 106
173 169 112
172 169 112
175 170 113
172 167 110
174 170 110
171 168 110
176 171 113
172 169 112
172 167 108
172 169 112
173 169 112
172 168 110
167 162 104
170 168 110
167 164 108
172 168 110
170 166 109
173 168 109
175 171 110
170 166 108
167 162 106
169 164 104
167 163 106
177 171 108
167 164 108
157 154 101
167 163 106
166 162 106
169 165 107
162 159 102
167 160 102
169 164 106
165 160 101
165 160 101
166 162 104
171 166 107
160 155 99
168 163 101
156 151 97
158 154 97
147 144 87
164 158 99
148 143 90
161 154 95
155 150 95
162 156 99
160 154 97
153 148 90
159 153 93
141 137 84
161 155 90
149 144 90
142 136 82
144 139 84
142 136 79
152 146 85
151 144 84
138 133 74
137 132 77
141 134 75
115 111 60
117 112 62
135 129 77
133 127 64
128 130 51
166 186 0
156 177 0
150 170 0
160 180 0
160 180 0
160 178 0
148 169 0
153 171 0
162 183 0
152 172 0
160 180 0
158 180 0
154 176 0
161 181 0
158 179 0
154 174 0
157 178 0
153 173 0
153 173 0
154 175 0
156 176 0
157 178 0
156 178 0
153 173 0
158 179 0
155 175 0
155 174 0
155 176 0
154 175 0
151 171 0
154 175 0
156 178 0
150 170 0
159 181 0
155 176 0
151 171 0
148 169 0
154 174 0
163 184 0
155 175 0
157 177 0
160 181 0
152 173 0
154 175 0
154 175 0
161 182 0
159 179 0
154 175 0
162 183 0
156 177 0
149 169 0
153 174 0
159 179 0
148 169 0
167 188 0
155 177 0
159 180 0
159 179 0
156 178 0
156 177 0
159 180 0
156 176 0
155 176 0
158 179 0
153 174 0
152 172 0
156 177 0
152 172 0
151 171 0
155 175 0
152 173 0
156 176 0
158 178 0
152 172 0
154 175 0
151 171 0
161 182 0
146 167 0
154 175 0
152 173 0
154 175 0
157 178 0
156 177 0
156 177 0
152 173 0
151 172 0
160 180 0
153 173 0
154 175 0
156 176 0
157 177 0
163 182 0
154 176 0
152 172 0
147 168 0
153 173 0
160 180 0
160 181 0
160 181 0
153 174 0
153 174 0
158 179 0
155 175 0
153 175 0
152 172 0
154 175 0
154 175 0
159 179 0
150 169 0
151 171 0
155 175 0
154 174 0
158 178 0
156 176 0
152 171 0
154 175 0
153 175 0
155 175 0
158 178 0
154 174 0
157 178 0
155 176 0
154 174 0
154 175 0
154 175 0
154 174 0
159 179 0
156 176 0
155 175 0
149 170 0
151 173 0
160 180 0
155 175 0
158 178 0
153 174 0
152 173 0
153 172 0
159 178 0
147 168 0
151 170 0
158 178 0
153 173 0
159 179 0
153 172 0
150 170 0
148 169 0
153 173 0
151 171 0
155 175 0
150 171 0
156 176 0
149 169 0
160 181 0
152 172 0
155 177 0
148 167 0
152 173 0
157 177 0
156 177 0
149 170 0
152 173 0
154 174 0
153 173 0
151 170 0
150 170 0
156 177 0
150 171 0
157 177 0
148 168 0
148 169 0
150 169 0
154 176 0
160 180 0
150 170 0
152 171 0
152 172 0
146 166 0
153 173 0
162 181 0
153 173 0
156 175 0
150 170 0
154 173 0
155 175 0
155 174 0
152 173 0
158 177 0
152 171 0
155 174 0
153 173 0
152 173 0
150 170 0
147 167 0
143 165 35
128 150 95
133 155 112
104 130 146
84 116 167
81 112 162
70 106 181
61 97 176
61 99 180
62 99 182
61 99 180
61 98 177
62 100 182
61 99 181
63 101 182
62 99 182
63 100 182
62 100 181
63 101 182
63 100 182
61 99 180
61 98 179
62 100 181
62 99 180
62 99 180
62 99 179
61 98 179
70 103 172
90 120 165
88 115 148
108 134 137
119 143 126
128 150 116
143 164 60
157 176 0
154 174 0
151 172 0
150 170 0
150 169 0
154 175 0
153 174 0
152 172 0
154 173 0
153 173 0
157 175 0
151 171 0
156 176 0
152 172 0
151 169 0
151 168 0
151 170 0
157 177 0
155 174 0
145 166 0
131 143 28
112 107 48
125 119 72
132 127 64
133 129 68
134 129 78
142 136 79
150 142 75
143 137 76
146 139 80
145 139 83
143 136 80
119 115 64
144 138 84
139 134 80
146 141 87
146 141 84
152 147 90
150 144 90
146 142 88
148 144 90
166 160 102
140 137 87
157 151 93
157 153 94
149 143 91
138 135 88
149 144 90
156 153 98
139 136 90
145 143 97
157 152 100
158 155 101
163 158 102
154 151 100
152 149 98
154 152 102
151 148 99
154 151 101
147 145 97
151 148 96
157 155 103
166 162 106
148 148 100
151 149 99
164 161 107
160 157 103
169 165 110
154 153 102
164 161 108
163 158 106
157 155 104
159 157 106
159 158 106
163 161 107
164 160 106
162 159 106
159 157 107
168 165 110
167 164 109
168 164 109
170 166 110
162 159 107
163 161 109
167 165 111
172 169 112
170 167 109
167 164 110
168 165 110
173 168 111
166 162 109
171 167 111
172 168 112
173 169 112
173 169 111
169 165 110
175 171 113
164 162 108
173 168 111
173 170 113
174 170 113
172 170 113
171 168 112
167 164 109
173 170 113
174 170 111
172 168 112
165 162 108
173 168 110
175 170 112
172 168 109
170 168 112
164 160 106
175 171 110
164 161 106
173 170 113
172 169 109
172 167 109
166 162 106
173 169 110
170 166 110
173 169 107
170 167 109
176 171 112
166 163 107
172 169 110
167 163 107
162 160 102
170 166 107
156 152 99
167 164 104
159 155 101
169 164 104
161 158 103
162 158 102
159 155 97
168 164 108
167 162 103
168 163 106
150 147 93
166 159 99
166 161 102
167 161 104
166 160 99
160 155 98
172 165 104
160 156 95
162 156 98
168 163 103
142 139 87
163 156 97
154 149 93
159 153 95
159 153 93
157 152 95
159 153 95
159 152 93
155 149 91
150 144 88
157 150 95
152 148 93
154 149 87
144 138 84
144 139 79
155 148 85
150 143 84
149 143 84
153 146 88
149 142 82
146 138 82
138 132 79
137 131 75
138 132 72
161 180 16
155 176 0
156 176 0
154 173 0
153 174 0
154 175 0
155 175 0
157 177 0
154 176 0
149 169 0
158 178 0
148 167 0
156 176 0
151 172 0
160 180 0
149 170 0
150 171 0
155 175 0
156 177 0
153 174 0
157 178 0
160 181 0
154 174 0
154 174 0
159 179 0
159 179 0
163 184 0
163 184 0
159 178 0
157 179 0
149 170 0
154 174 0
154 173 0
157 178 0
154 175 0
157 178 0
156 176 0
154 175 0
148 168 0
156 176 0
152 171 0
157 177 0
154 175 0
157 178 0
159 179 0
152 173 0
156 177 0
154 175 0
159 179 0
151 173 0
152 173 0
153 173 0
158 178 0
158 178 0
154 174 0
155 175 0
159 180 0
160 181 0
162 182 0
150 170 0
151 172 0
150 169 0
156 176 0
154 174 0
154 174 0
160 179 0
153 174 0
156 177 0
155 175 0
156 177 0
159 179 0
151 172 0
154 176 0
157 177 0
149 169 0
153 173 0
161 181 0
152 173 0
155 177 0
154 175 0
152 174 0
157 179 0
163 183 0
154 175 0
155 175 0
154 175 0
154 175 0
163 183 0
156 176 0
153 174 0
163 183 0
154 174 0
157 177 0
154 175 0
155 175 0
150 172 0
155 177 0
149 170 0
156 177 0
152 172 0
152 173 0
155 175 0
154 175 0
160 180 0
153 175 0
150 170 0
155 176 0
158 178 0
157 177 0
154 174 0
156 177 0
159 180 0
149 170 0
147 168 0
154 175 0
151 170 0
152 173 0
158 178 0
155 176 0
160 181 0
158 178 0
157 178 0
150 170 0
160 181 0
153 173 0
152 173 0
162 182 0
157 177 0
152 172 0
153 174 0
151 171 0
157 178 0
148 168 0
155 175 0
153 173 0
152 172 0
155 176 0
154 176 0
155 175 0
153 173 0
155 174 0
151 173 0
152 173 0
146 168 0
152 172 0
151 172 0
150 171 0
155 175 0
149 169 0
154 173 0
160 181 0
154 175 0
154 175 0
153 173 0
150 171 0
150 170 0
151 172 0
153 174 0
157 177 0
157 177 0
151 172 0
151 172 0
160 179 0
163 181 0
157 177 0
156 176 0
152 173 0
155 176 0
153 174 0
151 172 0
155 175 0
154 174 0
149 170 0
153 173 0
158 179 0
158 178 0
154 174 0
152 172 0
159 179 0
152 172 0
149 169 0
157 178 0
152 173 0
147 168 0
150 172 0
150 171 0
152 172 0
151 171 0
151 170 43
142 164 77
125 148 114
105 131 135
72 105 172
62 99 180
62 99 180
61 97 177
64 101 183
61 99 181
62 99 181
62 99 180
62 100 181
62 99 178
61 99 180
63 101 184
61 98 178
61 98 179
61 99 181
62 99 179
61 99 181
61 99 181
62 99 181
61 99 181
63 101 184
63 101 183
62 99 180
62 99 181
62 99 180
61 98 179
63 101 185
61 98 180
61 97 176
62 99 180
62 100 182
62 100 182
62 99 180
62 99 180
63 100 181
69 102 167
90 119 159
103 129 142
133 156 97
148 168 43
156 175 0
150 171 0
154 175 0
153 173 0
153 173 0
146 167 0
154 173 0
156 177 0
153 172 0
151 171 0
151 169 0
153 173 0
153 172 0
151 170 0
156 175 0
125 129 48
131 125 68
132 125 64
142 134 76
148 142 82
128 123 70
128 122 64
132 127 73
143 137 84
152 147 87
145 139 80
143 137 75
138 134 78
151 148 90
142 137 87
140 136 87
141 136 85
144 139 88
154 149 93
149 145 91
155 149 98
158 152 94
155 149 92
151 147 94
159 153 96
154 150 98
165 159 104
155 152 99
150 146 98
155 151 99
161 157 103
151 148 95
148 144 93
148 145 98
160 156 99
148 145 97
159 155 103
152 149 98
156 153 102
163 159 104
148 147 101
155 152 102
146 144 94
150 148 102
162 159 107
158 155 104
151 151 103
158 155 104
162 159 107
159 157 103
154 152 100
153 152 103
165 162 109
161 158 106
162 161 109
161 159 108
165 162 109
167 164 110
165 163 109
168 165 111
167 165 109
161 160 107
169 166 111
167 164 110
161 158 107
163 161 108
159 158 107
167 164 108
166 164 111
167 164 110
165 162 107
164 163 109
173 170 112
169 166 110
171 168 111
172 168 112
175 171 113
166 164 109
172 168 112
170 166 110
173 170 113
174 169 111
174 171 113
166 163 108
172 168 110
169 166 111
175 172 114
168 165 110
163 161 106
176 171 113
175 170 112
173 169 110
173 169 112
177 172 113
163 160 106
172 168 110
170 166 110
170 167 108
175 171 113
169 166 109
170 165 108
166 161 103
174 170 110
172 167 109
168 164 108
165 160 104
171 166 108
170 165 108
169 165 107
170 165 104
171 167 108
170 165 108
169 164 108
163 160 103
172 167 109
164 159 101
168 164 106
165 161 104
166 161 103
164 159 102
161 156 101
167 162 104
156 149 95
160 157 103
174 167 104
151 146 95
165 159 104
164 158 95
163 157 99
164 159 99
158 153 97
154 149 93
166 161 103
160 154 99
163 156 101
156 150 93
157 151 95
159 153 93
155 149 93
154 148 88
155 148 90
153 147 88
146 140 80
146 140 80
145 139 80
154 148 90
142 136 80
143 138 84
143 137 77
125 119 70
134 127 75
128 123 70
121 115 58
142 154 39
159 181 0
154 174 0
154 174 0
155 176 0
158 177 0
155 176 0
150 170 0
155 174 0
159 180 0
152 173 0
150 171 0
164 185 0
157 178 0
159 181 0
156 177 0
157 178 0
160 181 0
156 176 0
158 179 0
162 183 0
152 173 0
165 186 0
151 171 0
152 172 0
146 167 0
155 177 0
153 173 0
161 180 0
152 174 0
155 177 0
154 174 0
159 179 0
155 175 0
155 175 0
158 179 0
154 175 0
154 174 0
153 173 0
155 175 0
151 171 0
156 177 0
157 177 0
155 176 0
156 177 0
155 176 0
157 177 0
157 177 0
155 176 0
154 174 0
152 172 0
156 175 0
151 172 0
156 177 0
160 180 0
159 179 0
150 171 0
159 179 0
154 175 0
154 175 0
150 171 0
159 178 0
156 176 0
154 175 0
153 173 0
150 171 0
150 172 0
154 175 0
160 181 0
159 178 0
155 176 0
154 174 0
154 174 0
154 174 0
147 169 0
153 174 0
157 178 0
154 174 0
156 177 0
154 175 0
155 176 0
156 176 0
161 182 0
154 175 0
159 179 0
161 182 0
156 177 0
156 177 0
156 176 0
150 170 0
157 177 0
155 175 0
151 172 0
153 174 0
153 174 0
151 172 0
153 174 0
159 179 0
156 176 0
155 176 0
158 178 0
151 172 0
159 180 0
152 174 0
155 174 0
154 174 0
154 175 0
160 182 0
154 174 0
153 173 0
155 175 0
150 171 0
155 176 0
150 171 0
151 172 0
148 167 0
155 176 0
154 174 0
155 175 0
152 173 0
154 175 0
154 174 0
156 177 0
151 171 0
149 169 0
147 167 0
158 178 0
153 173 0
149 170 0
159 180 0
153 174 0
146 167 0
155 175 0
157 177 0
157 177 0
151 171 0
154 175 0
151 171 0
146 167 0
154 174 0
154 174 0
152 173 0
155 173 0
154 175 0
153 173 0
159 178 0
156 177 0
155 175 0
153 174 0
150 171 0
149 168 0
150 171 0
150 170 0
156 177 0
155 176 0
156 176 0
156 176 0
153 174 0
152 172 0
153 174 0
155 175 0
160 180 0
152 173 0
157 178 0
154 175 0
154 174 0
155 175 0
154 175 0
154 174 0
158 177 0
151 171 0
155 175 0
162 182 0
151 170 0
152 172 0
155 175 0
153 174 0
154 174 0
153 174 0
155 175 0
154 174 0
152 171 0
154 174 0
153 173 0
142 163 50
126 148 115
106 133 140
89 119 159
65 100 173
61 98 180
61 98 179
63 100 182
62 100 182
61 98 178
62 99 180
62 99 181
61 99 183
63 100 181
62 99 181
62 99 181
64 101 184
62 99 181
61 98 180
61 98 180
61 99 180
62 99 180
61 98 180
62 99 181
61 98 180
62 99 180
62 99 179
62 99 180
63 100 183
61 98 180
62 99 182
61 98 179
62 99 180
62 99 180
62 99 182
61 96 172
62 99 180
63 101 184
63 101 184
60 98 178
61 98 180
61 99 180
61 98 179
62 99 181
61 97 177
61 98 178
62 99 177
65 101 176
73 106 172
109 135 129
138 160 89
146 167 51
152 173 0
152 172 0
150 170 0
154 173 0
151 169 0
157 175 0
152 171 0
151 171 0
149 170 0
158 178 0
146 165 0
138 132 70
138 132 68
135 129 66
131 125 67
135 130 72
144 138 79
141 135 73
138 130 74
144 139 80
139 133 76
136 131 76
129 124 74
168 160 98
131 127 75
145 139 81
147 141 77
160 153 97
142 137 85
153 147 89
148 144 95
145 141 88
142 137 84
155 149 92
145 142 88
150 146 93
154 150 95
132 130 87
152 150 99
155 150 96
143 140 93
146 144 94
159 154 98
153 151 99
153 150 99
157 154 101
161 157 102
153 152 104
149 146 96
154 151 100
157 154 102
153 149 99
156 154 105
145 144 98
158 156 105
151 149 100
163 160 106
162 159 104
148 148 101
160 158 106
159 157 105
163 159 106
157 155 105
163 162 109
157 155 106
146 146 101
156 155 106
170 166 110
163 161 108
168 165 110
163 161 109
166 162 109
165 163 109
159 157 106
166 164 110
169 165 110
163 160 107
166 163 107
163 162 109
168 165 110
165 162 110
172 168 111
171 167 111
168 166 112
167 164 109
169 167 112
174 169 112
169 165 110
173 169 112
170 167 110
159 156 105
173 170 113
166 164 109
166 163 107
169 166 111
175 172 113
172 169 112
172 170 112
175 170 112
168 164 107
171 168 112
169 165 109
175 171 112
171 167 110
176 172 112
170 166 109
172 168 108
172 167 109
172 168 112
172 167 108
173 168 110
165 162 107
173 168 110
175 170 109
173 169 108
172 168 110
174 169 109
179 173 113
160 157 103
173 168 109
167 162 104
166 162 106
169 164 107
172 166 106
169 164 104
161 156 99
169 165 106
171 165 104
173 168 109
166 162 102
160 156 98
162 157 102
172 167 106
160 154 94
159 154 99
160 155 98
162 157 103
159 154 95
163 156 98
150 145 88
164 156 98
161 156 102
174 167 108
151 145 88
149 145 91
146 142 87
162 155 93
157 151 91
166 160 98
153 146 84
152 146 91
156 148 91
149 142 87
155 150 93
132 127 75
136 131 77
151 143 84
146 140 82
122 118 64
129 124 68
148 141 79
129 123 64
142 135 80
131 125 60
139 145 45
154 174 0
155 175 0
161 181 0
158 179 0
153 174 0
155 176 0
152 171 0
155 176 0
155 175 0
151 172 0
153 173 0
150 171 0
152 173 0
156 176 0
155 177 0
156 177 0
157 176 0
151 172 0
154 174 0
156 177 0
156 176 0
156 178 0
155 177 0
156 177 0
156 177 0
156 177 0
158 177 0
151 172 0
154 175 0
156 176 0
157 177 0
157 177 0
153 174 0
151 173 0
161 183 0
155 176 0
157 177 0
161 181 0
153 174 0
154 175 0
151 171 0
154 174 0
154 175 0
155 174 0
158 178 0
155 175 0
156 176 0
159 180 0
154 175 0
154 174 0
155 176 0
158 180 0
159 179 0
154 174 0
154 174 0
154 174 0
156 177 0
152 173 0
148 169 0
154 175 0
155 175 0
159 180 0
155 175 0
150 172 0
151 171 0
148 169 0
155 176 0
157 177 0
156 177 0
149 169 0
155 175 0
150 170 0
158 179 0
153 174 0
154 174 0
151 170 0
157 178 0
153 173 0
150 171 0
147 167 0
155 174 0
157 177 0
148 168 0
151 172 0
153 174 0
158 180 0
149 169 0
158 179 0
157 178 0
158 176 0
154 176 0
156 177 0
158 179 0
153 173 0
158 179 0
153 173 0
155 176 0
151 172 0
154 173 0
162 183 0
157 178 0
151 171 0
157 177 0
157 178 0
152 172 0
155 176 0
148 169 0
153 175 0
151 172 0
156 177 0
157 178 0
157 177 0
150 172 0
155 176 0
157 177 0
160 180 0
151 170 0
156 175 0
157 179 0
149 170 0
150 170 0
155 175 0
151 171 0
156 177 0
158 177 0
154 175 0
152 173 0
150 171 0
154 174 0
148 170 0
147 169 0
155 176 0
159 179 0
150 170 0
155 175 0
160 180 0
148 169 0
152 172 0
153 174 0
150 170 0
151 171 0
153 174 0
152 172 0
155 174 0
151 172 0
150 170 0
147 167 0
152 172 0
153 174 0
154 173 0
154 175 0
152 172 0
151 171 0
153 175 0
151 170 0
153 173 0
152 172 0
155 175 0
156 177 0
156 175 0
153 172 0
161 179 0
157 175 0
158 178 0
154 175 0
155 176 0
149 170 0
155 176 0
154 173 0
148 168 0
154 174 0
146 165 0
150 170 0
151 171 0
148 168 0
157 177 0
153 173 0
152 171 0
151 171 0
150 170 0
140 161 76
135 158 96
84 115 165
67 102 175
61 98 180
62 99 178
62 99 180
63 101 184
61 98 179
63 100 183
63 100 181
62 100 182
62 99 177
61 98 179
62 99 182
61 98 179
62 99 180
61 98 180
61 98 179
61 99 179
62 100 182
62 99 180
63 100 182
61 99 182
61 98 181
61 98 180
61 99 180
62 99 180
61 98 180
60 98 180
60 98 180
62 99 181
62 100 181
62 99 180
60 98 180
62 99 180
61 98 179
62 99 180
63 101 183
60 97 178
61 98 180
60 97 176
62 99 180
61 99 183
60 98 180
62 99 182
62 100 182
63 100 181
61 98 180
61 98 179
62 100 182
61 98 178
61 98 179
61 98 180
62 98 176
104 131 143
123 146 113
146 167 62
152 170 0
154 174 0
148 168 0
150 171 0
153 173 0
156 175 0
158 178 0
134 149 22
131 124 66
133 127 70
135 129 68
120 115 60
138 131 66
136 130 75
147 139 79
138 132 76
135 130 72
145 140 81
147 141 87
155 149 86
144 140 84
149 143 85
141 137 79
145 141 87
152 146 87
148 144 86
146 141 91
141 137 88
145 141 94
146 142 87
145 143 96
151 148 91
143 139 92
146 144 96
147 145 93
151 148 95
149 146 97
152 148 95
155 152 99
149 147 98
145 143 97
147 144 95
146 142 92
153 151 95
150 148 97
153 150 101
159 157 104
155 152 102
153 150 100
166 162 107
162 159 105
158 156 105
166 162 109
143 143 98
159 157 105
160 159 107
164 161 108
148 146 99
166 163 110
148 147 101
166 162 109
160 158 107
154 152 104
162 159 108
162 159 107
167 163 109
163 161 109
163 161 107
158 156 107
161 157 103
169 166 111
168 164 109
168 164 110
165 163 110
163 161 107
169 166 110
162 160 109
169 167 112
170 166 109
172 168 112
176 172 114
167 165 111
168 165 109
164 161 107
177 172 114
174 171 113
178 173 114
171 168 111
178 171 112
172 169 112
170 167 109
172 169 112
172 168 109
175 171 113
172 169 112
169 166 106
168 164 108
169 165 109
173 169 111
173 169 112
170 166 108
173 169 110
172 169 110
171 167 108
172 168 111
170 167 110
173 169 112
171 167 110
168 164 106
168 164 107
171 167 109
165 160 104
174 170 110
178 173 109
172 167 109
169 164 104
174 169 109
169 165 107
168 162 103
174 168 107
164 159 103
170 165 107
173 167 103
172 168 109
167 163 103
171 166 107
167 162 101
162 157 99
156 152 97
158 154 97
167 163 104
166 162 104
153 148 90
168 163 103
158 152 95
160 155 98
165 159 99
165 157 95
161 156 101
149 145 87
157 152 95
164 158 97
163 158 97
151 146 90
158 150 85
149 143 88
152 146 90
155 149 87
143 139 80
150 144 87
145 139 80
158 150 87
162 153 93
157 151 88
143 138 75
152 146 88
142 138 72
139 133 74
125 120 58
119 113 64
123 118 64
127 122 64
159 179 0
157 176 0
154 175 0
159 178 0
155 175 0
162 182 0
154 175 0
153 174 0
152 172 0
157 178 0
157 177 0
153 174 0
153 175 0
151 171 0
149 170 0
153 172 0
156 176 0
158 178 0
151 173 0
149 170 0
156 177 0
153 173 0
157 176 0
159 180 0
158 179 0
166 186 0
159 180 0
154 174 0
152 173 0
152 172 0
152 172 0
159 179 0
152 173 0
151 172 0
156 177 0
151 172 0
153 174 0
156 176 0
149 169 0
153 174 0
157 177 0
158 178 0
161 181 0
158 179 0
155 176 0
158 178 0
154 174 0
157 178 0
154 174 0
154 175 0
152 173 0
151 170 0
152 174 0
152 173 0
159 180 0
157 178 0
154 175 0
153 173 0
150 171 0
151 172 0
155 175 0
154 175 0
160 181 0
155 175 0
155 176 0
152 173 0
156 177 0
154 175 0
160 181 0
151 172 0
152 173 0
147 167 0
153 174 0
157 177 0
155 176 0
153 173 0
157 178 0
160 180 0
150 172 0
151 171 0
161 181 0
148 167 0
159 179 0
161 181 0
154 175 0
149 168 0
152 171 0
153 174 0
150 171 0
155 176 0
159 178 0
153 173 0
156 176 0
155 175 0
153 172 0
158 179 0
152 173 0
151 171 0
159 179 0
155 176 0
160 180 0
151 172 0
151 171 0
154 175 0
153 173 0
151 171 0
146 166 0
160 179 0
152 173 0
155 176 0
155 176 0
150 170 0
150 171 0
148 168 0
153 174 0
153 174 0
153 173 0
149 171 0
158 179 0
156 175 0
154 175 0
154 175 0
156 177 0
157 178 0
155 174 0
158 178 0
155 175 0
156 176 0
159 179 0
152 173 0
154 174 0
159 180 0
153 175 0
151 172 0
151 172 0
154 174 0
156 176 0
154 174 0
148 170 0
154 175 0
159 180 0
149 168 0
152 173 0
155 174 0
151 172 0
152 172 0
156 176 0
156 176 0
154 174 0
153 174 0
149 170 0
150 171 0
148 170 0
152 172 0
158 178 0
151 172 0
157 176 0
156 176 0
158 177 0
156 176 0
148 167 0
149 170 0
154 174 0
155 176 0
146 166 0
153 174 0
152 172 0
155 176 0
153 172 0
150 170 0
148 168 0
161 180 0
154 174 0
153 174 0
151 172 0
154 175 0
154 175 0
146 167 44
130 152 107
90 119 156
63 101 185
62 100 182
63 100 177
61 98 178
62 100 181
61 99 180
62 99 180
60 97 177
62 98 178
62 99 179
61 99 180
62 99 181
62 100 183
61 99 181
60 97 179
63 99 179
61 98 180
61 98 179
61 98 180
61 98 179
61 98 179
61 99 181
62 99 181
61 98 179
61 98 180
61 98 179
61 99 180
61 98 179
62 99 180
60 98 180
61 99 180
62 100 183
62 99 180
60 98 180
61 98 180
63 101 182
61 99 180
62 99 181
60 97 179
60 98 179
62 99 181
62 99 181
62 99 181
60 98 180
62 100 182
62 100 182
61 97 176
60 97 179
62 98 177
64 102 184
62 99 180
61 98 179
61 98 180
63 100 181
62 99 180
62 99 179
61 99 180
66 101 179
99 126 154
121 145 120
151 172 58
151 172 0
151 170 0
149 169 0
158 176 0
128 134 42
133 128 66
136 131 72
133 126 68
154 145 84
131 125 75
131 127 63
148 142 77
135 129 72
144 139 83
139 134 80
140 135 76
140 135 81
133 129 74
142 137 85
137 132 77
146 141 88
139 134 85
151 146 92
135 132 86
156 150 95
143 138 86
157 153 99
137 133 89
136 134 87
148 144 86
149 144 92
141 138 89
161 155 100
144 140 90
146 142 93
150 148 97
151 147 96
148 146 97
157 153 98
144 142 97
159 154 100
155 151 101
156 152 101
142 141 98
158 155 103
156 153 104
151 150 101
153 150 99
155 152 103
155 153 102
166 163 109
156 154 102
158 155 104
160 158 106
156 155 106
157 154 103
155 153 102
170 166 110
166 164 109
163 160 107
161 158 106
169 167 112
161 159 107
168 164 109
156 154 105
172 169 112
169 166 111
163 161 109
166 162 107
164 161 106
169 165 109
169 166 111
163 159 104
166 164 110
168 165 110
164 160 107
168 165 111
173 169 111
171 168 112
169 166 111
175 170 112
171 168 112
174 170 113
169 166 110
172 169 112
173 170 112
172 168 112
168 165 110
169 166 109
172 168 110
169 167 110
173 169 111
168 166 109
172 168 110
172 169 110
167 164 108
171 167 108
173 169 110
172 169 112
170 168 112
168 164 108
169 166 108
174 170 110
172 168 109
170 165 108
172 168 109
177 172 110
172 168 110
167 163 107
163 159 102
170 165 107
165 163 107
165 160 103
169 165 106
164 160 102
168 164 108
175 169 109
165 161 102
172 168 110
169 166 108
168 164 104
167 162 102
165 159 102
171 166 107
170 166 104
168 164 106
162 157 101
159 156 98
165 162 103
164 158 102
168 163 104
161 155 101
160 155 98
155 150 91
168 162 101
163 158 98
155 150 93
165 160 101
152 147 93
162 155 98
153 148 88
155 148 93
152 146 94
153 148 93
154 146 90
141 134 79
148 143 87
151 144 85
152 146 88
149 142 82
133 128 74
154 147 87
139 134 79
145 141 79
119 114 62
137 131 70
126 120 68
132 126 74
116 111 60
144 161 16
154 174 0
159 178 0
150 171 0
157 176 0
159 179 0
153 172 0
159 180 0
148 168 0
153 174 0
154 175 0
159 179 0
154 174 0
162 182 0
145 166 0
159 179 0
152 172 0
150 171 0
157 178 0
154 174 0
156 177 0
156 176 0
155 175 0
150 171 0
151 172 0
147 168 0
162 182 0
157 178 0
155 176 0
154 175 0
152 173 0
156 177 0
153 174 0
159 181 0
155 176 0
160 181 0
159 180 0
153 173 0
159 179 0
158 179 0
156 178 0
148 169 0
156 176 0
152 172 0
160 180 0
155 175 0
153 174 0
152 173 0
150 170 0
156 177 0
153 174 0
150 171 0
150 170 0
152 173 0
155 177 0
155 177 0
158 177 0
153 173 0
154 174 0
155 176 0
158 179 0
155 176 0
154 175 0
151 171 0
157 179 0
150 172 0
157 178 0
151 172 0
159 179 0
155 175 0
156 177 0
158 178 0
155 176 0
157 178 0
157 177 0
154 175 0
155 176 0
150 170 0
151 172 0
148 169 0
150 171 0
150 172 0
154 174 0
155 176 0
161 182 0
156 176 0
153 173 0
149 170 0
151 172 0
147 167 0
149 169 0
149 170 0
161 181 0
156 176 0
148 168 0
153 174 0
149 169 0
153 173 0
148 168 0
147 167 0
150 171 0
157 177 0
154 174 0
148 169 0
158 178 0
152 172 0
161 182 0
147 168 0
159 180 0
154 175 0
153 174 0
152 172 0
153 172 0
156 176 0
152 172 0
157 178 0
153 174 0
156 176 0
154 175 0
154 174 0
151 171 0
159 181 0
154 173 0
158 178 0
157 179 0
155 174 0
151 171 0
159 180 0
150 170 0
151 172 0
147 167 0
150 170 0
154 174 0
151 170 0
151 171 0
154 175 0
154 175 0
151 172 0
156 177 0
150 170 0
154 174 0
154 174 0
155 177 0
160 181 0
150 169 0
146 167 0
153 172 0
153 173 0
149 170 0
157 178 0
153 174 0
156 175 0
156 176 0
152 172 0
152 173 0
156 176 0
149 169 0
145 166 0
151 171 0
152 172 0
155 174 0
153 173 0
153 173 0
154 172 0
158 179 0
150 171 0
141 161 0
155 175 0
158 178 0
155 176 0
153 173 0
155 174 0
152 172 0
148 168 0
149 170 24
137 158 83
78 110 162
70 105 173
63 102 185
61 98 175
62 99 177
60 97 175
61 98 178
62 100 184
62 99 176
62 99 179
61 99 181
62 99 179
62 99 181
61 99 180
62 100 181
62 100 182
61 98 179
61 98 179
60 98 179
61 99 180
61 98 180
62 99 179
62 99 181
62 100 181
63 100 182
61 98 180
63 100 181
62 99 180
62 99 181
62 99 180
62 100 182
61 99 180
63 100 182
62 99 181
60 97 179
61 98 179
61 98 178
61 98 178
60 97 179
61 98 180
61 99 181
62 99 182
62 99 181
62 99 182
61 99 180
60 97 179
62 99 181
61 97 178
61 99 181
61 98 177
61 98 178
61 98 179
63 100 183
63 100 182
61 98 179
61 98 178
63 100 181
63 100 182
61 98 179
60 97 176
61 97 176
63 100 182
60 96 174
62 99 178
64 100 176
106 132 151
133 153 97
151 170 24
152 170 0
111 106 48
139 133 74
145 138 72
120 116 53
130 124 60
139 133 72
145 138 77
127 122 68
136 131 72
135 131 74
137 133 78
137 131 77
134 128 72
152 146 87
155 149 92
155 149 89
145 139 87
148 142 92
148 144 90
140 137 87
146 143 89
147 143 93
150 146 89
148 144 91
144 142 94
150 147 93
144 140 92
143 140 92
162 158 102
165 160 103
153 149 98
141 139 95
161 156 99
146 144 94
140 138 95
148 148 99
148 147 100
146 145 97
151 149 98
146 145 99
150 149 98
152 149 101
155 153 102
160 157 103
169 163 107
150 149 98
153 151 103
150 147 101
146 145 101
153 151 103
151 151 102
162 159 105
157 155 104
159 157 105
158 155 104
160 158 107
163 159 106
161 158 105
163 161 108
167 165 110
162 160 109
170 166 110
160 158 107
157 156 106
167 165 112
159 157 104
167 165 112
167 164 109
164 161 106
169 166 111
169 166 111
170 167 110
170 168 112
170 165 109
172 168 112
167 163 108
165 162 109
169 166 111
167 164 108
173 169 112
173 169 111
162 159 105
170 167 112
170 167 111
173 169 111
170 166 109
174 169 108
168 164 108
171 168 112
179 173 114
171 166 108
170 166 109
180 174 114
170 165 106
169 165 106
176 171 113
176 171 110
174 169 110
171 167 110
172 167 106
173 169 109
174 168 107
170 167 110
172 167 108
173 168 109
173 169 110
168 162 99
169 163 106
175 170 110
166 161 102
171 166 107
166 162 103
174 168 109
170 165 106
165 160 102
165 160 104
165 161 103
172 167 109
168 162 103
165 160 102
170 165 106
161 157 99
165 159 103
157 151 97
163 158 97
150 146 90
145 142 90
170 164 102
163 157 94
157 151 95
168 161 101
170 164 103
167 161 95
159 154 95
170 164 102
168 159 101
153 147 87
167 160 101
158 152 90
153 147 84
147 142 85
148 144 88
158 152 95
151 146 82
137 131 74
148 142 85
150 144 90
135 129 72
152 145 82
137 133 79
150 142 82
140 134 84
148 141 82
137 132 70
114 109 45
127 137 32
154 175 0
155 175 0
156 175 0
168 188 0
159 180 0
154 174 0
157 176 0
156 175 0
159 180 0
160 181 0
158 178 0
157 177 0
158 178 0
156 176 0
154 174 0
160 181 0
153 174 0
157 178 0
158 179 0
158 179 0
161 182 0
151 171 0
156 179 0
151 171 0
158 179 0
152 172 0
159 180 0
153 174 0
157 177 0
151 172 0
157 179 0
154 175 0
155 175 0
155 176 0
157 177 0
156 177 0
156 176 0
152 172 0
154 175 0
156 177 0
160 181 0
156 176 0
153 174 0
151 171 0
152 173 0
153 173 0
154 176 0
157 177 0
156 177 0
155 176 0
155 176 0
159 180 0
149 170 0
160 181 0
156 177 0
149 171 0
156 177 0
152 174 0
156 177 0
150 171 0
152 174 0
155 176 0
157 178 0
152 172 0
153 175 0
152 173 0
153 174 0
153 173 0
153 174 0
154 174 0
146 164 0
155 175 0
157 177 0
152 173 0
153 173 0
158 179 0
156 176 0
157 177 0
158 178 0
152 173 0
156 177 0
150 170 0
152 172 0
158 179 0
152 173 0
152 172 0
156 176 0
153 174 0
159 179 0
156 177 0
151 170 0
156 176 0
157 178 0
156 176 0
154 174 0
152 174 0
153 174 0
151 172 0
159 179 0
151 172 0
160 180 0
150 170 0
151 172 0
156 178 0
154 174 0
157 177 0
157 177 0
157 177 0
150 171 0
148 168 0
151 171 0
155 176 0
152 171 0
158 178 0
154 174 0
155 176 0
157 179 0
156 175 0
153 174 0
155 175 0
154 173 0
153 174 0
148 168 0
154 174 0
157 178 0
146 166 0
152 172 0
149 170 0
154 174 0
156 177 0
157 177 0
158 179 0
157 179 0
150 170 0
146 167 0
154 175 0
155 173 0
152 174 0
156 177 0
152 172 0
156 176 0
151 173 0
149 169 0
149 170 0
153 174 0
152 173 0
151 171 0
149 169 0
144 165 0
154 175 0
155 174 0
152 172 0
144 164 0
153 174 0
148 169 0
150 171 0
155 176 0
155 175 0
151 172 0
155 176 0
155 176 0
149 171 0
153 173 0
153 174 0
152 173 0
155 176 0
152 172 0
158 179 0
155 174 0
152 174 0
156 176 0
149 169 43
125 148 110
84 114 167
62 98 172
63 100 181
61 98 177
62 99 180
62 99 180
62 99 180
61 99 180
61 98 180
61 98 177
61 99 181
60 97 179
63 100 181
62 99 180
62 100 181
62 99 180
63 101 184
61 98 178
60 97 179
61 99 180
61 98 180
61 98 180
61 99 181
63 100 182
62 99 180
61 98 179
62 100 182
60 97 178
62 99 181
60 97 179
61 98 180
61 98 179
61 98 180
61 98 179
62 100 182
62 99 181
61 98 180
62 99 180
61 98 180
61 98 179
62 99 180
61 98 180
61 99 181
62 98 178
61 98 180
62 99 180
62 99 180
61 99 180
61 98 181
61 98 180
61 98 179
63 101 183
63 101 183
61 98 179
61 98 180
62 99 180
61 98 178
61 99 181
61 99 180
61 99 180
62 99 179
62 99 180
62 99 180
62 99 178
61 98 179
61 98 178
61 98 177
61 99 180
61 97 176
71 105 171
100 123 146
115 114 83
123 118 60
132 125 71
136 130 68
138 131 75
129 123 66
128 123 64
126 123 71
149 142 88
144 138 77
146 140 80
135 130 71
137 133 77
150 144 89
136 132 79
148 143 85
139 136 79
148 144 90
151 146 90
142 139 87
152 148 97
141 139 91
147 144 98
139 136 81
151 147 93
141 138 91
156 150 94
128 128 88
157 152 100
145 144 96
144 142 97
149 146 95
157 152 100
149 146 97
157 153 98
149 148 101
144 141 96
151 148 98
150 148 99
146 143 95
155 151 99
157 154 103
146 144 99
157 154 104
151 149 102
154 152 103
162 158 105
149 148 103
150 149 103
154 151 102
150 148 100
147 145 100
150 149 103
156 155 106
156 155 106
167 163 108
155 154 105
163 161 109
160 157 105
172 167 111
164 161 108
161 160 106
168 166 111
162 159 108
160 159 108
168 165 109
159 157 105
167 164 110
166 163 110
163 160 107
155 151 100
163 162 108
169 166 111
173 168 112
174 170 112
173 169 110
164 161 106
175 169 111
174 170 110
168 164 109
175 171 113
171 168 108
170 167 110
173 170 113
173 170 112
171 166 107
174 169 111
170 165 107
174 169 109
168 164 108
176 170 109
173 168 109
171 168 110
173 171 114
174 169 110
169 167 110
170 166 109
175 170 112
172 167 110
170 166 106
174 169 109
171 165 107
173 168 109
166 163 104
167 164 108
169 166 107
169 164 104
174 170 112
174 169 109
170 165 107
169 164 106
170 167 107
169 164 104
170 166 108
172 167 104
170 165 107
166 161 103
169 164 103
163 159 101
159 154 99
162 157 99
160 155 99
167 162 101
158 153 94
172 166 106
160 154 97
159 153 94
161 155 101
162 157 93
165 159 101
161 155 97
156 150 94
154 148 91
162 156 98
164 159 99
165 160 98
154 149 90
162 156 90
158 152 90
165 158 94
148 143 87
148 143 82
148 142 85
146 139 84
150 145 84
161 153 90
144 139 80
152 144 84
133 128 68
146 141 80
144 138 79
141 137 74
135 131 66
136 129 70
137 131 64
131 131 53
152 172 0
151 171 0
152 173 0
158 179 0
150 169 0
152 172 0
156 175 0
156 175 0
150 171 0
152 173 0
152 172 0
156 177 0
155 175 0
158 179 0
156 177 0
151 172 0
159 179 0
155 176 0
155 176 0
156 177 0
154 176 0
157 178 0
156 176 0
156 176 0
157 178 0
159 179 0
154 175 0
155 175 0
160 181 0
151 171 0
159 180 0
161 181 0
152 172 0
159 179 0
154 176 0
150 171 0
157 178 0
157 177 0
151 172 0
159 179 0
154 175 0
154 174 0
150 170 0
158 179 0
153 174 0
156 175 0
150 171 0
154 175 0
157 178 0
151 170 0
160 181 0
157 178 0
154 176 0
151 171 0
152 173 0
151 171 0
156 175 0
152 173 0
161 181 0
158 179 0
155 176 0
153 174 0
154 175 0
157 178 0
152 173 0
157 177 0
149 170 0
156 177 0
158 179 0
155 176 0
158 179 0
154 174 0
152 172 0
152 173 0
153 172 0
153 174 0
157 176 0
156 177 0
154 173 0
151 171 0
154 176 0
151 172 0
156 176 0
163 183 0
153 175 0
155 176 0
150 171 0
154 175 0
153 174 0
149 170 0
149 170 0
157 179 0
157 177 0
155 176 0
152 172 0
155 175 0
152 173 0
149 169 0
156 177 0
154 175 0
157 178 0
153 173 0
152 173 0
155 175 0
155 176 0
151 172 0
155 175 0
154 175 0
153 173 0
156 176 0
152 172 0
152 173 0
155 174 0
154 173 0
152 173 0
151 171 0
158 179 0
156 177 0
148 169 0
155 175 0
158 179 0
154 174 0
151 172 0
150 170 0
154 176 0
150 170 0
156 176 0
154 173 0
147 168 0
146 166 0
154 174 0
154 176 0
153 174 0
145 165 0
156 177 0
146 167 0
148 168 0
155 175 0
156 176 0
154 174 0
156 178 0
154 175 0
150 170 0
151 173 0
155 175 0
153 174 0
155 175 0
153 173 0
150 171 0
151 171 0
153 172 0
149 169 0
151 172 0
151 172 0
152 172 0
153 174 0
147 168 0
150 169 0
152 173 0
148 169 0
153 173 0
145 165 0
154 173 0
149 168 0
151 171 0
154 175 0
152 172 0
150 171 0
152 172 0
133 155 93
90 122 164
61 98 180
61 97 176
61 98 179
62 100 182
61 98 178
61 98 180
62 99 181
60 97 177
61 97 175
61 98 178
60 97 176
62 99 180
63 100 182
63 100 183
62 99 179
61 99 181
62 99 181
60 98 180
62 99 182
60 97 179
61 98 180
62 98 179
61 97 178
62 98 179
61 98 180
61 98 180
61 98 179
60 98 179
61 99 181
61 98 180
61 98 180
62 99 181
61 98 179
62 99 181
61 98 180
61 98 178
62 98 179
61 98 179
62 99 181
61 99 180
62 99 181
60 97 179
61 98 179
61 98 180
61 98 178
61 98 180
61 98 180
62 99 179
61 98 180
60 97 179
62 100 182
62 99 181
62 99 180
61 98 179
61 98 179
62 99 180
61 98 178
62 99 181
61 98 178
62 99 181
62 99 180
63 101 184
60 97 178
62 99 181
62 99 180
60 97 176
62 100 181
61 99 181
63 99 179
62 99 180
61 99 180
61 98 177
61 96 170
69 102 177
94 112 156
117 119 107
132 126 66
145 139 74
136 131 70
147 141 75
134 129 67
145 139 81
150 144 77
124 121 71
149 143 86
138 135 72
137 133 80
148 142 84
154 148 91
138 135 80
149 146 93
141 136 86
148 143 88
138 136 88
151 147 92
149 144 90
130 128 82
146 143 90
160 155 102
139 136 90
150 146 97
164 159 103
145 141 91
150 146 95
144 141 94
132 132 91
140 138 93
148 145 97
143 141 92
145 144 97
165 160 106
151 148 100
157 155 104
132 132 92
146 145 101
143 143 100
152 149 101
159 157 105
150 149 101
153 152 104
148 147 102
157 154 104
150 150 105
146 145 99
155 153 103
161 159 108
164 162 110
152 151 103
168 166 110
151 150 103
165 162 109
158 156 105
159 156 106
166 162 109
159 157 105
162 159 107
160 157 106
163 160 108
168 166 110
157 154 103
160 158 106
164 161 106
169 164 108
166 162 106
161 158 106
169 167 110
161 159 107
169 166 111
173 169 112
172 168 112
163 161 106
170 166 110
171 167 110
174 169 112
174 170 111
174 170 112
174 169 109
170 166 109
175 170 112
166 162 107
166 162 107
173 169 110
170 166 108
172 167 109
176 171 112
170 166 107
172 167 108
173 170 112
172 168 110
167 164 108
167 163 106
168 164 107
173 170 110
174 170 112
175 169 107
172 167 109
174 168 108
169 165 108
170 165 106
172 167 110
171 166 106
175 170 112
165 160 102
167 164 108
173 170 112
168 165 107
167 163 102
173 168 106
164 159 99
166 162 103
169 163 102
169 163 103
163 158 101
163 157 98
158 154 94
160 153 97
170 163 101
164 159 99
161 155 99
168 163 103
167 160 98
160 154 97
158 152 94
155 148 91
163 157 94
164 158 101
156 149 93
162 155 94
148 142 84
167 161 99
161 156 94
160 152 95
157 151 90
165 157 93
156 150 93
149 144 84
146 140 84
154 148 90
150 144 85
155 148 90
148 142 79
129 125 68
137 133 77
137 132 75
142 136 66
144 138 72
135 130 72
134 129 72
137 131 70
151 171 0
155 175 0
155 175 0
158 178 0
159 179 0
158 178 0
154 175 0
160 179 0
163 184 0
151 171 0
154 174 0
155 177 0
151 171 0
151 172 0
156 176 0
152 173 0
158 178 0
150 170 0
155 176 0
150 171 0
153 174 0
155 175 0
160 180 0
158 180 0
157 177 0
158 179 0
154 174 0
156 177 0
155 175 0
149 170 0
159 180 0
155 175 0
154 174 0
158 179 0
155 175 0
154 176 0
154 174 0
157 178 0
153 174 0
159 179 0
156 177 0
154 175 0
153 174 0
162 183 0
156 176 0
160 181 0
155 176 0
155 176 0
150 171 0
148 168 0
151 171 0
151 171 0
154 175 0
154 173 0
151 171 0
154 174 0
156 177 0
150 171 0
159 179 0
151 172 0
154 175 0
150 170 0
158 180 0
153 172 0
153 174 0
152 173 0
157 179 0
156 178 0
148 167 0
157 177 0
157 177 0
158 178 0
147 168 0
150 171 0
155 176 0
153 173 0
153 174 0
158 178 0
158 178 0
154 175 0
151 172 0
159 180 0
151 172 0
159 180 0
156 175 0
153 173 0
157 176 0
155 175 0
157 178 0
148 170 0
155 176 0
150 171 0
150 170 0
159 180 0
152 171 0
153 173 0
155 174 0
153 173 0
153 173 0
149 170 0
151 172 0
157 177 0
156 177 0
151 171 0
150 170 0
153 174 0
150 171 0
154 175 0
155 175 0
154 174 0
155 175 0
149 169 0
152 172 0
155 176 0
152 171 0
149 169 0
154 174 0
152 172 0
149 169 0
154 173 0
149 169 0
152 172 0
149 170 0
153 173 0
152 174 0
151 171 0
151 171 0
156 176 0
153 174 0
152 173 0
151 170 0
152 171 0
152 172 0
151 171 0
144 164 0
152 172 0
151 171 0
154 174 0
156 174 0
155 175 0
153 172 0
151 171 0
153 174 0
156 176 0
157 177 0
152 174 0
155 176 0
150 171 0
149 170 0
156 176 0
152 173 0
158 177 0
151 171 0
151 170 0
146 166 0
155 175 0
151 172 0
158 179 0
151 171 0
150 171 0
147 167 0
151 171 0
152 172 0
155 176 0
155 175 0
153 173 0
149 170 24
138 160 84
88 118 154
63 100 180
62 99 180
62 99 180
61 98 176
63 100 180
61 98 180
61 98 180
62 99 179
61 99 180
62 99 180
61 98 179
63 100 182
63 100 182
61 99 180
62 99 180
61 98 179
61 99 181
60 97 179
61 98 180
61 98 180
60 97 178
61 99 181
61 98 179
62 99 180
60 98 180
61 98 180
63 100 181
61 98 180
61 98 179
60 98 179
60 97 177
62 100 181
61 99 180
61 98 180
61 99 181
61 98 179
62 98 179
62 99 180
62 99 181
62 99 179
62 99 180
62 99 181
60 98 179
61 98 178
61 98 179
61 99 180
61 98 179
61 99 182
61 98 179
61 99 181
61 98 180
61 98 179
61 98 179
62 99 181
61 97 178
60 97 178
61 98 179
62 99 181
62 99 180
62 99 180
61 98 179
62 99 178
61 98 178
60 97 176
62 100 182
62 99 180
62 99 180
61 98 179
60 97 178
61 98 179
61 97 173
62 99 180
63 100 181
62 99 180
63 100 181
62 99 179
62 99 181
61 99 180
81 107 169
117 120 118
130 126 73
145 138 75
139 134 77
130 126 70
127 124 73
144 138 80
137 131 75
147 141 88
136 131 79
150 144 86
151 146 90
130 126 79
142 138 85
131 129 88
146 142 88
142 139 90
146 142 90
145 141 88
145 140 92
151 146 93
145 141 89
139 137 92
134 133 92
144 141 89
156 152 101
134 132 89
146 144 97
136 134 91
147 145 96
145 143 96
147 144 96
153 151 99
160 156 103
143 141 94
147 145 98
141 140 96
152 149 100
150 147 99
152 150 103
142 142 98
160 156 103
154 152 101
163 159 107
153 152 104
165 161 108
153 151 103
148 147 100
151 149 102
154 152 103
159 155 103
159 156 103
154 153 105
152 151 103
156 155 105
162 159 106
161 157 106
161 158 105
162 161 109
162 159 108
153 152 104
168 165 110
166 163 109
163 161 108
162 160 108
173 168 110
166 164 109
164 161 108
165 163 110
168 165 109
167 164 108
170 167 110
165 162 108
173 168 111
171 167 109
168 165 108
177 172 112
169 165 109
158 157 107
169 165 108
174 170 111
174 170 112
167 164 108
170 166 109
176 172 112
166 163 107
173 169 112
171 167 110
170 166 109
172 169 108
168 165 107
175 170 110
173 167 108
170 166 108
177 172 112
169 165 104
175 170 110
177 171 109
174 169 109
168 164 104
179 173 112
174 169 108
171 166 108
165 159 102
173 169 110
171 167 107
166 160 98
171 165 104
171 165 104
171 166 103
166 160 99
166 160 101
173 168 108
170 165 103
168 163 104
166 160 103
162 157 98
170 165 107
162 158 102
167 161 99
163 158 98
170 166 104
158 153 94
169 163 102
169 162 101
154 150 93
163 156 97
167 161 98
158 152 94
147 140 87
161 156 98
155 149 90
160 155 94
151 146 91
146 141 85
153 147 91
157 151 87
149 143 85
147 141 84
153 146 87
153 147 90
145 139 77
137 132 74
141 134 74
153 145 85
150 144 82
141 135 77
134 128 72
135 130 72
125 120 58
133 127 72
124 120 56
144 162 0
151 171 0
162 183 0
161 182 0
156 176 0
152 172 0
156 176 0
152 172 0
156 176 0
158 179 0
157 178 0
158 179 0
155 176 0
156 176 0
151 172 0
159 180 0
156 176 0
153 173 0
159 179 0
155 176 0
159 180 0
157 177 0
160 181 0
162 183 0
156 175 0
162 182 0
155 175 0
155 175 0
154 176 0
151 171 0
158 178 0
155 176 0
157 178 0
158 178 0
152 173 0
156 177 0
150 171 0
156 177 0
151 171 0
155 175 0
158 178 0
151 172 0
155 175 0
157 176 0
153 174 0
154 174 0
153 174 0
157 178 0
160 181 0
155 176 0
155 176 0
149 171 0
152 172 0
154 174 0
158 179 0
158 178 0
152 172 0
153 175 0
150 170 0
160 178 0
162 183 0
152 173 0
152 173 0
158 179 0
155 176 0
156 178 0
152 173 0
155 175 0
158 179 0
157 178 0
152 173 0
155 175 0
153 174 0
154 176 0
155 177 0
150 171 0
157 177 0
156 177 0
153 173 0
153 174 0
151 172 0
159 176 0
151 172 0
154 175 0
153 174 0
155 175 0
151 173 0
160 180 0
154 174 0
155 175 0
150 171 0
151 171 0
157 177 0
153 174 0
153 174 0
155 174 0
149 170 0
152 172 0
153 173 0
159 179 0
151 172 0
155 176 0
154 175 0
165 186 0
159 180 0
155 176 0
155 176 0
147 168 0
153 173 0
153 173 0
154 174 0
150 170 0
150 170 0
155 176 0
158 178 0
154 173 0
151 172 0
153 173 0
153 174 0
156 176 0
154 175 0
154 175 0
151 171 0
157 178 0
151 170 0
153 174 0
147 168 0
153 173 0
157 176 0
153 174 0
156 176 0
153 175 0
155 176 0
156 176 0
152 173 0
153 172 0
152 171 0
152 174 0
153 173 0
146 167 0
152 173 0
150 170 0
148 170 0
153 174 0
153 171 0
154 174 0
161 181 0
154 176 0
163 183 0
154 175 0
156 177 0
152 172 0
153 172 0
151 171 0
155 175 0
148 168 0
154 173 0
157 177 0
147 166 0
149 170 0
150 172 0
153 173 0
153 174 0
152 171 0
155 174 0
140 161 83
91 121 162
61 98 176
62 100 181
63 100 182
63 100 180
62 98 178
62 99 180
61 98 179
62 99 181
61 97 175
63 100 179
61 98 177
61 99 181
62 99 180
60 97 177
63 100 182
62 99 181
62 99 181
61 97 177
62 99 181
62 99 181
62 99 180
62 99 181
61 98 180
61 99 181
62 99 180
63 100 182
61 98 179
62 99 180
61 98 179
62 99 181
61 98 179
62 99 180
61 98 179
62 99 180
62 99 181
61 98 180
61 98 180
62 100 181
60 97 179
61 98 180
61 98 180
61 98 180
61 98 179
62 99 181
61 98 179
61 98 180
61 98 179
60 97 179
62 99 180
61 98 180
61 98 179
61 98 180
61 98 179
61 98 180
60 97 178
61 98 178
60 97 180
62 99 181
61 98 180
61 97 178
61 98 179
61 99 181
62 99 180
60 97 178
62 99 180
60 98 179
62 99 180
60 96 174
61 98 179
61 98 180
62 100 181
62 99 181
62 99 181
61 98 176
61 98 179
62 99 177
60 97 176
61 98 178
61 99 181
62 100 180
62 99 180
61 97 175
74 101 159
132 130 109
136 130 78
138 132 79
129 124 71
147 142 84
137 132 82
149 143 88
150 145 86
140 136 84
125 122 70
147 140 85
139 136 85
124 122 74
130 127 82
148 144 92
146 143 90
144 141 92
142 139 91
140 136 92
135 132 84
140 138 94
146 143 96
132 131 86
140 137 88
133 131 91
158 154 101
144 143 96
144 141 92
154 151 99
152 149 101
153 149 99
149 146 98
150 148 99
151 148 98
140 137 91
144 141 95
154 152 103
142 142 99
157 155 105
143 143 99
159 156 104
144 143 98
137 135 91
144 144 100
153 152 103
159 158 106
153 152 103
168 165 110
157 155 105
151 150 102
161 159 107
157 156 107
149 148 101
159 157 105
160 158 106
155 153 105
160 157 107
166 162 108
160 159 106
161 159 107
172 167 109
166 163 108
168 166 112
171 166 109
160 159 107
166 163 110
160 159 108
170 166 109
166 164 111
169 165 109
172 167 108
166 164 107
166 164 110
168 165 109
177 172 113
174 170 112
174 170 112
173 168 109
171 167 111
166 163 106
176 170 112
174 170 112
169 165 109
176 171 112
171 168 107
169 166 107
168 165 107
172 166 104
171 166 109
174 169 112
173 169 108
173 168 110
169 166 109
174 170 110
173 169 108
172 167 108
170 166 108
167 164 106
171 166 106
168 164 103
165 160 102
178 173 112
171 166 104
172 167 107
164 159 99
172 168 106
171 166 107
171 165 104
169 165 107
167 161 101
170 166 107
176 169 102
166 160 102
166 161 104
172 166 106
167 161 98
164 159 102
171 166 107
162 157 98
159 154 99
162 155 91
164 156 94
165 158 99
158 153 99
170 164 104
166 160 95
162 155 97
167 162 97
158 153 90
158 152 94
155 150 97
148 144 84
147 143 87
157 149 90
150 144 85
137 132 77
162 155 90
153 147 84
139 133 75
141 136 77
140 134 77
121 115 62
142 136 75
139 134 82
140 134 72
137 130 74
144 137 75
149 140 79
125 120 60
125 119 60
140 151 39
153 174 0
155 174 0
150 168 0
153 175 0
155 176 0
157 177 0
148 168 0
157 177 0
157 179 0
151 172 0
159 179 0
153 174 0
155 176 0
154 174 0
152 172 0
157 178 0
153 173 0
155 176 0
150 171 0
155 176 0
159 180 0
161 182 0
154 175 0
158 177 0
156 178 0
155 177 0
159 180 0
159 179 0
150 171 0
156 177 0
156 177 0
155 176 0
154 175 0
153 175 0
153 174 0
151 173 0
153 175 0
153 173 0
157 178 0
151 171 0
153 175 0
155 176 0
152 173 0
150 170 0
156 177 0
156 177 0
156 177 0
156 177 0
156 177 0
153 174 0
158 178 0
162 182 0
155 175 0
156 176 0
153 174 0
158 179 0
156 177 0
152 174 0
147 167 0
157 178 0
153 173 0
157 177 0
157 178 0
157 176 0
158 179 0
156 177 0
156 177 0
146 166 0
159 180 0
144 165 0
149 168 0
151 172 0
155 175 0
155 174 0
151 172 0
151 171 0
152 174 0
151 171 0
153 175 0
149 169 0
149 171 0
150 170 0
152 174 0
157 177 0
154 176 0
148 168 0
154 174 0
153 173 0
153 174 0
149 170 0
155 175 0
154 174 0
158 179 0
152 171 0
154 175 0
148 168 0
153 173 0
148 169 0
156 177 0
160 181 0
158 178 0
156 177 0
152 173 0
158 179 0
151 171 0
158 177 0
150 172 0
159 179 0
154 175 0
151 172 0
154 175 0
152 171 0
149 170 0
152 172 0
156 176 0
151 173 0
153 172 0
147 168 0
149 170 0
149 170 0
157 176 0
147 168 0
154 175 0
154 174 0
161 181 0
156 176 0
149 170 0
153 172 0
154 173 0
148 169 0
156 176 0
149 170 0
151 173 0
153 173 0
152 173 0
150 172 0
152 172 0
161 180 0
157 178 0
154 175 0
151 171 0
148 168 0
148 168 0
158 179 0
150 170 0
149 170 0
149 169 0
153 174 0
153 174 0
150 169 0
149 169 0
151 172 0
151 170 0
148 169 0
151 172 0
155 176 0
153 172 0
153 173 0
153 173 0
151 170 0
149 169 0
153 174 0
145 164 72
93 122 154
63 99 179
63 100 178
61 98 178
63 100 181
62 100 179
63 100 181
62 98 178
62 99 180
61 98 177
62 98 177
62 98 177
62 99 181
61 98 180
62 99 181
61 98 180
62 99 179
61 98 179
61 99 181
62 99 180
62 99 181
62 99 180
61 98 180
61 98 177
60 97 179
60 97 179
61 98 180
61 98 179
61 98 179
60 98 180
61 98 180
59 96 178
61 99 181
62 99 180
60 97 179
62 99 180
61 98 179
61 98 179
61 99 180
60 97 179
61 98 180
61 99 180
60 97 178
60 97 179
61 98 180
62 99 180
61 99 181
60 97 179
61 98 180
61 98 179
60 98 180
61 98 179
61 98 179
61 98 180
61 98 180
61 98 180
62 99 180
61 98 180
62 99 181
62 99 179
61 98 179
61 98 179
62 98 178
62 99 179
61 98 178
62 99 181
61 99 180
61 98 180
61 98 180
62 98 179
63 100 180
61 98 180
62 100 181
62 99 180
61 98 178
62 99 181
63 101 182
61 98 179
61 98 178
61 97 174
62 99 180
62 99 176
62 99 181
63 100 178
63 100 181
62 98 179
64 101 184
96 111 148
133 134 116
136 132 78
129 126 77
150 145 84
141 136 79
132 129 77
136 131 80
145 140 86
143 139 80
123 121 81
133 129 78
141 137 87
131 129 85
141 139 93
145 140 89
140 137 90
130 127 80
146 142 90
142 138 89
145 143 95
133 132 88
133 132 90
140 138 94
146 144 98
149 148 100
143 142 96
142 140 96
140 138 92
145 144 99
136 135 92
137 136 92
143 142 97
153 151 102
140 138 96
157 154 102
154 152 104
145 143 97
145 145 99
150 149 102
149 149 102
162 160 109
160 157 107
149 147 101
150 149 102
154 152 103
155 154 104
155 152 104
157 155 103
159 157 105
153 153 105
156 154 103
154 151 101
155 154 103
166 162 108
169 164 110
154 153 104
168 165 109
162 158 105
156 154 106
167 164 107
157 154 103
169 166 111
170 166 109
167 164 110
170 166 107
171 168 112
168 165 109
168 166 110
170 167 110
169 165 107
172 168 112
175 170 112
167 163 108
168 165 107
172 167 110
171 166 109
169 166 107
172 168 106
172 168 110
171 168 109
171 167 106
168 163 106
174 169 108
179 173 113
175 170 110
178 172 113
171 166 108
172 169 106
165 161 101
178 173 113
173 168 108
169 164 104
170 164 104
172 168 106
170 166 107
176 171 112
170 166 106
165 160 102
174 170 112
168 164 106
170 165 104
170 164 104
169 165 102
175 170 109
171 166 106
176 170 107
170 164 106
174 168 107
167 163 104
169 163 102
171 166 104
170 164 98
167 161 103
171 166 106
159 156 97
166 161 99
161 157 101
165 160 99
169 163 99
169 162 101
159 154 88
156 151 87
155 149 90
158 153 98
155 150 91
148 142 80
150 145 88
168 162 101
152 146 88
141 136 82
160 155 94
161 154 93
153 147 88
162 156 93
161 155 94
144 138 77
142 136 82
152 144 88
163 156 87
154 148 90
138 132 75
144 138 72
125 121 66
134 128 68
139 133 75
131 126 60
126 119 64
114 109 53
143 148 53
157 176 0
153 173 0
159 179 0
156 175 0
153 173 0
153 174 0
157 176 0
150 171 0
159 180 0
152 173 0
159 180 0
147 169 0
152 171 0
150 171 0
149 169 0
154 175 0
154 174 0
153 174 0
149 169 0
153 173 0
156 176 0
156 176 0
156 177 0
150 171 0
159 179 0
149 170 0
151 172 0
157 176 0
153 175 0
152 171 0
159 180 0
157 178 0
159 180 0
158 178 0
153 174 0
151 171 0
150 170 0
159 179 0
151 173 0
156 177 0
151 172 0
159 179 0
158 179 0
154 175 0
152 173 0
157 178 0
149 171 0
156 176 0
153 173 0
154 175 0
152 172 0
156 177 0
152 172 0
152 173 0
153 173 0
154 175 0
147 167 0
151 171 0
156 176 0
145 165 0
153 174 0
154 175 0
154 174 0
148 168 0
153 173 0
155 176 0
154 175 0
149 170 0
153 174 0
154 175 0
148 168 0
153 173 0
158 178 0
152 172 0
155 175 0
156 177 0
148 169 0
156 175 0
152 174 0
154 174 0
152 173 0
156 177 0
150 171 0
151 172 0
156 177 0
150 170 0
155 176 0
150 170 0
152 173 0
148 168 0
154 174 0
156 176 0
154 173 0
158 178 0
154 174 0
147 168 0
160 181 0
149 170 0
155 176 0
148 168 0
155 175 0
153 174 0
151 172 0
155 175 0
150 172 0
151 170 0
153 173 0
150 170 0
151 172 0
154 174 0
152 172 0
156 177 0
155 175 0
153 174 0
148 169 0
147 167 0
153 174 0
154 174 0
153 174 0
156 176 0
152 173 0
157 177 0
155 174 0
150 172 0
154 173 0
158 179 0
156 175 0
158 177 0
148 169 0
157 178 0
156 177 0
156 178 0
153 174 0
153 173 0
149 168 0
155 176 0
154 174 0
156 176 0
150 170 0
145 166 0
151 172 0
154 174 0
153 174 0
156 177 0
151 170 0
152 172 0
155 175 0
155 176 0
157 179 0
151 172 0
150 171 0
156 177 0
154 175 0
153 174 0
160 181 0
150 170 0
149 170 0
159 179 0
149 169 0
155 173 0
143 164 52
103 130 141
63 99 177
62 100 182
62 99 180
61 98 177
62 99 179
62 100 181
63 100 181
62 99 179
62 100 183
61 98 178
63 100 182
61 99 180
61 98 179
61 98 178
61 99 181
61 98 179
61 97 176
60 97 178
62 99 180
61 98 180
61 99 180
60 98 179
61 98 180
62 99 181
63 100 181
62 100 181
60 97 178
61 98 180
61 98 179
60 97 179
62 99 181
62 99 181
62 99 180
61 99 180
61 98 180
60 97 179
60 97 178
61 98 180
61 98 179
60 97 178
60 97 178
61 98 179
60 97 179
61 98 180
61 98 179
61 98 179
61 98 180
61 98 180
62 99 180
61 98 179
61 98 179
62 99 180
61 98 179
61 97 179
62 99 181
62 99 180
62 99 181
62 99 180
60 96 177
61 98 179
61 99 180
62 99 179
60 98 179
62 99 180
61 98 180
61 98 179
62 99 181
61 98 177
61 98 180
61 98 180
61 98 179
62 99 178
60 98 179
61 97 178
61 98 179
62 99 179
61 97 176
61 99 180
61 98 178
62 99 181
62 99 179
62 99 181
62 100 181
61 99 180
63 101 181
60 96 173
61 98 178
61 98 179
62 98 178
62 98 178
86 110 165
130 128 90
147 142 84
118 116 70
147 142 86
127 124 71
140 135 81
134 130 79
134 131 81
135 133 82
127 125 76
134 131 81
148 144 93
155 150 97
129 127 82
135 134 92
130 128 83
138 135 90
150 147 97
143 140 94
157 155 102
139 137 93
147 143 96
131 129 86
142 142 98
144 141 94
143 141 95
146 144 96
136 137 95
155 152 103
142 140 96
149 147 99
154 151 101
143 142 99
148 147 100
148 146 100
151 148 99
148 147 101
147 146 101
157 154 104
152 150 102
153 151 102
161 158 106
150 148 101
158 157 107
155 153 105
152 151 104
151 150 103
153 152 104
158 156 105
147 146 98
153 150 101
153 151 102
166 162 109
161 159 107
156 155 106
173 169 112
161 160 109
156 154 103
162 160 108
160 156 104
167 163 108
166 163 108
164 162 110
163 160 108
171 167 110
165 162 107
165 163 109
168 165 110
166 163 106
166 161 105
168 165 109
171 167 108
165 161 104
171 167 108
168 165 107
166 162 106
179 173 114
170 166 107
170 165 107
174 169 111
174 170 112
168 166 110
170 164 104
177 171 113
173 169 108
175 170 110
176 169 107
174 168 109
173 168 108
170 165 106
175 170 112
166 161 102
166 161 102
169 164 106
172 166 104
174 168 108
168 164 107
178 170 108
174 168 110
162 158 102
169 162 103
167 161 102
174 169 108
179 172 107
168 164 104
170 165 104
174 167 107
169 163 102
169 164 104
172 165 107
167 160 99
168 162 103
165 159 99
152 147 94
169 163 101
162 157 101
166 160 99
161 156 97
170 164 102
165 160 102
161 155 93
153 147 88
161 155 94
161 155 94
150 145 85
170 164 97
158 152 87
162 155 90
151 146 82
151 145 84
151 144 84
156 150 94
150 143 87
159 152 88
145 138 77
153 147 84
150 144 84
145 139 79
152 145 85
146 139 79
145 138 79
133 127 72
147 140 84
125 120 56
143 136 79
141 134 70
130 128 62
152 173 0
153 174 0
152 172 0
155 175 0
156 174 0
155 174 0
156 176 0
156 177 0
153 175 0
153 173 0
153 173 0
151 171 0
157 178 0
152 173 0
157 177 0
154 175 0
157 177 0
152 173 0
155 176 0
154 175 0
153 174 0
153 175 0
152 172 0
155 176 0
155 176 0
159 181 0
157 178 0
155 176 0
153 174 0
153 173 0
156 176 0
155 175 0
158 178 0
157 177 0
158 179 0
158 179 0
155 175 0
157 177 0
157 178 0
161 181 0
150 170 0
154 175 0
156 177 0
155 176 0
157 177 0
152 172 0
153 174 0
153 174 0
161 182 0
159 180 0
156 177 0
158 179 0
153 173 0
156 177 0
154 175 0
151 171 0
148 170 0
159 177 0
154 174 0
159 180 0
153 174 0
157 177 0
153 175 0
152 173 0
155 176 0
159 179 0
157 177 0
157 176 0
157 177 0
153 173 0
150 171 0
158 179 0
152 173 0
157 178 0
152 172 0
153 174 0
151 172 0
152 173 0
154 174 0
150 170 0
158 179 0
155 176 0
147 168 0
153 173 0
151 172 0
153 173 0
155 176 0
156 176 0
153 173 0
158 178 0
158 179 0
148 170 0
159 180 0
153 174 0
155 176 0
153 173 0
154 173 0
154 175 0
157 177 0
157 177 0
155 176 0
155 175 0
159 179 0
149 170 0
153 174 0
154 173 0
154 173 0
154 174 0
153 172 0
154 175 0
155 175 0
157 178 0
154 174 0
155 176 0
156 176 0
154 175 0
155 175 0
154 175 0
151 170 0
153 173 0
154 174 0
154 174 0
159 179 0
154 173 0
154 175 0
148 169 0
154 175 0
156 176 0
152 172 0
149 171 0
151 171 0
149 170 0
151 170 0
153 174 0
157 177 0
155 175 0
150 170 0
152 172 0
155 175 0
155 175 0
153 172 0
156 177 0
151 171 0
155 176 0
149 170 0
153 173 0
151 171 0
149 169 0
160 180 0
151 170 0
152 173 0
149 169 0
150 169 0
151 170 0
150 171 0
155 174 0
151 171 0
156 174 0
144 164 52
115 140 125
62 99 178
63 100 181
62 99 179
61 99 176
62 99 177
62 99 178
62 100 183
63 100 181
63 101 182
62 99 179
63 99 180
64 101 182
62 99 181
61 97 176
61 98 179
62 99 180
61 98 177
61 98 180
63 100 180
63 99 179
62 99 180
62 99 181
62 99 179
61 98 179
62 99 179
60 97 179
62 99 181
61 98 179
61 98 179
61 98 179
61 98 179
61 98 178
62 99 180
61 98 179
61 98 179
61 98 179
60 97 178
61 98 179
60 97 179
60 98 179
61 98 180
61 98 179
61 98 179
62 99 180
61 99 180
61 98 180
61 98 179
61 98 180
61 98 179
62 99 179
61 98 179
61 98 180
61 99 180
61 98 180
62 99 181
60 98 179
61 97 178
61 98 179
61 98 179
61 98 178
62 99 180
61 98 179
62 98 179
60 97 178
62 99 180
60 98 179
61 98 180
60 97 178
61 98 180
62 99 180
61 98 179
62 99 181
61 98 179
61 98 179
62 99 181
60 97 177
63 100 180
60 97 178
62 99 180
61 98 177
61 98 179
62 99 180
63 100 182
62 98 178
61 97 172
61 98 178
61 98 178
61 98 177
61 96 174
61 97 174
62 99 181
62 99 179
63 101 184
69 101 169
106 118 140
134 130 79
138 135 76
123 120 71
129 127 78
138 133 82
149 144 88
142 137 85
127 125 81
145 141 87
141 139 87
130 129 80
138 135 84
145 143 95
139 135 83
130 130 90
145 141 92
151 147 95
148 145 96
139 138 95
141 137 91
130 130 89
144 142 94
150 146 97
141 139 94
136 135 89
139 138 95
140 138 96
136 137 96
148 146 98
145 144 98
148 147 101
148 146 99
142 141 96
144 142 95
144 143 98
153 152 103
128 129 92
136 135 95
157 156 106
149 148 101
148 146 100
154 151 101
159 156 105
153 152 104
148 146 99
153 151 103
160 158 107
167 163 109
162 160 107
149 148 101
166 162 109
159 157 105
160 157 106
155 154 104
165 162 107
164 162 108
163 160 106
161 158 105
165 164 108
174 170 111
164 160 106
166 162 107
164 160 107
169 166 110
170 167 110
171 167 111
168 165 109
171 167 109
170 167 112
172 168 107
175 169 109
165 162 107
171 166 107
175 170 110
170 165 107
170 166 107
172 167 108
171 168 110
173 169 111
168 164 105
164 161 100
177 171 109
171 166 106
179 173 112
173 168 108
174 169 104
174 168 108
166 163 103
173 168 109
177 171 110
173 167 107
172 166 106
170 164 104
172 166 102
172 168 109
173 168 108
174 170 109
166 162 103
172 167 108
170 165 103
163 159 99
165 160 102
174 168 108
171 165 103
167 160 103
167 163 104
164 158 94
164 158 99
169 162 102
159 154 94
171 165 104
167 162 102
159 154 91
168 161 94
156 150 93
158 153 94
165 159 94
166 159 101
164 159 99
162 156 93
159 152 91
168 161 101
168 161 97
155 150 93
161 154 91
155 149 87
171 164 99
161 155 88
143 137 82
144 139 84
153 146 85
156 150 90
157 151 66
154 148 87
150 145 84
153 147 87
139 135 77
140 134 66
133 127 68
132 128 70
132 126 66
126 122 58
137 130 66
116 112 56
126 121 53
157 177 0
153 173 0
161 181 0
155 174 0
152 172 0
156 176 0
158 178 0
153 174 0
155 174 0
157 177 0
152 173 0
160 181 0
160 181 0
156 177 0
157 178 0
159 180 0
159 179 0
153 174 0
153 173 0
155 176 0
155 175 0
156 177 0
155 175 0
165 184 0
156 178 0
157 178 0
149 171 0
150 170 0
162 183 0
155 176 0
156 177 0
154 174 0
149 169 0
156 176 0
160 180 0
154 176 0
152 173 0
153 173 0
152 171 0
149 169 0
153 172 0
150 170 0
153 173 0
154 174 0
143 164 0
153 173 0
154 174 0
160 180 0
151 171 0
151 172 0
152 171 0
151 171 0
152 173 0
151 173 0
161 180 0
157 179 0
159 180 0
156 177 0
153 174 0
149 170 0
150 171 0
146 168 0
155 175 0
146 168 0
156 177 0
151 172 0
159 180 0
149 170 0
158 178 0
147 167 0
151 171 0
153 175 0
159 180 0
158 178 0
147 169 0
156 176 0
159 178 0
153 174 0
155 175 0
158 179 0
153 174 0
148 168 0
152 172 0
157 177 0
156 176 0
153 175 0
151 171 0
154 175 0
157 177 0
156 177 0
153 172 0
152 173 0
158 178 0
147 166 0
150 169 0
158 180 0
154 174 0
155 175 0
154 175 0
152 172 0
152 172 0
154 175 0
154 173 0
153 173 0
154 175 0
153 174 0
155 176 0
148 168 0
149 169 0
151 170 0
156 176 0
152 172 0
155 175 0
156 176 0
152 172 0
152 172 0
154 176 0
151 171 0
157 178 0
152 172 0
155 176 0
156 176 0
154 175 0
155 176 0
151 172 0
149 171 0
150 170 0
156 176 0
151 170 0
151 170 0
154 174 0
152 172 0
153 173 0
155 176 0
154 175 0
153 174 0
152 173 0
154 174 0
151 171 0
147 167 0
150 170 0
153 172 0
158 178 0
155 176 0
158 178 0
148 168 0
156 176 0
150 171 0
152 171 0
154 174 0
156 176 0
151 171 0
154 175 0
153 173 0
150 170 0
153 174 0
153 172 0
122 145 111
73 107 166
63 100 178
63 100 181
61 98 178
63 101 182
61 98 177
62 99 179
62 100 180
62 100 180
61 98 179
60 97 177
63 100 179
62 100 180
63 100 183
62 99 180
61 98 177
61 98 179
61 99 180
62 99 180
61 98 180
61 98 179
62 99 181
61 98 179
61 98 179
61 98 179
62 99 180
62 99 180
62 98 179
61 98 179
61 98 179
61 98 179
62 99 181
61 98 179
62 99 180
62 100 182
62 99 179
60 98 180
60 97 178
60 97 179
62 99 181
62 99 180
61 99 180
61 98 180
61 99 180
61 98 179
62 99 181
61 98 180
60 98 179
60 97 179
60 98 179
62 99 180
60 97 178
61 98 179
61 98 179
61 98 179
62 98 179
62 99 179
61 98 179
60 98 180
62 99 180
61 99 180
60 97 178
61 98 179
60 97 178
61 98 179
62 99 180
61 98 179
62 99 180
59 96 178
62 99 180
60 97 179
62 98 179
61 98 179
62 99 179
62 99 181
61 99 181
62 100 181
62 99 181
61 98 177
61 98 178
62 99 181
62 99 181
60 97 177
61 98 176
62 99 180
62 99 178
63 100 182
60 97 177
63 99 178
62 99 181
62 100 180
61 98 178
63 101 182
62 99 179
61 97 176
61 97 173
62 98 176
70 99 163
114 117 102
132 128 81
142 137 78
139 136 86
143 140 89
143 139 87
145 141 93
130 128 80
130 127 85
148 144 89
124 123 83
143 140 89
124 123 80
137 136 85
132 131 91
137 136 89
139 137 92
138 137 89
144 142 95
130 129 89
129 131 92
140 139 96
140 138 93
143 143 96
140 138 94
144 142 97
148 147 101
135 135 93
145 144 94
143 141 95
145 144 99
145 145 99
154 151 103
147 146 100
143 142 97
155 153 103
144 144 98
150 148 101
156 154 105
141 141 97
134 136 95
155 154 105
142 141 97
159 157 105
154 151 100
161 158 106
145 144 98
167 164 107
148 148 100
161 158 107
143 143 99
163 160 106
158 156 105
155 152 100
160 158 106
158 157 105
166 162 108
165 162 109
161 159 106
159 157 105
160 158 108
162 160 105
160 158 107
166 164 110
165 161 107
165 162 107
170 166 106
170 166 109
167 163 106
176 170 112
168 164 108
170 166 109
169 165 109
172 168 109
164 162 109
172 168 109
167 164 107
174 169 110
174 169 111
171 166 105
168 164 106
175 170 110
173 168 109
174 169 110
173 168 108
169 166 109
172 166 107
178 171 109
173 168 110
174 170 111
176 170 108
175 169 108
164 160 101
173 167 104
176 171 110
171 163 101
169 163 102
171 166 107
166 161 102
171 164 102
170 165 102
169 163 102
167 164 102
165 160 102
171 166 98
164 160 102
163 160 98
171 165 106
170 164 101
163 157 94
158 153 97
169 162 99
168 162 101
157 152 90
163 157 94
155 152 90
165 160 101
153 147 87
172 165 102
156 153 97
160 155 97
158 153 98
160 153 91
161 155 98
160 154 88
163 157 93
152 145 82
145 140 80
149 144 85
143 139 80
158 151 85
152 144 87
165 157 94
153 146 84
146 141 85
142 135 74
142 135 79
152 145 82
139 133 74
138 131 68
142 135 75
133 127 68
134 129 66
126 119 62
145 161 16
156 177 0
158 177 0
156 176 0
151 171 0
156 176 0
151 171 0
151 171 0
153 173 0
155 176 0
155 176 0
146 166 0
149 169 0
155 176 0
155 176 0
155 176 0
151 171 0
153 174 0
152 172 0
161 182 0
151 172 0
155 177 0
153 174 0
151 171 0
151 172 0
156 176 0
148 170 0
156 176 0
160 182 0
153 173 0
155 176 0
154 175 0
155 176 0
155 176 0
154 174 0
152 173 0
155 175 0
152 172 0
151 172 0
160 181 0
157 178 0
155 175 0
154 174 0
159 180 0
150 170 0
152 174 0
155 175 0
151 171 0
152 172 0
152 174 0
159 181 0
158 179 0
158 179 0
155 176 0
151 171 0
154 175 0
154 174 0
154 175 0
148 168 0
152 174 0
151 172 0
150 170 0
154 175 0
154 175 0
153 174 0
151 172 0
157 177 0
150 171 0
154 174 0
153 172 0
151 171 0
156 177 0
152 172 0
147 168 0
155 176 0
152 173 0
150 171 0
155 176 0
153 173 0
155 175 0
154 175 0
148 169 0
150 170 0
155 175 0
153 173 0
156 176 0
155 175 0
153 174 0
152 172 0
155 176 0
152 173 0
149 169 0
157 177 0
153 174 0
151 171 0
152 171 0
153 174 0
151 172 0
152 172 0
150 170 0
153 173 0
157 177 0
153 172 0
152 172 0
151 172 0
151 171 0
154 175 0
154 174 0
154 174 0
152 172 0
150 171 0
156 176 0
150 170 0
151 171 0
144 165 0
146 167 0
157 176 0
158 177 0
156 175 0
159 179 0
150 169 0
153 173 0
153 174 0
155 175 0
151 171 0
157 178 0
151 172 0
153 173 0
153 173 0
149 169 0
157 177 0
155 175 0
158 179 0
149 169 0
154 173 0
149 169 0
145 165 0
150 171 0
156 174 0
153 174 0
153 175 0
151 171 0
155 175 0
155 175 0
153 174 0
150 168 0
150 170 0
152 172 0
149 170 0
152 172 0
151 171 0
150 170 0
154 176 0
153 173 0
151 171 0
147 168 56
109 135 137
63 100 177
63 101 183
61 98 176
64 100 178
63 101 182
64 101 182
63 101 183
61 98 178
61 99 181
62 99 179
63 100 183
62 99 179
61 98 179
63 100 181
62 99 180
61 98 178
62 100 182
60 97 177
60 97 179
62 99 180
61 99 181
62 99 180
62 99 180
62 99 180
62 99 180
61 98 180
63 100 180
61 98 179
60 97 179
60 97 179
62 99 179
61 98 179
61 98 179
62 99 178
63 100 180
60 97 178
61 98 179
62 99 180
61 98 179
61 98 179
61 98 178
62 99 181
61 98 179
61 98 180
60 98 179
61 98 179
61 98 179
60 97 179
61 98 180
60 97 178
60 97 178
62 99 180
62 99 180
62 99 180
61 99 181
60 97 178
61 98 179
61 98 179
61 98 180
60 97 178
61 98 179
62 99 180
62 99 181
62 98 179
60 97 178
61 98 179
62 99 181
61 98 178
62 98 179
62 99 180
61 98 180
63 100 180
60 97 177
61 98 177
62 99 180
61 98 180
62 99 181
62 99 180
61 98 180
61 98 179
60 97 177
62 99 179
61 98 178
61 98 179
60 97 177
62 99 179
62 99 181
62 99 179
62 100 180
62 99 181
61 98 179
61 97 177
61 98 180
62 100 180
61 96 173
61 97 177
62 99 178
61 98 176
61 98 177
62 98 174
104 120 152
129 128 87
140 136 85
137 133 83
142 138 88
149 145 93
139 137 91
144 141 88
136 134 85
139 137 87
143 140 90
136 133 87
140 140 95
131 130 88
135 133 89
133 131 88
120 120 83
138 136 90
133 133 89
141 140 96
142 140 96
130 130 91
131 131 91
145 142 96
153 151 104
132 132 92
130 131 91
134 133 91
137 137 95
130 130 93
147 146 100
145 144 97
144 144 99
145 142 97
145 143 98
154 153 104
149 146 98
149 149 102
140 139 93
145 143 99
156 154 105
150 149 103
152 150 100
153 151 101
155 153 104
156 154 104
161 158 103
156 153 103
144 144 100
157 155 104
161 158 105
166 162 107
162 158 105
163 159 106
156 155 104
163 161 108
170 166 108
156 154 103
167 164 108
171 168 112
162 160 104
166 163 109
170 166 111
171 167 109
165 161 106
172 168 109
169 164 105
169 165 108
167 163 104
170 165 109
168 165 110
169 164 108
174 169 111
170 166 107
169 164 104
173 169 110
172 167 109
174 168 106
172 168 109
170 165 103
173 168 110
170 167 106
174 168 107
172 168 109
173 168 108
172 167 106
169 165 104
171 165 106
170 165 103
173 167 106
172 166 103
170 166 103
169 163 102
165 160 102
170 166 103
168 162 103
158 154 95
168 164 106
165 160 98
172 167 107
170 163 97
176 170 108
168 162 103
174 166 104
159 155 94
168 163 98
167 161 101
172 165 101
168 163 106
165 159 97
162 157 98
166 161 99
159 155 94
166 157 97
162 157 95
161 157 90
158 152 95
162 156 93
164 158 98
161 154 95
160 154 94
163 156 95
163 156 91
166 159 99
161 155 91
164 157 93
154 147 82
155 149 93
152 146 85
140 134 75
153 146 90
144 139 77
157 150 87
155 149 80
148 142 79
142 136 75
137 130 72
131 126 70
144 138 79
136 131 74
122 116 62
131 125 64
122 117 58
144 158 28
157 177 0
153 171 0
151 171 0
154 173 0
154 174 0
156 175 0
157 177 0
155 176 0
156 176 0
149 170 0
156 176 0
158 178 0
158 178 0
153 173 0
147 168 0
152 174 0
160 180 0
153 174 0
156 177 0
155 175 0
155 175 0
153 174 0
154 174 0
150 171 0
154 174 0
156 177 0
151 172 0
153 172 0
154 174 0
152 173 0
152 173 0
153 173 0
159 180 0
153 174 0
157 176 0
150 170 0
152 172 0
154 176 0
157 177 0
152 172 0
151 171 0
149 171 0
153 174 0
154 175 0
153 174 0
155 175 0
159 180 0
160 181 0
154 176 0
152 173 0
156 177 0
160 181 0
155 175 0
155 176 0
156 177 0
151 171 0
157 177 0
149 171 0
153 174 0
146 166 0
152 172 0
149 170 0
151 171 0
158 178 0
156 176 0
152 173 0
154 174 0
154 174 0
159 180 0
152 171 0
156 176 0
153 175 0
159 180 0
148 168 0
153 174 0
154 174 0
157 178 0
154 174 0
157 177 0
159 179 0
149 170 0
149 169 0
153 174 0
155 174 0
153 174 0
150 170 0
154 175 0
151 171 0
153 174 0
151 171 0
160 180 0
156 177 0
154 174 0
152 173 0
150 170 0
152 172 0
159 179 0
153 173 0
156 176 0
152 173 0
152 172 0
153 174 0
150 170 0
150 170 0
159 180 0
149 169 0
156 176 0
155 176 0
154 173 0
156 177 0
151 172 0
150 171 0
155 176 0
157 177 0
151 172 0
153 173 0
152 173 0
153 173 0
156 177 0
152 172 0
152 172 0
152 172 0
154 175 0
154 175 0
149 171 0
153 172 0
151 172 0
150 171 0
150 170 0
153 174 0
153 174 0
153 173 0
151 171 0
152 173 0
155 175 0
150 171 0
154 176 0
158 177 0
152 170 0
154 174 0
149 169 0
150 170 0
152 172 0
153 174 0
154 173 0
153 173 0
153 175 0
150 170 0
150 170 0
155 173 0
155 175 0
154 175 0
149 170 0
130 152 101
71 105 168
63 100 181
62 99 177
61 97 174
62 99 178
63 99 176
63 100 179
63 99 177
61 98 180
60 97 177
63 100 181
62 100 176
63 100 181
63 100 178
62 99 180
62 99 179
62 99 181
62 99 180
61 98 180
62 99 180
62 100 181
61 98 178
61 98 179
61 98 179
62 99 181
61 98 179
62 98 179
62 99 180
62 99 180
60 97 178
61 97 178
62 98 178
61 98 180
62 98 179
62 99 180
62 99 179
61 99 180
61 98 179
62 99 180
62 99 180
60 98 180
63 100 180
61 98 180
62 100 181
62 99 180
61 98 179
60 97 178
61 98 180
62 99 180
60 96 178
61 98 179
61 98 179
61 98 179
61 98 180
61 98 179
60 97 179
61 98 179
61 98 179
61 98 179
61 98 180
60 97 178
61 98 179
60 98 179
62 99 180
61 98 179
61 98 179
61 98 178
62 99 180
61 98 179
62 99 179
61 98 179
61 98 180
61 98 178
61 98 179
62 99 180
60 97 178
62 99 180
61 98 178
61 98 178
61 98 179
61 98 180
61 98 179
62 99 179
61 98 178
63 100 181
61 98 178
61 99 179
61 98 177
61 98 179
61 98 178
62 99 180
62 99 178
62 99 180
61 97 177
62 99 179
61 98 178
61 98 178
62 99 178
63 100 181
61 98 176
61 98 175
63 100 179
59 94 171
62 99 179
106 114 124
135 133 86
147 143 85
129 128 81
128 126 81
145 141 89
142 140 88
146 142 91
133 129 78
138 137 91
148 146 96
146 143 93
144 140 92
149 146 95
126 128 90
134 131 89
135 133 92
127 127 88
142 141 96
148 145 97
114 117 81
138 137 93
122 123 86
142 141 97
147 146 100
144 143 97
139 139 97
156 155 105
145 144 96
156 154 105
140 139 96
144 142 96
135 137 96
146 144 97
151 150 103
139 140 98
153 151 103
159 156 105
149 148 101
141 140 96
161 158 106
148 146 101
169 167 111
152 150 102
164 160 106
146 146 101
163 160 106
152 150 101
154 153 104
164 161 106
160 157 101
158 155 101
168 164 109
163 160 105
162 160 108
161 159 106
161 158 102
172 168 110
168 165 110
161 158 104
174 170 111
164 161 106
162 158 101
166 162 104
168 164 105
173 168 108
173 168 109
169 164 105
174 169 108
176 170 110
167 163 104
167 164 107
171 167 109
165 163 105
177 170 109
174 168 107
175 170 109
173 169 109
174 168 104
178 172 112
167 164 104
171 166 105
172 167 109
174 167 106
171 166 106
172 167 106
173 169 110
175 168 108
172 167 107
177 170 108
176 169 106
165 161 102
168 163 106
173 167 103
169 164 104
168 164 99
169 164 98
165 160 97
166 161 102
166 161 99
164 158 98
167 162 104
169 164 102
172 165 102
164 158 97
153 148 94
165 160 101
163 157 97
161 155 95
166 160 95
168 161 101
170 165 106
158 152 91
165 159 91
163 158 99
154 147 87
166 159 98
164 158 93
163 156 97
158 152 95
160 154 91
158 151 93
165 159 102
145 141 80
146 140 80
141 137 82
150 143 84
153 146 85
148 141 77
139 134 72
135 130 70
145 139 80
147 141 80
151 144 82
130 124 70
151 143 79
133 127 74
133 127 64
128 122 58
130 124 66
103 100 39
136 146 39
151 172 0
150 170 0
155 176 0
155 174 0
153 174 0
160 180 0
157 178 0
164 184 0
153 174 0
154 174 0
156 177 0
158 179 0
149 169 0
155 175 0
154 174 0
152 172 0
155 176 0
151 172 0
149 170 0
151 172 0
152 172 0
154 174 0
153 174 0
157 178 0
152 173 0
153 173 0
156 177 0
158 178 0
147 167 0
156 176 0
152 173 0
156 176 0
159 180 0
154 174 0
152 172 0
150 170 0
152 173 0
153 173 0
158 179 0
157 177 0
158 178 0
150 171 0
150 170 0
155 175 0
157 179 0
154 175 0
158 179 0
155 175 0
153 174 0
150 170 0
155 175 0
151 172 0
147 169 0
157 178 0
155 176 0
154 174 0
150 172 0
158 178 0
156 175 0
156 178 0
151 173 0
154 175 0
153 173 0
152 173 0
153 175 0
153 174 0
157 177 0
153 173 0
154 174 0
153 172 0
152 172 0
152 172 0
154 174 0
149 168 0
152 173 0
151 171 0
158 178 0
147 168 0
151 172 0
155 176 0
153 174 0
146 166 0
150 170 0
154 174 0
158 179 0
161 181 0
152 173 0
152 172 0
156 176 0
145 165 0
151 172 0
149 170 0
152 173 0
159 178 0
154 174 0
153 174 0
150 170 0
152 173 0
152 173 0
149 170 0
152 171 0
155 174 0
158 178 0
156 176 0
146 166 0
149 169 0
155 175 0
152 173 0
149 170 0
151 171 0
146 167 0
159 178 0
149 169 0
150 169 0
149 170 0
152 171 0
150 170 0
153 173 0
149 170 0
148 168 0
152 171 0
153 172 0
153 172 0
152 173 0
151 173 0
157 178 0
150 171 0
149 169 0
148 169 0
147 168 0
151 172 0
156 177 0
139 160 0
151 171 0
153 173 0
151 171 0
155 176 0
154 174 0
151 171 0
152 172 0
153 173 0
152 172 0
152 173 0
153 173 0
153 173 0
148 169 0
152 173 0
157 177 0
149 170 0
148 169 0
150 170 0
140 160 61
115 139 127
61 98 179
61 98 175
61 99 178
62 100 178
63 100 182
62 99 177
62 99 180
61 98 175
62 99 179
61 98 178
61 98 175
61 98 177
61 98 179
61 98 178
62 99 180
63 99 180
62 98 178
61 98 177
63 100 180
61 98 180
61 98 179
61 98 178
62 99 180
61 98 179
62 99 179
61 98 179
61 98 179
61 99 180
61 98 179
62 99 180
61 98 179
61 98 179
61 98 179
61 98 179
61 98 179
61 98 179
61 97 178
61 98 179
62 99 180
62 99 180
62 99 180
62 99 180
60 97 178
60 97 178
61 98 179
60 97 178
60 97 178
61 98 179
61 98 179
60 97 179
61 98 179
61 98 179
61 98 178
60 97 178
61 97 178
60 97 179
61 98 179
61 98 179
61 97 178
61 98 179
61 98 180
62 99 179
61 98 179
61 99 180
61 98 179
61 98 179
62 99 179
61 98 179
62 98 179
61 98 179
61 98 179
60 97 178
62 98 179
60 97 178
61 98 178
61 99 180
60 97 178
61 97 176
62 98 179
61 98 177
61 98 179
61 99 180
61 97 178
62 99 181
61 98 180
62 98 178
60 97 177
62 99 181
61 98 178
62 99 180
62 99 181
62 99 180
61 99 180
61 98 177
62 99 178
61 97 175
61 98 176
61 97 176
62 99 176
61 98 178
60 97 174
60 97 174
62 99 180
60 97 175
61 97 175
60 95 171
95 112 148
133 131 85
135 132 83
130 127 80
122 121 77
126 124 83
136 133 83
125 124 85
136 133 85
118 118 77
122 122 83
126 127 86
133 133 92
128 128 86
131 130 88
122 124 86
126 126 86
132 131 90
136 134 91
120 119 81
147 144 98
131 130 89
129 129 88
146 145 97
146 143 95
147 144 95
131 132 93
144 142 95
140 140 98
139 139 95
143 144 98
144 144 101
155 152 103
154 150 100
144 143 97
153 150 101
148 147 98
154 152 103
148 147 100
146 145 99
152 151 103
152 150 101
164 160 106
158 156 105
155 154 105
158 156 103
158 155 105
160 157 105
159 157 105
169 164 105
159 156 103
156 154 104
157 155 105
160 158 103
163 159 104
158 155 104
168 164 109
169 165 108
169 165 108
166 162 106
171 167 110
161 158 101
163 161 108
174 169 110
172 168 106
167 163 108
174 169 109
170 165 105
172 168 111
171 167 110
169 165 107
172 169 109
170 166 106
175 168 106
175 170 103
174 169 107
173 169 109
175 171 108
170 165 106
169 165 105
175 169 108
172 167 105
169 164 106
175 170 108
174 168 107
167 163 101
171 165 104
167 162 97
172 167 104
173 167 103
169 165 99
172 167 103
167 163 102
169 163 101
167 162 98
172 165 104
168 164 104
168 163 101
167 162 103
175 168 104
168 161 98
165 160 97
168 162 102
169 164 104
166 161 101
166 160 95
163 156 95
176 169 106
162 156 95
157 152 91
160 154 93
169 163 101
167 160 99
154 150 93
156 151 91
171 163 102
152 146 87
166 161 99
151 146 84
163 156 97
156 150 88
161 154 90
161 155 90
155 149 88
156 149 90
163 156 94
143 137 82
145 140 74
159 151 90
145 140 82
138 131 75
150 144 84
129 124 66
146 140 77
154 147 75
148 143 75
124 119 51
137 130 66
138 131 70
111 106 56
135 141 51
150 171 0
155 176 0
156 176 0
164 183 0
160 178 0
154 174 0
154 175 0
155 176 0
154 175 0
158 179 0
152 173 0
151 172 0
160 181 0
159 180 0
160 181 0
158 179 0
153 173 0
154 175 0
158 179 0
157 178 0
156 178 0
156 177 0
153 174 0
151 171 0
155 176 0
154 173 0
154 174 0
162 183 0
158 178 0
152 173 0
155 176 0
161 182 0
149 169 0
159 180 0
157 178 0
149 170 0
158 179 0
154 174 0
154 173 0
157 177 0
157 178 0
157 177 0
151 171 0
160 181 0
153 173 0
153 172 0
155 175 0
150 171 0
154 175 0
155 176 0
159 179 0
156 177 0
148 168 0
152 171 0
149 169 0
161 182 0
151 172 0
151 171 0
153 172 0
154 175 0
157 178 0
152 173 0
159 179 0
151 171 0
157 177 0
155 177 0
154 174 0
157 177 0
153 173 0
148 167 0
156 177 0
151 171 0
150 171 0
156 175 0
153 174 0
156 176 0
149 169 0
152 174 0
154 174 0
149 170 0
153 174 0
158 178 0
156 177 0
152 174 0
154 174 0
154 174 0
159 179 0
151 171 0
152 172 0
147 167 0
148 169 0
155 176 0
151 172 0
156 177 0
150 170 0
159 180 0
159 179 0
157 178 0
156 175 0
151 171 0
151 170 0
151 172 0
152 173 0
153 174 0
149 168 0
157 176 0
149 170 0
155 174 0
152 173 0
145 165 0
152 172 0
158 178 0
157 177 0
154 174 0
160 180 0
148 168 0
152 171 0
151 171 0
155 176 0
150 171 0
158 178 0
160 180 0
147 167 0
148 170 0
156 176 0
158 178 0
159 179 0
153 173 0
150 170 0
154 175 0
153 173 0
149 170 0
150 171 0
159 179 0
151 170 0
150 170 0
151 171 0
156 177 0
157 178 0
154 174 0
155 175 0
153 174 0
148 167 0
153 174 0
147 168 0
154 173 0
150 170 0
157 177 0
150 171 0
155 176 0
135 157 73
71 105 175
62 99 177
62 99 175
61 98 178
62 99 179
62 98 178
63 100 179
62 99 178
62 99 180
62 99 178
61 98 179
61 98 179
61 98 176
60 97 177
61 98 176
60 97 174
61 99 178
61 99 180
61 99 180
62 99 180
61 98 178
62 99 180
62 99 179
61 98 179
61 98 179
60 97 178
62 99 179
61 98 179
61 98 179
61 98 180
61 98 179
62 99 180
61 98 180
61 98 180
60 97 178
61 98 179
61 98 178
61 98 179
60 96 177
61 98 180
61 98 179
62 98 179
61 98 178
61 97 178
60 97 178
62 98 180
61 98 178
61 98 179
60 97 178
62 98 179
60 97 178
61 98 179
61 98 179
60 97 179
60 97 178
61 98 179
61 98 179
60 97 178
61 98 179
61 98 180
62 99 180
60 97 179
61 98 179
61 98 179
60 97 178
61 97 178
61 99 180
61 98 179
60 97 178
61 98 179
62 99 180
60 97 178
61 98 178
61 98 179
61 98 180
61 98 179
62 99 179
61 99 180
61 98 178
61 98 180
61 98 180
61 98 176
61 98 179
61 98 179
62 99 180
61 98 180
61 97 176
60 97 178
62 99 180
61 98 177
60 98 178
62 98 179
61 98 178
61 97 174
63 100 180
61 97 175
62 99 178
60 98 174
61 98 179
61 98 178
61 97 175
62 99 179
63 100 179
62 99 179
61 98 177
61 98 177
61 98 176
61 96 170
62 98 177
88 107 146
123 127 115
136 132 85
130 129 82
129 127 83
134 132 83
126 126 88
109 110 78
127 127 86
131 130 84
133 133 89
136 135 92
134 133 86
132 132 90
128 126 84
121 121 82
123 122 84
119 119 80
132 131 88
119 121 87
128 127 86
118 120 87
133 133 91
139 137 93
133 134 94
143 142 98
139 139 97
145 143 97
155 154 105
140 139 96
142 141 98
149 147 100
144 144 101
144 142 98
146 145 99
146 144 98
155 152 104
133 132 91
159 155 102
160 156 104
151 149 101
151 148 100
150 149 98
167 163 105
148 148 102
159 157 103
154 153 104
160 157 104
156 154 104
171 167 110
167 164 108
154 153 104
169 166 108
167 163 108
166 163 109
162 158 101
168 163 108
167 162 105
164 160 107
164 161 105
163 158 102
168 165 109
164 161 104
168 165 107
175 170 109
163 159 102
165 161 105
169 164 105
167 163 104
165 161 103
166 162 103
170 166 108
175 170 109
171 166 107
166 161 104
175 169 104
166 162 106
168 163 101
176 171 107
169 164 107
168 164 104
172 167 108
173 168 107
168 163 102
172 167 106
174 167 106
169 165 104
173 167 104
169 163 102
171 165 103
173 168 107
170 165 104
162 157 99
170 166 104
175 168 106
176 168 102
172 166 107
169 163 101
173 166 103
170 164 102
170 165 103
170 163 99
170 164 97
173 167 103
160 156 97
168 162 95
168 161 103
161 155 94
160 154 94
175 167 102
161 155 98
167 160 97
153 148 84
156 149 88
164 158 93
158 153 90
161 155 90
170 163 97
149 144 85
162 155 94
155 149 87
157 150 93
146 141 82
155 149 85
162 155 95
152 146 85
145 138 79
154 147 84
147 141 77
149 143 80
145 140 80
139 134 79
140 135 66
141 134 75
133 127 66
139 133 68
134 129 64
135 129 72
124 118 56
127 132 42
160 179 0
160 179 0
150 170 0
161 180 0
151 171 0
156 175 0
161 182 0
157 177 0
159 179 0
156 176 0
152 173 0
148 168 0
152 172 0
156 178 0
154 174 0
159 179 0
153 175 0
154 175 0
151 171 0
155 175 0
155 176 0
155 175 0
144 165 0
157 177 0
156 176 0
158 178 0
157 179 0
149 171 0
155 176 0
153 173 0
156 177 0
158 179 0
155 176 0
150 168 0
154 174 0
157 177 0
156 176 0
152 173 0
150 171 0
154 174 0
154 173 0
159 179 0
158 180 0
154 175 0
151 172 0
150 170 0
158 179 0
156 175 0
155 175 0
151 171 0
151 172 0
156 177 0
155 176 0
151 171 0
151 171 0
160 181 0
155 175 0
153 173 0
150 171 0
152 173 0
155 176 0
154 175 0
150 170 0
150 171 0
151 172 0
153 173 0
160 181 0
150 172 0
154 175 0
155 175 0
147 168 0
159 179 0
155 175 0
152 172 0
149 170 0
159 179 0
154 173 0
157 177 0
148 169 0
156 177 0
151 172 0
157 178 0
153 173 0
155 175 0
153 173 0
154 176 0
153 174 0
148 169 0
157 177 0
150 170 0
152 172 0
158 179 0
155 176 0
152 172 0
151 172 0
161 179 0
156 177 0
158 179 0
154 173 0
151 171 0
158 177 0
149 169 0
152 172 0
150 171 0
151 171 0
151 171 0
159 180 0
153 173 0
157 178 0
156 177 0
155 176 0
153 173 0
155 176 0
154 174 0
152 172 0
148 168 0
151 171 0
152 172 0
153 174 0
156 177 0
148 169 0
149 169 0
153 173 0
158 178 0
152 171 0
155 175 0
155 175 0
153 174 0
152 173 0
152 173 0
149 168 0
151 172 0
154 174 0
149 168 0
148 169 0
155 174 0
150 169 0
150 169 0
150 171 0
152 172 0
149 170 0
154 175 0
151 171 0
153 173 0
157 177 0
155 176 0
151 171 0
150 171 0
149 169 0
121 144 109
65 101 171
63 100 180
62 99 176
63 100 181
59 96 172
62 99 179
61 97 173
63 100 181
63 100 181
62 99 181
62 99 179
62 98 177
60 96 174
60 97 174
62 99 178
62 100 181
61 98 179
61 99 180
61 97 175
60 97 178
62 98 179
61 97 176
62 99 180
61 98 179
61 98 180
61 98 179
62 98 179
61 97 178
61 97 178
61 98 179
61 98 179
61 98 180
61 98 179
61 98 180
62 99 179
61 97 178
61 98 180
61 97 178
61 98 178
61 97 178
61 98 179
60 97 179
62 99 180
62 99 181
61 98 179
61 98 179
61 98 179
62 99 180
61 98 179
61 98 179
61 98 179
60 97 178
61 98 179
61 98 178
61 98 179
61 98 179
61 98 179
61 97 178
61 98 179
62 99 180
61 98 179
61 98 178
61 98 179
60 97 178
60 97 179
62 99 180
60 97 178
60 97 178
60 97 178
61 98 178
62 99 179
60 97 178
60 97 178
61 98 179
62 99 180
61 98 180
61 98 179
61 98 179
61 98 179
62 99 179
61 98 180
62 99 180
60 97 178
61 98 180
60 98 179
62 99 181
61 98 177
59 96 175
62 99 180
61 98 178
61 97 178
62 99 181
62 99 181
62 100 182
61 98 178
62 98 178
62 99 179
61 98 176
63 100 175
61 97 176
60 97 177
62 100 181
62 99 177
62 98 178
62 98 178
62 98 175
61 97 174
62 99 175
62 98 177
62 98 175
62 99 178
62 99 176
96 107 122
132 128 83
109 111 76
112 112 73
137 133 85
116 115 75
127 124 77
134 132 87
141 138 93
129 128 82
131 130 89
110 112 77
125 125 85
137 136 92
138 136 92
133 133 92
129 129 88
130 130 91
142 141 94
145 144 98
129 129 90
138 137 94
137 138 97
125 126 90
127 126 89
139 139 97
140 140 97
147 146 98
143 142 98
137 137 95
137 136 95
145 142 96
146 145 100
131 133 95
150 148 100
147 145 100
143 143 98
147 145 96
148 146 100
158 154 103
154 153 104
160 157 105
157 154 103
155 154 101
162 160 106
159 156 105
151 151 101
159 155 101
147 146 99
160 157 100
161 158 103
163 160 107
156 153 104
165 162 105
167 163 106
172 167 111
170 165 104
172 168 110
164 161 103
163 159 101
171 166 106
172 166 108
166 163 104
172 167 108
173 168 109
171 166 104
174 168 107
172 168 111
167 163 104
175 170 110
177 171 110
168 164 101
175 169 107
161 157 98
175 169 109
172 168 110
175 169 104
176 170 109
175 169 109
167 162 97
164 160 100
169 165 104
175 170 109
173 168 108
177 171 109
176 170 109
175 170 107
175 169 108
167 162 99
169 163 102
173 167 103
164 160 101
171 164 104
171 166 103
166 161 99
171 165 104
166 161 99
168 162 101
168 164 103
176 169 103
166 160 101
172 166 102
171 164 97
166 160 98
166 161 95
156 152 95
164 158 94
159 153 93
163 156 94
171 166 103
156 149 87
163 158 97
160 153 91
160 155 95
169 162 97
157 152 90
156 149 84
156 150 90
150 144 85
147 141 79
157 151 85
137 131 74
147 142 82
158 152 88
145 139 84
157 150 84
158 150 84
169 161 93
146 140 77
143 136 80
134 129 68
137 131 70
145 138 74
139 133 70
123 118 64
128 124 58
114 110 56
117 120 42
147 166 0
151 170 0
154 175 0
155 175 0
154 173 0
155 175 0
149 170 0
159 180 0
154 174 0
151 172 0
155 175 0
152 172 0
162 183 0
151 171 0
148 168 0
152 173 0
153 174 0
162 183 0
158 178 0
154 175 0
162 183 0
152 173 0
153 174 0
149 170 0
151 171 0
154 175 0
157 178 0
149 170 0
151 172 0
155 176 0
157 178 0
155 176 0
149 170 0
157 177 0
151 172 0
156 176 0
157 178 0
153 174 0
159 179 0
154 175 0
153 175 0
150 169 0
153 174 0
159 180 0
150 171 0
157 177 0
156 176 0
152 172 0
151 172 0
150 171 0
158 178 0
154 175 0
153 173 0
157 178 0
155 176 0
152 173 0
153 174 0
152 173 0
147 169 0
150 170 0
154 174 0
156 177 0
152 172 0
155 177 0
152 172 0
152 173 0
150 170 0
153 173 0
153 173 0
156 177 0
154 174 0
157 176 0
154 175 0
153 172 0
159 180 0
150 171 0
154 173 0
150 171 0
150 170 0
153 174 0
158 177 0
155 175 0
147 167 0
153 173 0
154 174 0
147 168 0
157 177 0
155 176 0
152 172 0
151 171 0
155 176 0
153 174 0
152 173 0
151 171 0
146 167 0
158 178 0
151 171 0
155 176 0
153 173 0
151 171 0
152 172 0
156 176 0
148 169 0
151 172 0
159 179 0
154 175 0
154 176 0
148 168 0
157 176 0
151 171 0
152 172 0
149 170 0
150 170 0
153 172 0
150 169 0
154 174 0
151 172 0
151 170 0
154 174 0
154 174 0
151 171 0
147 168 0
152 173 0
151 171 0
154 173 0
150 171 0
153 173 0
146 166 0
155 175 0
154 176 0
152 171 0
155 174 0
149 171 0
156 175 0
153 174 0
152 172 0
152 173 0
151 171 0
155 174 0
156 176 0
158 177 0
157 178 0
154 175 0
152 172 0
154 173 0
152 173 0
153 173 0
148 168 35
105 131 143
64 102 180
63 100 180
61 97 177
61 98 176
63 99 176
62 99 180
62 98 176
62 99 174
62 99 175
62 99 180
61 98 177
62 98 176
62 99 180
62 99 179
61 98 180
62 99 178
61 98 179
62 99 177
61 98 178
61 98 178
61 98 178
62 99 178
62 99 179
62 98 178
60 97 179
63 99 180
61 98 179
62 99 179
60 97 177
61 98 179
62 99 180
62 99 180
61 98 179
60 97 178
61 98 179
61 98 179
61 98 179
62 99 180
61 98 180
60 97 177
60 98 179
61 98 179
61 98 179
61 98 178
62 99 180
60 97 178
62 99 180
61 98 179
60 96 177
61 98 178
61 98 179
60 97 178
61 98 179
61 98 179
61 98 178
61 98 178
61 98 179
61 98 179
61 98 179
60 97 178
60 97 178
60 97 177
61 98 179
60 97 178
62 99 180
61 98 180
62 99 179
62 99 179
61 98 179
62 99 179
61 98 179
61 98 179
61 98 179
61 98 180
60 97 178
60 97 178
62 99 179
62 98 179
60 97 178
61 98 179
62 98 179
61 98 179
61 98 178
62 99 179
61 98 176
62 99 180
61 98 178
62 99 179
61 98 179
60 98 179
61 98 178
61 98 177
60 97 177
61 98 178
62 99 180
62 99 180
60 97 177
61 97 177
62 99 181
61 98 178
61 98 178
61 98 177
62 99 179
60 97 176
62 99 180
61 97 177
61 98 179
60 97 175
61 97 172
60 97 174
62 99 177
60 97 174
62 99 180
60 96 173
90 107 143
125 123 84
115 114 75
134 131 86
134 132 86
128 127 89
125 125 86
127 126 86
140 137 92
130 130 89
123 122 82
128 128 89
130 129 87
120 121 84
129 131 91
135 134 93
122 123 87
136 136 95
122 124 89
132 132 93
122 124 87
128 130 90
133 132 93
122 123 87
137 138 97
129 130 92
144 143 97
147 145 99
137 137 93
141 141 97
146 145 101
143 143 96
140 140 97
141 140 96
141 140 95
151 149 101
148 146 100
150 149 100
140 139 95
165 162 104
157 155 105
155 152 102
141 140 93
156 153 103
162 158 102
160 157 103
160 158 103
158 156 105
164 161 108
153 151 98
159 154 101
158 156 104
164 160 105
169 164 109
163 159 105
166 161 105
166 163 107
173 169 110
169 165 110
172 167 106
172 166 107
166 162 106
164 161 107
169 166 108
174 168 104
170 167 109
171 166 106
174 168 106
170 166 105
166 163 108
167 163 104
171 166 106
169 163 100
165 161 105
172 166 106
169 165 104
171 166 104
166 162 103
177 171 106
171 165 103
180 174 108
165 162 99
174 167 103
175 169 104
165 161 102
171 166 107
172 166 106
173 166 103
165 159 97
172 167 104
173 168 107
169 164 101
176 169 108
168 161 98
165 162 99
169 164 103
166 161 101
168 162 99
170 163 99
166 159 97
175 170 103
163 157 93
164 159 98
169 163 102
154 150 90
158 152 88
173 164 101
169 162 101
162 156 93
156 150 93
162 155 94
165 159 97
169 162 95
165 158 93
146 141 72
163 157 93
156 149 87
162 155 93
136 131 77
145 141 84
154 147 87
146 140 82
156 150 85
149 143 82
146 140 77
143 136 82
134 129 75
151 145 79
138 131 66
143 137 75
142 136 75
146 139 74
145 137 79
126 121 62
135 129 64
122 117 56
134 130 66
151 171 0
158 178 0
157 175 0
158 178 0
155 174 0
154 174 0
157 176 0
158 179 0
151 171 0
161 182 0
159 180 0
155 175 0
149 170 0
154 176 0
151 172 0
151 172 0
151 170 0
153 174 0
150 171 0
155 176 0
156 175 0
153 174 0
150 170 0
158 179 0
152 172 0
156 177 0
151 171 0
154 175 0
155 175 0
148 168 0
153 174 0
153 175 0
156 177 0
155 175 0
156 176 0
155 177 0
155 175 0
161 180 0
157 178 0
161 182 0
156 176 0
158 179 0
158 178 0
157 178 0
152 173 0
158 178 0
154 175 0
152 172 0
151 171 0
149 169 0
149 170 0
150 171 0
158 178 0
150 171 0
155 176 0
157 176 0
153 174 0
152 172 0
156 176 0
158 178 0
151 172 0
154 175 0
155 176 0
150 171 0
152 172 0
158 178 0
156 176 0
153 174 0
154 175 0
152 172 0
152 172 0
162 182 0
152 173 0
154 173 0
153 173 0
155 175 0
155 176 0
152 173 0
153 173 0
155 175 0
157 178 0
155 175 0
153 173 0
149 169 0
154 174 0
153 174 0
150 172 0
156 176 0
151 172 0
149 170 0
155 175 0
148 169 0
152 172 0
151 171 0
148 169 0
151 172 0
150 170 0
153 173 0
155 175 0
155 176 0
150 170 0
148 167 0
154 175 0
148 169 0
152 172 0
151 172 0
152 172 0
150 171 0
154 174 0
149 169 0
156 176 0
155 175 0
153 173 0
154 175 0
151 172 0
157 177 0
151 170 0
151 172 0
149 171 0
150 171 0
148 167 0
154 173 0
152 172 0
158 177 0
151 170 0
153 174 0
151 170 0
149 169 0
150 170 0
150 171 0
146 166 0
154 175 0
150 170 0
153 173 0
151 172 0
158 179 0
153 173 0
157 176 0
154 175 0
155 175 0
148 168 0
151 170 0
151 171 0
157 177 0
153 173 0
147 169 0
141 163 63
87 116 152
62 99 177
62 99 174
62 99 177
62 99 176
61 98 179
61 99 180
63 100 179
61 98 176
61 98 177
61 98 178
62 98 175
62 99 180
62 99 179
62 98 179
62 98 179
61 98 179
61 97 177
62 99 180
62 99 179
61 97 176
62 99 180
61 98 179
60 97 177
62 99 178
62 98 179
61 98 180
62 99 180
60 97 175
61 98 178
62 99 179
61 98 179
60 97 179
61 98 179
62 98 179
61 97 178
61 98 179
61 97 178
60 97 177
61 98 179
62 99 179
61 98 179
62 99 179
60 97 179
61 98 178
62 99 179
62 98 179
60 97 178
60 97 179
59 96 177
60 97 178
60 97 178
61 98 179
60 97 178
60 97 178
61 98 179
61 98 179
61 98 179
60 97 178
62 99 179
62 98 179
60 97 178
61 98 179
60 97 178
61 98 179
62 98 179
61 98 178
62 99 179
61 98 179
60 97 178
60 97 178
61 98 179
61 98 178
60 97 178
61 98 178
62 99 180
60 97 178
61 97 178
61 98 179
61 98 179
61 98 179
61 97 178
61 98 179
60 97 178
62 99 180
62 98 179
62 98 177
62 99 179
61 98 179
60 97 176
61 98 177
61 97 175
60 97 178
61 97 177
61 98 179
62 99 179
61 97 175
61 98 179
62 99 180
61 97 177
62 99 179
63 100 182
61 98 177
61 97 177
61 97 176
61 98 178
62 98 173
61 97 174
61 98 176
61 98 178
61 98 178
61 97 174
62 98 178
60 96 174
60 96 172
63 101 181
59 95 171
77 102 160
110 112 86
126 123 80
125 126 85
114 115 80
123 123 88
130 128 84
127 127 85
129 127 86
140 139 94
141 139 94
123 122 85
127 126 86
122 122 84
142 141 97
131 131 91
118 120 83
138 135 91
139 138 95
129 130 90
130 131 89
136 136 93
122 123 86
138 138 96
137 137 95
123 124 85
137 137 96
140 139 99
138 137 93
139 138 94
145 144 99
143 141 98
139 140 98
144 143 99
148 146 99
148 148 102
151 150 102
143 142 96
156 152 98
150 148 102
154 153 103
147 146 98
156 154 104
165 162 108
150 149 101
162 159 107
170 166 110
156 154 99
161 158 102
158 156 103
165 162 107
163 160 105
158 155 103
171 167 108
167 162 104
166 161 107
173 168 106
169 165 109
170 165 107
169 164 106
163 160 104
165 161 103
166 163 108
170 166 106
172 167 110
171 167 109
168 163 102
170 166 108
167 163 106
165 160 97
175 170 109
174 169 109
172 168 107
173 167 106
177 171 109
176 170 108
164 160 99
174 169 107
176 170 108
177 171 110
170 165 104
167 163 101
167 162 97
173 167 105
167 162 102
173 166 101
163 159 97
166 161 102
168 162 95
170 165 103
169 163 94
170 163 99
161 157 95
166 161 98
178 169 104
178 170 103
167 163 101
168 161 101
170 163 101
171 165 104
168 162 99
166 159 97
156 152 93
156 152 84
158 153 93
163 159 99
160 154 95
169 162 97
153 149 91
170 163 99
159 154 91
173 166 99
152 147 85
164 157 91
151 144 85
144 138 82
166 159 95
144 138 80
155 149 91
155 149 87
156 149 79
142 137 77
145 139 77
136 131 74
146 140 79
135 129 70
135 128 72
155 148 80
137 130 74
137 132 74
137 133 70
128 121 66
129 123 60
124 118 58
129 123 68
121 114 51
155 174 0
156 176 0
147 168 0
157 177 0
159 179 0
157 177 0
152 173 0
154 175 0
154 175 0
158 178 0
159 179 0
154 174 0
164 185 0
158 179 0
156 176 0
154 175 0
149 171 0
155 176 0
150 171 0
152 173 0
151 173 0
158 177 0
153 174 0
156 177 0
148 169 0
149 170 0
154 175 0
157 178 0
161 182 0
159 180 0
157 178 0
155 175 0
153 173 0
157 177 0
159 180 0
153 174 0
158 176 0
155 175 0
154 174 0
149 170 0
156 176 0
153 173 0
156 177 0
148 170 0
155 176 0
162 182 0
158 179 0
152 172 0
150 171 0
152 171 0
157 178 0
154 174 0
155 176 0
157 178 0
155 176 0
153 174 0
160 181 0
156 176 0
155 174 0
151 172 0
153 173 0
158 179 0
150 171 0
153 173 0
147 168 0
154 175 0
153 173 0
153 173 0
159 180 0
152 173 0
151 172 0
154 173 0
153 174 0
151 171 0
151 172 0
154 174 0
154 174 0
152 173 0
154 175 0
158 178 0
155 176 0
152 172 0
153 173 0
151 171 0
151 172 0
155 175 0
160 181 0
153 172 0
154 173 0
149 169 0
146 166 0
149 170 0
151 171 0
150 171 0
148 169 0
154 175 0
152 172 0
157 178 0
151 172 0
148 168 0
156 176 0
151 172 0
155 175 0
157 178 0
156 176 0
156 176 0
157 178 0
154 174 0
150 170 0
160 179 0
153 173 0
158 178 0
147 167 0
153 172 0
148 169 0
152 172 0
150 170 0
147 166 0
153 173 0
157 178 0
152 173 0
155 175 0
152 173 0
151 172 0
155 176 0
152 173 0
147 167 0
156 177 0
152 171 0
157 177 0
154 173 0
150 171 0
148 169 0
150 171 0
149 169 0
150 170 0
153 173 0
150 171 0
153 172 0
147 166 0
154 175 0
152 172 0
149 169 0
153 172 0
152 174 0
131 153 87
68 103 174
62 99 174
62 98 174
62 99 178
62 99 176
62 99 178
62 99 175
64 102 185
61 98 173
61 98 175
62 99 178
63 100 181
61 98 178
62 98 174
61 99 180
63 100 181
61 98 180
63 99 178
61 98 178
62 99 181
61 97 177
62 99 180
61 98 180
61 97 177
61 98 179
61 98 179
62 98 179
60 97 179
63 99 178
61 97 179
62 99 180
63 100 180
62 99 180
60 97 178
62 98 179
61 98 179
60 97 178
61 98 179
61 98 179
62 99 179
62 98 179
61 97 178
61 98 179
62 98 179
61 98 179
60 97 177
62 98 179
61 98 178
63 99 180
61 98 179
61 98 179
62 98 179
60 96 176
62 98 179
62 99 179
62 99 179
60 97 178
60 97 178
61 97 178
61 98 179
60 97 178
60 97 178
60 97 178
61 97 178
60 97 177
61 98 179
60 97 178
61 98 179
61 98 178
61 98 179
62 99 179
61 98 179
61 97 178
61 98 178
61 98 178
61 98 180
61 97 178
61 98 179
61 98 178
61 98 178
62 99 180
61 98 179
62 99 180
62 99 179
61 98 180
63 100 180
61 98 178
62 99 180
62 99 180
62 99 175
63 99 180
62 99 177
62 99 179
61 98 179
61 98 177
62 98 179
60 97 178
61 98 179
60 97 178
62 99 180
60 97 177
61 98 176
62 99 178
62 99 179
63 99 177
62 99 180
62 99 180
61 98 178
61 98 175
61 98 179
61 97 176
62 98 175
62 99 180
62 100 180
61 97 174
62 98 172
61 96 169
60 96 167
60 96 169
60 93 157
106 113 106
111 112 74
120 120 78
116 116 78
115 117 77
125 123 83
131 131 87
125 125 85
129 128 86
128 127 88
126 126 86
123 125 87
124 125 88
129 130 91
136 135 93
135 133 91
128 129 90
134 135 95
130 131 92
129 130 91
135 134 91
137 136 93
141 139 94
130 130 91
130 131 89
139 138 97
143 142 97
134 134 92
137 136 94
138 138 96
140 140 97
144 143 97
143 142 97
143 142 98
152 151 102
153 151 100
158 155 104
140 139 93
158 154 99
156 154 102
152 150 99
155 152 100
152 149 102
158 156 104
163 160 107
158 155 100
164 160 103
166 162 106
166 162 106
158 155 104
154 152 97
151 150 98
161 158 105
162 158 102
172 167 106
159 157 106
158 156 97
169 164 106
163 159 100
167 162 104
168 163 105
168 163 104
173 167 104
168 163 104
167 163 103
166 163 106
168 163 103
176 171 109
171 166 107
175 170 109
170 165 104
171 166 104
174 169 106
172 167 106
172 166 105
171 167 107
171 166 102
169 164 104
177 171 108
169 162 102
169 164 100
174 168 108
169 163 102
179 171 109
168 163 102
168 162 99
169 163 99
163 159 97
165 160 95
166 162 103
172 165 104
160 156 97
170 163 101
169 163 97
166 160 99
164 157 88
169 164 102
167 161 94
163 158 95
163 158 90
160 155 94
164 158 97
159 154 98
165 159 90
156 152 91
151 146 87
154 149 91
155 150 90
168 161 98
151 144 85
154 149 85
164 156 94
157 151 88
149 142 84
154 148 87
156 148 85
156 150 90
157 150 90
146 141 84
156 150 88
148 142 79
159 152 90
142 137 70
146 140 77
150 144 80
154 147 84
150 143 84
142 135 74
142 136 72
153 146 82
139 132 68
134 129 66
113 109 45
124 119 53
165 184 0
159 178 0
153 171 0
155 174 0
158 176 0
149 167 0
159 180 0
152 172 0
152 173 0
161 181 0
155 176 0
159 179 0
153 174 0
156 177 0
155 177 0
159 181 0
160 180 0
152 172 0
158 178 0
153 174 0
156 177 0
158 178 0
157 178 0
157 177 0
159 180 0
150 170 0
159 180 0
151 172 0
153 173 0
154 175 0
152 173 0
159 180 0
148 169 0
155 176 0
155 176 0
153 174 0
152 173 0
151 172 0
159 179 0
150 170 0
154 174 0
158 179 0
158 178 0
154 175 0
156 177 0
153 174 0
157 177 0
148 168 0
155 176 0
152 173 0
158 178 0
153 174 0
151 171 0
152 172 0
152 172 0
153 175 0
155 175 0
155 175 0
155 175 0
153 173 0
155 175 0
152 172 0
153 173 0
158 177 0
152 173 0
153 174 0
155 176 0
152 172 0
150 171 0
156 176 0
154 174 0
154 175 0
153 173 0
150 171 0
156 176 0
149 169 0
153 174 0
150 171 0
159 179 0
163 183 0
150 170 0
155 175 0
156 177 0
148 169 0
155 175 0
157 177 0
156 176 0
155 176 0
152 172 0
147 166 0
152 173 0
155 175 0
162 184 0
153 174 0
155 177 0
150 170 0
150 171 0
151 171 0
153 173 0
151 172 0
159 180 0
151 171 0
152 172 0
148 169 0
160 179 0
147 167 0
148 169 0
153 174 0
146 166 0
150 170 0
153 173 0
151 170 0
153 172 0
153 173 0
152 171 0
153 173 0
148 169 0
151 171 0
150 170 0
144 164 0
152 173 0
150 171 0
147 168 0
153 174 0
148 169 0
150 170 0
153 174 0
151 171 0
151 171 0
145 165 0
154 175 0
153 173 0
157 176 0
152 172 0
146 168 0
151 173 0
153 174 0
154 175 0
153 172 0
151 171 0
157 177 0
154 174 0
153 173 0
150 169 0
134 156 87
63 99 172
62 99 173
62 99 173
63 100 176
62 99 178
62 100 180
62 98 174
61 98 179
62 99 177
61 98 175
62 98 178
60 97 172
61 98 176
62 99 178
61 98 178
61 97 178
61 98 179
62 99 180
61 98 176
61 98 176
61 97 176
61 98 178
62 99 179
61 98 180
61 98 177
62 98 177
62 99 179
61 98 177
61 97 178
64 101 178
62 99 179
61 98 176
60 97 178
61 98 179
61 98 178
62 99 179
61 98 177
60 97 178
62 99 179
60 97 178
61 97 176
60 98 179
61 98 179
61 98 177
60 97 178
60 97 178
61 97 178
61 97 178
61 98 178
61 98 178
59 96 178
61 97 178
61 98 179
62 99 179
61 98 178
62 99 179
61 98 176
61 98 179
61 98 179
62 99 180
60 97 178
60 97 179
61 97 178
61 98 178
61 97 178
60 97 178
60 97 178
60 97 177
63 99 179
60 97 178
60 97 177
61 97 178
61 98 180
61 98 178
60 97 178
62 99 179
61 98 179
61 98 179
61 97 178
61 98 179
61 98 177
61 97 178
61 97 178
61 98 179
61 97 178
62 98 179
60 97 177
62 98 177
61 98 179
62 99 179
62 99 179
61 98 177
62 99 179
61 98 180
61 98 177
61 98 179
62 99 180
61 98 177
61 98 178
62 98 176
61 98 179
61 98 178
60 97 176
61 98 179
61 98 176
61 98 176
62 99 179
61 98 179
61 97 174
61 97 174
62 99 178
62 98 175
62 99 176
62 98 177
62 99 178
61 97 170
61 98 173
61 97 173
62 98 174
60 97 172
61 98 173
65 99 171
105 114 125
123 122 85
109 111 77
123 123 86
120 122 87
126 126 87
128 128 88
121 121 83
122 124 86
123 124 88
122 122 85
123 123 84
120 121 85
132 131 92
127 126 86
133 132 91
113 116 82
123 125 88
116 117 79
128 129 92
119 121 87
136 136 93
123 124 85
136 135 92
121 121 84
135 135 95
130 130 89
145 145 99
149 147 100
131 131 91
143 142 96
138 137 94
150 149 100
145 143 95
143 143 99
147 145 100
147 146 99
159 156 101
161 158 104
159 156 103
147 145 98
157 153 102
160 156 101
159 155 102
156 153 100
160 157 104
163 158 101
167 163 108
164 159 102
163 159 103
169 164 106
159 156 103
170 166 108
167 163 103
166 161 104
171 166 104
167 163 102
167 162 105
162 159 102
170 167 109
164 161 106
171 166 107
170 165 105
165 161 106
170 165 100
159 155 94
172 167 108
168 163 102
176 169 109
176 170 109
173 167 104
171 166 103
178 171 108
172 166 106
171 167 104
166 162 101
173 167 107
169 164 103
177 170 106
171 166 106
173 166 104
170 165 104
163 158 92
171 166 103
170 166 106
163 158 93
172 165 104
166 161 99
169 163 101
170 163 99
164 160 97
171 165 98
172 165 101
173 166 102
171 164 101
169 163 101
164 156 93
172 165 102
163 156 95
165 160 94
154 148 85
164 158 94
164 158 95
156 150 87
152 146 85
162 156 95
171 164 99
153 147 85
166 159 97
151 146 85
159 153 85
165 159 90
141 135 80
164 159 97
157 152 87
145 140 75
152 146 84
158 151 91
143 137 82
148 142 79
150 143 80
152 145 82
136 131 72
141 134 66
134 127 66
125 119 68
136 129 68
122 116 64
144 138 72
126 122 60
114 109 58
119 114 56
122 117 53
147 162 22
154 174 0
148 169 0
151 172 0
151 172 0
148 168 0
152 173 0
153 173 0
157 178 0
155 176 0
150 171 0
150 170 0
157 178 0
153 173 0
153 174 0
154 174 0
161 180 0
151 172 0
151 171 0
153 174 0
154 175 0
154 174 0
160 181 0
156 176 0
156 177 0
154 174 0
154 175 0
158 178 0
154 175 0
148 170 0
151 171 0
155 177 0
156 177 0
152 172 0
148 169 0
155 176 0
162 183 0
157 176 0
155 175 0
146 167 0
160 179 0
149 170 0
159 180 0
153 174 0
154 174 0
154 173 0
153 173 0
150 171 0
150 170 0
155 176 0
161 182 0
150 171 0
146 166 0
157 177 0
153 175 0
150 171 0
157 178 0
149 169 0
149 169 0
149 170 0
154 175 0
151 172 0
153 173 0
157 178 0
159 180 0
153 174 0
151 171 0
156 176 0
152 173 0
154 175 0
149 169 0
152 173 0
156 176 0
150 171 0
155 175 0
152 172 0
148 169 0
152 173 0
154 175 0
148 169 0
154 175 0
151 171 0
160 181 0
149 168 0
151 172 0
159 179 0
151 171 0
148 168 0
154 175 0
153 173 0
150 170 0
154 174 0
151 172 0
154 175 0
149 171 0
157 177 0
149 169 0
151 171 0
155 175 0
146 165 0
155 176 0
154 173 0
156 175 0
155 175 0
152 172 0
148 168 0
150 171 0
156 177 0
149 169 0
157 177 0
155 175 0
152 173 0
152 173 0
156 177 0
155 175 0
151 170 0
149 169 0
147 167 0
154 174 0
153 174 0
149 169 0
148 168 0
154 173 0
156 177 0
151 172 0
154 173 0
147 167 0
152 173 0
156 177 0
150 170 0
155 174 0
154 173 0
147 167 0
150 171 0
150 171 0
152 173 0
148 168 0
155 174 0
147 166 0
149 169 0
150 171 0
155 175 0
154 174 0
110 133 121
62 99 173
61 98 176
64 101 183
63 100 179
63 100 180
63 101 184
62 99 180
62 99 177
61 97 175
62 99 177
61 97 175
61 99 180
62 99 180
62 98 175
61 98 179
63 100 179
61 97 173
61 98 179
61 98 179
62 99 180
62 98 179
61 98 179
61 98 179
62 99 179
61 98 179
61 98 177
61 98 179
61 98 178
62 98 178
61 98 178
61 98 179
61 98 179
61 98 179
61 98 179
61 98 178
60 96 177
60 97 178
61 98 178
61 98 178
60 97 178
61 98 179
61 98 178
62 99 179
61 98 179
61 98 178
62 98 178
61 97 177
61 97 178
61 98 179
61 98 179
60 97 176
61 98 177
62 99 180
61 98 179
60 97 178
60 97 178
61 98 179
62 99 179
61 98 179
60 97 178
61 98 179
60 97 177
62 99 179
60 97 177
61 98 178
61 98 179
60 97 178
60 97 178
61 98 179
62 98 179
61 98 178
60 97 178
61 97 178
61 98 178
60 97 177
62 99 180
61 98 178
61 97 177
60 97 178
61 98 179
61 98 178
62 98 179
61 97 177
61 98 178
60 97 177
61 98 179
61 98 179
62 98 179
61 98 179
61 98 177
62 99 180
61 98 178
59 96 176
61 99 180
62 98 179
62 99 179
61 98 179
61 98 178
61 98 179
61 98 177
62 99 179
61 98 176
61 98 177
60 96 174
62 99 176
62 98 177
62 99 178
62 99 178
62 98 177
61 98 178
61 98 175
61 97 173
61 97 175
62 99 179
61 98 178
62 98 178
62 98 175
61 96 168
61 97 173
61 98 175
63 99 175
63 99 173
60 95 165
61 96 167
107 115 129
96 99 66
121 122 86
122 122 84
137 134 91
127 126 83
117 117 81
118 120 82
132 131 89
113 116 83
120 123 89
121 122 87
127 128 91
122 123 86
122 123 86
121 122 87
131 131 90
136 136 95
133 132 91
143 142 96
137 137 97
134 134 92
136 136 94
134 134 94
141 141 96
144 143 97
148 147 101
151 149 101
131 131 92
147 144 97
151 149 101
136 137 94
137 137 96
145 144 97
152 150 101
151 150 96
157 155 100
144 143 98
151 150 100
155 153 102
159 156 104
165 162 106
152 151 98
151 149 98
159 155 104
163 159 102
158 156 102
159 155 101
163 159 106
163 159 104
170 165 106
161 157 99
169 165 103
170 164 104
172 167 109
165 161 101
168 163 104
167 163 103
164 160 102
164 159 101
167 163 99
171 166 108
171 167 108
170 166 108
170 166 107
170 165 105
168 164 107
173 167 106
174 168 108
161 157 99
168 163 101
167 163 106
167 162 98
173 168 107
170 163 102
172 166 105
169 164 104
169 164 102
168 164 102
171 165 102
174 169 107
169 162 98
168 162 102
160 155 94
171 164 103
168 162 99
171 165 102
165 159 95
170 165 101
168 164 103
169 163 97
158 152 88
162 155 84
173 167 104
166 160 95
159 155 95
170 164 99
166 160 93
166 160 101
161 155 93
156 150 88
163 158 88
165 158 91
166 159 95
151 146 88
160 154 91
159 152 87
160 155 88
153 149 82
163 155 95
149 143 82
160 154 94
146 141 80
152 146 87
154 147 87
158 151 85
153 147 82
148 141 84
146 140 68
149 143 79
140 135 68
141 135 72
157 149 75
144 138 75
146 139 70
145 139 75
140 133 77
128 122 58
141 135 64
143 137 66
127 121 64
122 117 56
156 174 0
160 179 0
153 173 0
153 173 0
160 179 0
154 175 0
154 175 0
157 177 0
156 176 0
153 174 0
152 174 0
147 168 0
155 175 0
151 171 0
155 175 0
153 173 0
159 178 0
160 181 0
157 177 0
153 174 0
153 174 0
156 176 0
160 181 0
154 175 0
151 171 0
154 175 0
153 174 0
152 173 0
152 173 0
158 179 0
153 174 0
149 170 0
153 173 0
149 170 0
156 177 0
157 177 0
154 173 0
158 179 0
154 174 0
158 179 0
162 183 0
152 173 0
153 173 0
155 176 0
150 169 0
156 176 0
153 174 0
156 176 0
157 178 0
154 174 0
151 170 0
154 174 0
151 172 0
154 175 0
146 167 0
152 172 0
155 175 0
149 170 0
152 173 0
149 169 0
156 176 0
154 175 0
153 173 0
156 176 0
151 171 0
150 171 0
154 174 0
154 173 0
159 180 0
152 172 0
155 174 0
152 172 0
150 171 0
154 174 0
151 172 0
161 181 0
157 178 0
156 177 0
161 182 0
159 181 0
153 173 0
158 178 0
153 174 0
149 169 0
148 168 0
146 167 0
152 173 0
154 175 0
155 175 0
153 174 0
151 172 0
150 171 0
151 172 0
156 175 0
150 171 0
153 174 0
151 172 0
155 175 0
153 174 0
152 171 0
151 170 0
152 172 0
154 175 0
150 170 0
150 170 0
153 173 0
155 176 0
154 175 0
153 174 0
150 170 0
154 174 0
155 176 0
151 172 0
154 174 0
152 174 0
151 171 0
151 172 0
158 178 0
152 173 0
152 172 0
154 175 0
149 170 0
149 169 0
149 170 0
146 166 0
156 176 0
153 173 0
159 179 0
149 169 0
151 171 0
148 170 0
157 176 0
152 173 0
147 167 0
151 171 0
152 172 0
146 166 0
154 175 0
149 169 0
151 172 0
154 174 0
152 173 0
128 150 95
63 100 177
62 99 176
62 99 177
61 98 172
62 98 174
63 100 180
63 100 173
63 100 176
60 97 174
61 98 175
62 99 178
61 98 178
62 99 179
62 99 180
62 99 179
62 99 177
62 99 177
62 99 179
61 98 177
62 99 180
62 98 177
61 99 180
62 98 177
62 99 179
60 97 178
62 98 179
62 99 180
62 99 179
61 98 173
61 98 178
61 98 178
61 98 178
60 97 175
60 97 178
61 98 180
61 98 179
60 97 179
60 98 179
61 97 176
60 97 177
61 98 179
60 97 176
60 97 178
60 97 178
62 98 179
61 97 178
61 98 179
61 98 179
61 98 179
60 97 178
61 97 178
60 97 178
60 97 178
61 98 179
61 98 179
62 99 179
61 97 178
61 98 178
61 97 178
61 97 178
61 98 179
61 98 178
61 98 178
61 98 179
61 98 178
62 98 178
62 98 178
60 97 178
61 97 178
60 97 178
60 97 178
61 98 179
62 98 179
61 97 178
61 98 178
61 98 179
62 98 177
61 97 178
61 98 177
61 98 179
61 98 177
60 97 176
61 98 178
61 98 179
61 98 179
61 98 178
61 98 178
60 97 176
61 98 179
61 98 179
61 97 176
61 98 178
61 97 178
61 97 178
61 98 178
61 98 179
61 98 176
60 97 175
61 98 179
60 98 178
60 97 178
60 96 175
62 98 179
61 98 179
63 99 179
60 97 178
61 98 178
62 99 177
62 98 177
62 99 173
61 98 173
60 95 172
60 97 176
61 98 177
61 96 171
62 98 178
62 98 176
61 97 174
62 99 180
61 98 175
60 97 173
62 98 173
61 97 173
61 96 171
60 96 171
62 98 174
87 103 138
112 114 78
109 110 77
115 115 80
116 116 79
116 117 80
98 101 77
126 126 88
113 116 83
124 125 87
131 131 91
107 109 81
124 125 89
131 131 91
126 127 91
132 133 91
133 133 92
129 130 91
103 107 79
126 126 87
122 125 86
131 131 91
132 130 89
147 144 95
140 140 97
127 128 89
135 133 92
126 128 92
140 140 93
144 143 96
147 146 99
130 130 90
135 134 90
142 142 98
150 148 100
155 151 99
147 146 101
152 151 102
156 152 100
156 154 103
155 153 101
159 156 100
154 152 100
150 147 98
142 143 95
162 158 106
166 162 106
155 152 98
165 161 106
162 159 105
166 162 105
171 166 105
163 159 101
161 157 100
171 166 104
156 154 97
174 169 109
166 163 107
160 156 101
164 160 100
169 165 107
168 163 102
165 161 101
172 166 101
173 167 104
174 169 107
167 163 99
168 163 105
173 167 102
162 158 96
167 163 99
175 169 109
172 166 107
164 160 101
171 166 104
168 163 99
169 164 102
174 167 104
174 166 104
173 166 102
170 165 103
178 171 107
164 160 98
164 158 93
169 163 98
171 164 101
167 161 97
165 161 98
165 161 95
166 160 98
164 157 95
165 159 95
163 156 91
172 165 98
165 159 95
166 160 98
161 155 90
167 160 98
153 148 82
165 158 94
168 161 94
169 162 98
165 158 98
158 153 94
167 160 99
157 150 87
171 164 99
150 144 84
159 153 87
160 153 91
151 146 82
157 151 90
168 160 93
159 152 88
159 152 85
159 151 91
158 153 85
148 141 79
149 143 80
156 150 88
138 132 68
145 140 75
143 137 72
150 143 84
135 129 64
141 134 72
139 132 77
136 130 66
108 104 53
120 115 58
118 112 48
144 162 0
149 168 0
155 175 0
160 180 0
150 170 0
152 171 0
156 177 0
153 173 0
153 172 0
156 177 0
155 174 0
150 171 0
153 173 0
147 167 0
157 177 0
154 175 0
153 175 0
152 172 0
156 176 0
151 172 0
156 177 0
154 174 0
155 176 0
161 181 0
153 173 0
150 170 0
155 175 0
151 172 0
153 174 0
153 174 0
156 176 0
158 178 0
154 175 0
150 171 0
153 175 0
154 173 0
157 178 0
159 180 0
154 175 0
149 169 0
149 170 0
149 169 0
160 181 0
155 175 0
151 172 0
153 174 0
154 174 0
156 176 0
151 172 0
155 175 0
153 174 0
151 172 0
151 171 0
149 169 0
153 174 0
155 175 0
154 174 0
156 177 0
152 173 0
151 171 0
154 175 0
154 175 0
153 173 0
148 169 0
161 181 0
153 173 0
157 178 0
157 176 0
151 171 0
153 173 0
158 178 0
155 176 0
151 171 0
152 172 0
151 172 0
154 175 0
158 177 0
149 169 0
152 172 0
155 175 0
153 173 0
154 173 0
151 172 0
155 176 0
160 181 0
156 177 0
153 174 0
156 175 0
152 173 0
149 169 0
149 170 0
151 171 0
148 168 0
148 168 0
154 173 0
155 175 0
149 169 0
153 174 0
155 176 0
153 174 0
151 170 0
156 176 0
149 170 0
146 168 0
149 169 0
147 167 0
148 169 0
153 171 0
151 171 0
158 179 0
151 171 0
149 170 0
156 176 0
153 172 0
151 170 0
151 172 0
154 175 0
153 173 0
151 171 0
153 173 0
151 170 0
146 165 0
149 170 0
151 171 0
154 174 0
151 171 0
152 172 0
152 171 0
152 172 0
154 174 0
154 174 0
150 171 0
147 168 0
152 172 0
148 168 0
157 177 0
158 177 0
149 169 0
150 170 0
150 171 0
146 166 25
99 124 134
62 99 175
63 100 175
62 99 179
63 100 177
62 99 175
62 99 180
62 99 179
62 98 174
62 99 181
61 97 175
62 100 181
63 100 179
62 99 178
62 99 178
63 100 180
61 98 178
63 100 180
60 97 176
62 99 180
61 98 179
61 97 176
61 98 177
61 98 175
61 97 175
61 98 177
60 97 177
62 99 178
62 99 180
60 97 176
62 99 180
60 97 176
60 97 178
62 99 179
61 98 177
62 98 179
61 98 178
61 97 178
62 99 179
62 99 179
61 98 179
61 98 179
60 97 178
62 98 177
61 98 177
61 98 178
61 98 177
61 98 178
62 99 179
61 98 178
60 97 177
61 98 179
62 99 178
61 98 178
61 98 179
59 96 177
60 97 178
62 98 179
61 98 178
60 97 178
61 97 178
62 98 178
61 98 179
62 99 179
59 96 175
62 99 179
61 98 179
60 97 178
60 97 178
61 98 178
60 97 177
62 98 179
61 98 179
62 98 179
61 98 178
62 99 179
61 98 179
61 98 178
61 98 178
61 98 178
61 98 178
61 97 178
61 98 178
61 98 179
60 97 177
62 99 179
60 97 178
61 97 178
61 97 178
61 98 178
61 98 179
61 98 179
61 97 178
60 97 176
61 98 179
61 98 179
61 98 178
61 97 177
60 97 174
60 96 175
63 99 180
62 99 178
62 99 177
62 99 180
61 98 179
62 98 178
60 96 175
61 97 174
61 98 176
61 98 176
60 96 172
60 97 176
62 99 179
62 99 177
63 99 180
62 98 176
60 97 177
61 97 173
60 97 174
62 98 176
61 98 174
62 99 176
62 99 175
61 98 176
61 98 177
62 97 167
61 98 173
62 97 174
60 95 165
93 105 122
104 106 75
98 102 75
111 112 79
105 108 77
113 114 76
104 106 77
127 127 87
112 113 79
132 131 93
122 123 86
116 118 86
108 111 80
116 118 85
106 111 82
113 116 83
127 128 90
124 124 87
130 129 88
124 125 89
137 137 96
122 124 88
134 133 91
141 141 98
129 131 90
147 147 100
142 141 96
154 151 100
124 125 87
144 142 96
148 147 100
148 147 101
150 149 103
156 153 102
140 139 97
143 142 93
153 150 100
156 152 100
151 150 99
147 145 97
156 153 100
158 156 101
151 148 98
151 148 99
170 164 106
169 164 106
160 156 101
156 153 94
156 152 98
170 164 101
167 164 106
161 158 101
165 161 104
162 158 102
172 167 104
167 162 106
170 165 101
171 166 107
163 158 101
162 159 103
166 161 103
171 165 102
163 160 100
168 163 104
171 166 106
176 169 106
162 157 94
172 166 104
177 170 105
169 164 104
167 162 99
178 171 107
170 164 94
173 166 104
172 165 102
169 163 94
168 162 104
175 168 106
169 162 97
175 167 102
162 157 91
173 167 103
162 156 93
163 157 94
172 164 97
164 159 102
171 164 102
166 160 94
163 158 94
171 165 101
158 154 94
166 159 97
165 159 94
152 146 85
168 161 97
162 157 94
161 156 90
156 151 88
160 154 93
162 156 91
154 148 87
155 149 88
160 154 97
167 159 95
163 157 97
168 162 95
175 167 94
163 157 93
158 152 90
151 146 84
147 142 80
152 146 82
138 135 74
150 142 79
148 142 79
150 144 85
145 139 64
152 144 77
145 139 82
144 137 74
134 128 75
131 127 64
142 136 70
146 140 74
128 124 66
125 120 64
137 129 70
123 116 60
105 101 39
103 98 36
150 169 0
152 169 0
151 170 0
155 174 0
154 175 0
148 168 0
159 179 0
155 175 0
147 168 0
155 175 0
152 174 0
150 171 0
154 175 0
155 176 0
157 178 0
156 177 0
152 174 0
153 173 0
155 175 0
156 176 0
153 174 0
151 171 0
160 181 0
160 180 0
149 169 0
159 179 0
155 175 0
148 168 0
156 176 0
154 174 0
159 180 0
153 172 0
159 179 0
154 175 0
156 176 0
157 178 0
154 174 0
149 169 0
156 177 0
154 173 0
148 170 0
157 177 0
148 169 0
151 172 0
156 176 0
160 180 0
152 171 0
158 179 0
155 175 0
155 175 0
150 171 0
155 176 0
154 175 0
154 173 0
157 177 0
158 178 0
149 169 0
147 167 0
153 174 0
151 172 0
152 173 0
148 168 0
150 171 0
152 172 0
159 179 0
156 177 0
156 176 0
159 179 0
151 172 0
149 170 0
149 170 0
156 175 0
151 171 0
149 169 0
155 176 0
149 170 0
149 169 0
149 170 0
152 173 0
152 173 0
148 170 0
154 175 0
157 177 0
147 168 0
145 164 0
155 176 0
147 168 0
156 176 0
159 180 0
150 171 0
153 173 0
154 175 0
151 170 0
148 169 0
153 172 0
156 177 0
159 180 0
147 168 0
152 171 0
151 171 0
152 173 0
153 174 0
157 179 0
150 170 0
147 168 0
157 177 0
150 171 0
147 168 0
153 173 0
156 176 0
151 171 0
152 173 0
152 172 0
154 174 0
150 170 0
149 170 0
147 168 0
150 169 0
153 174 0
149 170 0
148 170 0
153 173 0
154 173 0
145 165 0
150 170 0
153 174 0
151 171 0
149 170 0
153 173 0
153 173 0
153 174 0
147 167 0
147 167 0
147 167 0
155 175 0
150 169 0
152 173 0
149 170 0
152 171 0
154 174 0
102 129 140
62 98 178
61 97 175
62 99 176
60 96 170
59 95 164
62 99 176
62 98 175
61 98 178
61 97 173
62 98 175
62 99 180
61 98 175
62 98 175
62 100 180
61 98 178
62 98 177
62 99 179
61 98 178
61 97 176
60 97 177
62 99 179
62 99 180
61 98 179
62 98 179
60 97 174
62 98 179
62 99 180
61 98 180
62 98 178
61 98 179
61 98 177
62 99 180
62 98 179
61 98 179
60 96 176
61 98 178
62 98 179
60 97 176
61 98 178
60 97 177
61 98 179
61 98 178
61 97 176
60 97 178
61 98 179
62 98 178
60 97 178
62 98 179
62 99 180
61 98 179
61 97 178
60 97 178
61 97 178
59 96 177
60 97 178
61 97 176
60 97 178
61 98 177
61 98 178
61 98 178
60 97 178
62 98 179
61 98 178
61 98 179
60 97 178
62 99 179
61 97 178
61 97 177
60 97 176
60 97 177
61 98 178
62 98 179
60 97 176
61 98 179
62 98 177
61 98 177
62 99 177
61 98 178
62 99 179
60 96 176
60 97 178
62 98 179
61 98 179
62 98 179
62 98 179
61 98 179
61 97 178
61 98 177
61 98 179
61 97 177
61 98 179
62 99 178
62 99 179
60 97 178
61 97 177
61 98 173
62 98 176
61 98 179
61 98 176
62 98 179
61 98 179
62 98 179
61 98 178
61 98 176
62 99 179
61 98 178
61 98 178
61 97 176
61 98 175
61 98 174
61 98 179
60 96 174
60 97 174
63 99 175
61 97 174
62 99 176
62 99 178
61 98 174
60 96 175
61 98 176
61 98 176
59 95 162
61 98 177
61 97 174
60 96 176
60 95 168
61 98 176
61 97 173
60 95 167
61 98 173
82 100 140
105 107 71
119 119 81
108 109 76
111 113 79
112 113 79
98 101 72
98 101 74
122 123 88
124 124 86
128 128 90
125 124 86
108 110 80
102 105 77
107 109 75
127 128 91
129 130 93
127 128 89
129 129 87
126 127 89
138 137 92
140 140 95
133 133 91
138 138 95
131 131 90
149 147 97
138 138 96
123 123 86
148 146 97
142 142 98
155 153 103
156 153 102
139 139 96
156 153 103
140 140 96
167 163 107
148 146 95
158 155 99
148 145 95
143 142 94
158 155 103
159 155 99
167 162 103
143 142 94
155 152 97
156 152 100
167 164 102
162 159 102
172 167 109
156 153 97
170 163 98
163 159 101
167 161 101
168 162 101
167 163 102
166 161 101
166 161 100
158 155 95
164 160 97
163 158 97
167 162 103
168 164 104
168 162 101
166 162 100
173 166 100
173 167 103
170 165 101
177 170 104
168 163 99
174 168 103
171 166 107
176 168 104
169 164 99
166 159 91
171 164 100
175 168 107
169 164 101
165 159 97
169 164 95
170 165 101
172 167 108
172 167 102
173 167 106
169 164 98
175 167 104
167 163 99
165 159 99
162 156 94
167 161 98
179 170 99
166 159 94
162 156 95
169 163 101
171 164 99
158 152 90
174 166 98
159 152 90
162 156 88
159 152 90
154 148 88
157 151 88
165 157 88
158 152 87
151 147 79
156 150 85
160 154 87
167 160 90
152 145 87
152 145 80
154 148 85
152 146 82
151 145 82
157 150 87
145 140 84
150 144 79
153 147 85
137 131 70
151 143 82
151 144 77
133 127 70
150 142 82
142 137 72
145 138 72
138 131 74
118 114 53
134 127 74
126 120 62
131 124 70
126 121 60
153 170 16
152 171 0
157 177 0
155 175 0
160 179 0
151 171 0
158 179 0
152 173 0
153 172 0
156 176 0
151 172 0
156 176 0
154 175 0
152 173 0
152 172 0
153 174 0
161 181 0
163 182 0
158 177 0
154 174 0
154 174 0
156 177 0
157 177 0
159 179 0
152 173 0
152 173 0
153 174 0
150 171 0
155 175 0
155 176 0
147 169 0
151 172 0
154 175 0
150 170 0
156 174 0
156 176 0
153 174 0
151 171 0
153 173 0
153 172 0
156 176 0
156 177 0
153 173 0
153 173 0
151 171 0
158 179 0
152 172 0
159 180 0
147 168 0
158 178 0
159 179 0
152 172 0
158 179 0
162 182 0
154 175 0
154 175 0
152 173 0
156 177 0
151 172 0
156 177 0
151 171 0
152 172 0
148 168 0
152 172 0
154 174 0
150 171 0
150 170 0
151 171 0
152 172 0
155 175 0
157 177 0
148 168 0
153 174 0
157 178 0
148 167 0
158 178 0
153 173 0
154 175 0
154 174 0
160 180 0
148 169 0
149 169 0
147 168 0
155 175 0
154 174 0
147 167 0
151 172 0
155 175 0
149 170 0
149 169 0
156 176 0
145 166 0
151 171 0
148 169 0
150 170 0
149 170 0
147 167 0
149 170 0
150 171 0
153 173 0
149 169 0
152 172 0
148 169 0
149 170 0
150 170 0
157 177 0
156 176 0
157 177 0
157 177 0
150 171 0
154 175 0
149 171 0
153 173 0
151 171 0
152 171 0
149 170 0
151 173 0
150 170 0
146 167 0
148 168 0
148 169 0
148 168 0
151 172 0
152 173 0
153 173 0
156 176 0
152 172 0
148 168 0
147 167 0
154 174 0
154 175 0
152 172 0
147 168 0
144 165 0
151 171 0
154 174 0
153 173 0
152 172 0
146 165 24
103 130 144
63 99 175
62 98 175
61 97 173
62 98 171
62 98 178
62 98 172
62 98 168
62 99 178
62 99 180
61 98 176
62 98 177
61 98 176
60 97 175
61 97 172
61 98 176
62 98 177
61 98 177
61 97 172
61 98 175
62 98 177
62 99 175
62 99 179
63 100 181
62 99 176
61 97 175
61 97 179
61 98 178
61 98 176
60 97 175
62 99 178
61 98 179
61 97 176
60 97 178
61 98 178
60 97 178
60 97 178
60 97 177
61 98 178
61 98 179
62 99 179
61 98 177
62 98 179
60 97 176
61 98 178
61 98 178
61 98 179
61 98 179
62 99 178
61 98 178
61 97 178
60 97 178
61 98 178
61 97 178
61 98 179
61 98 178
63 100 177
61 97 177
61 97 178
60 97 178
61 98 178
60 97 178
61 98 176
61 98 178
61 98 178
61 98 178
61 97 178
60 97 178
61 97 178
61 98 178
60 97 178
61 98 178
60 97 178
61 98 178
62 99 179
61 98 178
60 97 178
61 98 178
62 99 179
61 98 178
61 98 178
61 98 178
60 97 178
61 98 178
61 98 178
61 98 178
60 97 178
62 99 179
61 98 177
62 99 179
60 97 178
61 98 179
60 97 178
60 97 174
62 99 179
60 97 178
61 98 178
61 98 179
61 98 179
62 98 179
61 98 178
61 97 175
62 98 178
61 98 173
61 97 176
62 98 173
61 97 177
61 98 179
62 99 179
61 97 176
61 98 176
62 99 180
61 98 174
62 100 181
61 98 178
62 99 179
61 98 175
62 99 175
61 98 175
60 96 173
61 97 173
62 99 175
61 97 176
62 99 177
62 98 175
62 100 180
63 100 180
64 101 180
62 97 174
61 98 176
61 99 177
61 97 169
62 98 177
77 99 143
92 95 68
110 113 81
107 108 76
103 106 76
112 111 79
110 113 81
110 113 84
103 106 77
115 118 85
123 124 86
105 107 79
108 111 77
125 125 86
122 123 85
129 128 87
133 133 92
130 130 86
120 123 87
129 129 87
139 139 97
123 124 87
126 126 86
135 136 95
143 142 98
120 122 86
139 139 96
139 139 94
142 141 98
143 141 95
150 148 99
152 149 100
150 148 99
143 140 92
145 144 93
145 143 95
148 147 99
169 165 107
155 152 101
148 146 92
161 156 100
156 154 101
156 152 101
160 156 100
152 151 100
160 157 102
155 152 97
159 156 100
158 154 100
168 163 106
163 160 102
164 160 104
170 165 100
172 166 107
167 162 103
162 159 100
164 160 98
165 159 95
170 164 103
169 162 98
166 160 95
171 165 101
171 165 100
173 167 104
169 163 102
172 165 102
167 161 97
176 169 107
177 171 110
172 166 102
172 166 106
170 164 103
169 162 101
167 162 102
169 163 97
168 162 98
161 155 90
172 166 104
168 163 98
165 160 94
167 161 97
171 165 102
172 166 99
168 160 93
170 164 101
175 167 101
166 160 98
156 151 85
165 158 90
168 161 95
163 156 93
168 160 97
169 162 94
164 158 97
158 152 94
170 163 101
161 156 94
157 150 90
152 147 80
154 147 85
153 147 82
165 158 97
160 152 88
164 158 93
156 150 90
159 154 88
155 150 85
158 152 80
153 147 82
163 155 91
145 139 74
155 150 85
159 151 88
156 149 82
152 145 82
152 145 87
154 147 84
155 149 90
125 121 56
149 143 79
152 145 80
155 148 82
137 132 68
147 141 72
128 122 60
124 119 64
128 122 62
115 110 56
150 168 22
152 173 0
152 172 0
151 171 0
152 172 0
148 169 0
156 176 0
155 176 0
152 174 0
147 169 0
154 176 0
151 172 0
146 167 0
152 173 0
159 179 0
151 171 0
155 176 0
153 174 0
150 170 0
152 172 0
155 175 0
156 177 0
157 177 0
155 174 0
153 175 0
151 172 0
161 181 0
155 175 0
149 170 0
161 182 0
162 182 0
152 173 0
154 175 0
152 173 0
149 171 0
156 176 0
160 181 0
155 176 0
159 180 0
157 177 0
149 169 0
156 176 0
156 177 0
155 175 0
159 180 0
152 173 0
153 175 0
152 173 0
161 182 0
150 171 0
152 173 0
150 170 0
152 172 0
154 175 0
150 170 0
152 173 0
149 170 0
153 175 0
160 180 0
160 180 0
160 180 0
157 176 0
150 171 0
155 174 0
151 171 0
152 172 0
157 178 0
148 169 0
154 173 0
149 170 0
151 172 0
156 177 0
147 168 0
151 171 0
155 175 0
150 171 0
153 173 0
154 172 0
147 166 0
151 171 0
152 172 0
157 176 0
155 176 0
149 168 0
160 180 0
153 174 0
160 180 0
149 170 0
154 174 0
154 176 0
152 173 0
153 172 0
152 173 0
153 173 0
154 174 0
153 174 0
150 170 0
153 173 0
148 169 0
155 173 0
148 169 0
147 168 0
154 174 0
153 174 0
150 171 0
148 169 0
149 169 0
147 167 0
155 175 0
147 166 0
153 174 0
152 173 0
151 171 0
153 172 0
157 177 0
152 172 0
149 169 0
148 169 0
150 170 0
149 170 0
156 177 0
151 172 0
149 169 0
148 168 0
147 168 0
146 168 0
156 176 0
149 169 0
151 172 0
157 177 0
151 171 0
150 170 0
148 168 0
152 171 0
149 170 0
156 176 0
149 169 0
150 171 0
111 136 137
62 98 173
60 96 170
61 98 174
62 99 176
62 98 172
62 99 179
61 98 174
62 98 177
62 98 173
62 98 174
63 101 182
62 99 177
61 97 174
63 99 179
61 97 174
62 99 179
61 98 177
62 99 178
63 100 180
60 97 176
62 99 177
61 98 179
61 98 177
62 98 177
61 97 177
62 99 180
62 99 180
61 98 179
61 98 178
59 96 177
61 97 178
61 98 178
62 99 179
61 98 179
62 98 179
62 98 178
61 97 175
61 98 179
60 97 178
62 98 179
61 97 176
60 97 176
61 98 179
62 99 179
61 98 178
62 99 179
60 97 178
60 97 176
61 98 178
61 98 178
61 97 178
61 98 179
61 98 178
60 97 177
61 98 177
60 97 178
62 99 179
60 97 177
61 98 179
61 98 178
61 97 178
62 98 178
61 98 178
63 99 179
60 97 178
61 98 178
62 99 179
61 98 178
61 98 178
60 97 176
62 99 179
61 97 176
60 97 178
60 97 177
61 98 178
61 98 178
62 99 179
61 98 178
61 97 177
61 98 178
61 98 178
61 98 179
61 97 178
61 97 178
61 97 178
62 99 179
61 98 177
61 98 177
60 97 177
61 98 177
62 98 179
62 98 178
61 98 179
61 97 177
62 99 179
61 98 178
61 98 177
62 98 179
61 98 178
61 98 178
59 96 172
62 99 179
62 99 180
61 98 179
61 98 177
61 98 177
62 99 180
62 98 178
62 98 178
62 98 177
62 99 176
61 98 177
62 99 181
61 98 178
61 98 178
60 96 172
61 97 172
62 98 176
61 98 175
62 99 180
61 97 171
61 98 178
63 100 177
62 99 178
61 98 175
61 98 172
61 97 171
62 98 173
61 97 171
61 98 175
61 97 170
60 95 163
60 96 168
62 98 171
69 94 149
114 114 80
85 89 67
97 100 73
109 109 76
102 103 74
89 94 73
96 100 75
120 121 83
99 102 73
114 116 81
123 124 89
127 128 92
112 115 84
129 129 87
110 111 78
119 119 82
128 127 86
125 123 84
124 125 88
139 139 94
128 128 88
134 133 90
132 131 90
134 135 95
141 139 95
128 128 87
141 140 93
132 132 93
141 139 94
138 137 90
149 147 97
147 146 93
146 144 94
145 144 95
146 145 97
158 154 98
157 154 99
143 141 89
155 153 101
151 150 102
151 150 99
155 153 99
150 147 97
164 160 105
165 160 104
156 152 97
156 153 97
153 150 97
163 159 98
161 158 101
164 160 103
166 161 104
165 160 99
165 162 104
167 163 107
161 158 102
168 163 101
160 156 97
171 165 98
173 166 101
168 163 100
167 163 104
164 158 95
171 165 104
170 164 103
169 162 98
177 171 104
165 160 101
171 165 100
158 154 89
167 161 100
167 161 98
167 161 97
170 163 97
171 165 99
164 158 95
165 159 92
167 160 97
171 164 101
171 164 101
171 165 101
174 168 103
158 153 90
162 157 93
169 164 98
172 164 99
165 160 98
168 161 94
172 165 99
167 161 95
163 156 94
157 151 88
173 166 103
173 166 98
168 160 93
160 154 94
173 165 99
154 148 84
165 158 99
161 156 90
144 139 77
164 157 94
149 144 75
161 154 88
149 144 79
150 145 80
148 143 79
152 147 79
154 148 87
148 142 75
155 149 84
164 156 90
154 148 84
150 144 82
145 139 72
155 147 90
156 148 88
139 133 74
129 124 64
132 127 62
144 136 68
148 142 77
142 136 72
126 120 58
141 134 70
130 123 72
146 166 0
154 174 0
154 173 0
148 167 0
149 167 0
156 176 0
153 173 0
156 178 0
163 183 0
154 175 0
152 173 0
161 181 0
151 172 0
154 174 0
152 172 0
150 171 0
150 171 0
154 175 0
151 173 0
147 167 0
153 174 0
153 175 0
155 177 0
155 176 0
156 176 0
159 179 0
156 177 0
153 172 0
156 176 0
155 175 0
157 177 0
154 175 0
157 177 0
151 172 0
153 173 0
155 175 0
150 171 0
152 172 0
161 181 0
152 173 0
154 174 0
151 172 0
157 179 0
154 175 0
154 174 0
152 173 0
155 175 0
156 176 0
151 170 0
156 178 0
157 177 0
155 174 0
151 171 0
155 175 0
154 175 0
151 172 0
153 173 0
150 171 0
151 171 0
150 170 0
148 168 0
158 177 0
151 172 0
151 172 0
157 177 0
154 174 0
154 174 0
158 179 0
152 173 0
156 177 0
152 172 0
153 174 0
153 173 0
151 170 0
152 172 0
147 169 0
154 174 0
156 176 0
147 169 0
156 176 0
156 176 0
155 176 0
153 172 0
154 174 0
151 172 0
155 175 0
147 167 0
152 172 0
154 174 0
154 174 0
150 171 0
150 170 0
157 178 0
151 171 0
152 172 0
152 172 0
157 176 0
151 172 0
152 173 0
151 171 0
151 171 0
153 172 0
151 172 0
153 172 0
147 167 0
153 172 0
150 171 0
150 169 0
147 168 0
148 169 0
146 165 0
152 174 0
153 173 0
153 173 0
149 170 0
149 169 0
154 175 0
148 168 0
149 169 0
147 167 0
153 174 0
158 178 0
155 174 0
152 172 0
145 165 0
147 166 0
152 172 0
147 167 0
152 172 0
153 172 0
155 176 0
153 171 0
149 170 0
147 167 0
150 171 0
154 173 0
149 169 0
110 134 131
62 98 169
64 101 175
60 96 165
61 97 169
62 99 175
60 96 169
62 99 176
61 98 176
61 97 173
61 98 177
63 100 178
62 98 175
63 100 180
60 96 169
62 98 177
62 99 177
62 98 176
62 98 172
62 99 178
60 97 175
62 99 172
62 99 180
62 99 180
63 99 179
61 98 175
62 99 179
61 98 179
62 99 178
61 98 179
61 98 179
62 98 179
61 98 177
60 97 178
62 99 177
61 98 177
61 98 178
63 100 177
62 99 179
61 98 178
62 98 179
60 97 175
60 97 176
61 97 176
60 97 178
61 98 178
61 97 177
61 97 178
61 97 177
61 98 178
62 98 178
61 98 178
61 97 178
61 98 178
60 97 178
60 97 178
61 98 178
61 97 178
60 97 176
61 98 178
60 97 178
61 98 179
60 97 178
61 97 178
60 96 176
61 98 178
61 98 179
61 98 178
60 97 178
62 98 178
61 97 176
61 98 178
62 98 178
61 98 176
61 97 177
62 98 179
60 97 176
61 97 177
61 98 178
61 98 178
61 97 177
61 97 178
61 98 178
61 97 177
60 97 178
62 98 177
61 97 174
60 97 176
62 98 178
61 97 176
63 99 179
61 98 178
61 97 178
61 98 177
62 99 179
61 97 178
61 97 176
60 97 178
61 98 178
61 97 177
60 97 176
61 98 176
61 97 176
61 98 178
61 98 178
62 99 180
61 97 176
61 97 177
60 96 171
60 97 176
61 98 179
61 98 177
60 96 174
60 96 175
61 98 176
61 97 178
61 97 176
61 98 176
62 98 175
63 99 172
61 98 178
62 99 177
62 98 172
61 97 174
61 97 169
60 96 169
60 96 172
61 98 178
62 98 176
62 98 170
61 96 168
61 97 175
60 96 172
62 98 176
59 94 164
60 95 170
62 96 166
91 108 144
99 101 72
95 98 73
121 121 83
88 92 67
111 112 80
97 101 74
110 113 82
111 111 78
104 107 75
108 113 82
102 104 77
103 106 77
127 128 89
123 124 87
123 123 82
119 120 82
130 130 89
130 131 90
130 129 88
131 131 90
128 129 91
115 116 81
139 138 95
131 131 90
129 129 85
128 128 88
139 138 92
140 139 96
136 135 92
141 140 97
134 134 90
149 147 97
143 142 94
153 151 100
144 143 94
161 157 100
153 150 97
150 148 93
154 152 98
147 145 93
152 150 97
154 151 96
153 151 98
160 157 103
161 157 102
153 150 92
162 157 103
168 163 104
161 158 99
159 157 98
156 153 95
166 162 106
169 165 108
158 154 95
165 161 99
173 167 103
169 163 95
162 160 103
172 166 102
172 166 100
172 166 103
169 163 100
171 166 101
167 163 101
161 156 93
169 163 99
173 166 102
171 164 102
169 164 101
170 163 99
172 165 99
169 163 95
171 164 102
168 162 100
159 153 88
166 160 95
167 161 94
164 158 98
171 163 97
174 167 97
166 159 94
163 156 91
171 165 99
165 160 93
162 157 88
166 160 95
170 164 103
170 164 101
163 156 95
169 163 101
161 155 93
167 161 94
161 156 95
165 157 95
171 164 98
167 161 98
161 154 91
165 158 87
162 155 85
155 149 88
163 156 93
155 149 88
166 158 91
147 141 80
156 150 82
156 149 85
144 138 77
150 145 80
148 142 80
151 145 85
151 144 77
145 139 74
145 138 77
142 135 74
139 134 77
149 142 79
141 135 75
154 146 80
142 135 74
129 123 64
141 134 74
109 106 51
131 127 58
136 129 58
122 116 58
156 176 16
153 173 0
156 175 0
156 175 0
151 170 0
148 167 0
153 173 0
162 182 0
155 174 0
149 169 0
156 177 0
158 179 0
157 178 0
157 179 0
155 175 0
155 176 0
151 171 0
151 172 0
153 173 0
158 179 0
154 174 0
156 176 0
159 178 0
153 174 0
149 169 0
157 177 0
148 168 0
158 178 0
157 178 0
151 171 0
156 176 0
152 173 0
156 176 0
155 175 0
155 176 0
153 174 0
149 170 0
156 177 0
150 171 0
153 174 0
155 175 0
151 171 0
148 168 0
151 172 0
150 171 0
158 178 0
151 171 0
153 174 0
160 180 0
149 170 0
155 176 0
160 181 0
149 169 0
151 171 0
149 170 0
160 181 0
150 170 0
152 173 0
153 174 0
151 172 0
153 173 0
155 174 0
152 172 0
148 170 0
156 176 0
154 175 0
151 172 0
149 170 0
155 175 0
145 165 0
156 175 0
147 168 0
159 179 0
154 174 0
154 175 0
147 167 0
158 178 0
147 168 0
149 170 0
156 175 0
154 174 0
150 171 0
152 172 0
158 180 0
157 177 0
149 170 0
155 175 0
154 174 0
152 172 0
158 177 0
150 171 0
150 170 0
152 172 0
144 166 0
153 173 0
156 175 0
149 170 0
150 171 0
153 173 0
152 173 0
151 170 0
152 173 0
152 173 0
150 171 0
152 173 0
147 167 0
149 168 0
151 172 0
152 173 0
152 172 0
151 172 0
154 174 0
157 178 0
153 174 0
155 176 0
149 169 0
153 172 0
151 172 0
149 171 0
150 169 0
145 166 0
149 169 0
148 169 0
155 175 0
148 169 0
155 176 0
152 173 0
148 169 0
150 171 0
148 168 0
153 174 0
152 173 0
147 168 0
151 170 0
155 176 0
146 167 0
114 138 119
62 98 174
63 100 177
62 99 175
60 96 165
61 98 171
63 101 181
62 99 173
61 97 174
61 98 178
60 97 171
63 100 182
61 97 174
61 98 177
61 98 175
62 99 179
62 98 175
60 97 174
61 98 178
62 99 177
61 97 176
61 97 177
61 97 175
61 98 179
61 98 176
62 99 177
61 98 179
61 98 177
62 98 178
61 98 178
61 98 178
61 98 177
61 97 178
60 97 179
62 98 178
61 98 177
61 97 178
60 97 178
61 98 176
62 98 179
60 97 178
62 98 179
61 98 178
62 98 179
60 97 177
61 97 175
61 98 178
61 97 178
60 97 177
61 98 178
62 98 177
61 98 178
60 97 177
61 98 178
61 97 178
61 98 178
61 98 178
61 98 178
61 98 178
61 98 178
60 97 173
61 98 178
61 97 176
61 97 176
62 99 179
60 96 177
60 97 178
61 97 178
60 97 178
60 97 177
60 97 177
61 98 178
60 96 177
61 97 174
60 96 177
60 97 177
61 98 178
62 98 179
61 98 178
60 97 178
61 98 178
60 96 177
61 98 178
61 98 177
61 98 178
62 99 178
60 97 177
62 99 179
60 97 178
61 98 178
61 98 178
61 97 176
61 98 178
60 97 178
61 98 177
62 99 179
61 98 178
62 99 177
61 98 176
63 99 179
62 99 177
60 97 176
61 97 171
61 98 179
61 98 175
61 97 176
61 97 175
63 99 174
61 98 178
61 97 175
62 99 178
60 97 176
62 98 178
61 98 177
61 97 176
62 98 178
61 98 179
61 98 175
60 97 175
60 97 178
62 98 179
61 97 174
60 96 172
61 97 174
61 97 175
63 100 178
62 98 171
62 99 180
61 97 170
62 98 173
62 98 170
63 100 170
61 97 170
62 100 180
61 97 171
61 97 173
61 96 170
61 96 168
61 96 166
105 112 112
103 106 76
107 109 77
111 114 79
115 116 82
103 106 76
105 108 78
111 113 78
105 107 75
106 109 77
110 111 77
118 119 82
129 129 90
105 108 80
125 125 84
131 131 87
108 111 79
134 133 89
112 113 78
127 129 92
125 126 82
126 126 88
143 141 94
118 121 87
139 138 93
138 137 92
137 136 91
130 131 87
153 149 97
144 143 97
131 131 90
137 137 91
138 136 93
161 158 102
156 154 101
152 149 90
148 145 89
147 145 94
143 139 90
154 152 99
143 141 90
165 160 104
141 141 96
164 158 98
166 161 101
165 161 103
159 156 99
158 154 97
165 160 101
170 164 97
163 158 103
160 156 95
161 158 102
170 165 102
165 160 100
162 159 101
166 161 97
163 161 99
175 168 104
165 160 99
165 160 99
167 163 100
172 165 99
167 162 98
165 159 95
162 157 93
168 163 97
172 166 103
162 157 97
172 166 101
170 164 101
166 160 97
167 161 95
170 165 102
166 158 93
163 157 95
165 160 98
167 161 93
168 161 97
166 162 101
173 166 101
160 153 88
168 161 97
166 160 97
163 157 88
169 163 98
158 154 88
166 159 95
164 159 93
164 157 94
171 163 94
159 153 90
167 161 95
169 162 95
165 159 94
163 157 90
164 157 94
165 158 91
176 168 102
162 156 88
156 151 85
151 146 82
150 143 80
161 155 80
145 138 75
149 142 79
153 146 80
148 142 82
149 143 79
152 146 84
140 134 72
144 138 75
143 136 72
149 142 80
134 128 64
149 143 77
152 145 77
140 135 72
135 129 72
131 126 62
133 128 64
138 132 66
130 124 66
126 120 60
128 124 53
147 168 0
162 182 0
144 165 0
155 173 0
156 176 0
154 173 0
152 173 0
154 174 0
154 175 0
150 172 0
157 178 0
154 174 0
153 174 0
151 172 0
158 178 0
151 172 0
152 174 0
153 173 0
154 174 0
155 175 0
157 177 0
154 176 0
153 174 0
157 176 0
153 173 0
150 171 0
154 176 0
150 171 0
153 174 0
152 173 0
157 178 0
149 170 0
148 168 0
150 171 0
159 180 0
152 172 0
153 175 0
151 172 0
157 178 0
146 166 0
154 175 0
153 174 0
159 179 0
157 177 0
155 176 0
151 172 0
159 179 0
153 174 0
147 168 0
155 174 0
152 172 0
149 169 0
155 175 0
154 175 0
147 169 0
152 171 0
155 174 0
156 177 0
153 174 0
152 173 0
151 171 0
151 172 0
154 174 0
152 172 0
154 175 0
154 174 0
149 170 0
155 176 0
152 173 0
152 172 0
157 177 0
152 173 0
147 166 0
151 170 0
150 171 0
149 170 0
151 171 0
148 168 0
155 176 0
152 172 0
152 173 0
156 177 0
151 170 0
151 172 0
154 173 0
150 171 0
155 174 0
154 174 0
153 174 0
156 177 0
158 177 0
152 172 0
146 166 0
152 172 0
152 172 0
157 176 0
154 175 0
149 170 0
152 173 0
154 175 0
151 170 0
151 172 0
149 167 0
153 174 0
148 169 0
152 173 0
153 172 0
148 169 0
150 170 0
153 174 0
155 175 0
151 171 0
151 171 0
147 166 0
149 170 0
154 175 0
150 171 0
150 171 0
155 174 0
145 166 0
150 171 0
147 167 0
150 170 0
148 168 0
145 166 0
151 171 0
152 172 0
147 168 0
157 177 0
145 166 0
153 173 0
157 177 0
148 168 0
148 168 0
146 165 0
124 147 103
62 99 172
61 97 172
64 101 178
61 98 171
62 99 173
62 99 174
62 99 176
61 97 172
61 98 176
63 100 180
62 98 175
62 99 177
62 99 177
63 99 178
61 98 173
62 99 176
61 98 175
61 98 177
61 98 178
63 100 180
60 96 175
61 98 177
61 98 177
62 99 179
61 98 178
62 99 180
62 98 178
62 99 179
61 97 177
62 98 175
61 98 177
62 98 178
62 99 179
61 98 178
62 99 179
60 97 175
61 98 178
62 99 177
61 98 177
61 98 179
61 98 178
62 99 179
62 99 179
60 97 175
60 97 178
61 98 178
62 99 178
62 98 178
60 97 176
61 97 176
61 98 178
62 99 179
61 98 178
60 97 178
60 97 177
61 98 178
60 97 178
61 97 178
60 97 178
61 98 178
61 97 176
61 98 178
60 97 177
61 98 177
61 98 178
60 97 178
61 98 178
61 98 178
61 98 178
60 97 177
62 98 178
61 97 178
61 97 178
61 97 176
62 99 179
60 96 176
61 98 178
60 97 177
62 98 178
61 98 178
61 98 178
61 97 178
61 98 175
61 98 178
62 99 179
60 97 176
60 97 177
61 97 178
62 98 178
60 97 177
60 97 176
61 97 176
61 98 176
61 98 178
60 97 178
62 98 174
61 98 179
60 97 177
60 97 178
61 97 178
61 97 176
61 97 178
60 97 173
60 97 177
61 97 174
61 97 176
61 98 177
62 99 179
62 99 179
61 97 178
62 98 178
61 98 179
61 97 178
62 98 176
61 97 175
61 97 175
60 97 178
62 100 176
62 99 178
61 97 174
62 99 178
60 97 175
62 98 179
61 98 174
60 96 174
62 98 175
61 97 169
62 99 177
62 99 173
60 97 172
60 95 168
60 95 165
62 97 171
61 98 176
60 95 166
61 97 168
63 99 177
61 96 169
63 100 175
62 98 175
105 112 103
101 104 72
86 91 66
100 102 73
94 97 71
100 103 75
125 124 85
112 115 84
109 113 82
108 110 76
100 103 74
100 105 78
115 117 83
131 130 88
131 130 87
132 131 88
121 122 84
123 124 86
134 132 89
126 127 89
130 129 87
127 127 86
141 139 93
146 143 89
132 133 89
145 144 96
137 136 91
150 146 98
142 140 93
134 134 89
150 149 102
143 141 95
140 138 91
155 150 99
147 144 93
142 139 89
139 137 93
150 149 99
158 155 100
158 155 97
161 156 96
160 156 97
160 156 98
157 151 95
160 156 97
159 155 99
160 156 94
164 159 103
160 156 96
154 151 87
157 152 89
164 159 97
167 162 101
164 159 103
155 153 92
164 158 99
168 162 99
170 164 97
164 160 97
169 164 104
165 159 94
167 162 101
171 166 104
171 165 104
168 161 93
166 160 94
162 158 97
164 159 95
172 165 101
166 161 97
169 161 93
164 159 91
170 164 101
173 166 99
170 164 97
167 162 93
174 168 104
167 161 99
164 158 93
164 158 90
157 151 87
166 161 95
163 158 95
162 154 88
164 159 93
167 160 90
163 157 94
158 153 91
169 162 90
167 161 95
165 159 95
168 161 93
157 153 82
169 162 97
152 147 85
159 152 93
172 163 101
163 156 87
167 160 95
157 151 85
163 155 87
153 147 85
163 158 93
151 145 84
150 145 75
150 144 79
149 144 82
156 150 79
152 145 79
149 143 82
149 142 70
151 145 84
147 140 74
140 133 68
155 147 84
127 124 53
133 127 62
141 135 70
131 127 68
120 114 53
140 133 66
128 122 64
114 109 53
120 117 51
152 171 0
154 174 0
155 173 0
158 178 0
154 173 0
151 172 0
153 173 0
151 172 0
154 174 0
153 173 0
155 176 0
151 171 0
153 174 0
153 174 0
163 184 0
152 171 0
153 173 0
153 174 0
155 176 0
150 172 0
162 182 0
154 174 0
151 172 0
156 176 0
155 175 0
151 171 0
154 174 0
154 174 0
156 176 0
148 170 0
152 172 0
154 174 0
159 179 0
158 179 0
155 176 0
150 170 0
159 179 0
153 174 0
158 178 0
151 172 0
150 171 0
153 174 0
152 173 0
155 176 0
152 173 0
148 168 0
149 169 0
148 169 0
153 172 0
152 173 0
152 172 0
146 166 0
148 169 0
151 172 0
152 173 0
150 171 0
158 177 0
151 171 0
154 175 0
155 176 0
147 167 0
153 174 0
150 171 0
158 178 0
156 176 0
156 177 0
152 173 0
154 174 0
151 170 0
150 171 0
152 173 0
152 171 0
157 177 0
154 174 0
155 176 0
153 173 0
150 170 0
154 174 0
155 176 0
147 168 0
151 171 0
150 170 0
157 176 0
153 174 0
151 170 0
153 172 0
144 166 0
153 174 0
150 170 0
151 171 0
155 176 0
151 171 0
150 170 0
155 176 0
154 174 0
150 170 0
152 174 0
151 171 0
146 166 0
150 170 0
152 173 0
148 168 0
149 169 0
151 172 0
153 174 0
145 166 0
152 172 0
157 178 0
153 174 0
147 168 0
148 168 0
146 168 0
148 169 0
152 172 0
155 173 0
152 173 0
152 171 0
148 169 0
149 169 0
155 174 0
153 173 0
156 175 0
153 171 0
149 169 0
149 169 0
150 169 0
151 170 0
152 172 0
150 169 0
150 170 0
150 172 0
150 171 0
146 167 0
151 171 0
155 176 35
75 108 167
61 96 164
60 97 172
61 97 173
63 100 177
62 99 179
63 100 175
61 98 169
61 98 175
60 96 171
62 99 177
62 98 173
62 98 177
63 99 179
61 98 174
62 100 180
61 97 173
62 98 176
61 98 179
60 96 171
62 99 177
62 98 177
62 99 178
61 97 172
60 96 171
61 98 177
62 98 179
61 98 176
61 98 178
61 97 178
62 99 176
61 97 178
63 99 179
62 99 179
62 98 177
62 99 179
61 98 179
60 97 176
62 99 177
61 97 178
62 98 177
61 98 178
62 98 179
61 98 179
61 97 176
62 99 178
63 100 177
60 97 177
60 97 176
62 99 177
60 96 174
60 97 176
60 97 178
61 97 178
61 98 178
61 98 178
61 98 178
62 98 178
60 97 177
61 97 176
61 97 176
61 98 178
61 98 178
61 97 178
60 97 177
60 97 178
60 96 177
61 98 177
61 97 178
60 97 178
61 97 177
61 97 178
61 97 178
61 97 178
62 99 178
61 98 177
62 99 179
61 98 178
61 97 176
60 97 176
60 97 177
60 97 176
60 97 178
60 96 176
61 98 178
62 99 176
61 98 178
60 97 178
61 97 178
60 97 177
61 98 178
61 97 178
61 98 178
62 98 178
60 96 177
60 97 174
61 97 173
61 98 178
60 96 174
61 97 176
62 98 178
62 98 178
60 97 178
61 98 177
62 98 177
61 97 171
60 97 175
61 97 176
61 97 174
60 97 173
62 99 176
62 98 178
62 98 177
61 98 173
62 98 175
62 99 177
62 99 180
61 98 178
62 99 180
62 98 178
62 98 176
61 97 174
60 97 174
63 99 179
62 98 177
61 98 178
61 97 173
61 97 174
60 96 169
61 98 173
62 98 174
62 99 178
62 98 172
61 97 172
62 99 176
61 98 176
62 98 177
61 97 170
63 100 179
62 97 170
62 98 175
61 96 163
103 109 104
102 105 76
95 97 68
114 116 83
103 106 78
99 102 71
100 103 76
90 95 71
115 116 79
114 116 83
120 120 81
99 103 74
123 123 84
114 116 82
122 122 83
120 121 85
129 129 90
128 130 91
136 135 89
132 131 84
117 119 82
137 137 92
132 131 87
135 135 91
130 131 92
131 132 89
146 144 92
140 138 93
149 146 97
144 143 94
137 136 87
151 150 98
153 150 95
152 150 95
150 147 92
157 154 99
145 143 89
147 145 94
153 150 91
158 154 95
156 153 99
156 153 97
163 158 102
169 163 102
168 164 105
166 161 101
167 162 101
151 148 93
162 158 102
161 157 99
169 164 102
160 156 99
155 152 96
168 163 102
162 157 99
171 164 102
168 162 99
171 165 102
168 162 101
172 166 105
173 167 105
166 160 97
165 159 98
162 157 93
167 162 97
167 161 93
166 161 99
166 162 97
159 154 92
171 165 103
157 152 88
154 149 85
165 159 94
169 165 99
175 168 102
167 160 93
166 160 93
162 157 95
165 158 95
175 166 97
172 164 94
164 157 88
159 153 88
165 158 94
163 157 87
165 159 93
168 161 95
158 152 90
157 150 88
158 151 84
162 156 91
151 146 79
158 153 88
165 160 90
151 145 87
152 146 82
159 153 85
154 146 84
158 152 85
158 152 90
162 156 82
153 145 80
159 153 85
153 146 77
145 139 77
142 136 66
143 137 72
145 138 72
143 137 79
144 139 72
157 150 79
140 134 72
147 140 70
145 138 72
139 133 72
147 140 70
138 131 66
132 125 62
128 122 58
129 124 66
129 123 60
131 126 60
119 119 39
152 171 0
157 175 0
149 169 0
157 174 0
158 176 0
154 174 0
153 174 0
160 180 0
146 167 0
154 174 0
154 176 0
152 172 0
152 172 0
157 177 0
154 175 0
153 173 0
154 174 0
154 175 0
154 173 0
155 175 0
149 169 0
153 174 0
152 174 0
152 172 0
157 178 0
158 179 0
159 179 0
156 177 0
153 173 0
151 171 0
155 175 0
158 176 0
159 180 0
159 179 0
149 168 0
155 176 0
152 172 0
149 170 0
155 176 0
154 176 0
155 176 0
155 175 0
156 176 0
151 171 0
149 169 0
156 176 0
158 179 0
152 172 0
155 174 0
154 175 0
159 180 0
149 169 0
153 174 0
149 170 0
154 174 0
158 179 0
149 171 0
163 184 0
154 175 0
151 170 0
153 173 0
155 175 0
151 171 0
147 168 0
158 177 0
157 177 0
160 181 0
156 176 0
153 174 0
151 172 0
155 175 0
151 172 0
152 173 0
149 170 0
153 174 0
155 175 0
152 173 0
153 174 0
150 170 0
155 176 0
148 168 0
156 176 0
155 174 0
154 175 0
150 172 0
156 177 0
153 173 0
145 166 0
153 173 0
155 176 0
153 174 0
156 176 0
154 175 0
150 170 0
148 169 0
147 168 0
156 175 0
150 170 0
150 170 0
151 170 0
146 167 0
151 171 0
151 171 0
153 173 0
150 170 0
154 174 0
150 171 0
156 176 0
151 171 0
151 172 0
146 165 0
149 168 0
154 174 0
153 173 0
148 169 0
153 174 0
159 180 0
150 170 0
154 174 0
150 171 0
149 170 0
151 172 0
152 172 0
152 173 0
152 171 0
150 171 0
149 169 0
152 174 0
150 171 0
152 174 0
149 169 0
153 173 0
156 177 0
143 164 36
69 103 165
63 100 174
63 99 170
62 98 175
61 97 172
61 97 171
61 97 171
62 99 176
61 98 177
62 98 172
62 99 175
61 97 173
60 95 165
61 97 173
61 98 173
61 97 173
62 99 178
61 98 176
61 97 172
62 99 178
61 98 176
60 97 173
62 98 179
62 99 176
62 98 178
61 98 176
62 98 179
62 99 176
62 98 178
61 98 176
61 98 177
61 97 174
62 99 178
62 98 177
60 97 175
61 98 178
61 98 179
61 98 179
62 98 176
61 98 178
61 98 176
61 98 179
62 99 179
60 97 177
60 96 176
61 97 176
61 97 176
61 98 178
61 98 176
61 98 177
62 98 178
61 98 178
61 97 177
60 96 176
60 97 174
61 97 178
62 98 178
61 98 178
60 97 177
61 97 178
60 97 178
60 97 177
61 98 177
61 97 178
62 98 178
61 98 178
60 97 177
61 97 176
61 98 178
61 98 178
61 98 178
62 98 177
61 97 178
61 97 177
60 97 178
61 98 178
61 98 178
61 98 176
60 97 178
60 97 177
60 97 177
61 97 177
60 97 176
61 98 178
61 97 177
61 98 176
63 99 179
61 98 178
61 98 178
61 97 176
61 98 178
61 97 176
60 97 178
60 97 174
61 97 178
61 98 178
60 97 177
61 97 174
60 97 176
61 98 176
62 99 177
62 99 177
61 98 176
60 97 175
61 97 176
62 99 180
62 98 177
62 98 178
61 98 177
60 97 177
61 98 178
61 98 175
62 98 176
61 97 175
61 98 177
61 98 176
61 98 176
62 99 179
61 97 174
61 98 175
61 98 174
62 98 176
63 99 176
60 96 173
60 97 173
63 99 177
61 97 176
62 98 177
62 99 179
61 97 171
61 97 173
61 98 178
62 98 173
62 98 173
62 97 171
61 97 169
62 97 174
61 97 174
61 97 171
62 97 171
61 97 174
58 92 158
60 96 165
60 95 162
95 101 88
94 98 73
93 96 68
102 104 73
111 113 79
98 101 69
94 99 75
100 104 77
110 112 81
104 106 76
109 112 79
124 124 84
125 124 82
118 118 80
140 139 94
116 118 80
132 131 88
120 120 82
132 132 90
130 131 90
133 132 89
128 128 86
150 147 94
140 139 92
117 119 83
142 139 87
135 135 95
133 133 89
144 143 99
145 143 93
151 149 97
137 137 90
142 140 90
149 146 92
157 153 100
155 151 99
150 148 98
166 160 99
157 153 99
150 148 92
166 162 107
158 153 96
157 154 94
169 163 102
151 148 96
155 152 93
162 156 87
170 164 103
158 154 88
159 155 94
159 155 94
165 160 97
155 152 91
167 161 101
164 158 96
166 159 97
164 159 97
165 160 97
175 167 101
167 161 97
162 158 92
162 157 93
171 165 99
164 159 98
168 162 97
169 164 102
173 166 101
170 164 97
165 159 93
176 168 102
170 165 101
170 163 94
161 155 95
168 162 90
168 161 99
175 167 103
165 159 90
170 163 97
169 162 97
166 160 93
170 163 97
161 155 91
164 157 88
156 151 80
156 150 90
157 151 88
162 157 94
158 151 87
161 154 88
150 143 77
158 153 93
156 150 88
160 154 94
162 156 90
157 152 82
154 147 82
149 143 79
150 145 80
152 146 84
151 144 80
161 154 88
152 146 88
163 157 87
162 155 87
145 138 79
140 133 70
153 146 84
148 143 79
141 135 75
149 143 79
139 133 72
149 143 66
132 125 64
151 143 75
121 116 60
144 138 74
136 130 68
132 127 66
122 118 48
127 120 58
102 99 39
119 126 36
153 172 0
158 178 0
148 167 0
157 174 0
154 173 0
155 175 0
156 176 0
155 176 0
152 173 0
153 175 0
150 171 0
151 172 0
157 178 0
158 178 0
155 175 0
151 171 0
150 169 0
158 179 0
157 178 0
153 173 0
158 177 0
155 175 0
153 173 0
156 177 0
155 176 0
153 174 0
161 182 0
155 176 0
157 178 0
158 179 0
148 169 0
152 172 0
152 171 0
156 177 0
159 180 0
153 174 0
151 172 0
151 170 0
150 171 0
156 176 0
144 164 0
157 177 0
149 171 0
153 174 0
153 174 0
152 173 0
153 174 0
153 173 0
153 173 0
157 177 0
153 174 0
150 171 0
158 179 0
153 173 0
152 173 0
153 173 0
157 177 0
155 176 0
153 173 0
158 179 0
152 172 0
165 186 0
153 174 0
156 175 0
151 173 0
154 175 0
157 176 0
148 168 0
149 170 0
153 174 0
155 175 0
150 172 0
156 177 0
154 174 0
158 178 0
148 168 0
146 166 0
152 174 0
153 172 0
151 172 0
155 176 0
152 172 0
155 176 0
151 172 0
152 172 0
150 172 0
157 177 0
149 169 0
153 174 0
150 170 0
149 169 0
156 177 0
147 167 0
154 175 0
149 170 0
155 176 0
150 169 0
153 174 0
147 168 0
157 177 0
151 171 0
145 165 0
153 172 0
152 172 0
147 166 0
147 168 0
149 170 0
147 167 0
159 180 0
156 176 0
145 166 0
152 172 0
151 170 0
152 172 0
147 167 0
151 171 0
147 166 0
155 177 0
151 172 0
150 171 0
150 170 0
149 170 0
148 169 0
150 170 0
153 172 0
147 168 0
147 167 0
154 173 0
151 169 0
153 171 0
146 166 0
152 173 0
152 172 0
84 113 148
61 96 169
62 98 174
63 99 175
62 98 171
61 98 175
62 99 176
61 99 180
62 99 175
62 99 177
63 99 173
62 99 178
61 98 175
61 98 172
62 99 177
62 99 178
60 97 173
62 99 177
63 99 177
61 98 174
61 98 172
61 98 175
60 97 176
61 98 176
61 97 176
61 98 179
62 99 179
61 97 175
61 97 175
61 98 175
61 98 174
63 99 178
61 98 176
62 98 177
61 97 178
61 98 178
61 98 179
62 98 178
62 99 177
61 98 178
61 97 176
60 97 178
61 97 177
61 98 178
61 98 177
61 98 176
60 97 174
60 97 176
61 97 176
60 97 176
60 97 177
60 97 176
60 97 177
62 98 178
60 97 178
61 98 178
62 98 178
61 98 178
61 98 178
60 97 174
61 98 178
60 97 178
61 97 177
61 97 174
60 97 177
61 97 178
60 97 177
61 98 178
60 97 177
60 96 175
60 97 177
62 98 178
60 97 177
61 98 177
62 98 178
60 97 174
61 98 178
60 97 178
62 98 178
61 98 178
61 97 178
61 98 176
61 98 178
61 98 178
61 98 176
60 96 176
61 97 178
62 98 177
61 97 178
61 97 176
61 97 176
61 97 177
61 97 178
60 97 176
59 96 175
60 96 172
61 97 177
61 98 177
61 98 177
62 98 175
61 97 176
61 98 176
61 97 173
61 98 175
62 98 178
61 98 178
61 98 178
61 98 179
61 97 174
62 98 178
61 97 177
60 97 177
60 97 174
61 98 174
62 98 176
62 99 176
62 98 174
60 96 169
61 96 171
62 98 174
59 95 169
61 97 175
62 99 179
60 96 168
61 98 175
62 98 174
62 99 177
63 99 175
60 97 176
61 97 172
61 97 172
61 97 172
62 98 175
61 96 164
61 97 174
62 98 173
61 98 175
62 98 171
62 97 171
63 100 179
62 98 173
62 98 173
61 98 175
60 96 168
57 90 150
61 90 140
88 90 66
91 95 70
91 95 68
92 96 69
103 106 75
87 91 69
118 118 82
108 111 80
104 108 78
113 114 77
112 114 77
114 116 81
112 117 86
131 130 88
112 113 80
117 118 81
115 118 85
119 121 85
134 133 90
128 126 79
138 137 92
129 129 85
123 124 88
136 135 89
121 122 81
140 138 89
143 143 94
142 139 88
151 149 94
145 144 91
141 138 87
146 144 95
150 148 99
148 146 97
155 151 98
147 145 94
148 145 91
140 139 90
154 150 89
149 147 95
158 155 97
164 159 94
165 160 99
162 157 97
153 150 94
166 161 102
160 155 97
166 161 100
163 158 95
165 160 93
166 161 94
166 162 104
160 157 97
165 161 97
160 155 95
166 161 101
164 159 92
160 156 92
171 165 102
170 165 98
172 165 98
160 154 89
168 162 101
156 151 86
172 165 101
164 159 94
171 165 95
169 162 97
167 160 93
164 159 91
169 162 91
168 162 95
163 158 93
163 157 98
170 164 106
173 166 91
160 155 90
165 160 93
174 167 97
151 145 80
163 159 90
165 158 91
158 152 87
166 160 97
154 147 85
165 159 90
152 148 87
166 159 95
163 155 85
163 155 90
168 161 88
158 151 87
159 154 87
159 151 88
153 147 80
155 150 80
160 153 87
142 136 75
157 152 77
149 145 79
157 150 88
149 143 77
157 149 80
161 154 91
146 139 74
138 132 70
153 145 77
150 143 72
148 142 74
135 129 66
142 135 68
138 131 72
152 146 72
138 130 72
127 121 64
129 122 66
133 128 62
129 123 58
97 95 28
123 117 56
131 133 51
158 177 0
148 166 0
153 171 0
160 178 0
153 172 0
154 172 0
159 179 0
159 180 0
148 169 0
149 169 0
152 173 0
151 170 0
151 171 0
157 178 0
153 175 0
150 170 0
153 174 0
153 173 0
152 172 0
150 171 0
155 176 0
152 173 0
155 176 0
150 171 0
150 172 0
154 175 0
153 172 0
155 175 0
150 170 0
152 173 0
146 167 0
155 176 0
156 177 0
156 176 0
151 172 0
153 173 0
152 173 0
155 175 0
153 174 0
159 179 0
152 173 0
158 179 0
158 178 0
151 171 0
151 172 0
153 172 0
149 170 0
156 177 0
148 169 0
156 176 0
155 175 0
152 172 0
159 178 0
149 170 0
156 176 0
154 174 0
157 175 0
155 175 0
151 170 0
151 171 0
153 174 0
145 166 0
152 174 0
152 172 0
153 174 0
154 173 0
146 167 0
150 170 0
152 173 0
150 170 0
146 165 0
151 172 0
155 176 0
148 168 0
151 171 0
154 174 0
155 174 0
151 172 0
148 169 0
156 176 0
155 176 0
149 170 0
145 165 0
158 179 0
147 166 0
152 172 0
153 174 0
146 167 0
153 174 0
157 177 0
149 169 0
149 170 0
152 171 0
152 172 0
150 170 0
150 171 0
152 173 0
151 172 0
146 165 0
151 171 0
148 169 0
156 176 0
150 169 0
147 165 0
150 171 0
153 174 0
150 168 0
148 167 0
154 175 0
156 176 0
149 169 0
150 171 0
153 174 0
148 168 0
149 168 0
158 178 0
145 165 0
155 175 0
156 176 0
154 174 0
148 168 0
147 168 0
148 168 0
153 172 0
152 172 0
147 167 0
154 174 0
154 175 0
148 167 0
144 165 0
151 170 0
149 168 0
116 139 119
64 101 178
62 98 168
62 98 174
62 99 175
60 96 166
62 99 179
63 100 177
62 99 177
61 98 173
61 97 175
62 98 173
62 99 178
61 97 173
62 99 179
61 98 174
62 98 174
63 99 178
61 98 174
61 98 180
61 97 174
62 99 177
62 99 178
61 97 176
61 97 174
61 98 178
61 97 175
61 97 177
62 98 179
62 98 173
62 98 177
62 99 179
61 98 177
61 98 176
60 97 177
62 98 179
61 98 175
61 97 177
61 97 173
61 97 177
62 98 178
61 97 176
61 97 176
60 97 178
60 97 176
63 99 177
61 97 176
61 98 176
61 97 176
61 97 178
61 98 178
61 98 176
61 97 176
61 97 175
60 97 176
61 97 177
62 99 179
61 97 177
60 97 177
61 97 178
61 97 176
62 98 178
61 97 178
61 97 176
61 98 178
61 97 178
61 97 175
61 97 177
60 97 177
61 98 176
60 97 175
60 97 176
61 97 176
60 97 177
61 97 174
61 97 175
62 98 178
60 97 177
61 97 178
61 97 177
61 97 177
60 96 172
61 97 172
62 98 178
60 96 175
62 98 178
62 98 176
60 97 176
61 98 178
60 97 177
60 96 176
62 98 178
61 98 178
62 98 176
60 97 177
62 98 179
62 98 176
61 98 176
61 97 174
62 98 178
60 97 177
61 98 178
61 97 176
61 97 176
61 98 176
60 97 174
60 96 174
60 97 176
61 98 178
61 98 178
60 97 173
61 97 174
62 99 177
61 98 177
62 99 178
61 97 173
62 98 177
62 98 177
62 99 178
62 99 179
61 97 175
62 99 179
61 97 173
61 97 175
61 98 175
62 99 177
62 98 175
62 98 177
62 99 176
62 99 179
60 97 171
60 97 173
61 98 174
61 98 174
61 98 178
61 98 178
61 97 175
59 95 166
61 98 175
62 99 178
61 96 171
62 98 173
61 97 170
63 99 175
61 98 169
62 97 167
61 97 168
84 101 133
98 101 71
73 80 61
95 99 74
101 103 73
111 113 82
110 111 78
96 100 75
108 111 81
122 123 87
113 114 80
118 119 83
107 111 81
104 107 74
108 112 82
89 94 67
125 125 87
119 120 80
122 123 83
130 130 90
127 128 88
137 136 90
117 117 74
139 139 92
133 132 88
140 139 94
143 142 91
142 139 89
138 137 86
152 149 95
144 142 92
146 144 94
143 140 87
135 134 84
144 142 91
152 149 93
140 139 92
147 144 92
157 153 99
156 152 91
162 158 100
164 160 100
162 157 94
154 149 92
163 158 94
157 153 91
158 153 97
164 158 95
171 164 96
161 155 90
162 157 101
167 161 100
166 161 99
168 162 99
159 155 92
168 163 97
174 167 96
172 166 104
163 159 95
168 162 99
162 157 91
174 168 105
170 163 95
165 159 96
169 162 97
165 159 94
167 163 99
162 156 92
169 163 97
166 159 93
166 159 90
173 165 98
165 159 91
165 158 93
174 168 101
168 162 95
174 166 94
168 161 90
166 159 95
164 158 95
171 164 99
155 149 84
164 157 91
157 149 84
162 157 88
154 150 80
155 149 85
157 152 88
161 154 88
157 151 88
158 152 87
164 157 88
153 147 80
158 152 85
168 159 95
156 150 87
148 143 80
161 153 85
155 149 85
155 149 85
154 147 84
143 137 72
142 136 75
143 137 74
155 149 80
140 134 72
141 135 74
148 141 82
153 148 75
138 132 74
152 145 84
127 122 58
124 118 58
124 118 58
137 131 68
136 130 72
140 134 70
138 131 66
122 117 62
118 112 56
140 147 45
157 175 0
155 174 0
153 171 0
152 171 0
153 173 0
151 170 0
151 172 0
148 169 0
153 174 0
146 167 0
154 174 0
149 171 0
158 179 0
150 170 0
151 171 0
150 170 0
150 170 0
152 171 0
160 180 0
151 172 0
149 170 0
155 174 0
151 171 0
149 169 0
154 175 0
155 176 0
150 170 0
157 178 0
152 171 0
156 178 0
154 175 0
155 175 0
146 167 0
150 172 0
155 176 0
157 177 0
157 178 0
161 181 0
152 172 0
157 178 0
150 171 0
154 175 0
151 172 0
162 182 0
157 177 0
155 174 0
156 177 0
152 173 0
152 172 0
152 173 0
153 174 0
151 171 0
154 174 0
153 173 0
147 167 0
156 175 0
151 172 0
149 170 0
151 172 0
150 170 0
149 168 0
155 175 0
152 173 0
148 170 0
153 173 0
155 175 0
159 179 0
153 174 0
145 166 0
152 171 0
155 175 0
155 176 0
152 173 0
144 165 0
152 172 0
155 176 0
154 175 0
150 171 0
153 173 0
153 173 0
147 170 0
149 169 0
150 170 0
152 172 0
154 175 0
151 172 0
149 170 0
155 175 0
154 175 0
152 172 0
147 168 0
149 169 0
145 166 0
147 168 0
152 172 0
147 169 0
148 169 0
143 163 0
146 166 0
153 172 0
149 168 0
154 175 0
153 174 0
148 170 0
147 168 0
154 173 0
150 171 0
153 173 0
152 172 0
152 170 0
154 174 0
150 170 0
146 167 0
153 172 0
157 177 0
151 171 0
150 169 0
153 173 0
151 170 0
146 167 0
148 170 0
154 174 0
155 174 0
152 172 0
151 172 0
148 169 0
150 170 0
152 172 0
148 168 0
152 173 0
155 175 0
134 157 104
60 95 158
60 96 166
62 98 171
62 99 172
61 97 174
62 99 178
62 98 174
61 98 174
62 98 171
62 99 178
61 98 179
62 99 177
62 98 177
61 98 176
63 100 180
62 99 176
61 97 175
61 98 176
61 97 174
62 98 179
60 97 174
61 98 179
61 97 173
62 98 175
62 99 179
62 99 179
62 99 178
62 98 178
61 98 175
61 98 176
63 99 174
62 99 179
61 97 174
61 98 178
61 98 176
61 97 176
61 97 178
61 98 179
62 98 179
60 97 176
62 98 176
60 96 175
61 98 178
61 97 176
61 97 176
60 97 176
62 98 178
61 97 178
60 97 177
61 97 176
61 98 178
61 97 178
61 98 178
61 98 178
61 97 177
61 98 178
61 98 178
61 97 178
62 98 178
60 97 175
61 97 178
61 97 177
60 96 176
62 98 177
60 97 177
61 97 176
61 97 176
61 97 177
61 97 174
61 97 176
61 98 176
61 98 178
61 97 177
60 97 177
61 98 178
60 97 177
62 98 178
61 97 172
61 97 176
60 96 172
61 97 176
60 97 176
62 98 178
61 97 174
60 97 175
60 97 176
61 98 177
61 97 177
61 97 176
61 97 177
60 97 172
60 96 174
60 96 176
60 97 174
60 96 176
60 97 175
60 96 175
61 97 174
60 97 177
61 97 170
62 98 176
61 97 176
60 96 171
60 97 176
62 99 178
61 97 176
61 98 176
61 98 176
62 98 175
61 98 177
61 98 177
61 97 174
61 97 175
62 98 174
61 98 177
62 98 171
59 96 174
61 97 177
60 96 173
60 96 171
62 98 176
61 98 175
63 99 177
61 98 176
62 98 176
60 97 175
62 98 177
64 100 178
62 98 174
63 99 178
60 97 171
63 99 179
62 99 178
62 98 174
62 98 177
62 99 178
63 99 178
62 99 174
63 100 180
62 99 169
62 99 175
61 97 170
62 98 174
62 98 175
61 97 171
61 96 162
60 95 161
60 95 163
88 101 121
89 91 63
97 100 72
83 88 67
98 100 68
106 108 76
91 94 67
117 119 84
93 96 68
123 124 82
104 106 73
110 112 78
121 122 86
117 118 81
126 126 83
117 117 79
119 120 83
135 133 83
117 118 78
132 130 83
121 122 80
132 131 84
131 131 88
141 139 89
141 140 94
144 140 90
140 139 88
145 143 96
150 147 93
146 143 97
139 137 92
146 144 96
144 142 88
146 143 91
143 141 85
159 154 100
150 147 89
161 156 97
156 151 97
164 158 98
153 150 95
157 151 91
152 148 87
158 154 94
165 160 97
160 155 95
163 158 93
155 151 92
161 156 97
151 147 87
152 149 86
159 154 94
167 161 99
164 159 97
164 160 99
166 161 99
163 156 92
168 163 97
165 159 93
168 162 101
172 165 102
168 161 90
166 161 95
161 155 95
160 153 85
162 155 88
170 163 94
156 152 87
165 159 94
166 162 95
171 164 98
162 157 90
164 158 91
163 157 93
167 161 94
170 162 93
168 161 88
162 156 84
160 153 87
156 150 88
173 164 99
162 156 90
166 159 82
167 161 93
165 158 88
162 156 88
161 155 90
150 144 82
160 154 87
156 152 90
167 159 91
151 145 77
154 148 79
157 151 91
157 149 85
158 150 88
154 146 85
149 144 75
146 140 74
158 151 87
158 151 82
143 137 72
148 142 74
146 140 72
151 144 79
145 139 77
146 140 70
142 135 62
141 134 64
144 138 72
151 144 75
127 121 60
139 134 66
146 139 77
134 127 66
122 115 58
130 125 62
127 122 53
113 108 53
139 149 32
152 170 0
151 168 0
152 174 0
151 170 0
152 170 0
154 173 0
151 171 0
159 179 0
155 176 0
153 174 0
152 172 0
150 171 0
151 171 0
157 177 0
149 170 0
154 175 0
152 173 0
148 168 0
159 179 0
154 174 0
152 172 0
154 175 0
156 178 0
161 182 0
148 170 0
162 183 0
154 175 0
154 175 0
153 174 0
155 175 0
152 172 0
159 180 0
154 175 0
151 172 0
156 177 0
153 173 0
156 176 0
157 177 0
154 175 0
152 172 0
149 169 0
156 177 0
154 175 0
152 173 0
158 179 0
154 174 0
151 171 0
156 177 0
152 173 0
153 174 0
152 173 0
158 180 0
148 168 0
157 177 0
149 170 0
152 171 0
150 171 0
156 176 0
149 170 0
150 170 0
150 171 0
156 175 0
155 175 0
151 171 0
156 177 0
149 169 0
153 175 0
150 170 0
147 169 0
149 171 0
150 171 0
153 174 0
155 175 0
155 176 0
151 172 0
147 167 0
149 169 0
155 176 0
151 170 0
151 171 0
153 174 0
150 171 0
153 174 0
143 164 0
151 171 0
148 169 0
151 170 0
152 171 0
148 166 0
151 172 0
144 165 0
152 173 0
151 170 0
150 170 0
150 171 0
152 173 0
148 168 0
150 170 0
150 169 0
152 172 0
146 167 0
149 170 0
148 167 0
158 178 0
147 167 0
152 173 0
148 168 0
148 167 0
157 178 0
156 176 0
151 171 0
142 163 0
157 177 0
152 173 0
149 168 0
151 172 0
148 168 0
156 176 0
148 169 0
153 173 0
153 171 0
152 172 0
146 166 0
145 165 0
151 172 0
155 175 0
149 169 0
152 172 0
153 173 0
148 168 0
143 164 56
70 104 168
61 97 168
61 97 169
60 96 163
63 101 181
62 99 174
62 98 176
61 98 174
61 97 172
62 99 173
63 99 178
60 96 165
61 98 174
61 97 170
62 98 173
62 99 176
62 99 178
62 98 177
61 97 171
60 96 172
61 98 176
61 98 177
62 98 175
60 97 174
62 98 177
60 97 175
62 98 178
62 98 176
61 98 175
61 98 173
61 97 175
60 97 175
61 97 173
61 97 174
62 99 176
62 98 177
62 98 177
60 97 178
60 97 177
60 96 176
61 98 178
62 98 177
61 98 176
62 99 177
60 96 175
62 99 178
62 98 174
61 97 177
61 98 178
60 96 176
61 97 177
62 98 178
60 97 177
61 98 178
61 98 178
61 98 178
62 98 178
60 97 175
62 98 175
61 97 177
61 98 178
61 97 177
61 98 178
61 98 177
60 97 177
60 97 177
60 97 174
60 97 177
61 98 178
61 97 177
61 97 176
61 98 174
60 97 174
61 98 176
61 98 178
61 97 178
61 97 177
61 98 176
62 98 176
60 97 177
60 97 176
61 97 177
60 97 177
59 96 175
61 98 178
62 98 178
61 98 178
60 97 176
60 96 174
61 97 176
60 97 177
62 98 176
61 98 178
60 97 174
61 97 176
61 97 178
60 97 174
61 98 176
61 98 178
61 97 175
61 98 174
61 97 177
60 97 177
61 98 178
61 97 178
61 97 176
60 97 174
62 98 176
62 99 177
61 97 176
61 98 176
61 98 172
62 98 178
62 99 179
61 97 174
62 98 178
61 98 175
61 98 178
61 98 176
61 98 178
61 98 177
61 98 178
61 97 175
61 98 176
61 97 176
62 98 178
61 98 178
61 97 171
60 97 175
62 98 173
62 98 177
62 98 177
61 97 175
63 99 178
63 99 174
61 97 167
61 97 174
63 99 173
60 97 172
62 97 171
62 98 172
62 97 170
62 99 177
61 98 172
62 98 171
60 96 166
61 96 166
60 95 169
60 96 163
59 92 152
96 101 88
95 98 71
83 89 69
91 95 70
115 115 80
103 105 74
101 105 75
109 111 75
107 109 77
104 106 76
115 116 82
94 98 73
113 114 77
113 115 76
111 113 78
120 120 80
107 109 71
121 122 82
129 129 85
124 124 84
131 130 87
138 135 85
132 130 86
122 123 78
141 140 90
141 139 88
148 145 93
129 129 80
142 139 91
152 148 90
135 134 86
151 147 94
143 141 85
149 146 89
144 141 85
145 142 92
138 137 76
155 151 93
154 150 90
141 139 86
161 155 91
154 151 93
161 156 91
153 149 90
160 157 95
158 153 94
154 150 94
165 159 93
157 154 93
164 159 97
159 155 96
159 154 90
161 156 91
167 161 96
167 162 101
169 163 98
155 151 88
169 163 98
164 158 96
162 157 90
166 158 95
166 160 91
170 164 97
168 162 95
172 164 96
164 157 88
168 162 97
169 162 95
163 158 96
161 155 90
166 160 90
171 164 94
164 157 89
164 157 91
166 159 88
171 164 93
165 158 91
169 162 94
164 157 88
162 155 87
167 161 98
166 159 94
150 143 77
159 152 87
143 139 74
163 156 93
152 146 85
166 160 98
160 153 85
164 158 94
160 154 87
161 155 90
155 148 84
151 145 77
156 149 82
163 157 93
152 145 82
161 154 90
156 149 85
153 145 79
151 143 80
140 136 70
152 144 77
140 134 75
154 148 79
148 141 79
146 139 74
143 138 72
145 139 70
130 124 64
137 131 58
130 127 58
131 125 66
136 130 66
133 127 64
122 118 53
127 121 58
125 119 60
149 166 22
154 173 0
153 172 0
148 165 0
150 170 0
155 176 0
154 174 0
150 170 0
149 170 0
151 173 0
151 172 0
152 172 0
153 174 0
156 176 0
153 174 0
162 182 0
154 174 0
153 173 0
157 178 0
159 180 0
153 172 0
149 170 0
155 175 0
155 175 0
154 175 0
146 167 0
148 169 0
152 172 0
151 171 0
149 170 0
149 169 0
156 177 0
148 168 0
156 176 0
151 172 0
156 176 0
157 178 0
151 171 0
148 169 0
152 172 0
156 177 0
160 181 0
154 175 0
148 167 0
159 178 0
157 176 0
151 172 0
151 172 0
154 174 0
154 173 0
152 173 0
151 172 0
151 172 0
154 175 0
160 179 0
155 176 0
150 171 0
151 172 0
153 174 0
154 175 0
152 174 0
155 176 0
146 167 0
152 173 0
158 179 0
158 180 0
148 169 0
153 174 0
154 174 0
155 176 0
152 172 0
146 165 0
154 175 0
150 171 0
151 171 0
152 173 0
154 175 0
150 171 0
156 176 0
158 179 0
152 171 0
151 171 0
152 173 0
159 180 0
150 169 0
149 170 0
150 171 0
150 170 0
154 173 0
152 173 0
152 173 0
145 166 0
151 173 0
151 173 0
153 173 0
159 180 0
146 166 0
154 174 0
150 171 0
147 168 0
150 170 0
150 169 0
155 175 0
150 169 0
151 171 0
154 175 0
144 165 0
149 169 0
152 171 0
152 172 0
152 172 0
153 174 0
151 172 0
151 170 0
147 167 0
150 169 0
149 169 0
152 174 0
161 182 0
155 175 0
149 169 0
153 173 0
154 175 0
152 172 0
149 169 0
149 169 0
147 168 0
150 171 0
147 168 0
146 166 0
145 167 0
101 127 137
61 98 167
61 97 169
63 99 176
61 97 171
62 98 172
64 100 176
62 100 168
64 101 181
62 98 175
63 99 172
62 99 179
62 98 171
61 97 173
62 98 176
62 99 177
61 98 174
62 99 177
61 98 174
60 97 172
61 98 176
61 98 175
62 98 177
62 98 177
60 97 174
62 98 174
61 97 175
62 98 179
61 97 176
62 99 178
62 98 175
61 98 179
61 97 173
61 97 174
61 98 176
60 96 172
60 97 175
62 99 178
60 97 175
61 98 179
60 97 175
62 99 178
60 97 176
60 96 175
61 98 177
60 96 174
61 98 178
61 97 173
61 97 176
62 98 178
61 98 178
61 98 177
61 98 178
61 98 178
60 96 174
61 97 176
61 97 176
60 97 172
61 98 178
62 99 178
60 97 175
61 97 177
61 97 177
62 98 174
62 98 177
61 98 178
61 98 177
60 97 175
60 96 177
61 97 177
61 98 178
61 97 177
61 98 178
62 98 178
60 96 173
61 98 177
61 97 174
60 97 177
61 97 178
60 97 174
61 98 177
61 97 176
62 98 177
61 97 174
61 97 174
61 97 174
62 98 175
60 97 177
62 98 178
60 96 177
61 97 177
61 98 172
62 98 178
60 97 174
61 98 177
61 98 176
61 97 177
61 97 176
62 98 176
61 97 176
60 97 174
62 98 178
62 98 177
60 97 174
61 97 176
61 98 175
60 97 175
60 97 176
59 95 172
61 98 176
61 97 176
60 97 176
61 97 174
61 98 174
60 96 173
61 97 176
62 99 179
60 96 173
61 98 176
59 96 170
60 96 173
61 98 177
62 98 176
61 97 174
60 97 174
61 98 176
63 99 177
61 97 174
61 97 172
61 98 177
62 98 173
61 97 173
61 97 172
61 98 172
59 95 167
62 99 174
61 97 170
62 98 174
62 98 174
62 99 175
62 98 174
61 97 171
62 98 174
60 96 163
60 96 168
58 92 159
59 95 165
62 97 173
61 97 161
61 96 166
60 94 159
66 90 134
74 83 69
83 89 68
106 107 71
87 92 67
98 101 71
118 119 81
112 113 79
92 97 69
112 114 80
97 99 67
115 117 81
95 99 71
131 130 88
113 116 81
127 127 81
128 129 81
117 117 79
129 127 82
114 115 79
135 134 86
126 126 86
138 136 89
117 118 82
133 133 87
145 141 85
147 144 90
144 140 86
140 138 88
139 138 92
156 150 91
140 138 87
148 144 87
148 147 91
147 144 92
144 141 89
145 142 88
154 150 95
160 156 88
158 154 95
151 148 86
148 146 90
164 159 99
159 155 89
155 151 93
155 150 92
157 153 91
152 149 89
161 156 91
173 166 101
164 159 94
167 161 100
165 160 100
163 159 99
161 155 91
168 163 95
160 153 90
164 158 91
166 160 95
156 151 84
167 161 96
166 160 91
169 162 96
157 154 87
167 161 97
157 151 85
162 156 95
165 159 90
163 156 93
159 153 87
170 163 98
170 163 97
166 159 93
153 149 79
168 160 91
169 162 90
163 156 93
161 155 85
166 159 91
164 158 88
168 160 90
158 151 84
158 152 80
164 157 88
159 152 82
155 148 84
162 155 82
166 158 90
156 149 85
161 154 85
156 150 87
147 141 72
160 153 90
152 145 82
156 149 77
147 141 77
156 150 85
147 141 77
149 143 79
151 146 80
149 143 74
145 140 66
142 137 72
144 138 75
143 138 72
135 129 64
145 138 66
144 137 75
131 126 60
144 136 72
154 146 82
136 130 66
117 112 48
135 128 66
127 121 53
137 131 72
121 115 62
121 116 51
152 168 22
150 170 0
153 173 0
146 166 0
155 174 0
153 173 0
150 170 0
154 175 0
156 176 0
153 174 0
148 168 0
158 178 0
154 174 0
151 173 0
151 172 0
151 172 0
155 174 0
158 178 0
153 173 0
153 175 0
157 177 0
148 169 0
156 177 0
159 179 0
156 176 0
155 175 0
153 174 0
153 174 0
152 173 0
152 174 0
155 176 0
150 171 0
158 178 0
149 170 0
149 170 0
152 172 0
153 173 0
160 180 0
147 168 0
159 180 0
151 173 0
153 172 0
151 172 0
153 174 0
159 179 0
148 168 0
157 178 0
160 181 0
150 171 0
155 176 0
152 172 0
151 172 0
149 170 0
153 173 0
157 178 0
151 171 0
153 173 0
155 175 0
148 167 0
153 173 0
153 174 0
151 172 0
154 174 0
158 179 0
155 177 0
156 176 0
160 180 0
150 171 0
151 170 0
153 173 0
151 171 0
154 175 0
151 170 0
153 173 0
150 171 0
152 173 0
153 174 0
147 167 0
155 176 0
145 167 0
153 174 0
150 170 0
146 166 0
152 172 0
147 168 0
146 167 0
150 171 0
148 169 0
152 173 0
147 167 0
150 171 0
153 174 0
148 170 0
145 166 0
150 169 0
151 172 0
150 170 0
150 171 0
151 172 0
151 171 0
151 169 0
150 171 0
153 174 0
146 167 0
153 173 0
152 173 0
154 174 0
151 172 0
147 167 0
148 167 0
146 167 0
148 167 0
147 168 0
149 170 0
146 167 0
148 170 0
150 170 0
153 174 0
143 163 0
146 165 0
147 166 0
146 165 0
143 163 0
155 176 0
150 169 0
150 169 0
152 173 0
154 173 0
156 176 0
150 170 0
121 144 117
63 100 179
60 97 169
62 99 169
61 97 169
61 97 168
61 97 164
63 100 178
61 96 166
62 98 175
61 97 166
61 97 172
60 96 169
59 96 173
62 98 177
63 100 179
61 98 177
61 98 175
63 100 179
61 98 176
62 99 179
62 98 173
62 98 174
62 99 179
62 99 179
62 98 177
61 98 177
62 99 178
61 98 179
62 98 174
62 99 175
61 98 176
62 98 176
61 97 176
62 98 178
61 97 176
61 97 176
62 98 173
62 98 178
62 98 179
61 98 176
61 98 178
61 98 176
61 97 178
62 99 175
61 97 176
61 98 176
59 96 173
60 97 177
61 97 176
62 98 175
60 97 176
61 97 175
61 97 175
62 98 178
62 98 178
61 97 177
61 98 176
60 97 177
61 97 177
61 97 176
61 97 176
61 98 176
61 97 176
63 99 176
62 98 178
61 97 177
61 97 177
62 98 178
61 97 172
61 97 177
60 97 175
60 97 174
60 96 175
61 97 177
60 96 177
62 98 178
61 97 174
61 98 178
61 97 176
60 97 177
61 98 176
61 97 177
61 98 177
62 98 176
61 98 178
60 97 175
60 97 175
60 96 175
62 98 176
62 98 178
61 97 174
61 97 175
62 98 178
61 98 176
61 97 174
62 98 178
61 97 176
62 98 176
61 97 172
61 98 177
61 98 174
61 97 176
60 96 174
60 97 175
61 98 177
61 98 176
62 99 179
60 96 169
61 98 178
61 98 178
62 98 178
61 97 172
60 97 176
62 98 179
61 98 178
60 97 175
61 97 174
60 97 171
61 97 176
62 98 178
61 97 176
62 98 179
63 99 179
62 98 178
60 97 173
62 98 175
62 98 174
60 96 168
62 98 177
62 98 176
63 100 179
62 98 174
61 98 178
62 99 176
62 99 179
61 97 169
63 100 180
61 98 176
62 100 181
61 97 172
62 98 172
61 97 172
61 97 169
60 96 173
62 99 175
61 96 165
61 96 168
62 99 172
62 99 177
62 98 172
63 99 176
60 95 163
72 91 130
78 83 65
91 93 66
94 97 70
85 89 62
95 97 64
98 101 72
99 103 74
126 125 84
106 109 74
105 107 74
102 105 69
112 113 76
113 116 82
122 122 82
109 110 77
107 110 77
136 134 89
140 138 88
132 133 89
132 131 89
127 127 86
136 136 92
108 110 78
127 125 77
155 150 91
136 134 86
135 135 87
148 145 89
140 139 95
145 142 91
144 143 96
140 138 89
145 142 88
151 148 95
147 144 89
159 154 97
158 153 96
147 144 90
158 153 92
137 136 87
153 148 88
157 153 93
161 156 94
157 153 90
162 158 95
152 150 95
153 148 87
161 155 90
157 153 91
155 152 89
165 159 93
168 163 101
164 159 101
163 158 93
164 157 94
170 163 97
160 155 89
163 158 92
167 161 100
171 164 97
162 155 90
164 157 88
171 163 96
163 156 90
157 150 83
156 151 87
166 159 97
172 166 102
161 156 87
172 164 90
166 159 88
162 156 87
159 152 80
165 158 95
165 158 91
166 159 88
169 162 95
153 147 82
163 157 91
162 156 87
160 154 82
157 150 82
166 158 91
162 154 90
163 155 84
167 160 93
162 156 88
153 146 82
153 147 79
159 151 82
151 145 77
154 148 75
146 141 74
159 151 80
162 155 88
151 144 74
155 149 84
146 140 72
144 138 79
144 138 74
156 151 80
139 132 72
136 130 68
144 137 75
152 145 77
149 143 72
141 135 66
143 138 72
137 132 68
125 120 62
124 119 60
126 121 56
124 119 56
119 113 62
120 115 51
111 113 42
152 170 0
149 169 0
153 171 0
149 168 0
151 169 0
154 175 0
154 173 0
149 169 0
152 171 0
154 175 0
148 168 0
158 178 0
154 174 0
151 171 0
154 174 0
154 174 0
152 172 0
154 174 0
151 172 0
154 175 0
147 167 0
154 174 0
155 176 0
151 171 0
146 167 0
157 178 0
155 175 0
146 166 0
153 173 0
152 173 0
155 175 0
153 174 0
155 176 0
154 175 0
154 174 0
156 178 0
151 172 0
158 178 0
150 171 0
153 174 0
153 174 0
152 172 0
150 171 0
151 171 0
154 174 0
157 178 0
160 180 0
148 168 0
155 174 0
157 178 0
151 172 0
152 173 0
153 174 0
150 169 0
154 174 0
152 172 0
153 173 0
151 171 0
154 175 0
152 173 0
158 179 0
157 177 0
147 167 0
156 177 0
158 178 0
156 177 0
150 170 0
154 175 0
151 170 0
148 167 0
152 172 0
155 177 0
150 171 0
150 171 0
145 166 0
156 176 0
153 173 0
149 170 0
147 166 0
152 173 0
151 172 0
144 164 0
153 174 0
150 171 0
150 170 0
145 165 0
146 167 0
148 168 0
148 168 0
148 166 0
150 169 0
150 171 0
156 176 0
155 175 0
150 169 0
151 171 0
148 170 0
150 171 0
144 165 0
151 171 0
152 171 0
153 174 0
152 171 0
156 177 0
146 166 0
148 170 0
148 168 0
151 171 0
151 171 0
153 172 0
144 164 0
150 171 0
149 169 0
153 175 0
146 167 0
151 170 0
152 172 0
152 172 0
145 165 0
143 163 0
150 170 0
152 172 0
147 166 0
146 165 0
146 166 0
151 171 0
156 174 0
151 170 0
149 169 0
141 161 57
61 98 170
62 99 176
61 97 170
62 98 170
62 98 172
63 99 177
62 98 173
61 97 170
61 97 169
62 99 176
62 98 172
62 99 171
62 98 176
63 100 178
62 98 164
62 99 177
62 98 177
59 96 170
62 99 180
61 98 173
61 98 177
62 99 178
62 99 178
61 98 175
62 98 177
62 99 180
60 97 176
62 99 180
62 98 174
61 98 176
61 97 175
61 97 172
61 98 178
62 99 178
61 98 174
61 98 175
61 97 177
61 97 175
61 97 174
61 98 177
62 98 178
62 98 177
62 98 176
62 99 177
61 97 177
61 97 178
61 98 178
62 98 176
61 97 174
61 97 175
60 97 176
62 98 176
61 98 177
61 97 175
62 98 178
61 97 176
60 97 176
61 97 174
61 98 177
61 98 176
61 98 175
61 97 176
61 97 177
61 97 170
62 98 178
61 97 177
61 97 174
61 97 174
61 97 174
61 98 178
61 98 177
61 97 174
61 97 174
61 97 177
62 98 176
61 97 177
60 97 175
60 96 173
61 97 174
60 97 177
60 96 170
61 97 174
61 98 176
63 99 178
60 97 174
60 96 174
61 98 178
61 98 177
60 96 177
61 97 176
61 97 176
62 98 178
61 97 174
61 97 177
61 97 177
60 97 177
61 97 176
61 97 176
59 96 173
61 97 174
61 97 176
61 98 176
62 98 178
60 97 175
61 97 176
62 99 177
60 97 174
60 97 174
62 99 178
61 98 174
60 96 170
60 97 174
62 99 179
61 97 171
62 98 178
61 97 176
61 98 177
60 97 173
61 97 176
61 98 175
61 97 175
62 98 176
61 97 174
61 97 175
62 98 176
60 96 176
60 97 172
61 97 175
61 97 172
61 97 175
62 98 175
61 97 175
60 97 172
61 98 176
61 97 173
61 97 169
62 98 174
60 97 173
61 97 173
61 98 175
61 98 173
61 96 169
62 98 174
61 97 169
61 96 171
62 98 172
61 97 171
61 98 172
61 97 170
61 97 174
62 98 169
62 98 171
63 99 177
64 100 173
62 74 86
77 81 62
79 84 64
98 101 72
93 97 70
99 99 67
90 93 62
107 109 73
97 98 66
96 100 76
113 114 76
115 116 78
114 114 79
103 106 74
117 118 81
122 122 78
116 117 76
124 124 83
127 127 84
122 122 76
122 123 81
121 122 77
120 121 79
139 136 84
128 127 80
145 141 87
144 141 93
136 133 80
144 141 87
142 137 79
135 134 89
151 148 93
160 155 96
150 147 94
142 140 83
145 142 86
143 140 92
150 147 90
158 154 99
148 144 88
156 151 87
156 152 95
160 155 94
158 153 95
168 163 101
167 160 98
160 156 93
157 152 88
160 155 93
165 159 94
166 159 95
170 165 105
165 159 95
159 154 96
171 164 100
174 167 98
163 158 91
163 157 92
167 161 95
168 160 93
167 161 94
174 167 97
166 160 95
170 163 97
166 159 88
166 160 93
165 157 87
158 151 80
165 158 97
168 161 97
167 160 85
151 147 75
169 162 94
163 157 88
170 163 95
168 159 94
158 151 79
165 158 90
168 161 95
165 158 88
161 155 87
160 153 87
157 149 82
158 152 84
152 147 82
170 164 85
152 147 72
158 149 82
152 145 79
150 144 74
167 160 94
157 151 80
156 148 82
160 152 77
151 145 75
151 145 85
164 157 93
151 145 80
151 144 79
153 145 75
148 143 75
157 149 82
153 146 82
146 140 68
138 132 66
160 151 79
138 132 60
126 121 56
145 139 74
120 115 56
145 137 79
116 112 51
126 121 56
130 123 62
114 110 48
130 132 42
157 178 0
157 177 0
152 170 0
150 169 0
154 174 0
153 171 0
153 171 0
153 173 0
158 178 0
155 176 0
152 173 0
153 174 0
148 169 0
157 178 0
153 174 0
157 178 0
154 173 0
153 174 0
150 171 0
156 176 0
148 168 0
150 172 0
151 171 0
153 173 0
150 171 0
153 173 0
151 172 0
150 170 0
153 172 0
153 174 0
151 170 0
155 175 0
151 171 0
153 173 0
148 169 0
151 171 0
151 171 0
151 171 0
154 174 0
156 177 0
150 171 0
151 171 0
147 167 0
154 175 0
160 180 0
145 167 0
151 172 0
153 174 0
151 172 0
152 172 0
154 174 0
150 170 0
154 175 0
155 175 0
152 172 0
156 177 0
149 170 0
148 169 0
152 172 0
149 169 0
145 166 0
152 172 0
152 173 0
150 171 0
152 172 0
146 167 0
148 169 0
152 172 0
159 180 0
149 169 0
153 174 0
155 176 0
155 174 0
150 171 0
156 176 0
150 170 0
158 179 0
151 171 0
145 165 0
152 172 0
152 172 0
156 176 0
151 172 0
153 172 0
154 174 0
151 172 0
151 171 0
152 173 0
152 172 0
144 165 0
151 172 0
153 173 0
154 173 0
149 170 0
155 175 0
152 172 0
156 177 0
155 174 0
151 171 0
148 168 0
152 171 0
146 165 0
156 177 0
151 171 0
143 163 0
153 172 0
153 174 0
153 172 0
148 168 0
151 172 0
153 174 0
150 170 0
146 166 0
151 172 0
151 169 0
148 167 0
153 172 0
154 174 0
149 170 0
146 165 0
148 169 0
150 170 0
151 171 0
146 167 0
147 167 0
150 169 0
146 166 0
144 166 0
141 159 25
76 107 155
62 99 176
62 98 171
62 99 168
62 99 175
59 96 169
63 99 174
60 97 169
62 98 176
60 97 174
62 98 172
60 95 166
62 98 172
62 99 175
61 97 172
62 98 174
61 97 170
61 97 171
62 98 173
62 98 175
61 97 171
60 96 172
61 98 172
62 98 176
61 97 176
62 99 178
62 99 179
62 98 173
61 98 177
61 97 174
61 98 178
60 96 173
61 98 178
62 98 177
61 97 173
61 97 176
62 98 176
61 98 178
61 97 177
61 98 178
62 98 178
61 98 176
60 97 176
61 97 176
61 98 178
61 97 171
61 97 174
61 97 177
62 98 177
62 99 178
60 97 175
60 97 177
62 98 176
59 96 175
60 97 177
61 98 176
62 98 177
61 98 178
60 97 177
62 98 177
61 97 174
60 97 177
61 98 177
59 96 175
61 97 174
60 97 177
60 97 177
61 97 177
60 97 175
61 98 174
60 97 174
60 96 175
61 98 177
59 96 175
61 97 174
61 98 176
61 97 177
61 98 177
61 98 177
60 97 175
61 97 176
61 97 177
61 97 174
61 97 176
62 98 178
61 97 175
61 98 176
60 96 175
61 97 172
60 97 175
60 97 175
62 98 174
60 96 175
62 98 176
61 97 176
60 97 177
61 97 175
61 97 171
62 99 178
60 97 175
61 97 170
61 97 176
60 96 175
61 97 173
61 97 176
61 97 172
61 98 176
61 98 176
62 98 174
60 96 171
60 97 177
61 98 174
60 97 176
63 99 179
60 96 172
61 98 176
61 97 176
61 97 170
61 97 177
61 97 169
62 98 171
61 98 177
61 97 175
61 97 178
60 97 174
63 99 173
61 97 171
63 99 179
61 97 173
61 97 169
60 97 171
62 98 177
63 99 177
61 97 173
61 97 173
61 97 170
62 98 176
63 99 171
62 98 176
61 97 171
62 98 174
61 98 174
62 98 174
62 99 177
62 99 177
62 99 178
61 98 173
60 95 164
61 97 170
62 98 174
60 95 166
61 98 173
61 97 168
60 94 161
62 97 166
58 91 152
78 85 69
85 88 60
97 100 70
89 92 66
105 106 73
76 82 58
114 115 78
106 108 71
108 109 76
106 109 74
106 108 74
101 104 68
113 114 78
104 106 72
108 110 75
127 126 78
121 121 78
117 119 79
133 133 87
128 127 86
127 127 83
130 129 86
128 127 79
134 133 86
129 129 84
147 144 89
142 139 86
149 145 87
141 138 87
144 143 94
137 135 82
145 143 87
157 152 95
157 152 96
144 141 84
156 151 91
152 148 86
154 149 94
153 148 86
150 146 89
153 149 90
151 147 90
153 148 87
158 153 88
159 154 87
160 156 96
163 157 95
168 161 94
166 161 97
155 151 85
166 160 90
163 158 87
169 163 96
157 154 90
167 162 97
175 169 97
163 157 92
173 165 97
172 165 98
163 157 91
162 157 90
162 156 86
159 153 87
163 156 85
159 153 82
153 148 84
168 161 93
169 163 95
165 159 95
161 155 85
167 159 91
156 151 82
161 153 87
165 160 91
168 161 90
164 157 87
159 152 85
158 152 79
165 158 91
164 158 90
159 152 85
170 162 94
146 141 72
154 149 74
159 152 85
164 156 87
149 143 77
160 154 85
163 155 88
158 150 87
155 147 88
157 150 87
146 140 72
151 144 77
158 151 84
153 146 84
153 146 79
148 143 70
146 141 75
145 139 74
143 138 62
135 129 70
131 126 56
133 126 62
151 143 77
135 128 68
139 132 66
141 135 68
123 119 51
128 122 56
136 130 68
123 117 58
115 110 51
116 110 56
140 149 42
154 173 0
157 173 0
153 172 0
152 171 0
152 170 0
155 174 0
154 173 0
155 176 0
148 169 0
152 172 0
153 175 0
161 180 0
153 174 0
150 170 0
151 172 0
152 172 0
150 171 0
156 177 0
153 174 0
148 169 0
155 175 0
152 174 0
154 174 0
152 173 0
151 173 0
158 179 0
152 173 0
155 176 0
155 176 0
159 179 0
156 177 0
154 175 0
149 169 0
158 178 0
152 173 0
152 172 0
153 174 0
152 172 0
152 173 0
147 167 0
155 175 0
149 170 0
153 173 0
150 170 0
156 176 0
155 175 0
157 178 0
152 174 0
159 180 0
150 171 0
155 176 0
151 171 0
155 175 0
153 174 0
152 173 0
152 174 0
147 168 0
151 172 0
151 172 0
154 175 0
157 177 0
144 164 0
150 170 0
153 174 0
158 178 0
155 175 0
146 167 0
150 171 0
147 168 0
153 172 0
150 170 0
153 173 0
150 170 0
152 173 0
149 169 0
150 170 0
154 174 0
152 172 0
151 172 0
153 175 0
145 166 0
147 167 0
145 166 0
149 168 0
153 173 0
151 172 0
152 172 0
151 171 0
150 169 0
146 166 0
150 169 0
151 172 0
149 169 0
157 178 0
142 163 0
152 171 0
152 173 0
153 174 0
150 171 0
151 172 0
150 169 0
150 170 0
154 175 0
153 173 0
154 174 0
148 168 0
150 170 0
153 172 0
153 173 0
149 170 0
149 169 0
156 175 0
155 176 0
147 166 0
150 169 0
153 172 0
144 165 0
148 168 0
149 169 0
148 168 0
151 171 0
157 178 0
146 166 0
155 175 0
145 166 0
151 171 0
152 172 0
144 164 0
116 140 116
60 95 160
62 99 174
63 100 171
61 96 167
62 98 169
60 97 169
62 100 179
62 99 175
60 96 167
61 97 170
61 98 174
61 97 173
62 99 178
59 95 168
61 98 176
61 98 174
62 98 173
61 98 179
62 98 175
61 97 172
61 97 173
61 98 176
61 97 170
61 98 175
62 98 176
60 97 171
62 99 179
61 97 175
62 99 178
61 98 175
62 98 176
62 98 177
61 98 175
62 98 177
61 97 176
60 97 177
61 97 175
61 98 172
61 97 172
61 97 176
62 98 178
61 98 177
62 98 178
61 98 176
61 97 173
62 98 174
61 98 176
61 98 178
61 98 178
60 96 174
61 98 178
61 98 175
61 97 176
61 97 178
61 98 177
62 98 178
61 97 176
61 97 176
61 97 177
60 96 171
60 97 177
60 96 177
61 98 176
60 97 175
60 96 175
60 97 177
61 97 177
60 97 175
61 97 175
60 97 174
60 96 177
62 99 178
61 97 177
62 98 178
60 97 175
61 97 177
61 97 174
61 97 177
61 97 174
60 97 175
61 97 175
60 96 177
61 97 177
61 98 177
61 97 176
60 96 175
61 98 178
62 98 178
61 97 176
60 97 177
60 96 172
62 98 177
59 96 171
61 97 174
61 97 175
60 97 175
60 97 176
61 97 178
62 98 176
61 97 176
62 98 174
61 97 171
61 97 174
61 98 176
60 97 174
62 98 178
61 97 174
61 98 176
62 98 178
61 97 178
60 96 175
62 98 176
61 97 175
60 96 174
62 98 178
60 96 169
60 97 176
60 97 174
61 98 175
61 97 177
60 97 174
60 96 172
60 97 174
62 98 175
62 99 179
61 97 176
61 97 171
60 97 171
62 99 177
62 98 175
61 97 173
61 98 175
60 96 172
62 98 175
61 97 173
61 97 170
63 99 177
61 97 168
61 97 173
62 98 174
62 99 177
61 97 174
60 96 169
60 97 173
61 96 171
61 97 170
61 97 172
61 96 167
61 96 164
61 96 166
63 99 172
62 99 176
61 96 166
61 96 167
62 97 169
62 98 170
85 99 120
78 85 64
93 94 65
101 101 65
81 85 61
89 92 66
83 90 67
106 106 75
97 101 70
91 94 66
104 108 78
114 115 76
118 119 83
99 101 68
116 117 71
135 134 88
119 119 77
119 120 78
127 126 76
134 132 80
126 126 79
124 124 81
149 145 91
114 115 69
142 139 87
142 138 88
129 127 83
145 142 88
137 135 78
141 140 88
148 144 88
133 132 77
155 152 90
141 138 81
148 144 84
153 150 90
139 135 77
157 153 97
151 147 90
162 157 88
152 148 89
148 145 83
150 147 90
147 144 88
158 153 88
154 151 84
168 162 100
164 159 100
162 156 87
165 158 94
158 154 93
162 155 83
169 162 98
168 161 96
161 156 92
164 158 93
160 154 87
161 156 85
156 151 86
163 157 91
165 160 90
160 155 87
168 161 94
165 159 94
157 152 90
167 160 94
165 159 91
160 154 84
165 158 99
159 153 88
157 152 87
164 157 88
162 157 94
164 156 85
154 148 80
161 155 90
169 161 94
172 166 98
162 155 80
167 161 90
154 148 79
160 154 82
153 146 80
162 155 85
157 149 85
153 146 85
152 146 74
152 145 74
151 145 74
144 139 74
145 140 75
149 145 79
166 158 91
143 138 75
150 144 79
140 133 66
136 130 66
149 141 75
147 142 74
150 143 79
145 139 70
134 129 64
134 129 64
142 135 68
140 133 70
137 130 68
136 130 64
140 133 70
133 127 56
134 128 66
121 116 51
116 110 51
127 120 58
109 104 48
143 156 36
150 169 0
152 171 0
148 167 0
152 170 0
155 172 0
155 175 0
151 171 0
154 174 0
157 178 0
155 175 0
159 180 0
152 172 0
157 178 0
148 168 0
153 175 0
152 173 0
155 175 0
156 175 0
157 177 0
148 169 0
154 175 0
151 171 0
148 169 0
150 171 0
156 176 0
154 174 0
154 174 0
153 173 0
155 175 0
148 167 0
152 173 0
152 172 0
152 172 0
159 179 0
162 183 0
156 177 0
152 172 0
150 170 0
154 175 0
156 176 0
155 177 0
150 171 0
149 169 0
151 172 0
150 171 0
153 173 0
156 176 0
148 168 0
148 167 0
154 175 0
148 169 0
154 174 0
150 171 0
150 170 0
154 176 0
150 170 0
155 175 0
152 173 0
149 170 0
154 174 0
152 171 0
153 173 0
155 176 0
151 171 0
150 171 0
153 173 0
154 175 0
151 172 0
154 174 0
161 181 0
156 176 0
151 171 0
148 168 0
148 169 0
146 167 0
150 171 0
154 175 0
149 169 0
149 169 0
154 174 0
149 169 0
155 175 0
150 170 0
144 164 0
152 173 0
148 168 0
157 178 0
152 172 0
147 168 0
151 170 0
152 172 0
149 170 0
151 171 0
152 173 0
151 171 0
153 174 0
150 171 0
156 177 0
153 174 0
153 173 0
155 175 0
148 167 0
157 177 0
152 172 0
150 171 0
150 171 0
148 168 0
155 175 0
149 168 0
151 171 0
148 168 0
152 171 0
150 170 0
147 168 0
153 173 0
149 168 0
144 165 0
148 168 0
151 171 0
151 172 0
154 173 0
153 173 0
141 161 0
147 166 0
144 164 0
148 169 0
155 174 0
138 160 61
64 99 166
63 99 173
62 99 173
61 97 168
61 97 174
62 98 172
62 99 175
62 98 171
63 99 173
61 97 170
62 98 176
62 98 176
62 98 173
62 98 172
62 98 178
62 99 177
62 99 179
60 97 172
61 97 170
62 98 175
61 98 172
61 97 173
61 97 177
62 98 175
62 98 175
61 98 176
60 96 169
61 98 179
61 97 173
62 98 178
61 98 177
61 98 177
61 98 178
62 99 179
62 98 177
59 96 172
62 98 175
61 98 176
61 98 178
61 98 177
62 98 178
61 97 174
62 98 176
61 97 178
61 98 178
61 97 176
60 96 174
61 98 177
61 98 178
59 96 175
61 97 176
63 99 178
60 97 174
61 98 177
60 96 174
60 96 175
60 96 175
61 97 176
59 96 174
61 98 177
62 99 178
62 98 176
60 96 172
60 96 172
62 98 178
61 97 176
61 98 177
62 98 176
61 97 176
61 97 177
60 97 174
60 96 173
60 97 175
61 98 176
61 97 177
61 98 177
61 97 174
62 98 176
62 98 174
61 97 177
60 97 175
60 97 176
61 98 177
61 97 175
60 97 177
61 98 178
61 97 175
61 97 177
61 97 172
60 97 177
61 98 175
60 97 177
61 97 175
61 97 176
60 97 175
61 97 175
61 97 175
61 98 178
60 96 174
60 96 177
61 98 174
60 97 176
62 98 178
62 99 178
61 97 176
62 98 176
61 98 177
61 97 176
62 98 174
60 96 172
61 97 176
61 97 176
63 99 178
61 97 173
61 97 174
61 97 174
62 98 173
61 97 177
60 96 172
61 97 172
61 97 172
61 97 173
61 97 174
61 98 175
61 98 175
61 97 175
61 97 170
61 97 175
60 96 172
61 97 174
60 96 172
62 99 178
62 99 179
62 99 179
59 96 170
61 97 171
62 98 170
61 97 172
62 98 176
61 98 173
61 98 173
63 99 177
60 96 165
61 96 169
62 99 176
60 96 166
59 95 165
61 96 168
62 98 176
63 100 174
62 98 170
61 96 168
59 94 154
61 95 164
59 94 159
61 97 169
62 98 174
56 88 143
78 86 77
85 89 64
88 92 65
106 107 72
87 89 60
101 103 72
108 109 72
87 90 61
113 114 75
99 101 69
109 111 74
107 108 73
85 89 58
105 107 71
117 118 72
123 122 81
127 126 79
130 130 85
125 126 83
134 133 79
119 119 79
130 129 83
134 132 82
135 133 81
138 136 82
137 136 88
131 130 77
131 130 72
149 147 92
133 132 80
143 139 74
148 144 89
141 139 82
149 145 86
154 150 92
147 144 84
148 144 84
148 144 87
150 148 83
154 150 91
158 152 88
155 150 87
150 145 85
154 151 87
151 146 81
161 156 95
165 159 95
161 155 94
158 152 90
159 153 88
155 150 83
149 145 83
168 161 93
155 151 87
146 142 82
155 149 83
162 156 87
167 160 95
170 164 88
170 162 93
167 161 92
173 166 97
166 159 90
159 153 75
164 158 87
152 146 79
164 158 88
161 153 84
162 154 80
154 148 77
159 154 84
162 155 88
158 152 82
161 154 85
148 143 75
156 150 80
156 150 82
152 145 80
159 153 85
153 148 79
154 148 84
161 153 90
151 145 79
142 137 68
161 154 80
161 154 87
156 150 82
144 138 75
157 150 80
152 145 72
163 155 84
152 145 75
154 148 79
148 142 74
142 135 72
151 143 75
142 136 64
146 139 75
144 138 62
144 138 68
144 138 75
131 125 64
135 130 74
140 134 62
133 128 56
146 139 66
140 133 66
144 138 66
132 127 58
136 130 66
125 119 58
115 110 45
113 108 45
154 170 22
154 173 0
155 174 0
150 169 0
149 167 0
155 171 0
152 170 0
153 173 0
150 170 0
154 175 0
153 174 0
158 178 0
160 180 0
153 174 0
154 176 0
156 177 0
157 178 0
153 173 0
157 177 0
154 174 0
157 177 0
153 175 0
158 178 0
146 167 0
153 174 0
148 170 0
151 172 0
154 175 0
153 174 0
156 176 0
149 170 0
157 179 0
150 171 0
149 170 0
153 174 0
150 171 0
149 169 0
150 171 0
151 172 0
159 179 0
152 173 0
153 174 0
149 169 0
156 178 0
153 173 0
151 172 0
152 173 0
152 173 0
151 172 0
154 174 0
148 169 0
156 176 0
152 173 0
151 172 0
156 176 0
149 168 0
156 176 0
158 178 0
158 178 0
155 175 0
154 174 0
160 180 0
149 170 0
153 173 0
150 171 0
154 175 0
150 170 0
145 166 0
150 171 0
150 170 0
152 172 0
151 171 0
157 177 0
155 174 0
151 172 0
156 177 0
143 163 0
157 177 0
153 174 0
152 173 0
153 174 0
150 170 0
153 174 0
153 174 0
152 173 0
149 170 0
155 175 0
148 167 0
145 166 0
154 173 0
155 175 0
152 172 0
150 169 0
150 170 0
148 169 0
150 169 0
156 175 0
155 176 0
147 167 0
150 169 0
150 171 0
156 177 0
150 170 0
153 172 0
155 176 0
146 166 0
148 167 0
153 172 0
148 167 0
151 171 0
151 172 0
148 168 0
152 172 0
144 164 0
145 167 0
149 170 0
153 171 0
144 164 0
144 163 0
147 167 0
150 171 0
153 174 0
148 168 0
150 170 0
154 173 0
155 175 0
150 170 0
154 174 0
87 115 146
61 97 172
61 98 170
60 96 165
62 99 175
59 95 165
61 97 166
60 96 163
61 97 171
62 98 172
61 98 174
62 98 173
62 99 177
61 97 173
61 98 171
62 98 175
60 96 164
62 98 174
63 99 174
62 99 180
61 98 171
62 98 176
62 98 173
62 98 176
60 96 170
60 97 171
62 99 176
61 97 176
62 98 177
62 98 178
62 99 179
61 97 176
62 99 177
60 96 172
62 98 176
62 98 178
62 98 178
62 98 178
60 96 171
60 97 178
59 96 174
61 97 175
61 97 176
61 97 176
62 98 175
60 96 177
62 98 176
61 97 177
61 97 175
62 98 178
60 96 173
61 98 177
61 97 178
61 98 177
61 97 174
61 97 175
61 97 177
62 98 178
60 97 177
62 98 177
61 98 177
62 98 178
60 96 175
60 97 177
61 98 177
61 97 175
59 96 173
61 98 177
62 98 176
60 96 175
60 96 175
61 97 177
61 97 177
60 97 173
60 96 174
61 97 175
61 97 175
61 97 175
61 98 177
61 98 177
61 97 175
60 97 175
60 96 172
61 97 177
60 96 175
62 98 177
61 98 177
59 95 173
61 98 171
61 98 177
61 97 175
58 94 169
60 97 175
61 97 176
60 97 175
61 97 177
61 97 177
61 98 177
60 96 173
61 98 177
60 96 170
60 96 173
61 97 173
61 98 175
62 98 176
61 97 175
60 96 173
60 96 174
62 98 176
62 98 176
60 97 174
62 98 176
60 97 176
61 97 178
61 97 171
61 97 171
60 97 174
61 97 172
60 97 176
61 97 174
62 98 177
62 99 175
61 98 178
63 99 175
61 98 176
60 97 167
61 97 171
62 98 174
62 98 177
62 98 172
62 98 175
62 98 170
62 98 175
61 97 169
62 98 178
62 98 175
60 96 171
61 98 174
61 97 170
61 97 171
60 96 172
62 98 175
61 98 178
60 96 168
62 99 176
61 98 170
62 98 175
62 99 171
61 97 171
61 97 170
61 96 166
63 99 176
61 97 169
62 99 177
60 95 166
61 98 171
60 96 166
62 98 169
61 97 166
65 92 137
69 73 55
81 85 61
82 86 61
87 92 62
65 72 56
84 88 62
96 99 65
102 103 70
99 103 73
114 114 74
104 107 74
113 113 72
103 106 69
115 116 80
123 122 78
123 122 76
112 112 72
121 120 74
130 129 77
137 135 81
126 125 78
139 137 86
130 128 82
115 115 74
148 144 94
141 139 89
148 144 89
151 147 86
151 147 90
133 132 81
146 142 89
121 122 79
147 144 90
148 144 85
159 154 92
151 147 88
149 145 81
147 142 88
145 141 81
151 148 88
148 144 78
149 145 83
164 158 91
153 148 89
149 144 89
152 146 82
162 156 98
168 161 95
159 152 86
160 154 88
157 152 90
161 156 89
152 147 83
161 155 87
168 161 95
155 150 84
156 153 92
166 158 88
161 156 87
167 159 91
165 159 88
161 155 85
165 157 87
168 161 97
163 157 87
162 154 82
161 155 88
156 150 79
161 154 91
160 155 87
162 154 85
164 157 85
152 147 79
161 153 80
164 157 93
160 154 85
157 149 79
166 158 91
154 147 74
154 147 75
154 149 82
165 158 93
155 150 79
149 144 75
145 139 72
158 151 85
158 152 82
147 142 75
147 142 80
150 144 75
151 144 77
148 142 75
131 126 64
148 142 79
152 146 77
148 142 75
139 133 72
145 139 70
152 145 80
145 138 70
148 141 74
146 140 72
130 124 58
136 130 62
125 121 56
128 123 60
147 140 77
112 107 36
131 125 56
124 120 53
137 130 60
111 110 36
153 171 0
149 168 0
151 170 0
152 172 0
151 172 0
151 170 0
147 166 0
152 170 0
148 169 0
150 171 0
154 175 0
155 175 0
154 175 0
156 176 0
158 178 0
153 173 0
157 178 0
151 171 0
153 173 0
147 167 0
149 170 0
151 172 0
155 176 0
154 175 0
154 174 0
157 177 0
148 169 0
154 174 0
153 174 0
156 175 0
153 173 0
150 170 0
151 170 0
153 173 0
146 166 0
153 173 0
156 177 0
155 176 0
154 174 0
147 168 0
146 167 0
153 174 0
154 175 0
156 177 0
154 174 0
149 170 0
153 174 0
152 172 0
153 174 0
152 173 0
159 179 0
155 175 0
149 170 0
151 171 0
155 175 0
149 170 0
153 173 0
148 167 0
152 172 0
149 168 0
154 174 0
150 170 0
153 172 0
158 180 0
148 168 0
151 170 0
153 174 0
152 174 0
150 171 0
152 173 0
152 172 0
151 171 0
150 171 0
144 165 0
151 172 0
151 171 0
156 176 0
149 168 0
153 174 0
155 175 0
157 177 0
148 169 0
149 168 0
148 167 0
148 168 0
150 170 0
150 170 0
146 167 0
151 170 0
151 171 0
155 175 0
148 169 0
151 172 0
152 172 0
148 168 0
149 169 0
153 173 0
154 175 0
150 170 0
148 169 0
156 175 0
151 171 0
147 168 0
150 170 0
150 170 0
149 171 0
155 176 0
154 173 0
151 170 0
151 172 0
150 169 0
154 175 0
148 168 0
150 170 0
149 167 0
147 167 0
155 174 0
146 166 0
151 170 0
149 169 0
153 174 0
150 170 0
149 170 0
146 167 0
149 169 0
151 171 0
149 167 0
134 156 73
61 97 166
61 97 166
63 100 177
60 95 162
63 99 175
63 100 170
61 96 166
62 98 169
62 99 172
61 97 170
62 98 175
60 96 168
63 99 170
61 97 167
62 98 174
62 99 175
61 97 167
61 98 174
61 97 172
60 96 170
62 98 174
61 98 177
61 97 173
61 98 175
62 99 176
61 98 175
62 98 177
61 97 177
61 98 177
59 96 172
60 96 169
62 98 178
60 96 172
61 97 174
61 97 172
60 97 174
61 97 176
60 96 174
60 97 174
60 96 169
61 97 174
61 98 178
61 97 174
60 96 175
61 97 175
61 98 176
60 96 175
61 97 174
62 98 176
61 97 175
62 98 176
62 98 176
62 98 177
61 98 176
61 98 178
60 97 177
61 98 177
60 96 174
61 97 177
61 97 176
60 97 175
60 96 173
60 96 175
61 97 177
62 98 177
61 98 177
61 97 173
61 98 177
61 97 175
61 97 177
61 98 178
61 98 177
61 98 177
60 96 173
61 98 177
61 97 176
61 97 174
61 98 177
61 97 177
60 96 170
61 98 177
62 98 174
60 97 175
60 97 177
62 98 177
61 97 173
61 97 173
61 97 175
61 97 174
60 96 173
59 95 168
61 97 175
60 96 173
60 97 175
61 97 172
61 97 175
60 97 174
61 97 172
61 97 176
61 98 172
61 98 177
61 98 178
61 97 177
60 96 168
62 98 177
61 97 175
61 97 170
60 97 173
61 97 176
61 97 174
62 98 176
61 97 173
60 97 177
60 96 173
62 99 179
61 97 174
61 98 174
62 98 174
61 97 169
62 98 176
61 97 171
62 99 178
60 97 173
61 97 175
61 97 175
61 97 174
61 97 171
60 97 169
61 97 172
60 96 169
62 98 178
62 99 179
61 97 174
59 95 168
62 99 176
61 97 173
60 96 171
61 98 173
62 98 173
61 97 170
61 97 173
61 98 167
61 97 171
61 97 163
60 96 167
62 98 171
63 99 179
62 98 167
62 98 170
63 100 175
60 95 162
60 96 170
60 95 162
61 97 170
62 98 174
60 97 166
61 96 170
59 95 164
62 99 177
62 98 164
69 83 97
63 70 54
85 88 61
90 93 66
90 92 64
79 84 63
106 109 78
78 84 59
93 96 62
115 115 73
96 99 67
112 113 76
113 113 73
106 108 70
99 102 62
118 118 70
126 125 77
121 122 82
127 124 78
119 120 76
116 118 80
123 121 71
133 131 75
130 127 77
136 133 77
150 145 83
137 135 83
142 139 86
133 131 79
145 143 85
142 138 82
146 142 86
143 141 87
146 143 83
146 143 86
158 153 90
148 144 84
145 142 89
155 151 91
151 146 78
149 145 85
149 144 83
147 143 89
161 156 95
154 150 88
152 147 84
159 154 88
158 154 87
160 155 85
155 149 84
168 161 96
169 162 101
160 155 88
154 149 86
160 154 84
164 157 92
163 157 87
161 155 87
169 162 100
160 156 90
163 157 84
159 154 87
162 156 90
161 156 95
169 161 94
168 161 91
164 158 88
158 152 83
157 151 87
159 154 84
155 149 79
166 159 90
163 156 84
158 151 85
156 149 85
161 154 84
159 152 77
149 145 79
160 153 84
155 149 79
151 145 75
161 154 80
155 149 77
150 144 80
150 145 75
163 155 85
144 138 74
145 139 72
149 142 70
156 149 77
149 144 82
142 137 68
145 138 77
148 141 70
153 146 77
138 132 66
135 130 62
145 139 74
142 135 68
151 143 70
135 129 62
136 131 68
140 134 62
128 121 58
130 124 51
128 122 64
121 117 53
126 121 58
124 118 53
122 117 53
104 100 48
129 133 45
153 170 0
150 168 0
153 172 0
150 168 0
151 170 0
152 171 0
151 170 0
147 166 0
159 180 0
156 176 0
154 175 0
152 173 0
149 171 0
150 171 0
150 170 0
149 170 0
152 172 0
151 171 0
151 171 0
153 174 0
160 179 0
151 172 0
150 171 0
156 177 0
147 167 0
153 172 0
155 175 0
153 174 0
155 176 0
150 170 0
153 173 0
148 169 0
151 170 0
153 175 0
148 168 0
153 174 0
154 175 0
147 167 0
154 174 0
148 169 0
154 175 0
154 175 0
156 176 0
147 168 0
155 176 0
151 172 0
153 174 0
153 173 0
151 172 0
155 175 0
152 173 0
153 174 0
154 173 0
154 174 0
152 172 0
153 174 0
157 177 0
152 174 0
150 171 0
152 172 0
153 173 0
148 168 0
150 171 0
152 171 0
157 177 0
157 178 0
148 169 0
150 170 0
153 174 0
155 174 0
151 171 0
142 162 0
152 172 0
155 175 0
146 166 0
153 173 0
147 167 0
151 171 0
150 170 0
151 170 0
153 174 0
145 164 0
146 166 0
150 171 0
147 168 0
148 169 0
148 168 0
152 172 0
149 169 0
152 173 0
150 170 0
152 172 0
155 174 0
148 168 0
154 173 0
152 173 0
146 166 0
150 170 0
149 169 0
153 173 0
150 170 0
153 173 0
143 163 0
149 170 0
150 170 0
147 168 0
154 174 0
156 176 0
151 171 0
152 173 0
150 171 0
146 167 0
148 167 0
154 175 0
155 174 0
153 172 0
151 171 0
146 166 0
149 168 0
152 172 0
151 171 0
148 168 0
153 173 0
149 169 0
149 168 0
151 172 0
142 163 38
89 117 144
60 96 161
62 98 172
63 99 173
60 96 168
60 97 169
62 99 171
60 96 167
62 98 173
60 96 163
62 99 178
62 98 174
62 99 171
62 98 172
61 98 172
61 97 174
62 98 176
61 97 171
62 98 173
63 99 175
62 99 179
62 99 174
63 99 177
61 97 171
60 97 175
61 98 178
63 99 179
62 99 179
61 98 171
61 98 174
62 98 177
62 99 176
61 97 174
62 99 178
61 98 176
60 96 173
62 99 179
60 97 172
62 99 179
61 98 176
62 99 174
61 98 176
61 98 176
60 97 172
60 97 176
61 98 176
60 96 174
61 97 174
60 96 174
60 96 174
60 96 174
60 96 172
61 97 177
63 99 174
61 97 176
61 97 174
62 98 178
61 97 172
60 96 172
62 99 176
62 99 175
60 96 170
59 95 169
61 97 177
61 97 175
60 97 175
61 98 177
60 97 177
60 96 177
60 97 177
60 96 173
61 98 175
61 98 176
60 96 175
60 97 174
60 96 176
60 96 171
60 96 173
61 97 177
61 97 175
60 96 173
60 96 171
61 97 177
61 97 175
61 97 173
61 97 175
62 98 177
60 96 173
60 96 172
61 97 175
62 98 178
61 96 168
61 97 176
59 96 171
60 96 175
61 97 175
60 96 173
61 97 174
61 98 177
60 96 176
62 98 174
61 98 176
60 96 173
60 96 174
61 97 177
61 98 176
60 96 174
61 96 172
61 98 170
61 98 178
62 98 174
61 97 172
61 97 176
61 97 176
62 98 176
61 97 177
60 96 170
60 96 170
61 98 176
60 96 174
62 98 172
61 98 176
62 98 174
62 98 176
61 98 176
59 96 173
61 97 171
61 96 167
61 97 172
62 99 177
59 95 167
61 97 173
61 98 172
63 99 177
60 97 174
61 97 170
61 97 168
62 98 173
60 97 171
59 95 168
61 97 176
62 98 174
59 96 170
62 98 175
62 98 174
61 98 172
62 98 173
60 96 174
62 98 176
60 96 166
61 97 170
62 99 175
62 98 170
61 97 172
61 96 165
60 96 166
62 97 165
61 97 171
59 94 165
61 96 169
61 96 162
56 88 145
57 66 57
79 82 56
87 89 55
85 88 58
100 102 66
105 106 72
96 99 69
100 102 67
119 118 76
119 117 75
103 105 68
111 113 77
106 108 71
119 118 76
108 108 69
103 103 63
130 128 77
119 119 77
127 126 74
131 129 81
124 123 77
135 133 80
135 132 83
129 127 77
138 136 85
119 118 70
137 135 81
136 134 85
154 148 94
142 138 86
137 135 81
147 143 89
129 127 79
147 144 82
145 141 84
144 140 79
148 144 89
151 146 84
160 155 91
147 143 71
152 148 88
157 152 90
164 157 92
155 150 90
167 159 95
161 156 91
160 154 91
160 154 92
161 156 90
163 157 92
159 152 85
156 150 81
162 155 89
158 153 87
159 154 82
164 157 92
161 154 82
155 150 88
165 159 93
156 150 80
167 159 93
160 153 84
162 156 90
163 157 90
161 154 89
158 152 82
158 152 77
156 151 74
161 154 85
161 155 87
156 151 79
159 153 88
160 153 84
168 160 90
165 157 91
156 150 87
148 142 72
164 158 87
154 147 74
150 144 77
149 143 68
156 149 74
150 145 75
154 148 84
152 146 74
139 134 58
158 152 85
160 152 82
149 144 75
151 145 75
149 142 74
133 127 64
155 147 80
138 132 64
137 132 70
149 143 66
138 133 58
149 142 79
140 133 58
148 141 77
128 122 62
145 139 66
130 125 60
127 121 53
127 122 53
133 126 70
136 129 75
128 122 60
130 124 62
124 119 42
135 148 16
150 169 0
151 169 0
150 169 0
151 170 0
153 171 0
155 175 0
154 172 0
150 171 0
149 169 0
152 172 0
153 173 0
150 170 0
151 171 0
146 167 0
153 173 0
153 175 0
150 171 0
158 179 0
155 175 0
157 177 0
156 177 0
152 172 0
150 170 0
155 176 0
157 178 0
156 176 0
150 171 0
148 168 0
155 177 0
152 171 0
152 173 0
154 175 0
152 172 0
154 174 0
155 175 0
155 176 0
159 181 0
159 179 0
154 174 0
148 169 0
153 173 0
146 166 0
149 170 0
150 171 0
148 168 0
152 173 0
153 174 0
154 174 0
149 169 0
150 171 0
148 168 0
150 171 0
151 171 0
153 174 0
152 173 0
146 167 0
148 168 0
155 175 0
151 171 0
152 172 0
149 170 0
152 173 0
149 170 0
148 168 0
148 169 0
147 169 0
153 175 0
147 169 0
153 174 0
147 167 0
152 173 0
154 174 0
152 171 0
154 174 0
153 174 0
148 168 0
149 169 0
156 176 0
151 171 0
148 168 0
155 176 0
154 173 0
151 172 0
155 176 0
149 169 0
152 173 0
149 169 0
154 174 0
151 172 0
154 174 0
150 169 0
147 168 0
149 168 0
148 167 0
152 173 0
147 167 0
148 168 0
154 174 0
153 174 0
147 169 0
151 171 0
145 165 0
153 172 0
154 174 0
157 177 0
146 167 0
153 174 0
151 172 0
151 172 0
150 171 0
148 169 0
148 168 0
145 166 0
146 166 0
150 171 0
140 160 0
150 170 0
145 165 0
150 171 0
145 163 0
154 174 0
149 169 0
148 168 0
152 172 0
144 164 0
149 169 0
126 149 96
60 96 165
62 98 170
59 93 155
62 100 180
61 96 167
62 99 175
62 98 168
63 99 173
60 97 170
62 98 168
62 98 172
63 100 179
62 98 173
61 97 173
62 98 174
60 96 167
62 99 179
61 97 171
62 98 175
60 96 173
61 98 174
61 97 173
60 97 170
61 97 170
61 98 177
61 98 176
61 97 175
62 98 178
62 98 176
61 97 174
61 97 173
61 98 177
61 97 171
61 98 177
61 97 173
62 98 173
61 98 178
61 97 176
60 97 171
60 96 172
60 97 174
61 97 177
60 97 176
61 97 175
61 98 176
61 97 176
62 98 173
61 97 176
62 98 178
60 96 174
60 97 177
62 99 178
61 97 172
62 98 176
60 96 173
61 97 168
61 98 176
61 97 175
61 98 178
60 97 175
60 97 175
62 98 176
60 97 176
61 97 170
61 98 177
61 98 175
62 98 174
60 96 175
60 96 173
60 96 173
61 97 177
60 96 172
61 97 177
60 96 175
60 97 175
61 97 175
60 97 173
62 98 177
61 97 173
60 96 175
62 98 177
61 97 173
61 97 174
61 97 176
60 96 171
61 97 177
60 96 173
61 97 175
61 97 175
61 97 173
60 97 177
60 96 175
60 96 177
62 98 177
60 96 170
61 97 172
61 97 177
61 97 175
61 97 175
62 98 177
60 96 173
60 96 175
59 95 171
61 97 174
61 98 173
62 98 176
61 97 174
60 96 172
60 96 170
62 98 175
60 96 173
61 97 176
61 97 175
60 97 174
62 98 176
60 96 170
60 97 177
61 97 176
60 96 174
60 95 170
61 97 176
60 97 168
61 97 170
61 97 175
60 97 174
61 98 173
61 97 176
59 95 163
61 97 171
60 96 171
62 98 177
61 97 169
61 98 175
61 97 173
61 97 171
62 98 170
61 97 172
61 96 169
61 97 175
62 99 177
61 97 170
60 96 172
61 97 169
61 97 172
61 97 174
61 98 172
61 97 164
61 97 170
62 98 173
62 98 169
60 95 168
61 97 174
60 96 169
60 95 163
61 97 173
63 99 169
62 99 173
61 97 168
62 98 169
61 95 159
60 95 165
61 97 164
80 94 109
72 76 52
82 86 59
84 88 62
92 94 60
79 84 61
111 110 66
78 81 49
95 97 66
102 103 70
103 104 68
110 111 74
106 108 71
114 113 76
114 115 77
130 129 75
119 121 79
128 126 75
124 123 80
120 120 82
117 119 75
130 130 82
124 123 82
133 131 78
129 128 82
129 127 76
138 135 81
145 142 91
140 138 82
144 142 88
146 142 80
146 142 79
146 142 80
138 136 85
150 146 91
156 151 84
154 150 90
148 145 74
153 147 84
151 147 83
157 152 80
146 142 74
165 158 93
153 148 82
156 151 86
148 143 78
143 139 74
152 147 73
149 145 79
160 155 92
152 149 85
158 151 81
156 150 84
170 162 91
157 152 90
164 157 92
164 157 87
163 156 82
155 148 72
162 155 87
158 152 86
158 152 79
167 160 93
159 151 88
151 145 80
165 156 90
160 153 85
155 150 85
162 155 88
155 148 84
159 152 80
159 152 82
159 153 77
159 152 84
153 148 80
153 146 82
158 151 85
161 153 87
147 141 74
149 144 74
157 149 79
160 152 75
147 141 74
155 148 74
150 145 79
148 142 70
162 155 84
148 141 75
144 139 70
146 140 70
146 139 75
145 140 64
149 143 80
141 134 66
141 136 70
151 144 77
132 127 62
131 126 60
136 130 58
142 136 66
145 138 70
134 128 48
139 132 66
139 132 66
122 118 42
112 106 45
122 118 56
120 114 51
120 116 48
119 115 48
149 167 16
153 171 0
146 165 0
151 167 0
154 174 0
155 175 0
147 166 0
153 169 0
153 172 0
154 175 0
153 174 0
156 178 0
153 173 0
158 179 0
152 172 0
152 171 0
154 175 0
152 172 0
153 174 0
151 171 0
155 176 0
152 171 0
158 178 0
151 172 0
156 177 0
148 169 0
149 170 0
152 173 0
150 170 0
153 174 0
150 171 0
153 173 0
151 172 0
149 170 0
151 172 0
157 178 0
152 173 0
152 173 0
152 173 0
154 174 0
154 175 0
153 173 0
150 169 0
151 172 0
147 167 0
149 169 0
153 173 0
154 174 0
147 168 0
153 174 0
152 172 0
153 173 0
140 161 0
147 168 0
156 176 0
152 172 0
149 170 0
152 174 0
152 172 0
150 170 0
151 171 0
151 172 0
151 171 0
149 170 0
151 171 0
157 177 0
149 169 0
146 167 0
154 174 0
155 175 0
146 166 0
148 169 0
158 178 0
154 174 0
149 170 0
152 173 0
153 173 0
153 173 0
153 173 0
154 174 0
151 171 0
155 175 0
149 169 0
153 174 0
150 170 0
150 170 0
153 173 0
157 176 0
150 170 0
148 167 0
158 178 0
151 171 0
151 172 0
146 167 0
149 168 0
145 166 0
147 168 0
148 168 0
154 174 0
150 170 0
146 167 0
150 171 0
151 171 0
146 166 0
152 171 0
146 167 0
145 164 0
144 164 0
150 170 0
150 169 0
151 171 0
151 172 0
146 168 0
150 169 0
147 167 0
149 169 0
145 164 0
152 172 0
152 172 0
152 174 0
145 164 0
150 169 0
150 171 0
144 164 0
145 165 0
151 171 0
139 158 47
72 106 157
62 98 168
60 95 166
61 98 175
62 98 170
59 95 162
63 100 177
61 97 171
61 97 171
60 95 163
61 98 173
62 98 171
61 97 171
63 99 179
62 98 171
62 98 176
63 98 174
60 97 170
62 98 173
62 98 177
61 96 169
62 99 177
62 98 177
62 98 174
62 99 179
62 98 176
61 98 176
63 100 175
61 98 176
61 98 173
62 99 178
61 97 174
61 97 175
61 97 173
60 97 177
61 98 175
61 97 172
62 98 174
61 97 172
62 98 176
62 99 178
60 97 175
61 98 177
62 98 178
61 98 176
61 97 175
62 98 176
61 97 174
63 99 178
61 97 172
62 98 176
60 97 176
61 97 174
61 98 176
62 98 176
59 96 173
62 98 178
61 98 174
61 97 177
60 97 177
61 97 172
63 99 177
61 98 172
61 98 177
60 96 175
61 97 175
61 97 175
58 94 169
61 97 177
61 97 172
62 98 174
60 96 171
60 96 175
61 97 177
61 97 177
61 97 177
61 97 175
61 97 177
60 97 177
61 97 172
59 95 169
61 97 175
61 96 172
61 97 173
62 98 177
59 95 166
60 96 175
61 97 172
61 97 175
61 97 175
60 97 173
61 97 174
60 96 173
61 97 174
60 96 172
59 95 169
61 97 175
60 96 172
62 98 175
61 97 172
61 98 175
60 97 175
61 97 174
60 96 172
61 97 177
61 97 175
60 96 171
59 95 171
62 98 177
61 97 172
62 99 178
60 96 174
61 97 177
61 97 173
61 96 169
62 98 168
60 96 172
61 98 177
60 97 176
62 98 174
60 96 172
62 98 176
61 97 173
61 97 172
60 96 167
61 97 168
62 98 178
60 96 172
61 98 172
61 97 174
60 96 170
60 96 170
62 98 173
61 96 169
62 98 173
60 96 166
61 97 173
61 97 174
61 98 175
62 99 175
61 97 172
61 98 170
62 98 169
61 98 176
62 98 166
60 95 166
59 95 166
60 97 174
62 98 165
61 97 170
60 96 165
62 98 170
60 96 163
60 95 160
62 98 172
63 99 175
62 98 169
61 97 163
59 94 155
61 96 165
60 97 170
59 94 157
58 92 152
64 96 157
71 84 97
96 98 63
95 97 63
89 93 60
106 104 67
82 86 58
94 95 65
112 113 73
106 106 72
116 115 70
95 96 56
122 122 76
92 94 65
125 123 75
99 102 69
123 122 78
119 118 70
126 124 68
127 125 74
122 121 75
120 120 75
124 123 79
131 128 76
138 136 90
118 117 71
129 127 80
145 142 86
135 132 75
127 125 74
135 132 82
140 136 74
143 140 85
167 162 100
139 137 78
149 144 86
144 139 79
141 138 75
143 141 83
143 138 83
148 143 80
162 155 88
162 156 88
158 153 90
150 145 80
153 147 81
154 148 80
159 152 85
166 160 99
160 153 86
160 156 93
159 152 85
153 146 78
166 160 92
154 148 75
153 147 78
151 146 78
164 157 85
158 152 83
164 156 88
165 159 90
162 155 87
168 160 87
160 154 88
161 154 88
162 156 85
167 159 88
151 146 75
156 150 82
157 151 82
160 152 82
158 151 87
155 150 84
152 146 68
159 152 82
154 148 80
156 149 77
151 146 77
154 147 79
155 148 75
153 146 80
159 152 82
150 143 74
151 145 79
159 151 82
135 130 72
146 139 68
156 149 80
141 137 68
144 137 74
151 146 74
144 138 72
142 136 64
146 139 70
142 135 74
141 134 70
137 131 64
134 128 62
132 127 56
140 133 62
132 125 60
131 125 58
129 123 60
139 131 68
138 132 60
123 118 56
132 127 56
123 117 51
118 114 42
129 128 56
149 168 0
146 165 0
149 167 0
150 170 0
150 168 0
151 170 0
149 169 0
151 169 0
150 169 0
154 174 0
145 165 0
150 171 0
151 172 0
147 168 0
150 171 0
147 167 0
151 172 0
155 177 0
153 174 0
149 170 0
153 173 0
156 177 0
150 171 0
148 168 0
147 166 0
153 173 0
148 168 0
153 174 0
150 169 0
154 174 0
154 174 0
153 174 0
152 173 0
153 174 0
145 165 0
152 172 0
156 177 0
157 177 0
151 171 0
153 172 0
156 177 0
153 174 0
151 172 0
157 177 0
151 171 0
159 179 0
155 175 0
149 169 0
154 174 0
152 173 0
152 172 0
152 172 0
147 166 0
154 174 0
152 173 0
148 168 0
156 175 0
142 163 0
152 172 0
147 167 0
148 168 0
152 172 0
152 173 0
154 174 0
146 166 0
155 176 0
151 172 0
151 171 0
153 174 0
147 166 0
146 166 0
152 174 0
150 171 0
152 172 0
147 168 0
152 173 0
148 167 0
152 173 0
154 174 0
152 172 0
147 167 0
148 169 0
148 169 0
148 168 0
150 169 0
153 173 0
147 168 0
151 171 0
154 175 0
154 175 0
148 169 0
148 168 0
144 163 0
145 165 0
147 168 0
153 174 0
151 172 0
152 172 0
154 175 0
151 173 0
149 170 0
140 160 0
145 166 0
145 165 0
148 168 0
152 170 0
147 167 0
147 167 0
148 169 0
143 164 0
149 168 0
154 173 0
153 172 0
146 167 0
149 169 0
150 168 0
149 169 0
156 175 0
144 165 0
151 171 0
156 176 0
147 167 0
148 169 0
147 167 0
150 171 0
146 168 0
112 136 115
60 96 162
61 96 161
62 98 168
59 93 155
63 99 171
62 98 168
61 97 173
61 98 172
61 98 172
61 97 169
61 96 162
60 96 159
62 99 180
62 99 175
61 98 171
63 100 179
62 98 170
61 97 170
61 98 173
62 98 176
62 99 177
60 96 169
61 97 172
62 98 175
62 98 173
61 98 178
62 98 173
62 98 174
60 96 175
61 96 169
62 98 177
60 97 175
61 98 176
61 98 176
61 97 176
59 95 168
61 98 176
61 97 174
61 98 176
61 97 176
61 97 176
61 97 176
61 97 177
61 97 175
61 97 176
61 97 177
61 98 176
61 97 177
61 98 178
61 97 176
60 97 175
61 97 177
62 98 176
61 97 176
61 97 177
60 96 172
61 97 177
62 98 177
60 96 172
61 98 176
60 96 175
60 97 177
60 97 172
61 97 174
60 97 174
61 97 175
61 97 174
61 97 177
60 96 168
61 97 175
60 97 177
61 97 171
60 96 175
60 96 171
60 97 175
61 97 171
60 96 173
61 97 173
61 96 171
60 96 171
62 98 177
61 97 175
59 96 175
60 96 173
60 97 177
60 97 173
62 98 175
62 98 177
61 97 172
61 97 173
60 97 173
61 97 175
60 95 168
62 98 175
61 98 177
62 98 175
60 96 177
61 97 175
61 97 174
61 97 175
62 99 172
61 97 175
61 98 176
60 96 173
60 96 172
60 96 172
61 98 177
60 97 175
61 97 175
61 97 174
61 98 177
61 98 177
61 98 176
61 97 177
61 97 172
61 97 174
60 97 175
62 98 171
61 97 174
62 98 177
61 97 172
61 97 176
60 96 170
62 99 176
60 96 168
61 98 175
62 98 178
62 98 172
61 97 170
62 98 178
61 98 173
62 98 171
61 97 171
59 95 165
60 97 174
63 99 172
61 96 165
62 97 171
59 95 169
61 97 175
62 99 175
60 96 170
62 98 176
62 98 172
61 98 180
63 99 177
61 98 176
60 95 161
59 95 168
62 98 170
62 98 167
62 98 174
62 98 172
61 97 175
60 96 170
60 96 166
61 97 167
59 94 161
62 99 174
62 97 168
60 94 159
62 97 165
61 96 165
59 92 157
75 93 126
67 73 52
73 77 47
68 74 50
72 78 56
96 98 65
93 96 68
110 110 66
76 80 53
94 96 61
88 93 66
121 120 72
115 115 74
110 110 68
112 112 66
119 118 76
115 116 73
123 120 67
126 124 73
130 129 82
131 128 80
121 121 78
134 132 79
126 125 73
121 120 79
136 133 84
139 138 87
132 130 79
139 137 82
145 141 82
137 135 75
146 140 71
145 141 79
155 149 90
135 132 83
153 149 84
150 146 80
146 141 76
144 140 77
150 145 84
146 141 82
162 156 85
151 146 84
148 144 75
158 152 87
151 147 81
163 157 95
161 155 88
153 147 77
161 154 84
148 142 76
167 159 92
164 155 89
153 147 75
167 159 91
164 157 88
164 156 87
165 159 91
154 148 84
151 145 77
156 150 85
161 155 87
158 151 86
159 153 84
157 151 80
153 148 74
164 156 88
154 148 82
165 159 93
158 151 80
150 144 80
162 155 85
153 148 70
151 145 77
159 152 88
156 149 77
158 150 77
157 149 75
157 151 79
156 149 77
154 147 75
154 147 77
151 144 80
151 145 79
146 142 74
148 142 75
145 139 72
150 143 74
139 134 62
149 142 75
148 141 74
136 132 64
141 134 68
150 144 62
149 141 74
136 130 66
140 133 66
139 133 66
148 141 72
134 128 62
143 137 62
140 133 66
142 135 66
117 112 45
125 119 60
132 125 58
127 121 62
116 110 42
126 135 28
153 171 0
151 170 0
149 167 0
153 170 0
150 169 0
146 165 0
152 170 0
154 174 0
153 172 0
154 175 0
154 175 0
156 176 0
156 176 0
152 173 0
153 175 0
153 173 0
151 171 0
151 171 0
149 170 0
154 174 0
159 180 0
155 175 0
153 174 0
157 177 0
146 166 0
149 170 0
154 175 0
152 172 0
153 173 0
158 178 0
153 174 0
158 178 0
154 174 0
150 171 0
152 171 0
150 171 0
149 170 0
157 177 0
149 170 0
153 172 0
156 176 0
151 172 0
151 172 0
147 167 0
148 168 0
150 170 0
151 171 0
152 173 0
157 177 0
152 173 0
150 171 0
152 173 0
152 172 0
150 171 0
156 177 0
154 175 0
155 175 0
150 170 0
151 171 0
157 177 0
152 172 0
154 175 0
153 172 0
153 173 0
147 168 0
150 170 0
145 165 0
149 169 0
152 171 0
152 171 0
155 175 0
156 177 0
151 170 0
149 169 0
150 170 0
151 170 0
151 172 0
148 168 0
158 178 0
150 171 0
148 169 0
149 169 0
152 172 0
147 168 0
150 170 0
153 173 0
153 173 0
152 172 0
152 173 0
154 173 0
151 171 0
147 168 0
151 171 0
154 173 0
145 165 0
149 170 0
146 166 0
149 169 0
153 173 0
145 165 0
153 173 0
148 168 0
145 164 0
152 171 0
149 169 0
152 172 0
147 168 0
151 172 0
147 167 0
153 175 0
149 170 0
155 175 0
145 165 0
153 173 0
139 158 0
148 169 0
144 165 0
144 164 0
152 172 0
152 172 0
149 168 0
142 162 0
150 170 0
151 169 0
151 171 0
146 167 25
65 98 154
62 97 170
58 93 149
62 98 170
60 96 166
60 96 171
59 94 156
63 99 174
62 98 170
61 97 168
62 97 168
61 97 174
61 96 170
63 99 176
63 99 176
61 97 173
60 96 170
61 97 170
61 96 166
61 97 169
61 96 166
61 98 177
62 98 174
60 96 173
61 97 175
60 97 178
61 97 173
61 97 173
61 97 169
61 98 175
60 95 170
61 98 175
61 97 174
62 98 176
60 96 175
60 96 167
62 98 176
61 98 176
60 97 176
61 98 175
60 95 168
60 96 170
60 97 172
61 98 176
61 97 176
60 96 174
61 97 172
61 97 175
60 97 176
62 98 175
60 96 170
61 97 176
61 97 177
61 97 177
62 98 177
61 97 174
61 97 177
62 98 175
60 96 173
60 96 173
60 97 173
60 97 177
61 97 177
60 97 177
62 98 175
61 98 173
60 96 173
61 97 175
61 97 173
61 97 177
60 96 173
61 98 173
61 97 175
62 98 175
61 97 175
61 97 175
61 97 175
62 98 177
61 97 177
61 97 173
61 97 173
60 96 175
60 96 173
60 97 173
61 97 175
61 97 173
61 97 173
60 96 173
61 97 175
59 96 173
61 97 175
60 97 175
61 97 175
60 96 173
62 98 175
61 97 177
60 96 173
61 97 174
61 97 177
60 96 170
60 96 173
61 97 177
60 97 173
61 98 177
61 97 175
61 97 174
61 97 173
61 97 172
60 96 172
60 96 173
61 97 173
61 97 174
60 96 174
61 97 174
61 97 172
60 97 177
60 96 173
60 96 170
61 97 168
60 96 167
62 98 174
62 98 176
61 97 172
60 96 165
60 96 168
61 97 171
61 97 171
61 97 174
61 97 174
61 98 177
62 98 176
61 97 167
62 98 172
61 97 172
61 97 171
61 97 177
59 96 169
62 99 177
62 98 177
60 96 167
61 97 174
60 96 169
62 98 175
61 97 170
61 97 174
61 97 173
60 96 168
60 95 163
61 96 164
62 98 174
61 97 169
63 99 178
62 98 173
60 96 170
60 96 168
60 96 170
61 97 172
61 96 167
62 98 170
62 98 172
62 97 169
60 95 167
60 95 160
57 91 147
59 93 155
60 95 162
73 78 61
95 96 66
84 87 57
90 91 57
96 97 66
89 91 58
98 99 63
107 107 65
107 108 68
96 97 61
86 91 64
116 117 71
89 91 57
105 107 67
110 109 64
128 126 77
108 108 68
116 117 74
121 120 79
128 126 72
122 121 69
119 118 68
128 125 74
134 130 72
128 128 75
127 126 79
133 130 68
135 132 79
126 124 73
141 137 83
139 135 78
156 150 92
141 137 77
152 147 84
153 148 88
136 133 76
141 136 77
152 148 89
159 153 84
153 149 88
157 152 77
160 154 85
158 152 90
155 149 87
162 155 88
149 144 75
151 147 79
153 148 84
167 160 91
156 150 86
150 145 81
159 151 84
158 154 82
154 148 76
164 158 90
155 149 71
155 149 87
166 158 94
157 152 83
157 151 82
155 148 79
152 147 80
169 161 88
154 148 75
163 156 85
155 149 72
158 152 84
158 151 74
145 138 72
160 153 85
160 154 84
160 152 84
150 144 75
158 152 82
159 151 84
155 150 77
152 145 75
159 152 87
152 145 72
149 142 70
147 141 75
148 141 72
154 147 75
156 149 77
142 137 68
141 135 68
150 143 74
155 147 77
151 144 77
151 144 74
149 142 70
139 134 62
139 135 68
139 132 64
133 127 64
137 131 66
137 131 66
128 122 62
128 123 53
139 132 60
111 108 48
127 121 56
125 120 53
130 123 66
121 115 51
113 109 42
108 104 42
144 162 0
146 164 0
148 164 0
144 162 0
150 170 0
147 167 0
150 169 0
155 175 0
149 167 0
150 168 0
156 176 0
158 179 0
151 172 0
157 177 0
150 172 0
154 175 0
147 168 0
149 170 0
158 180 0
148 168 0
149 170 0
157 177 0
153 175 0
156 178 0
148 169 0
150 170 0
154 174 0
153 173 0
146 167 0
156 177 0
155 175 0
151 171 0
153 174 0
158 179 0
150 171 0
146 165 0
155 176 0
151 172 0
151 171 0
147 169 0
152 173 0
157 177 0
149 169 0
154 175 0
156 178 0
154 173 0
154 175 0
147 166 0
151 173 0
150 170 0
151 172 0
148 169 0
149 170 0
151 171 0
154 174 0
151 171 0
150 172 0
153 174 0
146 167 0
147 168 0
154 175 0
154 175 0
146 167 0
152 173 0
150 170 0
152 172 0
152 171 0
152 172 0
156 177 0
154 174 0
144 165 0
145 166 0
151 172 0
151 173 0
146 166 0
149 170 0
150 170 0
148 169 0
148 168 0
149 169 0
149 169 0
149 169 0
147 169 0
152 173 0
145 166 0
148 168 0
146 165 0
155 175 0
153 173 0
154 175 0
151 172 0
150 170 0
146 166 0
155 173 0
154 174 0
149 169 0
145 166 0
152 173 0
146 166 0
149 169 0
155 175 0
150 171 0
148 167 0
150 170 0
150 170 0
153 174 0
147 166 0
147 168 0
151 169 0
148 168 0
155 176 0
153 174 0
151 171 0
147 166 0
148 168 0
146 167 0
147 168 0
145 165 0
145 166 0
148 169 0
152 172 0
142 164 0
148 169 0
147 167 0
147 167 0
149 169 0
111 136 118
61 97 165
62 98 171
62 98 172
60 96 162
61 97 168
61 96 165
62 99 166
61 98 173
62 98 173
62 98 173
62 99 171
62 98 174
63 99 172
62 98 174
61 96 163
61 98 172
61 97 170
60 96 169
61 98 176
60 96 162
61 97 176
62 99 179
62 98 169
62 98 174
62 98 169
62 99 178
60 96 171
62 98 175
62 98 175
62 98 179
61 97 172
61 97 172
61 98 175
62 98 179
61 97 176
60 96 174
62 98 177
60 97 175
61 97 173
62 98 177
61 97 174
62 99 169
62 98 177
61 98 178
60 97 174
60 96 175
62 99 178
62 98 175
60 97 176
60 96 173
62 98 178
61 97 176
59 95 170
61 97 174
60 97 176
61 97 177
61 97 177
60 96 173
60 96 173
60 97 175
62 98 176
61 97 172
61 97 168
62 98 175
60 96 173
60 96 173
61 97 177
61 97 177
61 98 177
60 95 169
60 96 172
62 99 177
61 97 173
61 97 172
60 96 173
61 98 177
60 96 170
61 97 177
61 97 177
59 95 167
61 97 177
61 97 175
61 97 175
62 98 172
61 97 173
61 97 177
62 98 171
61 97 174
60 96 173
61 97 177
61 97 177
60 96 175
62 97 173
60 97 176
62 98 177
61 97 173
61 97 175
61 97 177
60 97 177
61 97 173
60 96 170
61 97 174
60 97 175
61 97 174
61 97 174
61 97 174
60 96 173
61 97 177
60 95 163
60 96 170
61 97 175
60 97 174
60 97 173
60 96 171
60 96 170
60 97 172
60 96 173
60 96 173
62 98 173
61 97 170
61 98 176
60 96 170
61 97 172
61 97 170
60 95 165
60 96 169
62 98 178
61 97 172
61 98 176
61 97 172
60 96 170
61 97 174
61 98 176
61 97 171
60 96 169
62 98 174
61 97 174
62 98 174
60 96 168
61 96 168
61 98 171
62 99 177
61 97 170
62 98 171
60 96 166
61 97 171
61 96 166
61 97 171
64 101 172
60 95 163
61 98 169
60 96 168
61 96 166
61 96 164
62 99 176
62 99 175
60 96 169
61 97 169
61 96 162
63 100 175
61 97 170
61 96 165
60 95 163
62 98 167
60 94 158
61 96 160
61 84 118
73 77 53
81 83 56
96 96 61
89 92 61
91 91 55
94 96 62
108 109 72
87 90 58
105 105 64
90 93 62
86 89 60
100 101 66
113 114 78
128 126 77
109 109 72
111 112 64
121 119 66
110 110 69
128 127 77
133 131 82
131 130 83
138 136 80
145 140 82
143 139 77
134 131 80
141 138 82
150 146 88
135 132 70
141 137 81
139 135 80
160 155 87
137 134 77
144 141 91
154 149 90
142 139 82
153 148 84
145 141 70
156 149 90
144 140 75
149 145 81
151 146 82
148 144 75
149 146 86
150 144 73
146 142 77
155 149 84
151 145 79
164 157 90
150 146 80
157 151 80
158 152 82
157 152 85
158 152 80
159 152 84
157 151 82
158 152 82
156 149 78
166 159 87
158 152 72
165 157 84
153 147 73
158 150 81
154 147 80
154 148 72
160 153 82
160 153 82
155 149 75
159 153 80
160 153 80
154 147 75
154 149 77
158 151 79
147 141 75
147 140 75
148 143 68
151 144 74
154 148 74
143 139 64
150 144 66
150 143 79
146 139 70
153 145 77
155 149 80
146 140 66
145 139 66
155 149 80
150 143 79
149 141 70
130 124 66
145 139 72
134 128 62
121 117 53
139 135 56
139 133 62
127 123 48
136 131 62
134 129 56
132 127 56
123 119 51
130 125 64
133 126 66
125 119 62
116 111 45
116 110 53
138 132 64
119 120 48
150 167 0
144 163 0
157 176 0
150 168 0
151 169 0
145 165 0
153 171 0
155 174 0
150 168 0
152 170 0
151 171 0
149 169 0
149 170 0
146 166 0
156 177 0
157 178 0
159 178 0
152 171 0
146 167 0
149 171 0
157 177 0
154 175 0
155 175 0
152 173 0
154 174 0
156 177 0
153 174 0
152 174 0
152 171 0
151 172 0
153 174 0
150 171 0
149 170 0
154 175 0
151 173 0
153 173 0
150 170 0
154 175 0
156 176 0
152 173 0
148 168 0
151 172 0
145 165 0
152 172 0
157 179 0
153 174 0
158 178 0
149 169 0
159 179 0
155 176 0
150 170 0
153 173 0
153 172 0
148 169 0
152 174 0
152 172 0
153 174 0
149 170 0
155 175 0
151 173 0
157 177 0
150 171 0
151 171 0
147 168 0
145 165 0
159 179 0
149 170 0
153 173 0
149 168 0
153 173 0
153 174 0
147 168 0
146 166 0
150 171 0
151 171 0
154 174 0
156 176 0
150 172 0
155 176 0
151 171 0
152 171 0
146 167 0
152 173 0
151 171 0
145 165 0
150 170 0
150 170 0
147 167 0
158 179 0
151 172 0
149 169 0
150 170 0
148 169 0
147 166 0
150 170 0
150 169 0
147 166 0
149 170 0
145 165 0
148 169 0
146 166 0
147 168 0
149 169 0
149 170 0
146 167 0
151 170 0
152 171 0
150 171 0
153 172 0
145 165 0
140 159 0
148 168 0
155 175 0
151 171 0
140 161 0
149 170 0
151 171 0
149 169 0
147 166 0
154 174 0
148 169 0
148 169 0
149 169 0
150 170 0
150 171 0
146 166 51
69 105 170
61 97 166
60 96 165
61 96 160
60 96 161
59 95 163
62 98 173
60 96 164
61 97 164
61 98 169
60 96 163
61 97 168
61 97 174
61 98 175
62 98 171
62 99 177
61 97 171
61 97 170
60 96 164
61 98 174
61 97 174
62 98 176
60 96 168
61 97 174
60 96 168
61 97 171
60 96 173
61 97 170
61 97 175
60 96 175
60 96 169
62 98 173
62 98 177
60 97 174
61 98 177
61 98 175
61 98 176
60 96 177
62 98 169
62 98 178
60 97 178
60 96 172
62 98 176
61 97 177
59 94 166
62 98 173
61 97 172
61 97 172
59 96 173
61 98 176
60 97 175
61 97 172
61 97 170
62 98 177
61 98 177
61 98 176
61 97 174
61 97 175
60 97 173
60 96 173
60 97 177
61 97 177
60 97 177
60 96 173
60 97 176
59 95 169
61 97 173
62 98 174
61 97 177
61 97 170
61 97 177
61 97 175
61 97 175
61 97 174
60 96 168
60 96 173
61 97 177
61 97 171
60 97 175
60 96 175
61 97 173
61 98 175
61 97 171
60 96 169
60 95 167
59 96 171
61 97 175
61 97 173
60 96 173
61 97 175
61 97 171
59 95 171
60 96 175
60 96 171
61 97 175
61 97 175
61 97 173
60 96 168
60 96 173
59 95 173
60 96 175
61 97 173
60 96 171
59 95 169
61 97 173
61 97 175
60 96 175
61 97 174
60 96 173
60 96 171
60 96 173
62 98 177
62 98 178
60 97 174
61 98 177
62 98 173
61 97 174
61 97 170
60 96 165
61 97 176
61 97 176
60 96 171
62 99 178
61 97 174
62 98 169
61 97 172
61 97 170
60 96 170
63 99 173
60 96 172
59 95 168
61 97 173
62 98 173
62 99 178
60 96 171
61 97 175
61 97 175
62 98 174
62 98 172
60 96 172
60 96 169
61 97 171
61 96 162
60 96 171
62 98 171
62 98 174
61 98 177
61 98 174
61 97 171
62 97 170
61 97 171
61 97 171
62 98 170
63 99 172
59 93 158
61 97 168
61 97 173
61 96 160
62 98 169
62 97 167
60 96 163
60 96 166
60 96 167
60 94 162
58 91 150
63 98 164
60 94 165
59 93 154
81 86 67
77 79 50
61 70 53
82 86 59
88 91 61
97 99 67
95 98 67
101 102 67
105 105 68
98 99 64
114 113 66
96 99 63
110 109 60
118 118 74
114 115 69
125 124 71
110 110 67
123 123 76
109 110 71
133 130 76
104 106 67
133 130 75
137 135 81
132 131 77
126 126 74
140 138 81
141 137 80
141 137 80
142 139 79
144 139 75
134 132 76
152 146 75
142 138 84
140 138 77
145 141 81
151 147 86
152 147 85
152 147 80
137 134 74
146 143 80
156 150 86
145 140 75
150 144 74
158 151 81
150 144 78
164 158 88
153 147 82
143 139 71
162 155 85
151 145 75
153 147 75
159 152 84
166 159 91
166 157 85
156 150 71
169 160 88
158 154 83
155 149 79
156 151 75
155 149 75
162 155 87
156 150 75
157 150 77
158 151 77
160 153 84
161 153 85
158 151 75
158 152 82
158 151 82
153 146 77
153 146 75
162 153 84
154 148 80
151 145 66
157 150 75
149 144 75
155 148 77
161 154 82
149 143 74
157 149 80
144 138 62
143 139 72
146 141 68
150 143 75
145 138 70
141 135 64
129 124 62
155 148 77
130 124 56
123 119 53
159 150 77
141 134 68
143 136 64
136 129 66
125 121 51
122 116 66
126 121 51
131 126 58
144 137 70
124 119 58
140 133 60
104 100 45
113 109 48
122 117 60
116 110 51
133 141 28
148 167 0
151 169 0
151 170 0
155 173 0
147 164 0
150 168 0
155 173 0
151 169 0
150 169 0
150 169 0
156 176 0
150 171 0
150 171 0
153 174 0
150 172 0
154 175 0
154 175 0
151 172 0
154 174 0
153 174 0
150 171 0
153 174 0
159 178 0
146 167 0
153 174 0
152 173 0
155 175 0
148 169 0
149 168 0
147 169 0
160 181 0
150 170 0
156 176 0
154 174 0
147 167 0
152 172 0
153 174 0
157 176 0
153 173 0
150 171 0
152 174 0
151 171 0
143 164 0
150 170 0
150 170 0
154 175 0
151 172 0
151 171 0
150 170 0
150 171 0
153 173 0
151 171 0
149 168 0
152 172 0
147 167 0
153 173 0
149 169 0
152 171 0
154 175 0
154 175 0
150 170 0
152 172 0
153 174 0
148 168 0
155 175 0
152 172 0
158 178 0
152 172 0
155 176 0
152 172 0
153 173 0
153 174 0
151 171 0
153 173 0
150 171 0
145 165 0
147 167 0
152 172 0
149 168 0
148 169 0
149 169 0
152 172 0
156 176 0
149 170 0
150 171 0
149 169 0
149 168 0
148 168 0
148 169 0
151 171 0
148 169 0
149 170 0
145 166 0
148 169 0
150 170 0
147 167 0
149 169 0
150 170 0
147 167 0
147 166 0
152 173 0
153 173 0
152 172 0
149 168 0
144 164 0
152 171 0
151 170 0
148 168 0
151 171 0
144 166 0
155 176 0
150 169 0
149 168 0
148 167 0
147 167 0
151 171 0
146 166 0
147 168 0
145 166 0
146 166 0
150 169 0
155 175 0
145 165 0
146 166 0
154 174 0
112 136 117
63 99 173
61 97 164
61 97 166
61 96 163
61 97 165
61 98 168
62 98 169
61 96 168
61 97 169
62 98 169
61 98 173
62 98 175
61 97 171
61 98 173
62 98 173
60 96 168
61 97 170
61 96 168
62 99 173
62 98 173
61 98 175
60 96 169
61 98 172
61 97 174
59 94 162
62 98 171
62 98 175
60 97 176
61 97 176
61 98 175
60 97 174
62 98 174
61 97 174
61 97 174
62 98 175
61 97 175
62 98 176
62 98 173
61 97 169
61 98 177
61 98 178
61 97 174
62 98 178
61 97 172
60 96 170
61 98 176
61 96 170
62 98 176
61 97 172
62 98 176
60 97 173
60 96 167
60 96 173
62 98 175
60 96 173
61 97 174
61 98 173
61 97 174
61 97 175
61 97 177
60 96 173
61 98 177
61 97 173
61 97 177
62 98 177
62 98 174
61 97 175
60 96 175
60 97 173
60 96 171
61 97 177
60 97 177
61 97 177
59 95 169
61 97 176
60 96 173
60 96 171
61 97 173
61 97 175
60 96 171
61 96 169
60 96 175
61 97 173
61 97 173
60 96 169
62 98 175
61 97 175
61 98 171
60 96 174
60 96 171
61 97 175
60 96 175
60 97 177
60 96 175
61 96 171
62 98 175
61 97 177
61 97 173
62 98 175
62 98 176
61 97 169
61 97 175
60 96 168
62 98 176
60 96 166
61 97 174
61 97 175
65 103 166
60 96 172
60 96 172
59 96 173
61 97 174
59 95 168
59 95 168
61 98 177
60 96 173
61 97 174
59 95 168
61 97 172
60 96 168
60 96 175
61 97 174
60 96 170
60 96 172
61 96 168
60 96 170
62 98 176
62 98 176
62 98 175
60 96 170
62 98 174
60 96 171
60 96 170
61 97 174
61 97 171
61 98 175
60 96 169
61 96 169
62 99 174
59 95 165
62 98 164
60 95 167
61 97 169
61 97 172
61 96 168
62 98 175
61 97 169
59 95 168
60 95 167
60 96 165
62 99 171
61 97 175
61 96 168
62 98 168
61 97 170
60 96 165
60 96 163
60 96 168
60 96 165
61 96 162
62 98 174
61 97 169
60 95 160
61 97 168
59 93 158
59 93 157
62 97 166
59 94 162
76 90 108
67 70 50
70 76 52
89 90 54
103 103 66
95 94 63
83 87 56
96 98 65
97 98 55
114 114 72
107 107 65
107 107 58
112 110 68
123 122 72
119 119 77
125 122 67
122 120 69
114 113 70
132 129 81
131 127 64
114 115 69
113 113 66
136 133 81
138 134 78
134 132 76
128 126 66
134 133 76
131 129 74
145 141 81
140 136 71
132 129 66
142 139 76
147 142 73
152 147 79
153 147 84
149 144 80
132 130 73
150 145 85
156 149 87
156 150 87
151 146 78
145 141 73
152 146 81
161 155 85
158 153 90
153 148 76
148 142 76
160 153 80
165 158 84
157 151 85
174 166 90
146 142 76
151 145 78
160 153 84
151 145 72
160 152 82
154 148 75
156 151 77
161 154 65
164 157 82
163 156 85
154 148 74
161 154 80
151 145 74
159 152 80
158 151 82
159 151 80
157 150 72
141 137 66
161 154 74
163 156 84
157 150 80
153 147 74
151 145 70
156 148 77
139 134 60
148 141 72
157 150 75
156 149 70
146 139 74
152 146 75
131 127 56
141 136 68
153 146 74
137 132 58
130 123 53
140 135 64
137 132 62
144 138 66
144 138 72
138 132 58
136 132 62
126 122 42
140 134 64
130 125 56
136 130 66
132 127 58
126 121 51
137 131 64
136 130 60
126 121 51
121 116 56
105 101 36
123 117 53
104 99 48
148 164 16
144 162 0
153 170 0
151 170 0
151 170 0
155 174 0
151 170 0
149 165 0
153 172 0
151 166 0
149 167 0
151 171 0
158 179 0
155 177 0
151 172 0
155 175 0
147 168 0
152 174 0
154 175 0
158 178 0
150 171 0
154 174 0
153 174 0
151 171 0
153 174 0
145 165 0
150 171 0
154 174 0
147 166 0
153 174 0
154 174 0
153 173 0
150 171 0
151 173 0
150 171 0
155 175 0
150 170 0
149 170 0
151 172 0
151 171 0
150 170 0
154 174 0
149 169 0
147 168 0
149 170 0
156 176 0
150 171 0
157 177 0
148 169 0
155 175 0
154 175 0
151 172 0
154 173 0
151 172 0
151 172 0
144 165 0
148 167 0
156 176 0
149 169 0
149 170 0
148 168 0
155 175 0
152 172 0
145 166 0
145 165 0
153 173 0
153 172 0
146 166 0
154 173 0
150 170 0
158 178 0
156 176 0
143 163 0
153 173 0
150 169 0
153 172 0
150 170 0
157 177 0
157 178 0
148 167 0
150 171 0
146 166 0
151 171 0
150 170 0
154 173 0
149 170 0
147 167 0
146 166 0
152 172 0
153 174 0
148 169 0
146 166 0
151 171 0
153 174 0
147 168 0
152 171 0
144 165 0
148 169 0
157 178 0
145 165 0
149 171 0
149 170 0
156 177 0
152 172 0
149 169 0
151 172 0
151 171 0
149 169 0
143 164 0
148 168 0
149 169 0
147 166 0
147 168 0
146 165 0
157 176 0
152 171 0
146 166 0
144 165 0
144 165 0
148 168 0
151 173 0
145 166 0
146 165 0
150 170 0
143 163 0
142 163 0
64 100 167
63 99 172
62 98 164
62 98 172
61 96 160
62 99 173
61 98 175
60 96 159
62 98 173
63 99 176
62 98 170
62 99 177
62 98 175
61 97 172
62 98 174
62 99 170
62 98 168
63 99 177
62 98 176
62 98 167
62 98 177
61 97 168
61 97 173
61 98 174
61 96 171
60 96 167
61 98 176
60 97 173
61 97 176
60 96 171
61 97 168
63 99 173
60 96 169
62 98 176
60 95 165
61 98 175
61 98 174
59 95 170
61 98 176
61 97 169
61 97 172
60 97 172
61 97 172
61 97 174
59 96 175
61 97 176
61 98 176
60 97 176
61 97 170
61 97 175
60 96 170
60 96 173
62 98 176
61 97 173
62 98 174
60 96 170
61 97 172
60 95 168
61 97 175
61 97 173
60 96 173
60 96 173
61 98 175
61 97 175
62 99 175
60 96 175
60 96 173
60 96 173
60 96 173
61 97 172
61 97 174
61 97 177
61 97 171
61 97 171
60 96 175
61 97 175
61 97 176
62 98 177
60 97 175
61 96 173
61 97 171
61 97 175
61 97 175
60 96 173
61 97 177
61 97 171
60 96 173
62 98 175
61 97 175
60 96 171
61 97 173
60 95 171
61 97 173
61 97 173
61 97 174
59 95 171
60 96 175
61 97 173
60 97 177
60 96 171
62 98 174
61 97 172
59 96 174
59 95 168
59 95 162
60 96 169
61 98 177
61 97 171
61 97 175
60 96 171
61 98 173
60 96 170
61 97 172
61 97 175
62 98 170
61 97 175
61 97 172
60 96 168
61 98 174
61 97 166
61 98 177
61 97 174
61 97 172
61 96 172
61 97 170
61 97 172
61 97 172
63 99 173
62 99 171
61 97 172
62 98 171
63 100 176
62 98 176
60 96 172
60 96 167
60 96 165
60 96 171
62 98 173
62 98 174
61 97 175
62 98 173
61 97 167
61 98 175
60 96 168
61 97 169
61 98 176
61 97 170
62 98 171
63 100 173
60 97 173
60 95 165
60 95 164
61 98 175
61 97 169
60 96 163
60 96 170
61 97 169
61 98 174
61 98 172
62 98 176
63 99 172
62 96 162
62 99 170
61 96 168
60 96 167
62 98 171
61 96 166
61 95 155
62 97 167
55 86 135
78 84 69
77 81 52
64 66 37
101 101 65
101 103 66
100 101 63
105 106 65
92 94 61
104 104 60
112 112 69
101 103 69
108 108 62
101 104 56
116 115 67
117 116 67
120 119 72
132 129 71
118 117 60
125 123 69
132 129 76
131 128 72
131 128 73
126 125 75
126 124 73
138 135 79
139 135 82
147 142 78
141 138 82
148 143 79
139 135 81
141 136 74
135 133 78
149 144 81
152 146 80
134 131 68
143 140 77
138 135 69
142 139 80
132 128 71
146 142 76
138 134 67
158 152 82
155 150 84
154 148 83
148 144 79
158 152 83
153 147 84
156 149 82
157 151 75
151 145 80
154 148 76
150 145 72
163 154 84
153 148 69
159 151 82
153 148 78
168 159 87
154 148 78
155 149 80
165 157 87
155 147 74
153 148 75
158 152 79
150 144 75
143 138 64
150 145 74
151 145 72
154 148 80
148 142 64
158 150 79
145 137 68
148 141 72
161 153 84
159 152 82
159 153 77
146 139 72
150 143 74
153 146 72
145 139 75
140 134 68
139 133 64
145 139 66
142 135 72
152 145 68
135 129 58
152 145 68
154 146 68
146 139 70
132 126 62
154 146 77
136 130 64
142 135 66
128 123 60
137 131 68
141 134 58
129 124 58
128 123 62
129 124 58
129 124 53
120 115 45
130 124 53
122 118 53
117 111 48
127 129 39
149 165 0
150 166 0
147 163 0
149 167 0
146 164 0
149 169 0
148 167 0
154 172 0
152 169 0
150 168 0
145 164 0
159 180 0
150 171 0
150 169 0
155 177 0
154 175 0
149 170 0
156 175 0
155 176 0
149 170 0
147 167 0
150 170 0
143 163 0
155 175 0
151 171 0
146 166 0
150 171 0
148 168 0
156 177 0
153 173 0
144 164 0
148 169 0
151 172 0
151 171 0
157 178 0
153 174 0
152 171 0
146 168 0
153 174 0
145 164 0
153 173 0
152 172 0
149 169 0
150 171 0
148 168 0
153 173 0
153 173 0
151 171 0
155 177 0
153 172 0
151 171 0
149 169 0
150 170 0
148 167 0
150 171 0
144 164 0
146 167 0
154 175 0
151 171 0
154 176 0
151 170 0
150 170 0
155 175 0
149 168 0
154 175 0
147 167 0
147 167 0
148 168 0
155 174 0
149 169 0
157 177 0
152 173 0
151 171 0
154 174 0
151 171 0
147 168 0
151 172 0
146 166 0
149 170 0
151 171 0
153 174 0
150 170 0
146 167 0
153 174 0
149 169 0
154 174 0
148 169 0
148 169 0
154 175 0
156 177 0
146 167 0
150 170 0
150 169 0
148 168 0
156 174 0
147 168 0
144 165 0
146 167 0
148 169 0
154 174 0
147 166 0
156 175 0
147 166 0
144 164 0
148 168 0
148 167 0
154 174 0
148 168 0
150 172 0
150 170 0
148 168 0
150 171 0
149 169 0
150 170 0
151 172 0
142 162 0
148 168 0
150 170 0
144 164 0
150 170 0
147 167 0
143 164 0
143 163 0
148 168 0
144 164 0
124 147 94
61 97 165
62 98 160
61 96 163
61 97 165
62 98 170
60 95 163
60 97 173
62 98 174
62 98 167
62 98 170
60 97 172
61 98 176
62 98 175
62 98 159
61 97 171
61 97 170
60 96 164
62 99 172
60 97 172
63 99 170
62 99 169
61 98 174
60 96 168
61 97 174
61 97 173
62 98 173
61 98 174
61 97 175
61 98 177
61 97 176
62 99 176
61 97 173
61 98 175
61 97 175
60 96 169
61 97 175
61 97 175
62 98 176
62 98 176
62 99 179
62 98 176
61 97 170
63 99 178
62 99 178
62 98 174
62 98 175
62 98 176
61 97 174
61 97 172
61 97 174
62 97 171
61 97 175
61 98 177
61 97 174
60 97 173
61 97 176
63 101 170
61 97 175
62 98 174
60 96 174
62 98 174
60 96 173
61 97 175
60 96 173
60 96 173
61 97 171
62 98 177
61 97 175
61 97 175
61 97 173
61 97 172
62 98 175
60 96 171
60 96 171
61 97 175
60 96 175
60 96 171
60 97 173
61 97 173
61 97 173
60 96 169
60 96 169
61 97 175
60 96 173
61 97 175
61 97 173
60 96 169
60 96 173
60 95 169
62 97 173
63 99 175
60 96 168
60 97 175
61 96 170
60 96 175
60 97 173
60 97 173
60 96 173
60 96 171
60 96 171
60 95 171
62 98 175
60 96 171
61 97 174
61 97 173
62 98 173
61 96 173
60 97 175
60 96 172
61 97 172
61 98 177
60 96 171
61 97 175
63 98 174
61 97 175
62 99 176
61 97 172
62 98 176
61 97 172
61 97 171
61 97 170
62 98 174
61 97 170
62 98 176
60 96 172
61 96 170
60 96 172
60 96 173
61 97 172
61 98 173
62 98 171
61 96 167
62 98 174
62 98 175
60 96 164
60 97 175
62 98 173
62 98 175
60 96 165
60 96 167
61 97 171
62 98 171
61 97 173
62 97 171
63 99 172
59 95 157
61 97 170
59 95 164
60 96 173
62 98 174
60 95 162
62 99 172
60 96 168
63 98 167
62 98 167
60 96 166
60 96 164
61 96 168
61 97 174
60 95 160
63 99 173
61 97 172
61 96 168
60 95 165
60 95 163
61 97 172
59 94 163
60 95 159
63 98 169
58 93 162
72 83 88
72 76 43
83 87 56
69 73 44
97 98 62
94 96 60
88 89 55
87 89 53
107 106 64
89 90 52
94 96 63
112 112 60
106 107 59
119 118 67
112 111 62
107 108 65
108 109 68
136 133 80
119 118 72
108 108 67
116 117 66
126 125 69
131 128 72
139 134 72
127 124 65
134 131 75
128 125 75
142 138 74
138 135 77
135 132 70
131 128 69
131 128 67
145 141 74
155 150 86
141 137 72
145 139 78
147 143 82
150 145 75
149 144 84
152 148 78
146 141 71
153 147 84
155 149 80
155 149 79
151 144 80
153 148 75
154 148 76
157 150 73
150 145 78
139 134 59
153 146 78
154 149 84
161 154 82
159 152 81
155 149 72
158 150 84
145 139 70
153 147 71
150 145 76
158 152 77
155 149 82
148 143 72
154 146 75
142 137 60
155 148 79
143 138 64
146 140 70
159 151 79
159 152 82
142 136 72
157 149 85
154 148 75
153 146 75
157 149 75
157 150 75
146 139 74
147 140 74
157 149 85
151 145 77
140 134 62
146 139 72
143 136 68
145 139 60
146 139 70
142 137 68
152 145 68
144 137 70
151 143 80
152 145 66
139 132 62
135 129 58
131 127 45
144 137 66
126 121 45
134 128 64
135 129 60
134 127 60
127 122 58
114 109 51
125 119 51
116 112 48
104 100 39
101 97 39
134 145 28
141 157 0
145 161 0
149 165 0
149 166 0
150 167 0
152 170 0
157 177 0
147 164 0
149 167 0
150 168 0
150 170 0
157 178 0
154 175 0
146 167 0
150 172 0
154 174 0
156 177 0
151 171 0
151 171 0
154 175 0
149 169 0
156 177 0
148 169 0
151 172 0
153 174 0
155 175 0
158 179 0
155 176 0
152 172 0
154 175 0
151 172 0
154 175 0
145 166 0
152 172 0
150 172 0
159 179 0
152 172 0
150 170 0
145 167 0
155 175 0
152 172 0
155 175 0
150 170 0
150 170 0
152 173 0
150 171 0
148 168 0
151 170 0
147 168 0
153 174 0
155 175 0
154 173 0
149 169 0
154 173 0
154 175 0
150 171 0
150 171 0
148 168 0
148 169 0
150 170 0
153 173 0
152 172 0
148 168 0
150 171 0
153 173 0
153 173 0
151 172 0
152 171 0
155 176 0
154 175 0
154 172 0
153 174 0
153 173 0
147 167 0
157 178 0
153 172 0
150 170 0
156 176 0
147 167 0
149 169 0
154 174 0
147 168 0
151 172 0
148 169 0
147 168 0
151 172 0
149 169 0
146 165 0
147 167 0
148 169 0
146 166 0
150 170 0
150 170 0
146 166 0
148 169 0
150 171 0
149 169 0
149 168 0
147 167 0
155 174 0
151 173 0
154 174 0
146 167 0
154 174 0
152 172 0
150 170 0
140 161 0
144 164 0
149 169 0
147 168 0
151 171 0
148 168 0
143 164 0
146 166 0
149 170 0
152 172 0
144 164 0
148 168 0
154 174 0
147 168 0
146 166 0
154 175 0
145 165 0
147 167 0
142 162 0
86 115 144
61 97 164
63 99 173
61 98 171
61 97 167
60 96 165
63 100 171
62 98 170
61 97 169
61 97 171
62 98 169
61 97 167
62 98 174
61 98 173
61 97 173
62 98 175
61 97 169
62 98 172
61 96 167
61 97 165
61 97 170
59 95 167
61 98 176
61 97 169
61 98 178
62 98 175
64 101 175
60 96 168
61 97 173
61 97 167
61 97 176
62 98 172
62 98 175
60 95 165
60 96 170
61 98 173
61 97 171
61 97 173
61 97 171
60 96 171
62 97 172
60 97 174
63 99 173
61 97 174
60 96 170
62 98 174
60 96 172
61 98 176
61 97 172
60 96 175
61 97 174
59 95 168
61 97 173
60 96 172
61 98 177
61 97 175
62 98 177
62 98 177
61 97 173
61 97 177
60 96 173
60 97 175
62 97 170
60 97 175
61 97 171
59 95 166
59 95 171
61 97 173
60 96 173
61 97 173
61 97 170
60 96 171
61 97 171
62 98 177
60 96 174
60 97 174
62 97 173
60 97 176
61 97 173
61 97 171
61 96 170
61 97 175
60 96 173
60 96 171
61 97 175
61 97 175
62 98 177
61 96 168
62 99 173
61 97 175
60 96 173
60 97 175
61 97 171
60 97 177
61 97 171
60 96 173
62 98 175
62 98 175
61 97 175
61 97 172
61 97 175
62 98 177
60 97 173
61 97 172
61 97 177
61 97 175
60 96 170
59 95 168
61 98 177
61 97 175
60 96 171
61 97 174
60 96 171
61 98 176
62 98 174
60 96 171
60 96 169
61 97 175
62 98 174
61 97 175
59 95 171
61 98 174
61 97 172
61 97 176
61 97 174
60 95 168
59 95 168
62 98 176
60 97 174
60 96 168
61 98 168
61 96 167
60 96 169
61 97 176
61 97 171
60 95 162
62 98 170
61 97 173
60 97 169
62 98 172
61 97 166
62 98 172
60 96 171
62 98 170
61 97 170
60 96 172
62 98 173
60 96 162
60 96 164
62 98 165
63 99 179
61 96 168
60 96 165
60 96 171
62 98 170
61 97 167
62 99 170
61 98 173
62 97 169
62 99 171
61 96 165
58 93 158
60 97 169
61 97 165
62 98 168
62 98 173
60 95 161
61 96 157
61 96 162
62 99 170
61 96 164
64 92 144
66 70 47
60 65 41
62 67 43
80 83 52
97 97 63
105 104 60
101 104 65
103 105 67
103 104 53
92 93 60
96 97 62
112 110 55
102 102 65
129 127 81
117 116 67
100 102 65
125 123 69
123 122 67
129 126 77
135 132 72
127 126 73
124 121 67
121 119 68
128 126 69
144 140 79
143 140 81
143 138 77
141 135 66
143 139 83
124 122 64
139 137 76
142 137 80
144 140 77
142 137 74
150 145 78
149 143 81
149 144 76
150 145 79
149 144 76
148 144 78
149 142 71
133 130 72
159 153 82
157 151 82
161 153 88
151 145 73
155 148 84
151 146 69
161 153 82
153 146 71
146 140 65
151 146 79
157 150 80
157 151 80
158 151 75
160 151 80
155 149 79
151 145 75
162 154 84
154 148 75
144 139 72
155 148 77
158 149 84
154 147 77
152 147 76
154 147 80
144 139 64
154 148 75
150 144 72
158 151 77
148 142 68
152 146 77
142 137 62
156 149 77
155 149 75
143 138 64
140 133 62
141 136 66
140 134 60
145 139 70
132 128 60
148 142 72
145 139 74
142 137 62
141 135 68
131 126 56
151 143 74
137 131 60
125 121 48
134 128 56
137 131 60
138 131 60
126 122 56
145 139 74
127 122 53
125 121 58
129 123 53
132 126 48
116 111 28
122 117 45
115 109 48
102 100 45
151 169 0
155 175 0
145 161 0
148 168 0
150 169 0
153 171 0
152 171 0
152 170 0
145 162 0
153 172 0
149 167 0
151 168 0
150 171 0
153 174 0
153 173 0
155 175 0
150 170 0
150 170 0
146 167 0
153 173 0
149 169 0
153 174 0
149 170 0
157 177 0
150 169 0
153 173 0
150 170 0
152 174 0
153 174 0
151 173 0
154 174 0
152 172 0
159 178 0
149 169 0
152 173 0
152 172 0
149 170 0
148 169 0
153 174 0
151 171 0
156 177 0
155 176 0
147 167 0
149 168 0
151 170 0
151 172 0
152 173 0
148 169 0
146 167 0
150 171 0
151 172 0
149 170 0
146 167 0
153 173 0
151 171 0
152 172 0
151 171 0
144 164 0
151 171 0
155 175 0
150 170 0
152 172 0
145 166 0
147 166 0
154 174 0
145 166 0
152 171 0
145 165 0
148 168 0
147 168 0
152 173 0
152 173 0
149 171 0
154 173 0
149 169 0
152 172 0
147 168 0
148 169 0
156 174 0
153 173 0
146 165 0
150 171 0
145 166 0
147 168 0
152 172 0
152 172 0
152 171 0
148 169 0
152 172 0
148 168 0
150 169 0
150 171 0
150 170 0
147 167 0
150 170 0
149 169 0
148 168 0
149 170 0
150 171 0
152 173 0
145 165 0
150 171 0
153 175 0
152 172 0
149 169 0
151 172 0
152 172 0
149 169 0
147 168 0
153 172 0
150 171 0
148 169 0
148 166 0
149 169 0
146 165 0
147 167 0
150 170 0
147 168 0
149 169 0
153 173 0
148 169 0
143 162 0
143 162 0
149 168 0
152 172 0
134 155 81
62 99 167
62 97 166
62 98 171
62 98 163
62 98 167
62 99 173
61 96 164
60 97 168
59 93 150
61 97 169
62 98 171
61 98 173
60 96 162
62 98 173
60 95 166
62 99 177
61 97 169
61 97 171
61 98 175
60 96 168
63 99 178
61 97 172
60 96 173
62 98 171
63 99 176
62 98 175
60 96 170
60 95 165
61 97 174
62 98 174
62 98 179
61 97 175
60 96 173
61 97 166
62 98 171
61 98 176
61 97 173
60 96 170
63 99 179
60 96 169
61 97 174
61 97 175
63 99 174
61 97 174
60 96 172
61 97 175
60 96 176
59 96 172
61 97 172
61 97 174
60 96 164
62 98 176
62 98 176
61 97 170
62 98 172
61 97 170
62 98 176
60 96 175
61 98 167
62 98 174
61 97 170
61 97 175
60 96 172
62 98 177
61 97 170
60 96 173
61 97 176
62 98 173
61 97 173
60 96 173
61 97 177
60 96 170
60 96 173
61 97 173
61 97 173
61 97 169
61 97 173
61 96 168
61 97 175
60 96 167
60 96 174
61 97 173
61 96 169
61 97 175
60 96 175
61 97 171
61 97 173
61 97 175
60 96 175
60 96 171
61 97 173
62 98 175
61 97 173
61 97 171
60 96 167
61 97 173
60 96 173
61 97 173
61 97 173
61 97 173
61 97 169
60 96 173
61 97 175
61 97 175
60 96 169
59 95 169
60 95 166
61 97 175
59 95 166
59 95 171
61 97 169
60 96 174
60 96 175
61 97 172
60 96 168
61 97 173
60 95 168
61 97 174
60 96 170
61 96 170
61 97 166
61 97 174
61 97 172
61 97 170
61 97 170
62 98 174
60 96 170
61 97 177
60 95 168
61 97 172
61 97 171
62 98 175
60 96 166
61 96 172
61 98 178
63 99 178
61 97 169
60 96 170
60 96 169
62 98 174
61 97 173
61 98 176
60 96 170
62 97 168
61 97 171
61 97 167
60 96 168
62 98 175
61 97 170
61 97 172
60 96 164
61 98 172
60 96 164
62 98 172
61 97 172
60 95 161
60 96 164
61 98 171
61 97 173
59 94 153
61 96 168
60 95 163
62 97 166
63 99 169
64 100 175
61 96 161
63 97 166
59 94 161
61 97 165
62 98 170
59 92 154
57 90 140
84 93 97
73 77 45
68 73 43
92 93 62
94 95 52
79 82 48
106 106 61
92 93 50
106 107 69
100 101 55
107 108 64
110 108 67
106 106 58
118 115 59
94 95 58
116 114 68
130 128 81
135 132 78
120 119 67
134 132 77
136 132 75
143 139 83
132 128 72
137 134 73
117 116 67
139 133 73
139 134 70
137 133 79
138 134 71
148 143 85
151 145 85
140 136 73
155 149 85
137 135 67
147 141 75
153 148 84
150 145 70
154 149 84
155 149 84
133 130 60
149 142 80
151 146 76
148 143 76
152 144 69
150 145 80
148 143 72
164 156 86
153 147 78
161 153 74
146 140 68
147 142 70
151 146 72
160 153 79
161 154 80
152 145 75
153 147 77
157 152 85
149 144 66
154 147 77
161 153 84
144 139 70
164 157 84
130 127 51
154 148 74
155 150 78
143 138 62
149 143 72
147 141 70
141 136 72
146 140 68
153 145 75
145 139 72
153 145 77
151 143 72
140 135 60
161 154 72
157 150 79
145 140 72
123 118 45
146 139 70
145 138 70
140 133 68
148 141 74
135 129 58
135 131 53
139 132 68
122 119 51
143 137 64
127 122 51
137 130 64
138 133 60
124 121 48
136 130 62
127 122 42
130 124 58
134 129 60
123 118 48
131 126 58
125 120 58
112 108 39
92 89 28
135 144 32
153 170 0
148 165 0
144 160 0
154 172 0
151 168 0
153 168 0
147 165 0
153 171 0
152 172 0
151 168 0
155 174 0
152 170 0
150 170 0
148 169 0
153 173 0
146 166 0
151 172 0
152 171 0
157 177 0
151 172 0
152 174 0
149 170 0
148 169 0
154 174 0
155 174 0
151 171 0
149 169 0
156 176 0
151 171 0
150 170 0
160 181 0
153 173 0
155 175 0
150 170 0
149 169 0
149 168 0
158 178 0
156 175 0
156 176 0
156 174 0
154 175 0
158 179 0
151 172 0
151 172 0
152 172 0
152 172 0
152 173 0
148 167 0
153 174 0
146 166 0
151 172 0
149 169 0
150 170 0
151 171 0
149 169 0
151 172 0
150 169 0
153 174 0
151 172 0
147 168 0
153 172 0
145 165 0
150 170 0
151 172 0
161 181 0
151 171 0
148 169 0
149 169 0
152 172 0
153 173 0
148 169 0
149 170 0
153 172 0
149 168 0
142 163 0
145 165 0
144 164 0
150 170 0
147 169 0
153 173 0
151 172 0
153 173 0
149 167 0
146 166 0
150 170 0
145 165 0
145 164 0
146 167 0
149 170 0
151 171 0
146 167 0
148 168 0
148 169 0
154 174 0
152 172 0
152 172 0
148 169 0
146 167 0
148 169 0
145 165 0
147 167 0
135 154 0
148 169 0
148 168 0
146 167 0
144 164 0
156 176 0
140 161 0
148 170 0
156 176 0
151 172 0
153 173 0
151 171 0
146 166 0
148 168 0
145 165 0
149 170 0
145 165 0
146 165 0
147 167 0
144 164 0
150 169 0
141 161 0
148 169 0
144 164 0
99 125 143
63 99 169
61 98 172
61 97 170
61 96 167
63 99 175
62 98 170
61 98 170
62 99 176
61 96 170
61 97 165
61 97 169
62 99 174
62 98 175
60 96 168
61 98 173
61 97 170
62 98 168
62 98 175
61 97 173
61 98 173
60 96 169
62 98 173
62 98 175
61 96 164
61 98 170
61 97 177
60 96 164
61 98 176
61 97 177
61 97 171
61 97 172
62 98 175
62 98 178
61 97 170
61 97 172
60 96 174
61 97 171
61 97 175
61 97 170
60 96 170
62 98 176
61 97 172
61 97 168
60 97 177
62 98 177
61 97 172
60 96 172
61 97 174
60 96 171
61 97 177
60 96 172
60 97 175
62 97 168
61 98 176
61 97 173
62 98 175
61 97 175
61 97 170
62 98 177
61 96 170
60 96 171
61 97 170
61 97 175
61 97 173
62 98 175
60 97 176
61 97 173
61 97 172
61 97 173
60 96 173
60 95 167
61 97 175
61 97 171
60 96 169
61 97 171
60 96 171
60 96 173
61 97 175
60 96 173
60 97 175
61 97 173
61 97 173
62 98 173
61 97 171
60 96 173
61 96 168
61 97 173
60 96 171
60 96 167
62 98 173
61 97 175
60 96 173
61 98 177
61 97 175
61 96 170
61 97 177
60 96 171
61 97 175
62 98 175
59 95 173
60 96 170
60 96 169
60 96 173
60 96 173
61 97 175
61 97 172
60 95 167
59 95 167
61 97 173
61 96 170
61 97 175
60 97 177
61 97 172
61 97 174
61 97 173
60 96 173
59 95 167
59 95 164
61 96 172
61 97 174
61 97 175
61 97 174
60 96 172
61 98 174
60 95 166
61 97 172
60 96 170
62 98 178
63 99 174
60 97 174
61 97 178
62 97 166
60 96 167
62 98 175
62 98 176
61 97 172
60 96 172
61 97 170
60 97 174
62 98 173
62 99 178
62 98 177
62 98 172
60 95 165
61 97 172
63 100 166
61 97 169
61 96 167
61 96 164
61 97 168
62 98 163
60 96 166
62 97 170
63 99 174
61 98 172
61 97 173
60 96 164
62 98 176
59 95 159
63 99 174
62 97 164
62 98 171
63 99 174
61 97 170
61 96 161
62 99 170
60 96 164
61 96 166
61 96 165
60 95 156
61 95 157
59 93 150
69 87 111
97 97 56
92 93 59
89 92 63
89 89 54
85 89 49
75 79 46
112 111 64
99 98 57
108 108 62
105 104 54
115 115 67
101 101 57
103 105 61
125 121 67
118 119 74
135 130 63
110 110 54
97 98 54
113 113 64
103 103 59
139 134 75
130 126 68
136 133 69
136 132 73
145 142 84
137 135 80
150 145 66
132 126 70
139 136 72
149 145 81
127 126 65
138 134 66
149 142 75
144 140 81
146 141 76
147 142 70
145 141 78
141 136 72
143 138 71
150 145 69
154 147 74
150 145 77
141 137 66
152 146 79
155 149 86
153 147 80
161 154 83
146 141 64
146 142 63
159 153 82
150 145 74
150 146 69
155 148 77
154 147 84
159 152 87
159 153 84
161 153 84
146 141 66
152 146 79
155 149 73
161 153 79
152 145 80
156 150 77
159 152 79
151 144 68
148 142 70
155 148 72
141 135 70
156 149 75
144 138 66
156 150 82
142 135 62
144 138 68
147 141 64
139 134 60
161 153 79
148 142 70
143 137 68
132 127 58
130 125 53
135 130 64
143 136 66
146 139 74
135 128 56
140 134 53
133 128 56
137 131 56
138 132 66
137 132 58
128 123 56
122 117 48
131 125 53
110 107 48
116 112 32
124 120 48
115 111 42
110 106 45
118 112 48
114 110 48
104 100 42
142 157 16
146 163 0
155 171 0
152 169 0
151 168 0
155 173 0
147 164 0
146 164 0
144 163 0
156 175 0
157 174 0
155 171 0
145 163 0
152 171 0
154 174 0
147 168 0
152 173 0
156 176 0
156 178 0
150 169 0
150 170 0
154 174 0
149 169 0
156 176 0
148 169 0
147 167 0
151 171 0
145 165 0
151 172 0
154 175 0
152 172 0
154 174 0
158 179 0
146 166 0
155 177 0
148 169 0
151 172 0
159 179 0
154 174 0
153 174 0
151 171 0
147 169 0
154 176 0
152 171 0
152 173 0
154 175 0
154 173 0
152 173 0
159 180 0
149 169 0
156 176 0
152 173 0
151 172 0
149 169 0
148 169 0
150 170 0
150 170 0
154 175 0
151 171 0
149 171 0
150 170 0
155 175 0
155 175 0
146 166 0
151 170 0
156 176 0
152 172 0
154 174 0
148 168 0
145 166 0
151 171 0
152 172 0
149 169 0
149 170 0
150 171 0
155 175 0
149 168 0
150 170 0
150 171 0
145 166 0
146 167 0
146 166 0
149 170 0
152 173 0
150 171 0
149 169 0
148 169 0
149 168 0
148 167 0
152 172 0
147 167 0
144 165 0
144 164 0
148 168 0
150 170 0
145 165 0
151 172 0
145 165 0
147 168 0
146 166 0
147 168 0
145 166 0
150 171 0
145 165 0
152 172 0
148 169 0
146 166 0
150 171 0
152 172 0
148 168 0
150 170 0
150 170 0
149 168 0
147 167 0
149 167 0
152 172 0
146 165 0
149 169 0
145 166 0
149 169 0
147 167 0
144 165 0
152 171 0
145 165 0
142 162 0
140 161 43
72 104 148
59 94 160
62 99 171
59 94 160
58 93 155
61 97 170
61 97 166
59 94 154
62 98 170
63 99 176
62 98 174
61 97 169
61 97 171
61 97 170
60 96 170
61 98 175
63 100 177
60 96 167
62 98 167
60 96 168
63 99 175
61 97 171
61 97 174
62 98 175
60 96 171
60 97 173
60 97 175
63 99 176
60 96 168
62 98 175
61 98 178
60 96 174
61 97 172
61 97 174
62 98 167
61 97 174
61 97 174
61 98 178
62 98 177
61 97 172
61 97 174
60 97 172
62 98 174
60 96 172
62 98 171
60 95 170
61 97 176
61 97 173
61 97 175
60 96 170
62 98 175
61 97 172
61 97 172
61 97 172
61 97 172
61 98 173
60 96 173
61 97 172
60 96 171
61 97 177
60 97 173
60 96 173
61 97 170
61 97 174
61 96 171
60 96 171
62 99 169
60 96 169
61 97 177
61 96 173
63 99 174
62 98 175
61 97 173
61 97 173
61 97 173
60 96 173
60 96 171
61 97 175
61 98 177
61 97 169
61 97 175
61 97 173
61 97 175
60 96 171
60 96 171
60 96 173
61 97 166
60 96 173
60 96 174
61 97 171
61 96 171
61 97 176
61 97 171
59 95 169
61 97 173
61 97 175
61 98 177
61 97 175
61 97 173
62 97 172
61 97 173
61 96 166
60 96 173
61 96 170
62 98 177
61 97 173
60 96 170
60 96 170
61 97 173
61 97 176
60 96 171
60 96 169
60 96 173
60 96 173
62 99 175
61 97 172
60 96 168
62 98 176
60 96 170
62 98 172
60 95 166
60 96 171
62 98 172
61 97 175
61 97 171
62 98 172
60 96 169
60 96 166
61 98 174
61 96 170
61 97 172
59 95 170
60 97 172
62 98 166
62 98 172
61 97 167
62 98 174
61 97 168
61 97 170
59 95 163
60 96 173
61 96 169
61 97 169
61 97 169
61 97 172
60 96 171
61 98 176
61 96 166
62 98 171
59 94 158
62 98 173
60 96 168
60 96 160
61 98 174
60 95 164
61 98 175
62 97 169
61 96 165
61 96 163
61 95 161
61 98 175
62 98 171
62 99 174
59 94 160
61 97 170
61 97 165
62 98 167
61 97 165
60 95 162
61 96 161
62 98 170
61 96 159
60 95 154
60 95 161
80 84 55
82 86 52
87 89 51
104 104 62
81 84 44
94 96 55
89 90 43
101 103 58
106 107 63
115 114 71
98 102 67
115 115 62
119 117 64
112 111 68
125 125 77
109 108 56
108 109 62
113 114 70
128 125 66
129 127 73
128 126 68
126 122 54
130 127 76
137 132 70
120 118 68
132 130 68
141 136 74
143 137 77
146 140 79
137 132 70
113 112 54
152 146 85
135 131 70
141 135 76
134 131 60
132 128 68
145 140 78
149 143 75
145 140 68
150 145 79
143 140 75
143 137 75
142 137 72
141 137 73
150 144 76
153 147 80
148 141 73
158 151 75
160 153 90
156 150 78
152 145 76
150 143 77
152 146 70
147 143 70
150 144 70
158 150 77
142 139 66
149 143 78
150 144 78
154 147 80
142 135 75
148 143 70
159 153 75
147 140 68
148 143 74
148 142 74
148 142 70
134 129 45
152 146 70
151 145 64
148 142 74
144 138 66
129 124 60
144 138 62
136 132 53
153 146 74
145 138 64
142 137 60
140 133 66
139 133 58
145 138 60
146 138 74
141 134 68
134 129 56
140 133 62
129 124 58
122 118 51
128 123 53
134 129 56
137 131 64
133 128 51
120 117 48
135 128 58
139 132 66
123 117 51
138 132 64
125 120 51
97 93 32
104 101 28
116 123 32
145 163 0
149 166 0
152 169 0
149 164 0
145 163 0
149 167 0
148 165 0
147 166 0
151 169 0
146 163 0
149 165 0
150 167 0
151 168 0
152 172 0
149 169 0
152 172 0
153 173 0
151 172 0
148 169 0
151 171 0
150 171 0
152 173 0
150 170 0
150 170 0
147 168 0
147 167 0
154 173 0
151 171 0
150 172 0
149 170 0
148 168 0
150 170 0
152 172 0
155 175 0
152 172 0
152 173 0
154 175 0
155 175 0
152 172 0
148 169 0
152 173 0
152 172 0
150 170 0
150 169 0
152 172 0
148 168 0
153 173 0
149 170 0
150 171 0
152 172 0
151 171 0
149 170 0
150 170 0
147 167 0
149 168 0
147 166 0
147 167 0
147 168 0
157 178 0
153 174 0
159 180 0
154 174 0
148 168 0
154 174 0
147 168 0
152 174 0
152 173 0
147 167 0
151 172 0
152 172 0
149 170 0
153 173 0
155 175 0
152 172 0
148 169 0
149 169 0
145 165 0
151 171 0
151 171 0
153 173 0
152 171 0
154 173 0
145 166 0
151 171 0
148 167 0
147 169 0
147 166 0
150 171 0
150 171 0
149 170 0
146 166 0
146 168 0
147 168 0
149 169 0
152 173 0
145 166 0
145 166 0
151 171 0
149 168 0
145 165 0
147 168 0
147 166 0
152 173 0
152 172 0
146 167 0
149 167 0
156 176 0
150 170 0
149 169 0
154 174 0
146 165 0
150 169 0
152 171 0
143 163 0
148 168 0
150 171 0
153 174 0
153 174 0
143 163 0
144 164 0
144 163 0
150 170 0
148 168 0
144 164 0
150 171 0
133 155 85
61 96 164
61 96 157
60 96 162
62 99 169
60 95 162
59 95 157
61 96 168
60 97 168
62 98 173
61 96 164
61 96 164
62 98 168
61 97 167
62 99 173
59 95 163
60 96 165
62 98 167
60 96 168
61 97 170
62 97 171
61 98 177
61 97 171
63 99 167
61 97 166
62 98 175
61 97 170
61 97 174
61 97 168
61 98 173
61 98 176
62 99 178
62 98 176
61 97 176
60 96 169
60 95 169
61 97 172
62 98 173
60 96 172
61 98 178
60 96 172
59 95 166
61 97 177
61 97 173
60 96 170
61 97 170
61 97 175
62 98 175
61 97 172
61 97 175
60 96 171
62 98 177
59 95 172
62 98 176
62 98 174
62 98 174
61 96 168
60 96 170
61 96 168
62 98 177
62 98 178
61 97 171
60 96 173
60 96 171
61 97 172
60 96 167
59 95 173
61 97 177
62 98 168
60 96 173
60 96 169
60 95 169
60 96 171
60 96 175
61 97 175
62 98 175
61 96 170
60 96 174
61 97 173
60 96 173
62 98 175
61 97 173
59 95 173
62 98 175
60 96 167
60 96 173
61 97 171
61 97 175
61 97 175
61 97 175
61 97 171
62 97 171
60 96 174
60 96 173
61 97 171
61 97 171
61 97 168
61 97 175
60 95 167
59 94 164
60 96 171
58 94 165
59 95 171
60 96 171
60 96 173
60 96 173
60 96 173
61 97 176
61 97 173
62 98 171
62 98 177
62 98 177
62 98 171
59 94 164
60 96 166
61 96 170
61 97 162
60 97 173
60 96 171
61 97 175
60 95 170
60 95 164
61 97 173
59 94 164
62 98 175
61 97 170
61 97 172
61 97 172
61 97 172
61 97 172
60 96 166
60 96 170
59 95 165
60 96 169
60 96 170
60 96 169
61 97 169
63 99 174
61 97 172
62 98 174
61 96 171
61 96 167
61 97 171
62 97 171
60 96 167
62 98 173
60 96 164
60 97 173
61 97 171
63 99 171
60 95 167
62 98 167
62 98 175
62 98 171
60 96 169
60 95 155
61 98 174
61 97 169
61 97 170
58 93 157
61 97 163
60 95 160
61 96 162
61 97 169
61 97 167
61 97 164
62 98 173
60 95 161
61 96 168
62 97 165
61 96 165
59 93 155
61 95 162
58 92 152
58 92 155
67 82 110
84 85 48
78 80 41
95 96 60
85 89 59
93 94 57
107 106 61
99 100 55
102 103 50
84 87 48
86 86 47
97 98 61
115 114 65
110 111 56
103 103 54
119 115 63
106 107 57
120 117 65
125 122 58
121 119 67
117 115 61
121 118 64
117 115 67
147 142 80
125 122 62
128 124 74
126 124 67
128 125 69
133 130 73
126 125 58
145 140 75
124 120 63
145 140 73
146 142 77
133 130 69
148 142 76
145 140 75
141 136 72
146 141 73
143 139 63
154 148 82
143 137 73
151 144 77
158 150 81
145 139 74
150 144 71
151 145 81
144 139 69
149 143 76
152 146 77
148 142 69
153 145 76
155 149 75
154 148 75
157 148 79
164 157 82
150 145 70
156 149 72
159 152 75
150 144 75
154 147 81
145 139 75
149 144 75
156 149 77
148 142 64
141 136 51
150 144 64
151 145 66
140 135 53
139 133 66
146 140 72
147 141 72
146 139 72
150 142 70
146 139 70
146 139 72
129 123 62
148 142 72
150 143 68
130 124 60
135 130 53
140 134 62
132 127 62
135 128 66
135 130 60
146 140 66
126 121 56
126 120 45
118 113 58
124 119 45
114 109 48
119 114 51
137 133 56
129 123 58
131 126 56
104 98 36
115 111 48
110 105 42
112 108 42
141 154 0
145 163 0
146 165 0
146 162 0
153 170 0
153 172 0
144 160 0
147 164 0
147 163 0
146 164 0
150 168 0
150 169 0
148 167 0
149 167 0
159 180 0
148 169 0
153 173 0
156 175 0
148 168 0
150 170 0
152 172 0
154 175 0
153 174 0
152 172 0
151 172 0
152 172 0
154 174 0
149 169 0
149 170 0
151 171 0
152 171 0
153 174 0
151 171 0
153 173 0
155 175 0
152 173 0
153 173 0
150 170 0
156 176 0
154 175 0
150 171 0
156 176 0
149 169 0
148 169 0
155 176 0
146 165 0
150 170 0
156 176 0
151 171 0
151 171 0
154 174 0
153 173 0
154 174 0
147 167 0
147 169 0
147 168 0
156 177 0
149 169 0
154 175 0
149 171 0
148 168 0
153 173 0
152 171 0
150 171 0
151 172 0
146 166 0
145 166 0
148 168 0
150 170 0
148 167 0
148 168 0
150 172 0
150 171 0
150 170 0
155 176 0
154 173 0
152 172 0
150 170 0
145 165 0
150 169 0
154 174 0
155 175 0
150 170 0
147 168 0
147 167 0
146 167 0
152 171 0
150 170 0
154 173 0
153 173 0
152 172 0
152 174 0
146 167 0
144 165 0
154 174 0
153 175 0
148 168 0
151 170 0
147 166 0
145 165 0
152 172 0
151 171 0
149 168 0
144 163 0
145 166 0
146 167 0
149 170 0
139 159 0
153 174 0
146 167 0
147 168 0
152 172 0
145 165 0
137 158 0
150 170 0
149 168 0
147 168 0
148 168 0
148 168 0
148 168 0
145 164 0
144 165 0
143 164 0
145 165 0
148 167 0
145 165 0
80 110 147
61 97 160
63 99 172
62 98 169
60 96 162
60 96 164
60 96 166
61 97 165
61 96 165
61 97 163
62 98 172
60 96 165
61 97 172
61 97 166
62 97 172
61 97 172
60 95 164
60 95 165
61 97 170
60 95 156
62 98 173
61 97 172
59 95 168
60 95 167
62 98 174
61 97 169
61 97 167
63 99 177
60 96 171
61 97 174
60 96 168
61 97 174
61 96 170
62 98 176
61 97 176
61 97 171
60 96 171
62 97 170
61 97 174
61 97 173
61 97 174
62 98 176
61 98 175
59 95 168
60 96 174
60 96 173
62 98 174
61 97 172
62 98 174
61 97 176
61 97 175
61 97 175
61 98 177
60 95 170
60 96 171
61 97 172
62 98 175
60 96 168
62 97 175
60 96 172
61 97 173
61 97 173
60 97 176
61 97 173
61 97 175
60 96 173
59 95 167
62 98 175
61 97 175
61 97 173
59 94 166
60 97 173
60 96 173
61 97 175
59 95 167
61 97 173
62 98 173
61 97 175
61 97 175
62 98 177
60 96 171
59 95 169
61 97 173
61 97 171
60 96 171
59 95 169
61 97 173
60 96 167
60 96 171
60 96 174
59 95 171
59 95 167
61 97 173
60 96 171
60 96 171
60 96 171
60 96 171
60 96 171
61 97 175
61 96 166
60 96 173
61 96 168
61 98 176
60 96 171
60 96 171
60 96 173
61 97 173
61 97 169
61 97 171
61 96 171
60 96 169
60 96 169
60 96 173
59 96 171
61 97 177
60 96 171
61 97 168
60 96 172
61 98 177
62 98 172
61 97 174
62 98 173
61 96 166
61 97 174
62 98 170
61 98 170
61 98 173
60 96 169
60 95 164
60 96 165
60 96 171
60 95 165
61 96 170
61 97 170
60 96 172
60 95 164
60 96 170
60 95 165
61 96 167
60 96 165
61 97 167
61 97 176
61 97 170
60 95 170
61 97 170
62 98 169
61 97 170
61 97 161
61 97 169
58 93 162
62 98 171
61 97 169
61 97 172
62 98 173
61 96 166
62 98 172
62 97 171
59 94 159
59 95 168
63 99 174
61 96 167
62 98 173
61 98 174
61 97 164
60 96 169
61 96 161
62 98 167
59 93 154
57 90 153
61 96 167
60 95 161
60 94 161
62 97 166
59 93 157
59 93 156
72 90 121
81 81 36
92 92 46
94 95 55
101 101 57
67 72 38
95 95 56
103 102 56
102 102 53
103 104 54
114 114 59
112 111 66
89 93 60
117 116 65
122 120 72
119 116 63
106 106 48
119 117 63
126 124 66
126 122 66
98 98 53
124 121 69
137 134 72
124 122 65
134 131 65
114 113 63
145 140 70
136 131 70
142 135 72
134 129 61
144 138 75
132 129 67
137 132 75
143 138 68
149 143 71
135 130 63
138 132 68
150 144 74
147 139 70
145 139 74
144 139 70
153 146 72
144 139 63
151 146 71
140 135 56
154 148 80
152 145 79
151 144 75
150 144 67
162 154 90
159 151 79
163 156 84
147 141 72
143 139 58
146 140 70
150 144 68
145 140 67
160 153 85
144 138 63
155 149 74
146 139 66
146 140 72
149 143 70
151 144 72
147 142 64
140 135 60
140 132 62
146 140 68
154 148 68
137 131 58
145 138 70
143 136 68
135 129 58
144 138 62
144 138 62
144 137 72
140 133 64
149 142 72
139 133 68
147 139 66
128 125 56
138 131 62
141 134 68
136 130 60
127 124 51
121 117 53
129 123 58
132 126 62
133 128 53
129 123 53
129 122 51
135 129 58
129 124 53
108 103 45
114 110 39
123 118 53
103 99 22
96 94 32
130 130 51
147 165 0
145 163 0
154 170 0
148 162 0
144 162 0
152 168 0
149 167 0
149 167 0
152 170 0
152 169 0
152 171 0
147 163 0
151 169 0
148 165 0
150 170 0
151 171 0
154 174 0
145 167 0
157 178 0
152 173 0
152 173 0
148 169 0
154 176 0
153 174 0
154 175 0
153 172 0
157 177 0
153 174 0
157 177 0
153 173 0
149 169 0
155 176 0
153 174 0
148 169 0
153 173 0
153 173 0
152 171 0
153 174 0
157 175 0
146 167 0
156 176 0
149 169 0
150 171 0
156 175 0
148 169 0
151 172 0
149 170 0
151 171 0
146 165 0
154 174 0
151 171 0
144 164 0
150 171 0
151 171 0
153 174 0
149 170 0
150 171 0
152 173 0
149 171 0
163 182 0
155 174 0
154 174 0
152 171 0
155 175 0
149 170 0
151 171 0
154 175 0
147 167 0
151 172 0
148 169 0
152 173 0
146 166 0
149 170 0
148 169 0
146 168 0
154 174 0
145 167 0
154 174 0
143 163 0
146 167 0
149 169 0
151 172 0
156 175 0
145 166 0
148 169 0
149 169 0
148 168 0
149 170 0
149 169 0
150 169 0
150 170 0
149 169 0
147 168 0
153 174 0
152 173 0
151 171 0
144 165 0
152 173 0
149 170 0
151 171 0
152 172 0
151 171 0
150 171 0
154 174 0
148 168 0
146 167 0
152 173 0
144 165 0
146 167 0
152 173 0
142 163 0
139 158 0
150 171 0
145 165 0
148 168 0
149 169 0
148 167 0
146 167 0
144 163 0
144 163 0
146 166 0
148 168 0
153 173 0
153 175 0
148 166 0
140 162 50
63 99 174
63 99 164
59 94 151
61 97 165
61 98 171
62 98 168
62 98 169
61 97 164
61 97 165
62 98 171
62 98 170
60 95 160
60 96 169
61 97 166
60 97 166
60 95 167
63 99 176
62 98 175
61 97 172
61 97 173
61 97 175
59 95 166
61 98 177
62 98 167
60 96 166
62 97 171
61 98 173
61 96 171
61 97 172
60 95 168
61 96 169
60 96 165
63 99 179
60 96 172
62 98 175
61 97 172
60 97 173
61 96 170
59 95 168
61 97 171
61 97 174
61 97 171
59 95 172
61 97 167
60 95 166
61 97 170
61 98 172
62 98 175
63 99 172
61 97 174
61 97 172
61 97 170
60 96 165
61 97 175
61 97 175
61 96 170
61 97 177
61 97 173
61 97 173
61 98 175
60 97 176
59 95 169
61 97 173
60 96 171
60 95 168
61 97 175
60 97 173
60 95 167
60 96 175
60 95 160
60 96 168
61 97 171
60 96 169
61 97 171
62 98 171
60 96 171
62 97 175
60 96 174
61 97 173
60 96 167
62 98 175
61 97 173
60 97 171
60 96 173
61 97 169
61 97 169
61 97 176
60 96 173
60 96 171
61 97 174
62 98 176
60 96 175
60 95 166
62 98 171
62 98 169
62 98 171
62 98 173
61 97 175
60 96 165
61 97 176
60 96 173
59 94 163
60 96 167
60 96 171
60 95 167
61 97 172
61 97 173
61 96 166
61 97 175
59 95 165
60 96 169
61 98 172
60 95 169
61 97 173
60 96 169
62 98 172
62 98 175
61 97 177
59 95 168
61 97 170
63 98 175
61 97 172
60 96 166
61 97 175
63 98 173
62 97 170
61 97 170
61 97 174
61 97 172
59 95 169
59 95 162
61 96 172
61 97 173
61 97 172
61 97 174
61 96 165
61 96 168
61 97 167
62 97 170
60 96 170
60 96 170
62 98 172
60 97 171
61 97 173
61 97 174
60 96 168
61 97 171
61 97 172
60 96 169
62 97 167
60 96 172
61 97 167
61 97 171
63 98 169
60 96 170
62 98 175
59 94 159
62 98 171
60 96 169
60 95 157
59 94 159
61 96 159
60 96 165
62 98 169
61 96 167
60 96 168
61 96 165
61 96 158
61 96 160
60 95 158
59 94 160
59 93 151
61 96 165
60 94 148
59 93 156
59 94 152
91 94 62
97 96 42
96 95 44
78 82 51
91 92 52
102 101 59
96 97 58
102 102 57
104 105 57
104 103 54
107 107 58
110 110 63
119 115 62
123 121 67
114 113 54
127 124 66
134 131 65
135 131 69
113 111 63
118 116 55
134 129 71
131 127 64
133 128 63
144 138 74
136 131 65
134 130 62
132 128 65
143 138 69
127 124 70
129 125 58
140 135 67
140 135 66
145 140 70
143 138 75
143 139 69
141 135 72
136 132 57
141 136 55
141 136 65
149 143 74
142 136 68
155 148 81
141 136 65
156 149 72
140 135 64
152 146 69
149 142 67
149 142 69
154 147 77
159 151 82
146 140 69
156 149 83
154 147 74
150 145 72
150 143 75
154 147 75
150 144 68
145 140 64
148 141 72
149 143 66
144 138 62
155 147 75
148 143 74
159 151 77
147 141 66
138 131 62
141 136 62
151 144 70
150 144 72
143 136 62
147 140 72
133 128 60
144 137 68
144 138 66
135 130 53
140 134 64
128 123 53
130 123 51
142 135 64
117 112 45
125 120 51
131 126 58
131 126 51
150 142 74
118 114 45
137 131 62
121 115 51
127 121 51
120 116 51
122 117 53
125 120 51
131 125 51
120 115 45
115 110 45
107 102 32
97 94 32
117 113 36
139 155 16
149 165 0
150 167 0
147 165 0
147 164 0
147 163 0
153 170 0
153 169 0
147 163 0
148 165 0
144 162 0
142 159 0
151 168 0
149 167 0
150 167 0
150 172 0
149 169 0
153 173 0
155 175 0
154 175 0
152 174 0
152 172 0
154 174 0
153 174 0
150 171 0
152 173 0
156 176 0
149 169 0
149 170 0
152 171 0
152 171 0
150 172 0
153 173 0
148 168 0
148 169 0
148 170 0
148 170 0
151 171 0
152 173 0
148 169 0
152 172 0
158 177 0
155 176 0
154 174 0
154 175 0
149 170 0
150 171 0
147 168 0
153 174 0
151 171 0
157 177 0
145 165 0
152 173 0
146 166 0
154 174 0
153 172 0
155 175 0
146 167 0
152 172 0
159 178 0
151 171 0
149 170 0
150 171 0
148 168 0
155 177 0
142 163 0
148 169 0
150 170 0
149 170 0
149 169 0
147 169 0
147 167 0
154 173 0
148 168 0
149 170 0
146 166 0
155 176 0
147 168 0
148 168 0
150 170 0
140 161 0
151 170 0
145 166 0
144 165 0
148 167 0
148 168 0
147 168 0
147 168 0
149 169 0
153 174 0
150 170 0
153 173 0
149 170 0
151 172 0
145 165 0
147 168 0
147 167 0
148 168 0
148 168 0
148 168 0
147 168 0
148 168 0
148 168 0
141 162 0
148 168 0
142 163 0
145 165 0
145 165 0
148 168 0
142 162 0
146 167 0
143 164 0
151 170 0
146 167 0
150 170 0
146 166 0
147 167 0
147 168 0
143 163 0
152 172 0
149 167 0
149 171 0
149 169 0
143 163 0
144 164 0
140 160 0
121 142 85
61 97 166
62 98 170
60 96 162
62 98 166
61 97 165
62 99 178
61 96 166
62 99 173
61 97 170
59 95 162
63 99 177
61 97 165
60 95 160
62 98 169
62 98 174
59 95 160
62 98 173
60 97 172
60 96 170
60 97 172
62 98 172
61 96 162
59 95 163
62 98 176
62 98 173
60 95 166
60 96 168
62 99 176
61 97 170
61 97 174
60 96 172
61 96 163
60 95 167
60 96 167
61 97 170
61 97 171
61 98 176
60 97 174
60 96 168
61 97 176
61 97 172
60 96 172
61 97 174
61 97 174
61 96 172
60 96 169
62 98 169
60 96 170
61 97 175
61 97 172
62 98 176
60 96 175
61 97 172
60 96 173
60 96 174
61 97 174
59 95 167
59 95 169
60 96 171
61 97 173
61 97 173
60 97 173
61 97 171
60 96 173
61 97 172
60 96 169
60 96 173
61 97 173
61 97 175
59 96 175
61 96 171
60 96 169
60 96 173
60 96 171
61 97 171
60 96 171
60 96 173
61 96 171
60 96 173
61 97 175
60 96 173
60 96 171
60 96 173
60 96 171
60 96 175
61 97 175
60 96 162
62 98 171
61 96 168
60 95 165
61 97 173
61 96 168
61 97 169
61 97 174
60 96 174
61 97 171
61 96 167
61 97 168
61 96 169
61 96 169
64 101 165
59 94 165
60 95 167
60 96 169
60 96 173
61 97 173
60 95 166
60 96 173
61 97 176
62 97 166
62 99 169
60 95 162
60 96 169
60 96 169
60 95 166
61 96 166
62 98 177
62 97 174
61 96 170
62 97 175
59 94 164
61 97 169
62 98 174
60 96 171
61 97 175
60 96 173
63 99 172
60 95 167
61 98 172
61 97 175
61 97 170
61 97 172
60 95 165
62 98 176
62 98 174
61 97 168
61 96 166
60 96 166
59 95 168
62 98 174
60 96 167
60 96 169
60 96 168
62 98 174
61 96 165
61 97 169
62 97 169
61 97 173
62 98 173
61 97 171
60 95 162
61 96 169
61 97 165
61 97 172
61 96 167
60 96 166
59 94 154
59 96 168
61 97 169
60 96 164
60 95 161
61 96 158
62 99 175
60 96 164
61 97 170
62 97 167
60 95 161
59 94 157
60 96 166
62 97 160
61 96 164
59 94 159
62 97 169
60 96 162
60 95 151
58 91 149
76 86 88
89 91 49
76 79 46
89 90 47
98 98 46
83 86 45
94 93 38
85 87 41
108 105 49
94 95 42
113 112 54
97 97 53
112 109 50
117 116 57
126 123 68
116 114 53
130 127 68
122 121 67
119 117 68
120 118 64
126 122 57
131 127 72
139 135 75
139 134 67
126 124 71
133 130 68
125 122 58
119 118 61
141 137 77
131 127 65
140 135 67
129 125 50
135 131 62
144 137 76
146 140 74
144 139 71
145 139 72
154 148 83
142 137 64
143 135 73
155 148 74
135 131 58
151 143 72
146 139 68
150 144 78
149 142 70
147 141 70
145 140 68
142 137 67
150 143 72
151 144 68
133 128 58
154 148 79
150 143 70
148 142 72
150 143 68
130 126 51
144 138 66
144 138 68
143 136 64
142 137 58
151 144 75
155 148 75
141 136 66
140 135 58
144 138 64
148 139 72
143 136 62
153 144 72
144 138 56
146 140 64
140 133 58
146 139 68
140 134 66
139 133 66
135 129 68
148 141 68
136 131 53
126 121 42
141 134 64
131 125 58
141 135 56
137 130 64
131 126 56
140 134 62
132 126 56
127 121 53
140 134 62
129 123 56
144 136 68
134 128 56
112 108 42
128 123 51
104 101 32
112 108 39
100 97 32
135 139 39
141 157 0
138 155 0
146 165 0
149 165 0
144 160 0
148 164 0
145 164 0
149 167 0
150 168 0
144 160 0
146 165 0
150 167 0
150 167 0
147 163 0
153 170 0
150 171 0
152 172 0
152 173 0
147 168 0
149 168 0
153 172 0
150 171 0
152 173 0
149 171 0
151 172 0
152 173 0
152 173 0
151 171 0
155 175 0
150 170 0
156 176 0
158 178 0
152 172 0
151 173 0
148 168 0
150 170 0
157 176 0
156 176 0
152 173 0
150 170 0
147 170 0
152 173 0
149 170 0
145 165 0
158 178 0
152 172 0
155 175 0
152 172 0
152 172 0
150 170 0
159 179 0
148 169 0
153 173 0
151 172 0
148 167 0
153 172 0
146 168 0
150 170 0
148 168 0
142 162 0
149 169 0
153 173 0
150 171 0
151 172 0
147 168 0
151 173 0
151 171 0
152 172 0
149 170 0
152 172 0
148 167 0
147 168 0
147 168 0
149 169 0
148 168 0
149 169 0
147 168 0
152 172 0
152 173 0
150 170 0
146 165 0
154 174 0
147 167 0
147 166 0
146 166 0
153 174 0
150 170 0
148 169 0
143 163 0
143 163 0
152 173 0
144 164 0
144 165 0
151 170 0
145 165 0
145 165 0
148 169 0
151 171 0
143 163 0
149 170 0
152 173 0
155 175 0
147 166 0
148 167 0
147 168 0
148 167 0
148 168 0
147 168 0
150 171 0
152 173 0
148 168 0
150 171 0
144 164 0
142 162 0
149 169 0
149 168 0
141 162 0
147 166 0
149 169 0
146 167 0
145 165 0
147 168 0
151 170 0
150 170 0
144 163 0
148 168 0
85 114 140
61 98 168
61 96 161
60 95 159
61 96 162
61 97 164
59 95 163
61 98 168
60 95 156
61 97 170
61 97 169
61 97 167
62 98 173
62 97 170
62 98 172
61 96 165
60 96 164
61 98 174
60 95 166
60 95 161
63 99 173
62 98 174
60 96 165
61 97 170
61 97 173
62 98 170
61 97 166
61 96 170
61 97 174
60 96 169
61 97 170
60 96 167
62 98 176
60 96 173
60 96 169
61 97 173
60 96 172
61 97 170
61 97 170
61 97 172
61 97 174
61 96 170
61 97 174
61 97 175
60 97 173
60 96 170
60 96 166
62 98 171
61 98 177
60 96 168
61 97 172
61 97 172
60 96 170
61 98 177
60 96 170
61 97 175
61 98 170
61 97 173
61 97 168
60 96 172
60 96 173
60 95 165
60 96 173
59 95 164
61 97 175
60 96 173
62 98 177
60 95 158
62 98 175
61 97 173
62 98 175
61 97 175
60 96 169
60 97 174
61 96 171
59 94 163
61 97 175
60 96 167
61 97 173
61 97 173
61 96 173
61 97 171
61 97 176
60 97 174
60 95 171
61 97 173
61 97 173
61 97 176
60 95 162
60 96 173
61 96 171
61 97 171
60 96 173
61 96 167
63 99 169
59 95 167
60 95 167
62 98 167
61 97 171
61 97 173
60 96 169
60 95 166
61 97 176
61 97 175
60 96 165
61 96 171
61 96 169
60 96 167
60 95 167
61 97 169
62 97 175
61 96 171
58 93 163
62 98 173
59 95 168
61 97 171
60 96 167
59 95 166
61 97 170
59 94 162
60 95 166
61 97 171
61 97 171
62 98 170
62 97 170
62 98 177
60 96 168
60 96 169
59 95 168
60 96 171
61 96 162
61 97 168
59 94 162
62 99 176
60 96 166
61 97 172
60 96 170
60 96 168
60 96 166
60 96 172
61 96 161
61 97 172
60 96 169
60 95 159
61 97 172
62 98 173
61 97 171
62 98 171
62 98 173
59 95 162
61 97 161
60 96 165
60 95 161
61 98 175
61 96 166
59 94 164
62 98 173
61 96 168
62 98 171
62 97 168
60 96 164
61 97 169
61 97 167
61 97 166
61 97 168
63 99 173
61 96 163
62 98 169
61 96 162
60 95 165
61 95 164
61 97 166
62 96 163
60 95 160
60 95 157
61 96 160
62 97 162
66 90 126
75 78 40
86 86 44
80 82 42
93 94 51
96 97 55
94 95 41
102 102 48
111 109 57
93 93 49
100 99 53
91 93 51
101 101 56
117 113 58
108 108 51
116 115 58
118 115 58
126 123 63
117 116 56
119 115 64
135 130 73
112 112 61
124 121 59
131 128 64
122 119 61
134 129 70
144 138 72
132 127 65
142 136 67
118 116 56
130 126 60
140 135 63
140 135 69
133 129 62
149 144 80
148 143 75
142 136 71
146 140 71
148 142 70
139 133 61
140 136 63
152 145 77
146 140 71
131 127 63
145 139 72
144 137 67
147 140 68
144 140 61
140 134 67
142 136 60
147 141 70
150 144 70
152 145 70
131 126 53
147 143 71
143 138 58
153 145 75
146 140 66
136 130 60
153 146 66
152 146 72
148 141 68
131 127 53
143 136 62
151 144 68
137 131 53
133 127 48
140 135 64
146 140 68
139 135 60
149 140 68
131 127 66
141 135 66
132 127 56
141 135 56
133 127 60
138 132 60
144 137 68
133 126 56
130 125 56
125 121 48
135 128 51
135 130 56
138 132 58
133 127 56
116 112 45
120 115 51
117 113 42
126 120 60
126 120 45
118 114 45
112 107 39
128 123 42
112 109 36
94 89 36
103 100 36
144 158 16
154 173 0
138 154 0
147 165 0
147 164 0
145 164 0
147 165 0
148 166 0
147 166 0
148 166 0
160 176 0
154 172 0
148 167 0
139 156 0
150 168 0
146 164 0
150 172 0
152 173 0
154 174 0
154 174 0
152 172 0
149 169 0
153 173 0
158 179 0
151 172 0
155 175 0
150 170 0
154 174 0
152 173 0
148 169 0
149 169 0
156 175 0
156 176 0
148 169 0
151 172 0
153 174 0
152 173 0
147 168 0
155 176 0
150 170 0
148 170 0
153 173 0
155 176 0
151 171 0
152 174 0
156 176 0
146 167 0
149 169 0
149 170 0
147 167 0
148 169 0
144 163 0
154 174 0
152 173 0
151 172 0
156 175 0
154 174 0
148 170 0
139 160 0
153 173 0
151 170 0
149 170 0
149 169 0
150 170 0
149 170 0
149 170 0
151 171 0
148 168 0
149 170 0
154 173 0
150 170 0
152 172 0
150 170 0
152 172 0
145 165 0
149 169 0
153 173 0
149 170 0
149 170 0
149 171 0
157 177 0
153 173 0
150 171 0
149 170 0
154 174 0
153 173 0
151 171 0
153 172 0
148 168 0
149 169 0
149 170 0
147 167 0
146 167 0
150 170 0
145 165 0
151 170 0
154 174 0
149 169 0
151 170 0
149 169 0
143 163 0
141 162 0
152 172 0
144 165 0
149 170 0
149 169 0
146 165 0
151 171 0
151 170 0
146 167 0
141 161 0
138 158 0
146 164 0
150 170 0
143 163 0
148 169 0
142 160 0
149 170 0
145 165 0
152 172 0
149 170 0
141 161 0
146 167 0
143 163 0
151 170 0
145 167 0
137 158 51
63 98 154
60 94 148
61 97 168
60 94 156
61 98 169
61 97 166
61 97 168
62 98 163
61 97 171
60 95 160
62 98 171
61 96 165
60 95 162
60 96 171
59 94 162
62 98 175
63 99 174
61 97 170
61 98 175
61 98 172
62 98 169
63 98 174
61 97 166
61 97 169
62 97 167
60 96 171
62 99 178
61 99 174
60 96 166
60 96 171
61 97 173
60 96 169
62 98 175
61 97 172
62 98 176
62 98 174
61 97 172
61 97 172
61 97 174
61 98 174
61 97 172
61 97 174
61 97 174
61 97 176
60 96 159
60 96 172
60 96 171
59 95 169
60 96 170
60 96 172
61 96 166
61 97 172
59 95 169
61 97 172
62 98 175
61 97 172
59 95 167
61 97 175
61 96 169
61 97 173
60 95 167
61 97 173
62 98 173
61 97 171
61 97 177
59 95 165
61 97 173
60 96 169
60 96 169
60 96 169
62 98 175
62 98 173
61 96 171
60 96 174
59 95 169
59 95 169
60 96 173
60 96 169
61 97 171
61 97 173
61 97 169
60 97 174
60 95 169
61 97 167
61 97 171
60 96 174
60 96 173
60 96 173
61 96 171
60 96 171
60 96 172
61 96 173
61 96 171
61 97 174
62 98 176
60 96 173
61 97 173
61 97 175
60 96 165
60 95 169
60 96 169
60 96 167
59 94 165
60 96 165
60 96 165
60 96 171
61 97 174
62 98 175
59 94 161
60 95 171
61 97 175
61 97 171
62 98 173
61 97 171
60 96 170
60 96 167
61 97 171
61 97 170
59 95 169
61 97 173
62 98 175
59 94 164
60 96 171
59 95 168
59 95 163
61 97 174
61 97 176
61 97 172
61 96 168
61 98 166
61 97 171
61 96 168
60 96 172
60 96 172
59 95 168
60 97 172
63 99 169
62 98 176
60 96 165
61 97 168
61 97 171
62 97 172
61 96 167
61 96 160
61 96 167
61 97 172
60 96 170
61 97 170
61 97 170
59 94 161
61 97 171
62 98 173
61 97 166
60 95 159
61 97 168
60 96 161
61 97 165
60 96 171
61 96 167
61 97 167
60 96 166
61 98 172
60 96 162
62 98 171
62 97 165
62 98 172
59 94 163
62 97 163
61 97 169
61 97 168
63 99 170
59 93 159
61 96 161
61 95 160
60 94 155
60 94 156
62 97 164
58 92 149
79 81 46
94 94 53
81 85 46
71 73 45
98 99 53
97 97 55
96 96 38
102 101 51
111 109 47
92 92 41
104 102 60
110 108 58
122 117 62
125 122 67
106 105 53
113 112 61
114 113 55
126 123 67
134 130 64
116 112 61
132 127 74
131 127 69
125 122 62
134 129 63
142 138 78
137 133 70
120 118 62
129 125 64
127 123 56
139 134 70
133 129 66
141 137 75
135 130 56
135 130 71
144 139 74
134 129 61
144 139 61
129 126 64
147 141 66
151 145 74
150 144 76
142 137 68
148 143 65
143 137 71
146 140 70
153 146 68
138 134 59
140 135 61
155 149 75
142 136 62
151 143 70
141 135 68
143 138 60
153 146 72
149 141 72
150 143 70
145 139 68
139 134 59
157 149 77
143 137 56
141 135 70
152 145 68
138 132 64
146 139 66
146 138 70
133 128 53
147 140 70
139 132 64
141 135 62
127 122 51
145 139 68
134 128 48
128 123 53
129 123 56
129 122 60
137 130 60
135 129 58
141 135 62
136 129 58
136 130 64
132 127 53
146 139 66
114 110 42
130 123 60
116 111 45
135 129 56
134 128 45
117 112 51
130 125 58
113 109 42
110 105 36
98 95 32
115 108 36
95 93 32
132 140 32
149 167 0
153 168 0
150 168 0
144 162 0
147 164 0
144 161 0
150 166 0
152 171 0
154 172 0
157 176 0
150 166 0
139 159 0
153 171 0
152 170 0
151 169 0
150 167 0
152 171 0
156 176 0
153 173 0
156 177 0
153 174 0
150 171 0
151 172 0
155 175 0
155 176 0
151 171 0
156 177 0
146 166 0
146 165 0
150 170 0
152 171 0
155 176 0
150 170 0
157 177 0
151 172 0
154 174 0
153 175 0
152 172 0
151 171 0
147 168 0
148 168 0
150 169 0
149 170 0
152 173 0
151 171 0
148 170 0
152 173 0
148 169 0
157 176 0
151 171 0
149 170 0
150 171 0
148 169 0
149 170 0
149 170 0
152 172 0
153 173 0
152 173 0
154 174 0
155 175 0
147 167 0
150 171 0
155 176 0
147 167 0
155 174 0
151 172 0
150 171 0
152 172 0
148 170 0
148 169 0
154 174 0
150 170 0
151 171 0
147 167 0
151 172 0
147 168 0
153 174 0
150 169 0
150 170 0
143 164 0
150 172 0
148 169 0
150 172 0
144 166 0
152 173 0
149 169 0
153 172 0
149 170 0
150 172 0
144 165 0
156 176 0
148 168 0
150 169 0
149 169 0
147 169 0
156 177 0
147 167 0
143 163 0
149 170 0
157 178 0
150 170 0
150 170 0
149 169 0
146 165 0
150 171 0
149 170 0
149 169 0
147 169 0
149 169 0
147 167 0
146 166 0
149 169 0
151 171 0
150 170 0
154 174 0
140 161 0
142 163 0
145 165 0
149 169 0
153 172 0
151 172 0
145 166 0
147 167 0
143 165 0
145 165 0
146 168 0
118 141 96
60 94 151
60 95 155
61 97 164
61 97 169
61 97 172
62 97 168
60 96 166
60 95 163
61 98 172
59 94 159
61 97 166
61 97 172
60 96 164
60 96 169
59 95 164
62 98 167
62 98 171
62 98 170
62 98 172
60 96 168
62 99 176
61 97 170
62 98 175
60 96 169
61 97 170
61 97 163
60 96 169
61 97 175
62 99 168
59 95 167
61 96 167
61 97 168
61 97 172
62 98 175
61 97 171
59 96 172
62 98 174
59 95 165
62 98 173
60 96 172
61 97 175
60 95 168
60 96 176
61 97 174
61 97 165
60 96 170
62 98 174
61 97 172
61 97 172
60 96 166
62 98 175
60 96 171
61 97 177
60 96 170
60 95 166
60 96 172
60 96 173
60 96 172
60 96 169
61 97 173
61 97 173
60 96 171
61 96 170
59 95 171
61 96 171
60 95 166
61 98 175
61 96 169
60 96 171
61 97 175
61 97 175
61 96 169
61 96 173
61 97 166
61 97 171
61 97 171
60 96 173
61 97 169
59 95 165
60 96 167
61 97 171
62 98 175
61 97 173
61 97 173
60 96 169
60 95 165
59 95 165
60 96 169
59 94 165
60 96 171
60 96 171
60 96 173
60 95 164
60 96 171
60 96 169
60 95 171
60 96 173
60 96 169
61 97 169
60 96 171
60 95 169
61 97 171
60 95 169
60 95 167
60 96 169
61 97 171
61 97 169
61 96 171
61 96 171
61 97 170
60 96 169
61 96 173
62 97 166
61 97 168
61 97 173
61 97 173
60 95 166
60 95 169
60 96 168
60 96 167
61 97 173
60 96 166
59 95 171
62 98 176
62 98 166
60 95 166
61 97 170
62 98 174
61 97 172
61 97 169
60 96 168
62 97 172
61 96 170
60 96 172
60 95 164
59 95 170
62 98 172
60 96 167
60 96 159
61 96 172
61 96 165
61 97 172
60 96 172
61 96 167
58 93 156
61 97 174
61 97 165
61 97 171
59 95 163
61 96 167
61 97 168
61 97 172
60 96 165
60 95 163
61 97 166
60 96 168
62 98 167
60 95 165
62 99 170
62 97 160
63 99 169
60 96 166
61 96 162
62 97 163
62 97 165
61 96 166
61 97 166
59 95 159
61 97 167
62 98 168
61 97 163
60 95 158
61 96 168
58 93 158
60 95 161
60 95 160
61 98 167
59 93 153
75 88 102
82 82 31
86 87 49
91 94 44
87 88 49
100 99 47
104 103 52
98 97 41
99 99 54
108 107 61
115 114 61
111 109 61
126 122 61
125 121 50
114 112 53
124 120 59
106 106 55
109 110 54
123 121 68
134 131 70
127 124 71
132 128 56
121 119 56
128 125 61
123 121 59
134 130 58
130 126 60
131 127 66
140 135 64
119 116 56
140 135 74
139 135 72
142 137 59
128 124 54
133 129 58
146 140 76
157 149 77
142 137 73
144 140 67
147 142 74
137 131 58
144 138 70
142 137 67
148 141 75
140 135 58
147 141 67
128 124 52
143 137 63
140 135 61
156 149 75
144 138 66
149 143 68
146 140 67
152 146 66
144 138 67
157 149 66
138 132 64
142 136 58
139 133 66
137 131 60
145 139 62
139 133 70
123 120 48
131 126 48
150 143 70
152 146 75
154 146 70
137 130 60
139 133 60
125 120 53
143 137 64
145 138 64
125 120 36
131 126 60
132 126 53
132 126 53
136 131 62
137 132 62
130 125 56
129 124 56
122 118 39
133 127 58
131 125 53
126 121 56
125 119 58
126 120 45
138 132 58
135 129 56
115 110 42
127 121 51
120 114 51
94 90 28
101 97 39
115 115 32
144 160 0
144 160 0
150 166 0
149 166 0
144 160 0
146 163 0
156 171 0
143 158 0
142 159 0
145 160 0
150 168 0
146 163 0
146 161 0
151 167 0
149 168 0
145 162 0
143 162 0
163 183 0
150 170 0
156 176 0
146 167 0
153 174 0
149 171 0
145 166 0
152 173 0
154 175 0
150 169 0
149 168 0
155 175 0
147 168 0
156 176 0
152 172 0
152 173 0
151 171 0
149 169 0
152 173 0
154 174 0
160 179 0
144 164 0
149 169 0
149 168 0
146 166 0
156 176 0
150 171 0
151 172 0
155 176 0
153 174 0
155 175 0
148 168 0
154 173 0
149 170 0
146 165 0
155 175 0
157 178 0
150 170 0
146 166 0
152 171 0
151 172 0
153 173 0
148 168 0
148 167 0
143 164 0
151 171 0
156 175 0
153 173 0
154 174 0
151 171 0
153 173 0
147 168 0
147 167 0
150 171 0
151 171 0
147 167 0
150 169 0
152 171 0
147 168 0
150 170 0
149 169 0
150 170 0
150 169 0
153 174 0
152 172 0
155 176 0
150 169 0
149 170 0
153 172 0
143 164 0
154 174 0
145 164 0
150 170 0
151 171 0
149 168 0
148 169 0
146 165 0
150 170 0
150 169 0
144 164 0
143 163 0
152 172 0
148 168 0
143 164 0
149 169 0
148 168 0
148 168 0
144 165 0
147 168 0
139 158 0
144 164 0
151 171 0
150 171 0
152 171 0
150 171 0
143 164 0
150 171 0
147 168 0
149 170 0
148 168 0
149 170 0
145 165 0
147 165 0
141 162 0
149 170 0
148 168 0
147 167 0
152 171 0
150 171 0
142 161 0
97 122 122
61 97 163
60 95 154
60 96 162
62 98 170
61 96 159
60 95 158
62 98 171
60 96 160
62 98 169
61 97 171
60 95 159
62 98 170
60 97 173
61 97 172
62 99 172
60 96 170
63 99 176
59 94 157
62 98 170
61 97 170
61 97 167
60 95 168
61 97 169
61 96 166
59 94 166
61 96 167
61 96 169
61 98 175
61 98 175
63 99 173
59 95 167
62 98 169
61 97 173
61 97 174
61 97 171
59 94 163
60 95 166
62 98 172
61 96 167
60 97 172
61 97 174
61 97 173
61 97 172
60 96 168
61 97 172
61 97 172
61 97 172
61 97 174
63 100 172
60 96 166
61 97 172
61 96 168
61 97 173
61 97 174
62 98 177
61 97 170
61 96 170
61 97 173
61 96 169
60 95 168
61 97 173
60 96 169
61 97 171
60 96 173
62 98 173
62 98 177
61 97 169
61 97 171
61 96 171
61 97 167
63 98 173
61 97 175
60 96 169
60 95 169
60 96 171
61 97 175
61 97 173
61 97 169
61 96 171
60 96 167
62 98 176
60 96 167
61 97 173
61 97 173
61 96 171
60 96 171
61 97 174
60 95 169
61 97 171
62 97 175
61 96 167
62 98 169
60 95 167
61 96 171
60 96 171
60 95 169
61 96 165
61 97 169
62 98 175
60 96 167
60 96 167
60 95 167
60 96 162
61 96 167
61 97 173
60 96 173
59 95 171
61 97 169
61 97 175
61 96 169
60 95 166
60 96 166
61 97 170
60 96 171
59 94 162
60 95 169
61 96 169
62 98 176
59 95 169
60 96 170
60 96 172
60 96 168
61 96 170
61 97 170
61 96 168
61 97 173
60 95 170
61 97 167
61 97 171
60 95 164
62 98 170
60 96 167
59 94 158
61 96 170
60 96 166
61 96 168
61 97 176
61 97 165
60 96 168
62 98 168
59 95 172
60 95 162
60 96 168
60 95 161
60 95 161
61 96 165
61 97 167
60 95 155
62 98 176
59 94 161
62 98 167
60 95 164
61 97 171
60 95 163
61 97 166
61 97 166
61 97 172
61 97 155
60 95 165
60 94 158
60 94 157
63 99 173
61 96 162
60 95 159
61 96 152
61 96 163
59 94 161
60 94 157
59 94 162
61 97 164
61 96 162
61 96 166
60 95 157
61 94 150
59 94 158
59 94 155
61 95 154
61 96 162
57 84 123
87 85 39
107 105 51
110 108 53
85 86 43
91 91 43
86 86 45
99 98 52
92 93 47
110 108 60
112 111 58
113 111 58
119 118 62
114 112 60
102 102 48
121 120 68
116 113 60
126 122 62
131 127 67
118 116 63
125 122 65
112 111 44
118 115 55
122 118 61
129 125 63
136 131 63
125 121 62
139 135 63
130 127 68
134 130 60
145 140 66
147 141 69
136 129 72
135 132 66
134 129 64
138 133 65
136 132 63
148 142 75
128 125 59
144 137 70
148 141 77
140 135 62
129 123 61
143 137 64
144 138 65
147 141 66
140 135 57
130 125 56
146 140 60
148 143 68
145 139 58
140 134 56
139 134 56
140 135 53
136 131 53
139 135 53
139 134 60
146 139 73
158 150 77
136 131 66
144 138 60
141 135 60
137 131 56
151 145 66
129 123 53
135 130 64
134 129 56
151 143 70
142 135 60
139 134 60
136 131 58
135 130 56
137 132 62
136 131 51
132 126 64
138 132 53
138 131 66
139 133 58
136 129 58
117 112 48
137 131 64
127 122 45
140 133 60
128 123 58
130 125 45
127 120 42
129 123 51
132 127 53
99 95 22
128 123 56
121 115 45
101 96 28
105 101 39
143 158 16
147 163 0
144 161 0
151 166 0
151 167 0
141 159 0
147 165 0
147 165 0
146 163 0
147 163 0
144 159 0
151 167 0
151 166 0
144 161 0
144 161 0
148 165 0
146 161 0
148 166 0
152 173 0
148 168 0
157 177 0
151 171 0
157 177 0
148 169 0
153 174 0
148 168 0
156 176 0
154 174 0
151 172 0
148 169 0
151 171 0
150 170 0
151 172 0
150 171 0
150 170 0
153 173 0
147 167 0
148 168 0
150 171 0
153 174 0
154 175 0
148 169 0
147 168 0
153 173 0
144 165 0
148 169 0
153 172 0
152 171 0
155 176 0
147 167 0
152 173 0
151 171 0
155 176 0
155 174 0
152 172 0
149 170 0
152 171 0
150 170 0
150 170 0
148 169 0
154 174 0
151 171 0
151 170 0
153 173 0
151 171 0
150 172 0
148 167 0
148 169 0
147 169 0
147 168 0
146 166 0
149 169 0
149 169 0
148 168 0
151 171 0
145 165 0
154 174 0
152 172 0
147 168 0
146 167 0
151 172 0
147 167 0
148 169 0
148 168 0
154 174 0
152 174 0
147 169 0
152 173 0
144 164 0
148 169 0
148 170 0
143 162 0
147 166 0
144 165 0
147 168 0
148 167 0
151 171 0
150 170 0
150 170 0
146 166 0
147 167 0
148 168 0
143 163 0
151 171 0
154 174 0
144 163 0
147 168 0
146 167 0
150 170 0
149 170 0
146 166 0
150 169 0
148 168 0
144 163 0
146 167 0
151 171 0
144 163 0
147 167 0
138 157 0
147 167 0
142 162 0
143 163 0
150 170 0
153 173 0
145 166 0
145 165 0
144 163 0
148 168 0
78 107 136
60 96 164
62 98 168
59 94 157
61 97 160
59 94 155
60 96 164
61 96 164
62 98 168
60 95 157
61 96 166
59 95 165
61 97 169
62 97 172
63 99 172
59 94 158
62 99 177
62 97 166
60 96 167
62 97 170
61 96 159
61 96 167
61 97 170
62 98 167
61 97 170
61 96 168
60 96 168
58 93 161
61 97 173
60 96 171
61 97 170
60 96 171
61 96 167
60 96 172
61 96 169
62 98 176
59 95 167
61 98 176
61 97 172
61 97 166
61 97 172
61 96 170
61 97 174
60 96 167
61 97 170
60 96 170
61 97 174
61 98 176
61 97 173
59 94 162
60 96 168
61 97 174
61 97 176
61 97 172
59 95 171
61 97 173
62 98 171
60 96 166
60 96 171
60 95 164
61 96 170
61 97 169
60 96 169
61 97 169
60 96 171
61 97 175
62 98 173
60 96 169
63 100 165
61 97 168
61 97 173
62 97 169
61 97 171
61 96 167
59 95 166
61 97 171
61 97 169
61 97 173
61 96 171
60 96 167
61 97 174
61 97 167
59 94 163
61 97 174
61 97 169
61 97 174
59 95 169
61 96 165
61 96 171
60 96 172
62 97 173
60 95 169
60 96 171
61 97 169
60 96 173
61 96 171
59 95 167
60 96 172
61 97 171
60 95 169
60 96 169
61 96 167
61 97 173
61 97 173
60 95 167
60 96 171
59 95 167
61 97 167
60 96 169
59 95 165
60 96 171
61 97 171
60 97 171
61 97 175
61 97 166
61 97 173
62 97 166
61 96 166
61 97 169
60 95 168
61 97 170
60 95 160
61 97 173
60 95 167
59 95 165
60 97 175
61 96 168
59 94 164
62 98 168
60 97 166
61 97 170
60 96 173
60 96 168
61 97 174
61 97 168
62 98 170
63 98 174
60 95 168
60 95 163
61 97 168
60 96 164
61 97 173
60 95 167
61 97 172
62 98 171
62 98 169
61 97 173
60 96 165
61 96 167
61 96 166
61 96 168
60 96 166
62 98 175
60 94 157
61 96 162
60 96 165
61 97 164
60 95 159
62 98 168
61 96 161
60 95 156
61 96 165
61 97 166
61 96 163
61 96 168
61 96 163
62 98 173
60 95 164
62 97 164
62 97 164
60 95 161
61 95 161
60 95 154
60 94 157
61 96 161
61 97 168
59 94 149
61 95 158
59 94 155
64 94 145
85 86 40
88 90 41
84 86 45
80 83 39
87 86 36
90 92 47
89 89 49
97 97 49
115 114 59
94 94 46
106 103 51
95 93 41
112 108 47
121 118 65
104 102 51
124 119 57
144 138 70
112 111 51
115 112 63
133 128 63
130 125 63
125 121 60
110 110 54
140 135 65
123 120 59
140 134 62
126 122 57
128 124 57
137 133 60
135 132 64
149 143 62
128 124 61
137 132 65
136 131 64
127 123 58
147 140 64
128 125 51
146 142 64
131 126 62
117 115 39
146 139 60
146 141 72
136 131 55
143 138 69
142 136 62
142 136 62
151 144 70
147 140 71
140 134 62
141 136 58
141 136 60
146 140 68
141 136 58
146 139 64
147 139 66
141 135 62
139 132 66
144 137 64
150 141 74
149 143 62
150 143 60
142 134 62
131 124 56
135 130 56
140 135 60
142 137 58
150 143 66
144 137 66
141 134 53
137 130 56
144 136 62
154 147 66
136 130 58
133 128 45
146 138 64
132 126 56
128 123 51
126 120 45
126 122 53
141 135 58
115 112 39
113 108 42
129 124 60
112 108 42
132 125 56
116 111 45
117 113 39
113 109 36
116 112 42
104 100 42
109 105 39
120 127 22
144 158 0
145 162 0
145 162 0
150 166 0
142 159 0
147 165 0
147 162 0
147 165 0
149 165 0
142 158 0
147 163 0
144 162 0
149 166 0
149 168 0
148 166 0
150 164 0
146 163 0
148 165 0
152 172 0
152 173 0
153 174 0
153 172 0
155 176 0
153 173 0
154 175 0
148 169 0
154 174 0
148 168 0
151 172 0
151 169 0
149 170 0
149 168 0
157 178 0
155 176 0
147 168 0
157 176 0
149 169 0
149 169 0
156 176 0
150 171 0
150 171 0
143 163 0
148 168 0
150 171 0
154 175 0
154 174 0
146 167 0
156 176 0
150 169 0
151 171 0
150 170 0
150 170 0
152 172 0
150 170 0
146 167 0
153 172 0
152 173 0
149 169 0
151 171 0
150 169 0
149 169 0
150 170 0
147 168 0
149 170 0
146 167 0
146 166 0
148 168 0
145 165 0
148 169 0
146 166 0
152 172 0
150 171 0
145 165 0
153 174 0
151 171 0
150 171 0
148 168 0
146 166 0
148 169 0
151 172 0
146 167 0
151 172 0
147 167 0
144 164 0
144 165 0
145 166 0
151 172 0
147 168 0
148 168 0
149 169 0
152 173 0
148 168 0
146 166 0
142 162 0
143 162 0
147 168 0
150 170 0
150 171 0
152 173 0
155 175 0
148 169 0
144 164 0
146 166 0
151 170 0
146 164 0
149 170 0
150 170 0
148 168 0
148 169 0
144 164 0
147 166 0
148 167 0
151 171 0
151 171 0
146 166 0
149 169 0
139 159 0
149 169 0
142 161 0
146 164 0
142 161 0
147 167 0
145 166 0
142 162 0
157 178 0
144 164 0
148 166 0
133 155 64
59 93 145
60 95 153
60 95 161
62 98 165
61 97 163
62 99 163
62 99 169
61 97 164
61 97 170
61 97 165
60 95 161
59 95 155
62 98 172
59 94 155
61 96 164
60 96 161
61 97 170
61 97 166
61 97 167
60 95 166
60 96 170
61 97 170
60 96 172
62 98 173
60 96 172
61 97 169
61 97 172
61 96 166
62 98 174
60 96 167
60 96 174
61 96 169
60 97 171
62 97 171
61 97 168
61 97 172
61 97 169
60 95 167
62 98 176
61 98 167
60 96 173
61 96 165
60 96 168
62 97 174
61 97 175
60 96 168
61 97 172
61 97 166
62 98 177
61 97 172
61 97 172
61 97 166
61 96 171
61 97 170
59 95 171
60 96 170
61 96 172
61 97 172
61 96 166
61 96 170
60 96 169
60 96 174
59 95 169
59 95 169
61 96 169
61 97 173
61 96 173
60 96 171
61 96 169
61 96 167
59 94 165
61 97 173
61 97 173
60 96 173
61 97 171
60 96 171
59 95 167
60 96 165
59 95 165
61 97 173
61 96 171
59 95 171
61 95 162
61 96 171
60 96 171
62 98 173
61 96 173
61 97 171
62 98 173
60 96 167
60 95 165
60 95 163
60 96 169
60 96 172
61 96 171
60 96 172
62 98 175
59 95 171
61 97 174
59 94 159
61 96 173
60 96 167
61 97 173
61 97 171
62 97 171
61 96 169
62 98 173
61 96 171
60 95 164
60 95 165
59 94 165
61 96 167
61 96 169
62 98 173
59 95 171
60 96 167
61 96 169
60 96 169
61 97 171
60 95 167
61 97 168
58 93 158
61 96 169
60 96 167
60 96 168
62 97 172
60 95 166
61 97 172
62 98 172
61 96 162
62 98 164
60 96 156
61 97 174
61 96 166
61 97 172
60 95 157
59 94 157
60 96 167
61 97 166
61 97 170
61 97 172
61 97 172
60 95 163
60 96 165
60 95 165
60 96 167
61 96 168
59 94 159
60 96 170
60 95 165
61 97 167
60 95 161
59 95 165
61 96 167
61 97 171
62 97 169
60 95 156
59 95 166
61 96 168
61 97 169
61 97 164
59 93 153
61 97 166
60 95 161
61 96 164
62 97 172
60 96 162
60 95 167
59 95 162
61 96 169
61 97 165
60 94 159
60 96 166
60 95 159
59 92 148
61 96 162
61 96 157
61 95 151
62 97 159
61 96 158
71 75 53
89 90 45
87 88 25
89 91 48
100 97 44
89 90 40
101 99 41
84 84 41
110 109 48
88 88 36
106 103 49
107 107 38
104 102 52
104 103 44
114 111 59
125 121 61
122 117 57
131 126 63
124 120 53
125 121 51
128 125 58
122 117 44
127 123 61
141 135 69
121 118 57
129 124 63
141 136 71
145 137 63
130 125 56
132 128 63
120 117 51
131 128 57
144 137 71
143 138 67
140 134 63
148 141 71
141 135 66
136 130 60
124 121 53
152 145 75
152 145 76
136 131 63
135 130 62
140 134 60
135 131 51
142 137 60
136 131 57
140 134 60
134 130 51
142 136 58
148 141 67
136 131 59
138 133 62
145 139 66
133 129 45
140 134 62
134 128 56
142 136 64
147 140 62
136 130 58
139 134 56
138 132 60
140 135 64
130 124 48
137 132 48
133 127 56
145 138 60
142 137 58
131 126 51
140 134 58
139 133 58
137 132 60
125 120 45
132 126 60
129 125 53
138 131 53
125 122 42
132 127 36
123 118 45
111 108 32
121 114 56
112 108 22
103 98 32
120 114 42
118 113 42
134 128 58
105 101 42
120 114 48
139 132 58
123 117 42
121 118 39
145 157 16
145 164 0
149 165 0
147 160 0
148 160 0
150 167 0
145 160 0
149 168 0
145 160 0
153 170 0
141 158 0
143 160 0
146 163 0
145 162 0
145 162 0
144 158 0
149 166 0
153 169 0
148 164 0
151 171 0
142 163 0
147 167 0
153 175 0
151 170 0
152 172 0
151 171 0
150 171 0
149 169 0
150 170 0
153 174 0
153 175 0
153 173 0
148 169 0
153 173 0
146 165 0
153 174 0
152 172 0
154 174 0
148 168 0
147 167 0
155 175 0
148 168 0
151 170 0
150 171 0
151 171 0
154 174 0
151 172 0
151 172 0
147 168 0
158 179 0
155 175 0
150 171 0
147 167 0
155 176 0
145 165 0
149 170 0
148 168 0
149 169 0
149 169 0
144 166 0
151 172 0
149 170 0
150 170 0
145 165 0
152 172 0
148 169 0
145 166 0
148 168 0
144 165 0
150 171 0
148 168 0
153 173 0
145 166 0
147 167 0
149 169 0
154 174 0
144 165 0
150 170 0
146 166 0
148 168 0
150 171 0
149 170 0
142 163 0
148 168 0
148 168 0
141 161 0
153 173 0
145 166 0
148 168 0
146 167 0
141 162 0
150 170 0
146 165 0
149 169 0
148 167 0
146 166 0
144 165 0
150 169 0
148 169 0
145 165 0
150 170 0
151 171 0
145 165 0
146 167 0
156 177 0
138 158 0
147 167 0
146 167 0
152 173 0
147 168 0
146 166 0
149 167 0
151 171 0
140 160 0
142 161 0
147 167 0
148 168 0
144 164 0
148 168 0
139 158 0
146 165 0
146 167 0
140 159 0
144 164 0
143 163 0
149 169 0
150 170 0
140 160 0
119 143 112
64 100 162
62 98 171
58 93 155
62 97 157
60 95 154
61 98 164
61 97 165
62 98 170
61 96 164
60 96 167
61 97 165
61 96 168
59 95 158
59 94 159
60 95 166
61 96 163
61 97 164
61 96 164
61 96 166
58 93 160
60 96 167
61 96 171
62 98 174
61 97 169
61 97 169
62 98 171
61 97 171
62 98 171
61 97 168
61 98 173
60 97 169
61 97 170
60 96 169
62 98 174
62 98 172
60 96 169
61 96 167
62 98 165
60 96 168
60 96 167
61 97 168
61 98 175
61 97 174
60 95 169
60 97 172
61 97 174
60 96 171
61 97 170
61 97 170
60 96 170
61 97 174
61 97 175
61 97 171
61 97 175
59 95 166
61 96 173
62 98 175
61 97 173
61 96 173
60 96 169
60 94 160
60 96 167
61 97 171
60 96 169
61 97 170
60 96 167
60 96 169
61 97 173
60 96 169
61 96 168
60 95 171
61 97 171
59 94 163
60 96 171
62 98 173
61 98 173
61 96 169
60 95 167
60 96 171
60 96 169
61 97 173
60 95 165
60 95 167
60 96 169
60 96 167
60 96 171
61 97 171
61 97 169
60 96 159
60 96 171
61 96 172
60 96 172
60 96 169
58 94 161
60 96 169
60 96 169
61 96 163
60 95 167
61 97 173
62 97 171
59 95 167
61 97 174
61 97 172
61 96 169
60 96 171
59 94 161
59 95 169
60 95 161
61 97 171
61 97 173
61 96 167
62 97 171
62 97 170
61 96 171
60 96 167
59 95 171
60 96 171
61 97 175
62 98 173
61 97 173
60 96 169
62 98 173
60 95 166
60 95 168
60 96 169
58 94 162
59 94 156
59 94 162
61 97 170
61 96 168
60 95 166
60 95 162
60 96 168
61 97 172
62 98 167
60 95 165
61 97 173
60 96 172
61 97 174
60 95 164
60 95 165
62 98 170
62 98 173
62 97 168
62 99 161
59 95 168
60 96 169
62 98 171
61 96 169
61 98 171
61 96 170
62 97 164
61 96 160
61 96 166
61 96 166
60 96 165
61 97 169
62 99 179
58 93 154
61 96 162
62 98 171
60 95 164
61 98 173
61 96 163
61 97 167
60 96 164
61 97 165
62 97 170
60 95 157
61 96 163
61 95 162
60 95 160
61 96 158
60 96 163
60 95 161
60 94 156
61 97 162
61 96 156
59 93 154
60 93 149
82 93 103
80 81 44
90 91 37
92 92 36
89 88 44
90 90 47
89 90 49
105 103 44
108 106 47
104 102 43
120 117 58
103 103 45
106 102 33
115 113 47
112 109 49
120 116 52
130 126 63
123 120 64
118 116 52
133 130 52
122 120 54
119 117 51
121 118 53
116 113 52
116 114 56
114 112 58
131 126 63
141 137 67
125 123 54
130 126 67
131 126 55
134 130 68
141 134 66
131 126 53
136 132 55
137 131 58
141 135 61
137 131 62
134 128 58
134 130 51
137 131 60
142 136 64
134 130 57
133 129 57
149 143 72
138 132 58
128 123 48
138 133 57
144 137 58
129 125 47
138 132 56
138 131 53
144 138 58
141 135 60
143 136 66
143 135 74
137 131 58
143 135 68
143 137 64
135 130 56
148 142 66
150 143 68
147 139 64
138 132 53
132 125 56
139 133 58
131 126 51
136 129 56
130 125 48
138 132 60
133 126 53
136 130 60
133 127 48
133 127 60
130 125 56
125 120 51
124 119 51
150 143 64
147 140 74
115 111 36
129 124 39
132 127 51
112 107 45
116 110 42
107 104 32
125 119 48
108 105 36
114 110 32
106 102 32
110 104 32
136 146 16
140 156 0
141 157 0
144 161 0
144 159 0
141 159 0
147 163 0
140 156 0
144 158 0
142 156 0
142 160 0
141 159 0
153 170 0
148 164 0
143 158 0
148 165 0
154 170 0
145 161 0
147 164 0
139 155 0
155 176 0
154 175 0
148 169 0
151 172 0
146 167 0
155 176 0
151 172 0
150 169 0
153 172 0
156 177 0
149 170 0
147 168 0
152 172 0
147 168 0
153 173 0
146 167 0
154 173 0
145 166 0
144 165 0
147 168 0
157 177 0
151 170 0
147 167 0
149 169 0
157 178 0
148 168 0
151 172 0
149 170 0
155 175 0
146 167 0
148 169 0
155 176 0
148 169 0
146 167 0
146 165 0
145 166 0
147 168 0
147 166 0
155 174 0
153 174 0
152 171 0
148 168 0
148 168 0
149 168 0
151 171 0
148 167 0
153 174 0
148 168 0
148 168 0
147 167 0
147 168 0
150 171 0
147 167 0
150 170 0
147 168 0
156 176 0
151 172 0
146 166 0
146 166 0
155 174 0
148 168 0
143 164 0
151 171 0
152 172 0
150 170 0
146 166 0
149 170 0
152 172 0
147 167 0
151 171 0
145 165 0
141 161 0
145 167 0
149 169 0
148 168 0
154 173 0
146 167 0
142 161 0
151 171 0
145 165 0
150 170 0
146 165 0
151 171 0
147 168 0
149 168 0
144 164 0
151 170 0
144 165 0
141 162 0
142 163 0
155 175 0
147 168 0
143 164 0
145 164 0
149 169 0
156 175 0
145 164 0
142 163 0
149 170 0
144 165 0
145 166 0
149 169 0
146 167 0
150 171 0
149 169 0
141 161 0
147 168 0
142 163 0
146 167 0
107 132 132
60 95 157
60 95 154
58 92 149
61 96 162
61 96 159
62 98 170
62 98 162
59 94 161
59 95 162
59 95 164
62 98 171
61 97 168
61 96 166
62 98 171
61 96 164
61 97 166
59 94 163
61 97 170
62 98 172
62 98 175
61 97 163
61 97 173
62 97 171
61 97 168
60 95 165
60 95 166
61 96 163
61 97 172
61 96 168
61 97 171
59 94 159
60 95 163
62 98 174
61 96 169
62 98 174
60 96 163
59 95 167
62 98 167
61 97 172
60 96 166
61 98 176
61 97 173
62 98 170
61 97 170
61 96 173
60 96 174
61 97 172
61 98 176
61 97 176
60 96 171
60 96 170
60 96 172
60 95 170
60 95 164
61 97 168
61 96 170
61 97 171
61 97 175
60 96 171
59 94 164
61 96 171
61 97 171
60 96 168
60 95 164
61 97 171
61 97 171
62 97 171
60 96 165
60 95 167
59 95 169
60 95 165
60 96 169
61 96 169
62 98 171
61 97 174
61 96 171
60 95 167
61 96 167
60 96 174
60 95 165
60 96 171
60 96 169
62 98 169
61 96 169
61 96 169
61 97 173
60 95 165
59 96 172
61 96 171
61 96 165
60 95 169
61 96 172
61 96 167
60 95 169
60 96 171
60 95 165
61 97 172
60 95 169
61 97 167
60 96 171
60 95 163
59 94 162
59 94 163
58 93 161
60 96 169
60 96 165
61 97 174
60 96 167
59 95 165
61 96 169
60 95 158
61 97 167
60 95 165
61 97 173
62 97 173
60 95 168
62 98 170
60 96 169
61 96 164
60 96 171
63 99 169
60 96 170
61 97 173
60 96 168
59 95 167
63 99 173
62 98 172
60 95 162
61 97 170
60 96 170
59 94 162
62 98 172
61 97 172
61 96 162
60 95 162
60 96 170
61 97 168
59 94 159
60 95 164
62 98 169
62 97 170
61 96 168
61 96 167
61 96 165
61 97 167
60 96 167
60 95 163
62 99 176
61 98 175
61 96 169
60 95 163
61 96 171
60 95 162
61 97 170
61 97 169
61 97 163
61 97 170
60 94 160
61 96 169
62 98 175
60 96 166
60 95 164
62 97 168
63 99 169
60 96 162
62 99 176
62 98 169
62 98 172
59 94 155
62 98 165
59 94 155
62 96 161
61 96 160
61 96 165
62 97 159
60 95 160
60 95 155
61 97 163
57 90 144
58 91 146
61 86 126
80 80 42
97 96 41
94 93 37
90 92 39
89 90 40
101 100 57
90 90 42
89 90 46
102 101 42
111 109 58
106 103 52
97 96 44
110 108 49
110 109 52
115 113 44
110 106 52
118 115 60
116 113 52
123 119 62
126 122 56
119 117 55
119 117 59
122 119 57
124 121 55
130 126 61
122 118 59
123 119 63
133 129 52
129 125 53
130 126 53
131 126 62
127 123 58
121 117 57
141 135 62
128 123 58
140 135 62
136 131 59
140 136 61
134 129 51
136 131 61
133 128 57
135 131 57
144 138 51
144 137 69
137 132 61
146 140 70
127 122 52
136 130 57
134 129 58
140 135 64
133 128 58
134 129 53
133 128 54
148 141 68
140 135 60
133 129 51
144 138 64
133 128 53
139 132 62
136 131 53
138 132 58
132 127 53
146 140 62
137 131 62
140 134 64
146 140 64
141 135 60
145 139 60
129 124 48
136 130 66
133 128 39
125 120 48
135 130 64
143 136 62
129 124 53
131 125 58
126 120 48
137 130 62
118 114 39
125 120 39
125 119 48
130 124 48
125 120 53
121 117 42
112 107 36
107 103 22
115 109 42
115 112 36
126 133 22
149 165 0
152 168 0
138 154 0
143 160 0
144 161 0
146 161 0
142 157 0
148 162 0
151 168 0
135 152 0
151 166 0
145 162 0
149 167 0
140 153 0
150 169 0
144 160 0
145 163 0
150 167 0
141 159 0
146 163 0
151 172 0
156 176 0
150 170 0
150 170 0
147 166 0
152 173 0
156 176 0
150 169 0
154 175 0
153 173 0
147 168 0
152 173 0
154 174 0
155 176 0
152 173 0
146 166 0
150 170 0
152 172 0
152 171 0
152 172 0
151 171 0
148 169 0
152 173 0
156 176 0
154 174 0
151 171 0
151 171 0
152 172 0
149 169 0
152 173 0
155 176 0
152 173 0
153 174 0
150 171 0
149 170 0
148 168 0
147 167 0
148 168 0
151 171 0
145 165 0
148 168 0
156 176 0
156 176 0
150 170 0
155 176 0
156 175 0
153 174 0
157 177 0
152 171 0
151 171 0
144 164 0
149 169 0
149 169 0
144 164 0
152 172 0
145 166 0
150 170 0
157 177 0
149 169 0
147 168 0
152 172 0
151 171 0
145 165 0
146 165 0
153 174 0
149 170 0
147 167 0
147 168 0
148 168 0
150 169 0
145 166 0
153 174 0
150 168 0
144 165 0
153 173 0
145 165 0
143 164 0
150 170 0
147 167 0
145 164 0
154 174 0
148 167 0
150 170 0
143 164 0
146 168 0
149 168 0
140 161 0
147 167 0
145 164 0
144 164 0
144 163 0
148 168 0
141 161 0
143 164 0
146 167 0
151 170 0
152 172 0
145 165 0
141 161 0
145 165 0
147 168 0
142 162 0
143 163 0
137 156 0
149 169 0
146 166 0
150 170 0
145 164 0
149 168 0
77 108 144
62 98 165
61 97 164
60 95 156
59 93 160
60 95 161
60 95 156
62 98 171
60 96 161
62 98 166
61 98 174
60 96 163
61 97 167
61 97 167
61 96 166
61 97 170
59 95 161
61 97 167
58 93 158
59 95 162
61 97 166
61 97 170
62 97 165
61 96 166
60 96 168
62 99 171
62 98 174
61 96 169
60 95 168
61 96 167
59 95 165
61 98 176
59 94 157
60 96 169
59 94 165
60 96 167
60 95 165
63 99 171
61 97 171
61 97 170
60 95 168
61 96 166
61 97 174
60 96 168
61 97 172
60 96 166
60 95 164
59 95 172
61 97 172
60 96 174
59 95 168
60 96 172
59 95 172
60 95 162
61 97 172
61 97 173
59 95 171
59 95 165
60 94 160
60 96 175
60 96 170
60 95 166
61 96 167
60 95 167
58 92 152
59 95 171
61 97 171
60 95 167
61 97 174
61 97 167
61 97 171
61 97 173
60 95 167
60 96 167
60 96 169
61 97 171
59 93 158
59 94 165
59 95 169
61 96 169
60 96 171
60 96 171
61 97 172
60 95 167
61 97 172
61 97 174
61 96 171
60 96 174
60 96 169
60 95 165
60 96 171
60 95 169
59 95 165
59 95 171
62 98 174
61 97 172
61 96 167
60 95 167
60 95 167
60 96 169
60 95 163
62 97 171
61 97 171
60 95 167
60 95 162
60 95 167
60 96 173
60 95 165
60 95 167
61 96 167
61 97 176
61 97 176
60 96 169
60 96 166
60 96 173
60 95 169
60 95 166
62 97 168
61 96 168
61 96 169
61 97 168
60 95 158
60 96 171
61 96 166
60 96 173
60 96 167
61 97 166
61 97 168
61 96 166
61 97 164
61 97 170
61 96 166
61 96 165
61 97 170
60 96 166
61 97 162
62 97 172
62 99 172
61 97 170
59 95 161
59 94 156
60 96 168
61 97 168
61 97 171
60 94 157
60 95 163
60 96 170
60 96 165
61 96 170
62 97 163
61 97 173
60 96 160
61 96 163
62 97 171
60 96 167
62 97 172
61 96 167
60 95 162
62 99 177
61 97 171
61 96 164
60 96 164
61 97 164
61 97 167
58 93 150
61 96 168
61 96 164
60 94 160
61 98 168
59 94 156
61 97 168
61 96 168
60 96 161
60 96 166
63 99 170
59 93 152
61 96 160
62 97 164
58 92 148
63 98 161
61 96 155
55 86 132
93 93 40
96 96 38
108 106 42
106 105 55
97 96 41
101 100 50
90 90 34
97 98 46
102 99 47
108 106 39
101 99 44
108 106 41
119 117 49
111 109 60
117 115 51
127 126 62
105 103 42
118 115 56
119 116 57
121 117 52
117 114 53
123 119 57
124 121 48
127 124 53
121 117 47
139 133 58
133 128 59
131 126 61
133 128 58
130 126 47
128 123 63
129 126 58
133 129 56
122 118 48
143 137 66
143 138 61
134 128 63
134 129 50
127 123 52
136 129 63
148 142 65
141 136 60
148 141 67
140 134 58
122 117 54
137 131 64
139 134 66
139 133 56
142 135 64
140 135 63
143 136 56
139 132 58
143 138 58
128 122 45
142 135 58
129 123 42
145 139 68
132 125 48
134 129 51
135 128 60
136 129 60
140 134 70
119 116 45
124 120 39
136 130 58
122 118 45
130 124 56
140 135 53
120 115 53
128 122 51
131 126 48
135 129 56
140 134 58
125 120 51
136 130 60
125 120 53
111 106 39
118 113 36
125 119 51
114 110 42
122 117 45
110 106 36
131 125 51
111 105 42
124 119 48
102 97 39
107 102 36
104 103 28
144 157 16
153 170 0
143 159 0
144 162 0
144 160 0
147 162 0
141 157 0
152 169 0
145 161 0
148 163 0
136 151 0
141 154 0
146 162 0
151 165 0
151 167 0
139 156 0
152 167 0
144 159 0
158 176 0
150 168 0
142 158 0
150 172 0
160 180 0
147 166 0
152 173 0
152 173 0
153 173 0
151 170 0
152 172 0
149 169 0
150 172 0
154 175 0
154 175 0
154 175 0
155 175 0
154 173 0
153 174 0
147 168 0
146 168 0
149 170 0
154 175 0
151 170 0
148 169 0
154 174 0
148 167 0
145 165 0
155 176 0
152 173 0
152 173 0
154 174 0
154 175 0
153 173 0
152 172 0
149 170 0
145 165 0
146 166 0
150 169 0
152 172 0
151 171 0
156 177 0
150 171 0
150 170 0
151 172 0
155 176 0
153 173 0
153 174 0
148 170 0
146 165 0
151 171 0
152 172 0
149 170 0
150 171 0
153 173 0
150 170 0
147 168 0
149 169 0
153 173 0
147 168 0
152 173 0
144 164 0
150 170 0
154 173 0
152 172 0
142 162 0
151 171 0
147 168 0
144 163 0
142 162 0
154 174 0
146 165 0
143 164 0
148 167 0
143 162 0
148 168 0
154 173 0
145 164 0
145 164 0
147 167 0
146 165 0
147 165 0
142 161 0
148 167 0
144 164 0
148 168 0
145 166 0
152 172 0
146 166 0
148 169 0
141 162 0
142 164 0
146 166 0
149 171 0
140 160 0
146 165 0
147 166 0
149 169 0
152 173 0
143 163 0
147 167 0
151 171 0
145 166 0
144 164 0
144 164 0
153 172 0
141 160 0
147 167 0
144 164 0
144 165 0
143 164 0
138 157 56
60 96 156
60 95 150
62 98 164
61 96 159
61 96 164
60 96 165
62 97 156
60 96 163
61 97 169
60 95 156
61 97 169
60 96 164
62 98 163
61 98 169
59 94 155
60 96 167
60 95 163
60 94 157
63 99 172
60 96 160
62 97 167
61 97 174
60 96 167
59 94 159
61 97 169
60 96 167
60 96 171
62 98 177
62 98 176
61 97 169
59 95 170
60 96 165
60 95 161
61 97 167
61 97 171
60 95 166
60 96 165
62 98 174
61 97 176
60 96 171
60 96 172
60 96 172
61 97 169
61 97 170
62 98 176
61 97 168
60 96 169
59 95 168
60 96 170
60 96 170
60 95 168
61 97 175
60 97 168
61 97 172
59 95 166
59 94 164
60 96 172
60 95 166
60 96 166
61 96 170
60 95 167
60 96 173
60 96 171
59 94 163
61 97 175
59 95 169
61 97 175
60 96 169
59 95 167
60 96 167
61 96 162
61 96 167
59 95 165
61 96 165
60 97 171
61 96 171
60 96 167
61 96 167
59 94 165
60 96 172
60 95 169
59 94 163
60 95 157
60 96 171
59 94 165
60 96 171
61 97 169
62 98 176
60 95 165
61 96 169
61 96 167
60 96 172
59 95 167
61 97 171
60 95 159
61 96 169
61 97 171
59 94 167
60 96 165
61 97 172
61 97 174
60 95 165
60 96 172
61 96 167
60 95 169
61 97 173
60 95 160
59 94 163
62 97 169
60 96 171
60 95 164
60 96 172
61 97 169
59 94 165
59 95 164
60 95 167
61 97 171
61 97 168
60 96 164
60 95 164
61 97 170
60 96 168
61 97 175
60 96 166
61 97 171
59 94 164
60 96 164
62 97 171
60 95 167
60 96 168
62 99 170
60 95 162
60 96 166
61 97 170
59 94 162
60 95 162
60 96 170
61 97 172
61 97 168
61 97 167
61 97 169
60 95 163
61 96 165
59 94 162
59 95 162
61 96 167
60 95 159
60 96 165
63 98 172
62 97 169
60 95 164
60 95 160
60 95 161
61 97 173
60 96 164
61 96 164
61 98 170
60 95 157
62 98 172
60 95 161
62 97 168
60 96 165
61 96 162
59 94 158
61 97 165
61 98 170
60 95 158
61 96 160
61 97 167
62 98 172
61 96 164
60 95 157
62 97 164
61 97 161
63 98 167
60 94 153
61 96 160
60 95 159
60 94 151
58 91 151
59 92 145
60 94 156
84 86 53
84 85 42
100 100 42
85 85 36
84 84 34
107 106 53
109 106 35
83 86 33
120 117 64
100 99 43
109 108 53
91 91 39
103 101 40
114 112 47
111 109 44
120 117 48
113 112 56
128 123 64
118 116 56
113 111 52
119 116 47
118 116 51
133 129 64
126 123 56
131 127 59
124 120 51
112 110 42
128 124 54
133 129 49
128 122 53
135 129 59
131 127 53
141 135 67
141 135 62
128 123 53
127 124 47
133 127 57
133 128 53
146 138 58
138 133 59
119 116 50
134 129 60
140 133 68
127 122 44
131 126 48
130 126 53
148 141 72
143 138 45
147 142 56
133 128 48
146 139 62
146 140 60
149 142 72
145 138 64
137 133 45
135 131 56
131 126 56
129 123 53
147 140 58
127 122 39
139 134 60
123 118 51
146 140 64
133 127 60
126 122 36
139 134 58
143 136 62
124 119 42
136 131 60
132 126 51
129 124 53
127 122 56
129 122 45
137 131 42
124 119 36
129 122 51
119 114 39
106 101 36
122 117 45
118 112 39
110 106 28
107 103 45
123 119 39
99 94 32
110 107 36
109 106 28
111 105 42
133 145 0
142 156 0
140 156 0
145 158 0
143 156 0
145 161 0
144 158 0
148 162 0
151 164 0
148 163 0
143 161 0
145 163 0
150 164 0
147 163 0
145 162 0
141 159 0
148 164 0
149 165 0
148 164 0
148 163 0
152 171 0
146 161 0
150 171 0
146 167 0
155 175 0
153 173 0
153 173 0
149 169 0
153 173 0
150 170 0
147 167 0
151 172 0
152 173 0
150 172 0
151 171 0
150 171 0
150 171 0
160 179 0
151 171 0
148 169 0
150 171 0
150 170 0
142 163 0
154 174 0
154 174 0
149 169 0
155 174 0
151 171 0
149 170 0
150 170 0
153 174 0
154 175 0
163 183 0
153 174 0
151 171 0
154 174 0
150 171 0
148 169 0
151 170 51
159 179 36
159 178 72
152 172 36
162 180 108
158 177 80
154 174 36
158 178 72
149 169 36
158 178 80
154 173 36
159 180 36
154 175 0
150 171 0
150 172 0
163 183 0
155 174 0
149 169 0
143 163 0
150 171 0
156 177 0
150 171 0
153 174 0
151 172 0
155 175 0
151 171 0
154 174 0
148 169 0
146 164 0
151 173 0
147 167 0
144 164 0
145 165 0
149 170 0
141 161 0
151 171 0
149 168 0
146 167 0
156 176 0
147 167 0
148 168 0
144 164 0
148 169 0
148 168 0
142 162 0
145 164 0
145 165 0
143 164 0
148 168 0
149 168 0
148 168 0
143 164 0
150 170 0
142 162 0
141 160 0
150 170 0
142 162 0
144 163 0
144 164 0
146 166 0
141 161 0
140 159 0
149 169 0
143 163 0
139 160 0
143 162 0
144 165 0
143 164 0
148 168 0
147 167 0
145 166 0
145 165 0
117 138 93
59 94 146
59 94 154
60 95 153
60 95 157
61 97 157
61 97 169
59 94 157
60 95 158
62 98 172
60 95 164
60 95 160
61 97 166
61 96 160
60 95 165
63 99 170
61 96 168
60 96 165
61 97 172
62 97 168
62 97 168
59 94 155
61 96 164
61 97 170
60 95 161
59 95 164
61 96 167
61 97 172
63 99 173
62 97 170
61 97 169
62 97 171
61 97 169
61 96 161
63 100 171
60 96 166
61 96 163
61 97 174
61 97 173
62 97 172
62 98 173
61 97 171
61 97 174
59 95 170
61 97 170
60 95 165
60 95 167
61 98 172
61 97 172
60 95 164
62 97 174
60 95 164
61 96 168
63 100 168
61 97 168
60 95 166
62 98 166
60 96 166
60 95 164
59 95 162
59 94 165
61 96 168
61 96 171
60 94 162
61 97 171
60 96 167
60 95 162
61 97 173
59 95 163
60 95 167
60 95 167
58 93 161
61 96 165
60 96 169
60 96 169
60 96 169
61 97 169
61 96 165
59 94 165
61 97 174
59 95 167
59 94 163
61 97 173
60 96 172
61 97 167
61 97 176
61 97 173
59 95 163
60 95 165
61 97 172
61 97 172
60 96 174
61 96 172
61 96 171
60 95 169
61 96 169
60 95 163
60 96 172
61 97 172
60 95 163
61 97 167
61 96 169
59 94 163
61 97 169
60 95 167
60 96 167
61 96 171
60 96 169
60 95 167
61 96 171
61 97 165
60 95 164
59 94 160
59 94 161
61 97 169
60 96 169
60 95 164
60 96 169
62 97 169
61 96 162
60 95 166
61 97 170
60 96 171
60 95 169
60 95 166
61 97 166
61 97 166
62 98 175
60 96 169
60 96 172
59 94 160
59 94 160
60 96 170
60 95 170
61 96 166
60 96 166
60 94 160
59 94 161
60 96 168
61 96 163
61 97 170
61 96 167
59 95 163
61 96 168
61 96 164
60 95 163
63 100 167
60 94 152
62 97 165
60 95 164
60 95 162
60 96 170
61 96 170
59 95 161
60 96 165
61 97 165
60 95 161
61 96 166
59 94 150
60 95 161
61 96 166
61 97 163
62 99 172
62 97 164
61 97 168
63 99 176
61 97 168
61 97 165
60 95 161
60 95 161
61 97 160
61 97 160
59 94 156
63 98 168
58 92 151
60 94 159
60 94 153
61 97 167
60 94 156
58 92 149
59 92 144
60 94 155
59 93 151
77 84 79
86 86 41
88 89 34
93 94 33
104 103 47
77 79 40
90 91 35
105 104 54
97 95 42
104 100 45
102 101 40
94 93 44
104 101 48
108 106 50
112 110 46
123 119 53
104 103 34
109 106 52
115 112 51
115 111 39
123 120 48
137 131 64
109 107 45
122 117 55
120 116 52
116 113 44
128 125 53
111 108 44
130 125 56
126 122 59
138 132 62
135 130 60
130 125 50
134 130 60
134 129 47
132 126 51
139 133 57
130 125 45
122 118 41
132 128 54
144 137 60
127 122 47
122 117 47
131 127 58
143 137 62
134 128 53
120 116 39
141 134 66
141 135 61
138 133 63
131 127 48
127 122 42
130 125 45
136 131 45
120 115 36
132 125 51
140 134 53
124 120 48
129 125 45
133 127 56
141 135 60
125 119 45
140 132 62
134 129 53
137 131 53
142 136 60
132 127 56
127 123 42
117 112 42
114 109 36
133 127 53
129 124 51
125 120 45
114 108 42
127 121 51
117 113 36
133 127 48
137 130 56
114 108 42
119 113 36
123 118 39
119 113 53
110 105 45
108 104 36
117 112 58
104 99 42
126 130 36
145 158 0
143 158 0
147 164 0
145 157 0
156 174 0
158 175 0
142 160 0
144 160 0
147 162 0
141 156 0
140 159 0
138 152 0
143 160 0
142 156 0
144 160 0
144 161 0
144 161 0
138 153 0
150 167 0
147 163 0
145 161 0
142 158 0
152 173 0
152 172 0
152 172 0
155 175 0
147 167 0
153 173 0
152 172 0
150 169 0
149 169 0
147 168 0
150 169 0
148 169 0
152 172 0
148 168 0
155 174 0
149 169 0
149 169 0
154 175 0
154 174 0
150 170 0
152 172 0
152 173 0
149 169 0
161 182 0
146 167 0
159 178 0
152 171 0
164 183 88
162 182 72
178 195 130
160 179 88
167 185 102
169 186 114
185 201 157
175 193 135
180 197 153
177 194 140
174 192 140
164 183 102
172 190 130
171 189 125
175 193 144
173 190 130
170 188 130
189 205 173
173 190 130
183 200 161
173 191 135
172 190 135
169 187 120
175 194 125
174 192 114
170 188 120
151 171 72
162 181 80
166 185 80
152 173 51
147 168 0
143 163 0
149 169 0
152 172 0
147 168 0
147 168 0
160 181 0
145 165 0
152 172 0
148 167 0
147 167 0
149 169 0
153 172 0
144 164 0
147 167 0
142 162 0
141 160 0
140 161 0
149 169 0
146 167 0
140 159 0
149 168 0
150 171 0
147 167 0
145 166 0
145 166 0
143 163 0
144 166 0
146 167 0
145 166 0
147 168 0
142 162 0
147 168 0
142 162 0
143 164 0
144 164 0
138 158 0
146 166 0
145 166 0
133 153 0
150 170 0
140 160 0
140 160 0
144 165 0
150 170 0
144 164 0
145 165 0
156 177 0
143 163 0
143 162 0
149 168 0
106 132 119
63 100 169
60 95 160
60 95 159
60 95 160
60 95 160
61 96 160
58 94 157
61 97 160
61 97 164
60 95 163
59 95 159
60 96 162
61 96 168
59 95 162
61 97 168
61 96 165
61 97 166
60 96 166
61 96 158
59 95 167
61 96 167
60 95 159
59 95 163
61 98 172
62 98 176
62 98 169
60 96 170
59 95 162
58 93 155
58 94 163
61 96 164
60 96 172
60 96 169
61 97 171
61 96 170
60 96 172
62 98 174
62 98 176
60 96 166
60 96 170
60 95 166
60 95 164
61 97 174
61 97 174
60 96 166
60 96 172
59 94 167
62 98 170
58 93 158
61 97 170
61 97 173
61 97 171
60 96 162
62 98 177
61 97 166
61 96 169
60 97 173
59 95 168
60 96 170
61 96 169
61 96 168
61 97 173
61 97 173
60 96 166
60 95 162
61 97 173
61 97 173
60 95 167
61 97 173
59 95 172
61 96 169
60 95 163
62 98 174
60 97 176
60 96 172
60 95 163
59 94 163
62 97 171
61 96 173
59 94 165
60 96 169
60 96 172
60 95 167
61 96 169
61 97 172
60 96 165
60 95 165
61 97 174
60 95 170
61 97 167
60 96 167
58 94 165
61 97 174
59 95 169
61 97 174
59 94 165
60 96 169
59 93 157
60 95 163
60 96 169
62 98 174
61 96 169
60 96 169
59 95 165
60 96 169
60 96 165
59 94 163
61 96 171
60 95 167
60 95 163
60 95 167
61 97 171
61 97 171
59 95 163
61 96 166
61 97 174
60 96 168
60 96 171
61 97 171
60 96 167
60 96 161
60 95 166
60 94 164
60 95 168
61 96 171
60 95 162
60 95 164
62 97 168
60 96 164
60 95 164
59 94 162
62 98 172
61 97 170
60 96 170
61 96 168
60 95 164
59 94 161
59 95 166
60 95 162
60 95 162
60 95 168
60 95 163
61 97 165
61 96 169
63 99 165
60 95 161
59 95 163
60 95 158
61 96 162
59 94 161
60 95 160
60 95 166
61 96 167
59 94 161
61 96 167
59 93 154
60 95 158
60 96 165
60 95 165
58 93 156
61 96 164
62 98 169
62 97 169
60 95 161
62 97 167
60 95 160
61 96 166
61 96 161
61 96 162
60 95 166
61 96 161
59 94 158
60 95 156
60 95 158
59 93 156
58 93 151
61 96 162
59 92 152
62 97 147
60 94 154
59 94 159
57 90 148
60 83 110
83 83 26
87 88 33
86 86 25
95 93 38
92 91 40
108 104 41
87 87 41
88 87 40
110 108 38
100 98 36
105 103 35
100 98 35
112 111 46
105 102 45
117 113 51
107 105 50
108 108 47
119 115 51
111 108 40
118 115 47
118 114 41
121 118 57
127 122 59
115 113 46
133 127 60
106 105 49
126 122 56
128 123 56
116 113 44
133 128 53
119 115 48
134 128 56
128 122 53
129 124 59
141 135 62
129 124 51
135 130 59
134 129 54
137 131 62
132 127 62
142 137 45
147 140 62
112 109 42
125 120 53
128 124 47
133 127 56
128 123 39
123 118 42
136 130 53
129 124 45
135 129 45
145 138 64
133 128 48
136 130 53
128 122 45
126 123 39
131 127 51
128 124 36
120 116 39
137 130 64
124 120 51
134 128 53
130 126 48
138 132 60
137 131 51
130 125 53
127 122 45
124 118 51
104 100 22
127 122 45
124 119 48
116 111 42
130 123 56
107 102 39
112 110 36
113 109 36
123 117 51
115 111 48
116 110 36
118 113 45
125 118 56
111 107 39
114 110 45
103 98 39
110 111 32
143 158 0
143 157 0
149 166 0
143 159 0
144 161 0
142 157 0
144 158 0
144 161 0
140 157 0
141 155 0
144 159 0
147 163 0
141 155 0
154 169 0
142 157 0
151 168 0
147 163 0
147 162 0
146 164 0
147 160 0
146 162 0
143 161 0
144 163 0
153 173 0
148 169 0
152 172 0
151 172 0
151 172 0
152 172 0
147 167 0
157 179 0
157 178 0
150 170 0
151 171 0
147 167 0
149 169 0
149 169 0
156 176 0
153 173 0
153 174 0
156 177 0
155 175 0
153 172 0
156 175 36
158 177 72
169 187 114
159 178 95
169 187 114
169 185 120
181 198 140
177 195 135
171 188 130
171 189 130
163 182 114
174 191 135
175 192 140
161 179 108
166 184 108
175 193 130
174 193 125
179 196 149
173 192 130
180 197 157
162 181 88
166 184 108
173 192 130
172 190 135
172 190 130
170 188 120
164 183 88
181 198 157
170 189 125
173 190 130
169 187 108
179 196 149
176 194 144
175 192 140
170 188 125
172 190 120
180 197 149
180 196 157
171 188 130
165 184 102
173 191 135
164 183 102
158 177 72
147 167 36
150 170 0
153 173 0
154 175 0
148 168 0
149 170 0
146 167 0
145 165 0
148 168 0
147 167 0
141 161 0
144 165 0
149 169 0
151 170 0
141 161 0
148 168 0
142 162 0
148 169 0
157 177 0
147 167 0
143 162 0
149 169 0
142 161 0
145 165 0
147 167 0
147 167 0
151 171 0
147 168 0
145 165 0
142 163 0
150 170 0
140 162 0
146 166 0
147 165 0
143 163 0
146 165 0
144 164 0
145 164 0
147 168 0
142 163 0
148 168 0
141 162 0
152 172 0
140 160 0
141 161 0
88 116 140
61 96 160
59 94 152
61 97 168
59 93 151
60 95 158
61 96 164
59 93 154
61 96 167
60 96 157
59 95 163
61 96 164
60 96 164
60 95 163
62 98 173
60 96 167
62 98 173
62 98 176
62 98 171
61 96 160
59 94 156
60 95 162
62 97 168
61 97 170
61 96 166
62 98 173
60 95 161
61 97 170
61 97 173
61 97 174
62 98 173
58 92 151
61 97 169
60 96 168
60 95 165
60 96 167
60 95 161
61 96 162
60 95 165
60 96 168
60 96 165
60 96 170
62 98 174
61 97 172
60 95 160
60 95 167
61 96 169
60 95 163
61 97 171
60 95 166
60 96 171
59 95 164
60 94 160
61 97 170
61 97 172
61 97 168
60 95 162
60 96 170
59 95 165
59 95 169
61 97 172
60 97 173
59 94 160
60 96 169
60 96 166
60 95 164
62 97 173
60 96 169
59 94 163
62 98 175
61 96 171
60 95 167
60 96 165
61 96 171
60 96 164
59 95 163
60 94 159
60 96 171
59 95 167
59 94 163
59 94 161
60 96 171
60 96 172
61 96 171
60 95 167
60 95 165
60 96 170
59 95 165
60 95 169
59 94 161
60 96 167
59 95 161
59 95 170
61 96 159
60 96 172
59 95 167
60 96 169
60 95 167
60 96 171
60 96 163
60 95 170
59 95 165
61 97 171
61 96 165
59 94 163
61 97 174
59 94 159
59 94 163
58 93 161
61 97 167
59 94 165
60 95 167
60 96 171
62 98 173
59 94 156
60 95 164
61 96 169
60 95 162
60 96 171
59 95 167
59 95 163
61 97 171
61 96 165
59 95 162
60 96 164
61 96 166
60 95 160
60 96 166
59 94 160
60 95 166
62 97 170
60 96 170
62 97 168
58 93 148
61 98 175
61 96 164
59 94 160
61 97 170
60 96 165
60 95 163
60 95 163
60 95 161
60 95 163
60 95 163
60 96 167
61 97 170
60 96 159
60 96 170
60 95 162
62 98 165
62 98 175
61 96 161
63 98 163
60 96 166
62 97 167
61 97 169
60 95 160
62 98 171
62 98 173
61 97 163
61 97 164
61 96 163
60 95 166
60 95 163
60 96 163
60 96 161
59 94 158
61 96 166
61 96 163
62 98 170
62 97 169
61 97 165
60 95 160
56 89 140
57 91 152
60 95 157
60 95 158
61 96 154
61 96 157
59 93 156
59 93 142
62 97 163
60 94 152
58 83 117
90 90 33
91 91 35
83 82 22
91 92 39
95 94 39
79 81 29
106 104 30
90 90 28
101 100 44
110 107 53
106 103 45
106 103 41
105 104 45
118 115 54
116 115 53
113 109 42
123 121 62
117 114 53
114 112 51
114 110 50
100 98 41
115 113 47
115 111 55
118 115 55
115 111 28
127 123 52
124 119 58
124 119 52
130 125 49
121 118 47
132 126 58
125 122 41
143 137 55
131 127 53
143 135 65
114 110 34
137 133 51
123 118 44
140 133 58
136 131 53
138 131 58
140 134 60
145 138 70
129 124 53
146 139 64
124 119 42
135 131 52
129 125 56
140 132 56
124 121 36
136 130 53
131 127 45
125 120 32
141 134 56
127 121 48
141 135 62
140 133 56
127 123 48
136 130 56
134 128 51
128 123 42
131 126 48
134 129 42
140 134 51
131 126 51
118 114 36
125 119 48
129 124 56
109 104 32
121 116 39
131 125 48
121 116 45
136 131 51
121 113 42
125 120 48
106 102 28
101 99 32
103 101 28
117 111 39
111 107 39
113 108 36
109 105 42
107 103 22
105 103 22
136 148 16
147 160 0
149 164 0
151 165 0
143 157 0
146 165 0
143 157 0
145 161 0
138 154 0
141 157 0
150 168 0
141 157 0
151 166 0
144 158 0
142 158 0
140 155 0
146 161 0
148 165 0
153 170 0
149 167 0
150 168 0
146 162 0
157 171 0
149 165 0
150 170 0
152 172 0
149 169 0
153 173 0
150 170 0
150 170 0
148 168 0
152 172 0
155 176 0
153 174 0
149 168 0
160 180 0
158 177 0
161 181 0
150 170 0
148 168 0
145 166 36
165 183 102
174 191 144
177 193 144
170 188 108
178 195 149
169 187 114
175 193 144
171 189 135
168 186 120
177 195 140
163 182 95
173 192 125
173 191 135
171 190 114
174 193 130
168 188 102
164 183 102
176 194 125
164 184 88
173 192 114
174 192 135
172 190 120
165 185 114
163 183 88
172 191 102
166 186 120
167 185 108
161 180 102
166 186 102
169 187 125
169 189 114
170 189 120
169 186 120
170 189 120
167 185 114
171 190 120
163 182 95
164 184 72
172 189 135
167 185 120
183 202 144
166 185 114
175 193 135
166 183 130
177 195 149
172 189 135
171 188 140
168 186 125
164 183 102
151 171 51
153 174 51
146 167 0
147 167 0
154 174 0
145 166 0
156 176 0
150 170 0
153 173 0
149 169 0
148 168 0
145 165 0
143 164 0
151 170 0
145 165 0
146 164 0
146 167 0
146 167 0
150 170 0
145 165 0
147 167 0
145 165 0
149 169 0
145 166 0
144 165 0
141 162 0
146 167 0
145 165 0
143 163 0
142 161 0
143 163 0
137 157 0
140 162 0
142 163 0
147 166 0
149 169 0
144 163 0
147 167 0
147 167 0
148 167 0
145 165 0
151 170 0
80 110 143
62 98 162
59 94 154
60 95 157
62 98 168
60 95 157
61 97 167
58 93 152
62 98 171
60 95 163
58 92 154
58 94 160
61 97 163
60 97 165
60 96 168
59 94 161
60 96 163
62 97 169
59 94 166
62 97 166
60 96 166
60 96 163
60 95 159
61 96 164
59 94 165
62 98 171
58 94 162
61 96 165
60 96 167
61 97 169
62 98 175
60 96 167
60 95 165
59 95 166
61 97 173
59 95 165
59 94 157
59 95 166
60 96 167
61 97 170
61 97 174
60 96 168
60 95 165
60 96 166
60 95 168
60 95 168
59 95 160
61 97 168
60 95 162
62 98 170
59 95 165
62 99 168
60 96 171
61 97 177
61 96 170
60 95 162
60 95 164
59 94 165
60 96 169
63 99 171
59 94 162
60 95 162
61 96 166
60 96 168
62 97 168
59 94 162
61 97 166
60 96 169
59 94 163
60 96 171
60 95 167
61 96 167
60 96 173
59 94 165
60 96 167
61 97 173
59 95 167
61 96 171
60 96 171
59 95 169
59 94 165
61 97 167
62 98 174
60 96 167
61 96 171
61 97 174
61 97 172
61 96 169
60 95 167
61 96 170
61 96 169
61 96 163
61 97 172
61 97 172
61 96 167
60 96 167
61 96 167
60 95 161
61 96 170
59 95 169
61 96 169
61 97 171
60 96 169
61 97 174
60 95 165
61 96 172
59 94 165
59 95 163
61 97 173
58 93 161
60 96 169
60 95 162
61 97 173
59 94 163
61 96 167
60 95 165
60 95 160
60 96 173
59 95 164
62 97 171
61 96 169
60 96 169
60 96 171
60 95 162
62 98 171
60 96 168
60 95 168
62 97 166
61 96 164
60 95 166
61 95 158
61 96 172
59 94 166
60 95 160
59 95 164
60 96 163
59 94 164
59 93 153
59 94 157
59 95 168
58 93 151
61 96 166
59 94 154
61 97 170
60 96 170
61 97 164
59 94 156
62 97 169
62 97 168
59 93 151
59 94 161
62 97 159
61 96 162
62 98 171
62 98 169
61 97 166
61 96 161
60 95 163
62 98 172
62 96 154
61 96 155
61 96 164
62 98 166
60 96 165
61 97 162
58 93 149
61 97 165
61 97 167
59 94 158
58 93 150
60 95 162
58 93 151
61 96 160
60 95 158
59 94 157
61 96 161
61 96 152
59 93 152
59 94 151
59 93 145
62 96 165
61 95 153
60 94 157
65 94 141
88 87 36
83 83 28
94 93 26
92 91 36
83 82 25
88 88 33
97 96 31
102 100 40
92 93 38
102 99 33
89 87 32
99 97 37
103 103 44
100 99 36
99 97 45
103 101 51
116 112 50
106 104 49
116 113 41
102 102 30
124 120 49
116 114 47
109 107 42
124 120 58
134 127 56
125 121 54
128 123 54
133 128 67
125 120 50
114 112 42
134 128 59
118 114 45
132 126 56
133 127 52
124 119 39
140 134 59
124 121 53
116 111 45
125 120 56
134 129 45
138 132 56
128 121 60
140 132 60
138 133 59
137 130 62
118 115 36
129 124 45
134 128 51
127 122 51
134 129 56
132 127 53
128 122 53
126 121 51
116 112 39
137 131 53
126 120 48
141 134 58
128 124 48
134 128 48
138 131 53
124 117 42
123 117 51
123 117 45
130 125 45
128 123 36
122 116 42
128 123 45
129 125 36
132 126 51
118 112 28
130 124 56
133 128 56
115 110 42
116 113 42
130 125 42
121 115 45
106 100 36
115 110 39
106 103 28
113 110 28
115 110 48
104 100 32
103 103 28
138 151 0
138 153 0
140 152 0
138 150 0
141 156 0
146 160 0
143 158 0
141 156 0
139 155 0
142 157 0
154 171 0
151 163 0
144 157 0
143 156 0
153 170 0
145 160 0
144 162 0
146 159 0
141 158 0
145 160 0
149 165 0
148 165 0
143 160 0
150 166 0
142 158 0
155 175 0
158 177 0
151 172 0
154 174 0
151 171 0
151 172 0
150 170 0
150 171 0
153 173 0
159 179 0
159 180 0
145 166 0
158 179 36
159 179 88
170 188 125
169 186 130
183 199 157
175 192 135
170 188 130
171 189 130
167 187 80
177 195 153
168 187 114
172 189 130
173 191 130
168 188 102
170 189 108
165 183 102
167 187 108
172 190 125
165 185 114
159 178 102
181 199 140
170 191 102
162 182 88
159 179 72
156 176 80
159 179 72
161 181 88
161 181 102
173 191 130
171 191 102
170 190 102
171 190 114
175 194 114
171 189 102
168 187 108
157 176 80
165 184 102
168 187 108
164 183 102
163 183 95
177 196 130
168 186 114
174 192 120
175 193 135
166 184 114
166 185 108
161 179 88
177 195 125
166 184 108
166 186 108
178 196 144
174 191 130
173 190 149
171 188 130
170 188 120
180 196 153
169 187 120
170 188 108
165 183 102
146 167 0
154 175 0
153 174 0
149 169 0
154 174 0
149 169 0
141 161 0
138 159 0
150 170 0
147 167 0
150 170 0
147 167 0
151 171 0
148 169 0
144 163 0
142 162 0
148 168 0
145 164 0
145 164 0
144 164 0
142 162 0
141 162 0
148 168 0
142 162 0
144 164 0
143 162 0
146 166 0
144 165 0
141 162 0
143 165 0
137 157 0
145 165 0
143 163 0
140 159 0
147 167 0
147 167 0
147 165 0
62 95 147
58 91 137
61 96 154
60 95 155
60 95 158
61 97 164
59 95 162
60 95 157
60 95 160
60 95 160
60 95 154
62 97 167
61 97 161
61 97 165
60 96 165
60 95 161
61 97 162
60 95 156
59 95 163
59 94 157
60 96 164
59 94 166
62 98 168
62 98 169
59 95 166
62 98 171
60 96 167
60 95 163
60 96 169
60 95 163
59 94 166
61 97 163
59 93 159
61 96 165
60 96 169
61 97 169
60 96 172
61 96 169
62 97 171
61 96 159
59 94 158
61 97 173
60 96 163
61 97 172
60 95 165
60 96 167
61 96 170
59 94 166
61 97 171
61 97 170
60 96 164
61 96 167
61 96 170
59 94 164
60 96 167
62 97 173
60 96 173
61 97 170
60 95 167
61 97 173
61 96 169
60 95 164
60 95 166
60 95 170
60 95 169
61 95 160
60 96 169
61 96 171
60 95 163
59 94 162
59 94 163
60 95 163
60 96 169
59 95 169
59 95 167
60 95 163
60 96 167
62 97 171
58 93 161
60 95 165
60 96 167
60 95 163
60 96 167
59 95 169
61 97 172
61 96 165
61 97 172
59 95 167
60 95 159
61 97 174
60 96 169
59 94 165
59 94 167
60 95 165
60 95 165
60 96 169
60 96 171
59 94 165
60 95 163
59 94 163
60 95 165
61 96 167
60 95 161
61 97 173
61 97 169
60 95 165
60 96 171
61 97 173
62 97 167
60 96 172
61 97 167
60 95 163
59 94 162
61 97 173
60 96 172
60 95 161
60 96 169
60 96 164
59 94 161
60 96 166
59 95 167
61 97 173
60 96 169
60 94 162
58 94 160
60 95 167
61 97 175
63 99 162
59 95 164
60 96 166
59 95 166
61 96 166
61 97 170
60 96 166
61 96 161
60 95 162
60 95 168
60 96 169
60 96 166
59 93 161
60 96 164
59 94 159
61 96 165
60 95 163
63 98 167
60 96 167
62 98 176
61 97 170
59 94 161
61 97 169
60 96 165
61 96 165
61 97 167
59 95 159
62 97 167
60 96 162
61 96 165
60 96 167
60 95 151
59 94 158
60 95 158
60 95 165
61 96 160
61 96 162
60 95 160
60 95 164
62 97 161
62 98 170
58 93 154
60 95 156
61 96 163
61 97 159
60 95 161
62 98 167
61 97 168
58 92 150
60 95 155
63 98 169
60 95 162
62 97 166
62 97 164
60 94 150
60 94 147
56 88 144
85 84 27
82 81 38
97 98 43
85 85 24
95 96 36
78 78 16
99 98 28
89 89 34
102 100 39
103 100 36
92 91 36
121 116 28
119 115 53
95 95 37
116 114 53
117 113 52
103 101 36
101 101 41
107 106 41
121 117 52
111 108 39
118 115 52
94 95 22
131 126 58
121 117 51
118 115 46
123 119 52
124 120 49
105 104 25
130 125 53
124 120 42
127 121 54
124 121 52
129 124 62
133 128 59
126 123 41
141 134 58
129 125 41
137 132 47
139 134 51
122 117 48
139 133 56
136 131 58
131 125 51
119 116 32
124 121 39
140 133 53
134 128 56
139 133 64
131 127 42
127 123 45
136 131 58
133 129 51
134 129 58
125 121 42
133 128 56
130 123 56
124 120 42
108 105 32
131 125 56
112 108 45
119 114 45
126 122 45
120 116 39
124 119 45
124 119 48
134 128 51
118 112 45
129 123 45
111 108 32
120 115 42
111 107 39
108 105 36
116 111 39
97 91 28
106 101 28
110 107 32
110 104 39
111 108 28
107 103 32
105 99 39
103 99 36
127 137 16
143 158 0
143 157 0
144 158 0
150 164 0
142 160 0
144 159 0
147 162 0
152 167 0
147 163 0
144 159 0
145 160 0
150 163 0
146 160 0
137 153 0
142 156 0
141 157 0
149 165 0
146 164 0
144 161 0
148 165 0
150 168 0
148 165 0
151 167 0
147 163 0
151 166 0
152 173 0
150 171 0
158 178 0
149 169 0
161 181 0
151 170 0
152 174 0
153 173 0
158 179 0
157 176 72
170 189 102
175 193 135
174 191 140
177 195 130
169 188 125
173 189 130
167 185 114
181 198 149
169 188 108
168 186 125
173 192 135
171 191 114
167 185 114
161 181 88
172 191 114
171 191 125
173 193 108
168 187 114
164 183 88
162 182 62
173 193 130
160 182 72
165 185 108
170 189 120
165 184 120
162 182 95
170 190 102
167 188 102
167 186 108
170 190 72
172 191 108
165 184 62
166 186 80
175 194 88
165 185 88
158 177 72
170 190 88
173 193 88
159 180 80
161 182 51
165 184 102
172 192 114
174 194 125
169 188 102
166 185 80
166 185 108
162 182 88
156 177 72
168 187 125
166 186 102
168 187 102
159 178 88
165 183 114
164 184 95
162 181 88
167 186 125
168 186 108
175 194 125
177 195 135
174 190 135
175 194 140
166 185 108
167 184 108
155 174 72
147 168 36
150 171 0
145 165 0
144 165 0
141 162 0
150 171 0
149 169 0
146 165 0
148 167 0
148 168 0
137 157 0
141 162 0
146 166 0
145 165 0
140 161 0
142 162 0
142 162 0
152 173 0
139 159 0
148 168 0
147 165 0
147 166 0
146 166 0
145 163 0
141 160 0
146 166 0
146 166 0
153 174 0
137 157 0
152 173 0
145 166 0
144 164 0
142 163 0
133 154 72
61 96 153
60 95 155
59 94 153
60 94 150
61 96 153
58 93 149
59 93 156
60 95 161
61 97 168
61 96 168
61 97 164
60 96 156
60 95 160
61 97 172
63 99 163
60 96 154
61 97 164
61 97 167
60 95 162
59 94 160
60 95 168
60 95 161
61 97 171
61 97 166
59 95 166
61 96 169
60 97 172
61 96 165
60 96 170
60 95 165
61 97 164
61 96 168
61 97 172
60 95 167
61 97 174
61 96 167
62 98 170
61 96 170
60 96 165
60 95 163
60 96 172
61 96 169
58 93 160
61 96 166
61 96 172
60 95 164
60 96 162
60 96 170
59 94 160
60 96 170
58 94 162
59 94 160
61 97 173
60 96 170
58 94 162
61 96 164
61 97 170
60 96 168
60 95 166
59 94 160
59 95 162
62 98 173
59 94 162
60 96 171
60 96 171
60 96 169
61 96 171
60 95 170
61 96 167
62 97 167
60 95 161
60 96 169
60 96 167
61 96 165
60 96 171
58 93 159
61 97 173
60 95 171
60 95 165
61 97 173
60 95 169
60 95 169
60 95 159
60 95 165
61 97 169
61 96 169
61 96 169
62 97 172
60 95 165
61 97 167
61 97 176
61 97 172
62 97 172
60 95 165
60 94 165
59 95 169
60 96 170
61 96 169
60 95 168
60 95 165
61 96 165
60 96 170
59 95 169
60 95 167
63 98 171
61 96 163
62 97 171
58 93 159
60 94 162
61 96 169
61 96 167
61 96 167
60 95 163
59 95 169
59 94 161
60 96 167
61 97 173
60 95 164
59 93 160
61 96 167
59 94 158
61 96 167
61 97 165
61 97 172
60 95 168
61 96 168
60 96 166
60 94 158
61 96 170
60 96 168
60 96 164
59 94 164
60 96 166
61 96 166
62 97 164
59 94 160
62 97 170
59 93 156
61 96 168
60 96 168
60 96 168
60 96 165
60 95 161
62 98 174
59 94 159
60 96 167
62 98 170
61 96 164
61 96 165
60 96 165
62 98 169
60 96 165
60 95 162
60 95 163
61 96 168
60 96 162
61 97 171
62 98 172
58 92 151
62 97 164
60 95 160
61 96 165
61 96 160
59 94 154
60 95 163
60 96 166
60 96 164
61 96 154
61 96 164
59 93 152
61 95 158
62 98 166
63 99 163
61 97 167
60 95 157
60 93 148
59 93 150
63 99 166
59 94 156
61 96 158
60 94 155
60 95 158
58 91 147
60 95 154
91 94 65
102 100 28
92 91 33
70 70 20
87 87 28
90 88 30
103 101 45
96 95 39
106 102 36
112 108 39
97 95 40
112 110 41
110 107 39
104 101 47
106 103 39
104 101 38
106 104 30
100 98 42
109 104 46
112 109 36
108 106 41
112 110 46
126 121 48
123 119 50
107 105 38
113 109 39
132 128 58
137 131 60
121 117 54
118 114 51
124 121 30
131 126 52
128 124 59
115 110 41
117 115 37
128 123 56
134 128 56
116 112 36
133 127 53
109 106 41
115 111 32
112 110 39
136 130 56
122 117 42
121 116 42
126 121 48
136 130 58
142 136 56
119 115 42
129 123 48
127 122 45
121 116 36
130 125 60
117 111 32
115 111 45
121 116 42
118 114 48
131 127 48
137 130 48
132 127 45
126 122 36
117 112 39
121 116 36
129 123 48
116 112 42
123 117 36
121 116 48
109 105 22
126 121 45
121 117 39
115 109 39
123 116 39
110 106 39
106 100 36
114 110 39
109 105 36
117 113 39
98 93 22
96 92 22
106 103 22
87 83 0
128 142 0
137 152 0
145 158 0
143 157 0
149 163 0
145 158 0
147 164 0
139 153 0
138 151 0
142 158 0
147 162 0
141 155 0
144 159 0
147 163 0
144 161 0
145 161 0
147 165 0
145 154 0
149 163 0
147 165 0
149 163 0
146 161 0
149 168 0
139 158 0
147 163 0
150 168 0
150 168 0
147 168 0
154 174 0
145 167 0
150 171 0
151 172 0
148 169 0
165 184 102
161 180 102
166 183 125
165 184 108
170 190 120
172 190 114
166 185 95
179 197 140
169 189 114
171 189 114
180 198 140
158 176 88
168 187 120
178 196 140
166 185 102
171 190 108
173 193 108
172 192 102
170 189 95
167 187 80
169 189 95
164 184 95
176 196 114
170 189 108
171 191 114
165 185 95
167 188 95
166 187 88
170 190 88
175 194 80
159 178 62
168 189 62
172 192 95
165 186 88
166 186 102
163 183 88
168 188 114
168 188 102
168 188 88
166 185 80
167 188 88
164 184 80
159 179 72
169 189 114
171 190 95
175 195 130
168 188 62
173 194 102
165 185 102
156 176 62
170 190 80
166 187 95
163 184 80
167 187 108
167 187 95
169 189 120
160 180 88
163 181 88
165 185 102
171 190 120
167 187 102
173 192 120
166 186 108
169 187 102
167 186 108
171 189 120
175 193 120
173 192 120
172 189 130
154 173 88
156 175 80
156 176 36
159 179 0
146 166 0
155 175 0
148 168 0
144 165 0
148 169 0
147 166 0
149 169 0
140 159 0
145 165 0
147 168 0
145 166 0
152 173 0
141 162 0
146 166 0
139 159 0
146 166 0
145 164 0
139 159 0
144 163 0
150 170 0
143 163 0
145 166 0
143 162 0
139 159 0
146 167 0
151 172 0
138 159 0
143 163 0
123 145 84
59 94 149
62 98 166
61 97 165
59 94 158
61 96 161
59 93 147
58 92 154
59 93 156
60 96 161
62 97 169
60 95 158
61 96 162
61 97 169
59 95 161
61 96 162
61 96 160
61 96 167
61 97 169
62 97 168
60 96 168
59 94 160
60 96 165
60 96 167
59 95 163
61 97 164
60 96 169
61 97 166
62 98 174
62 98 172
61 96 169
59 94 163
60 96 167
60 96 169
60 96 165
59 94 162
60 96 169
60 95 163
60 96 167
61 96 170
61 97 166
60 96 165
61 96 171
63 99 163
61 97 174
60 95 164
62 98 172
61 97 172
59 94 159
60 96 173
61 96 168
61 96 171
60 95 168
61 97 172
61 97 171
61 96 170
60 95 168
62 98 171
61 96 167
61 97 171
60 95 165
61 96 168
60 96 164
61 96 167
61 97 171
60 95 172
61 97 169
60 96 169
61 96 165
62 97 169
59 94 163
59 95 167
60 96 167
61 96 171
60 96 171
60 95 163
60 95 170
59 94 159
60 96 169
60 95 163
60 96 169
60 96 170
59 94 161
59 95 165
61 96 165
59 94 163
58 94 167
60 95 161
60 96 169
60 95 170
61 96 170
60 96 170
59 94 163
60 95 161
61 96 165
60 95 167
61 97 169
59 94 163
60 95 165
60 95 163
60 96 169
59 95 167
60 95 163
60 95 165
60 96 171
60 96 170
61 97 171
61 96 167
61 97 171
59 94 163
62 99 165
61 96 160
61 96 167
61 96 167
59 94 158
59 94 160
60 95 166
59 95 171
61 97 171
59 93 156
61 97 171
63 99 169
60 95 160
59 94 160
62 98 173
60 95 166
61 96 169
61 96 170
61 96 168
60 95 162
61 96 171
60 95 164
60 97 168
61 97 170
59 95 164
61 97 172
59 94 160
60 95 161
61 97 170
59 93 158
60 96 172
59 95 168
58 92 157
59 93 151
62 98 170
60 95 166
59 93 159
59 95 161
60 95 161
60 95 162
60 95 163
61 97 163
60 96 169
60 95 161
61 97 169
62 97 173
62 98 175
62 98 165
61 97 161
59 94 154
60 96 158
60 96 168
60 95 165
61 97 166
62 97 170
59 94 155
62 98 168
60 95 160
60 95 158
59 94 153
59 94 156
60 96 165
62 97 163
63 97 164
61 96 160
61 97 163
60 95 160
60 95 154
61 96 164
60 94 154
60 95 152
58 92 148
60 95 151
61 95 160
58 92 147
87 89 72
87 87 27
93 91 40
90 89 30
77 77 23
90 89 38
91 89 23
87 86 10
102 99 40
112 111 47
98 98 29
104 101 40
110 106 48
101 99 37
104 102 45
101 99 31
98 97 25
113 109 47
112 109 39
116 111 50
112 109 46
120 115 42
127 122 45
116 113 38
116 111 53
116 113 46
124 120 51
128 123 52
115 111 45
119 115 32
121 117 47
119 115 42
117 114 41
125 121 45
130 124 53
124 121 47
127 118 52
135 128 48
135 129 57
117 114 38
132 127 45
120 117 36
140 134 60
129 123 48
130 123 56
123 119 44
121 116 39
116 112 32
121 118 42
127 124 45
131 124 48
126 121 42
123 116 39
125 120 48
115 112 36
109 106 32
126 120 39
115 111 39
121 115 36
119 114 39
125 120 42
131 126 48
132 127 53
114 109 36
136 129 48
127 120 53
124 116 32
130 124 45
127 122 48
113 109 32
120 115 39
121 116 36
126 119 42
107 104 22
134 128 42
115 111 36
113 108 32
109 104 39
98 95 16
109 105 32
126 134 16
140 153 0
143 155 0
137 150 0
146 160 0
141 153 0
145 161 0
143 158 0
142 158 0
149 165 0
142 155 0
146 163 0
143 156 0
143 159 0
138 151 0
146 162 0
145 161 0
138 152 0
138 152 0
139 153 0
143 159 0
154 171 0
149 165 0
149 165 0
139 154 0
143 157 0
144 161 0
142 160 0
154 174 0
154 174 0
153 174 36
166 185 80
177 193 140
176 194 130
176 194 140
179 197 144
170 189 120
173 192 125
170 189 102
170 189 114
168 188 95
166 185 95
167 187 95
163 183 102
168 188 114
165 184 102
167 187 88
167 187 88
169 188 102
166 187 95
169 188 102
169 189 72
170 190 88
178 198 114
165 184 80
177 198 125
168 189 114
167 187 95
175 195 108
168 189 80
165 185 95
172 192 125
159 179 72
170 190 102
167 188 80
173 194 72
167 188 80
165 185 72
168 188 95
182 203 102
154 175 51
174 195 88
163 183 95
163 184 62
168 188 88
170 190 102
164 184 62
171 191 80
170 190 102
182 203 62
154 175 51
176 197 88
165 185 72
167 187 80
164 183 88
167 187 102
161 182 80
162 183 72
165 184 102
166 186 102
165 185 102
166 186 108
174 193 95
163 181 88
167 188 102
165 185 102
167 186 125
160 179 88
176 196 88
156 176 62
168 187 108
168 186 120
168 187 114
168 186 120
166 184 120
166 184 102
164 182 120
153 173 72
163 184 36
148 169 0
151 172 0
158 177 0
145 164 0
145 165 0
153 173 0
149 169 0
147 168 0
146 167 0
141 160 0
141 162 0
146 165 0
153 174 0
143 163 0
146 166 0
142 161 0
146 165 0
141 159 0
146 166 0
144 165 0
141 161 0
141 161 0
144 163 0
144 163 0
140 160 0
139 159 0
136 157 67
56 89 137
58 93 150
59 93 148
59 93 149
58 92 153
61 96 165
61 97 164
58 93 155
60 96 169
58 93 159
61 96 166
62 98 168
62 97 167
59 95 163
60 96 166
59 94 163
60 96 162
61 96 160
61 96 164
60 95 158
61 96 168
61 97 169
60 95 163
61 96 170
63 99 175
61 98 170
61 97 171
61 97 171
59 94 163
61 97 170
59 95 163
60 96 166
62 98 173
61 98 176
62 98 171
62 98 173
62 98 167
61 96 161
62 98 171
62 98 167
60 96 166
61 97 170
60 95 168
62 98 173
60 96 171
60 96 170
61 96 170
60 95 168
60 95 167
59 94 162
61 97 171
62 98 175
60 96 169
60 95 166
60 95 167
60 94 163
60 96 171
61 96 162
60 95 167
60 95 160
60 95 167
60 95 169
60 95 163
60 96 169
61 97 169
61 97 167
59 94 161
59 95 167
60 96 171
61 97 173
61 96 167
61 97 171
61 97 176
59 94 163
60 96 167
60 96 169
60 95 167
60 95 167
61 96 169
59 95 167
60 97 174
59 94 163
62 97 167
61 97 169
59 94 163
58 94 165
60 95 169
61 97 172
60 95 161
60 95 165
61 96 167
59 94 161
60 96 170
62 97 171
59 94 163
60 95 169
60 96 172
60 96 161
60 95 165
60 95 157
61 97 171
61 96 172
59 94 161
60 95 161
59 95 159
61 96 169
61 97 171
59 95 167
58 93 155
61 96 171
61 96 167
60 96 171
59 95 165
59 94 162
60 95 162
61 96 165
60 95 165
61 96 169
59 95 165
62 98 166
62 98 173
59 94 162
60 95 162
60 95 165
60 95 162
60 95 160
61 96 166
61 97 173
59 94 160
59 93 158
61 97 172
60 96 168
61 96 162
61 96 166
60 95 164
60 97 166
61 96 162
60 95 164
61 97 172
60 96 168
60 95 160
60 95 168
61 96 168
61 96 166
59 94 157
60 95 162
59 95 165
59 95 165
61 96 163
59 94 159
61 96 164
61 97 170
60 94 158
60 95 161
60 95 161
61 96 160
59 93 153
63 98 167
61 96 164
60 95 162
60 96 163
62 97 169
61 96 164
60 95 161
60 94 158
61 97 164
59 95 161
58 93 155
59 94 153
60 95 161
61 96 163
61 95 162
59 94 159
60 95 155
58 92 150
57 90 144
62 97 163
59 93 148
60 94 153
59 93 152
61 96 155
60 94 152
62 97 161
62 98 164
86 94 76
84 82 35
74 76 31
88 84 23
89 89 28
78 78 31
98 96 41
94 92 32
100 98 34
95 94 34
99 98 36
96 93 38
98 97 36
103 101 25
115 112 48
120 117 41
124 119 43
112 109 45
105 103 34
117 112 32
118 114 49
119 114 44
113 110 39
110 107 42
124 119 53
124 121 55
119 115 37
116 112 41
125 120 47
127 123 52
119 115 45
132 127 52
132 125 58
121 117 47
121 115 51
118 114 41
123 118 39
118 112 47
124 119 45
128 124 58
135 130 60
127 121 51
130 124 42
124 117 39
115 111 32
125 120 36
124 119 39
138 133 48
126 121 47
116 109 32
126 122 48
130 124 39
121 118 28
130 127 39
130 125 42
135 129 56
128 123 39
123 118 32
121 116 51
114 109 36
119 115 42
125 121 45
127 121 45
116 111 36
121 117 36
112 108 16
118 112 39
114 109 32
117 112 42
115 109 39
117 113 36
104 98 32
112 105 32
102 99 22
109 105 28
103 99 28
105 101 32
104 100 22
90 87 0
114 120 16
137 149 0
140 153 0
138 149 0
138 151 0
146 159 0
139 152 0
151 166 0
144 157 0
140 155 0
146 160 0
144 160 0
142 154 0
139 153 0
150 166 0
142 158 0
142 156 0
140 156 0
144 158 0
147 163 0
146 162 0
149 163 0
145 161 0
143 160 0
147 162 0
148 164 0
139 156 0
147 164 0
144 156 0
155 174 36
165 184 95
170 188 120
166 185 102
172 190 130
165 184 102
178 196 130
176 195 130
171 190 114
174 193 125
165 185 72
168 189 95
168 186 88
167 187 95
169 189 88
159 179 62
165 185 108
169 189 125
166 186 108
170 190 108
171 190 108
171 191 108
173 194 80
163 183 88
169 190 102
158 178 62
167 187 80
157 177 80
166 186 88
166 186 95
167 188 80
166 188 62
184 203 135
179 197 114
182 200 140
184 201 173
192 209 181
202 218 191
194 211 184
199 214 194
201 219 165
203 219 194
201 218 191
196 213 188
194 210 191
203 219 204
200 217 165
193 209 184
192 209 173
185 204 140
172 192 120
169 188 114
162 183 88
169 189 88
181 203 72
170 191 108
164 185 88
177 198 95
171 192 95
164 185 88
161 182 72
161 181 72
169 189 72
172 192 102
166 187 80
173 192 125
169 189 95
174 193 114
167 187 80
164 184 80
169 189 102
166 185 95
169 189 102
153 172 62
170 189 130
161 181 95
168 187 108
162 180 108
179 196 144
173 191 120
166 184 102
166 182 114
150 171 51
148 167 0
145 164 0
149 169 0
147 167 0
153 173 0
153 173 0
143 162 0
150 170 0
146 168 0
142 162 0
143 164 0
143 163 0
148 168 0
138 159 0
145 166 0
145 166 0
145 166 0
145 164 0
136 156 0
147 167 0
140 160 0
146 166 0
143 163 0
148 167 0
117 139 96
60 94 153
59 94 150
60 94 148
59 93 149
57 92 147
61 97 164
59 95 157
58 93 150
60 95 162
61 97 167
60 95 158
62 99 172
59 94 158
60 96 167
60 95 166
61 97 172
60 96 164
59 93 152
61 96 162
59 94 156
62 98 174
60 95 156
61 96 163
60 95 162
60 96 168
61 97 169
59 94 161
57 92 162
60 96 168
62 98 176
61 97 169
60 96 171
60 96 165
61 97 170
59 94 160
60 95 165
58 94 164
60 96 165
61 97 171
61 97 173
60 96 168
60 95 166
61 96 168
60 96 169
60 96 166
61 97 168
60 95 166
61 97 170
61 96 172
61 97 175
60 95 166
61 97 170
60 96 168
60 95 166
60 95 168
62 98 175
61 97 171
59 95 168
61 97 169
60 95 166
62 97 170
60 95 163
61 97 173
60 95 167
59 94 158
59 95 164
60 95 165
61 97 168
59 95 163
59 94 159
61 96 169
60 95 165
58 94 161
61 97 169
61 96 171
60 95 169
60 96 169
59 94 165
61 96 171
60 95 169
61 97 171
60 95 165
60 95 163
59 94 157
59 95 167
59 95 169
61 97 169
60 96 169
61 97 171
60 96 170
60 95 165
58 93 161
60 95 168
58 93 163
60 95 163
60 95 167
61 97 172
59 93 161
60 95 165
58 93 161
59 94 165
59 94 157
60 95 165
61 96 165
59 94 159
60 96 165
60 95 163
60 96 167
60 95 163
60 95 167
60 95 167
59 93 159
61 96 171
60 95 165
62 97 169
60 95 165
60 95 162
60 94 160
61 96 166
61 96 169
60 96 171
60 95 164
60 95 164
59 94 162
61 97 169
60 95 166
60 96 168
60 95 156
60 96 168
60 96 170
61 96 166
60 95 166
60 94 162
60 96 171
59 94 164
59 94 155
61 97 165
61 96 166
61 96 160
60 96 166
61 96 167
60 95 162
60 96 167
60 95 161
62 98 170
62 98 169
59 94 155
62 98 167
59 95 161
61 97 170
58 93 153
61 96 161
60 96 165
59 94 159
60 96 163
61 96 166
58 93 154
61 97 162
61 97 165
61 96 162
61 96 167
59 94 153
61 96 167
61 96 162
61 97 167
60 94 158
59 93 158
62 97 162
59 94 157
60 95 161
60 94 155
61 97 164
58 92 147
59 94 151
61 95 150
61 96 158
62 97 166
62 97 164
62 97 158
58 90 142
60 95 155
59 92 149
58 91 150
60 94 144
76 96 121
79 79 28
83 84 25
94 94 30
106 104 48
111 107 30
106 103 25
91 89 28
90 90 32
112 109 37
99 96 25
105 102 48
92 89 41
105 102 37
97 97 27
107 104 36
112 109 38
111 110 30
115 112 34
114 109 30
103 99 28
117 114 37
121 118 45
110 106 44
114 111 38
114 109 47
109 106 37
124 119 47
116 112 41
128 123 43
121 116 41
117 112 27
134 129 52
122 117 39
112 107 32
121 117 39
126 122 52
109 106 34
121 118 42
118 114 39
133 127 53
129 123 52
117 113 42
114 109 28
122 117 45
126 122 42
135 129 48
136 131 56
127 122 42
114 110 39
125 120 39
122 116 32
130 126 32
126 120 51
129 124 42
131 125 51
121 117 39
114 109 22
116 112 32
118 113 32
122 117 42
123 117 39
111 108 28
120 117 42
116 112 28
122 115 39
126 120 53
120 115 42
114 107 28
120 115 28
118 112 45
104 100 22
111 107 42
108 103 36
107 103 32
106 101 28
118 113 28
108 104 39
126 128 28
136 149 0
143 158 0
145 159 0
143 159 0
150 163 0
143 156 0
138 152 0
142 159 0
141 154 0
145 160 0
138 151 0
145 158 0
146 160 0
148 162 0
149 165 0
145 161 0
149 164 0
147 164 0
144 160 0
145 163 0
145 162 0
144 159 0
150 164 0
150 166 0
152 168 0
147 162 0
151 168 0
144 159 0
147 164 0
175 192 144
171 189 125
168 187 120
167 186 102
165 185 88
172 191 120
167 186 88
166 185 108
171 190 108
169 188 114
173 193 114
170 189 120
171 191 80
179 200 80
165 186 72
163 184 80
163 184 72
166 186 95
162 183 72
170 191 102
163 183 62
167 188 88
165 185 80
169 189 80
170 191 62
178 198 120
193 209 181
203 219 214
213 227 231
212 227 231
220 233 248
218 232 245
222 235 253
222 235 253
224 237 255
220 234 250
219 232 245
221 235 250
217 231 245
219 233 248
222 236 253
222 235 253
221 235 250
223 237 255
221 235 253
217 232 245
222 236 253
215 229 242
223 236 253
222 236 253
220 233 248
224 237 255
223 237 250
209 224 223
209 224 226
198 213 201
182 199 153
177 195 140
163 182 108
167 188 72
165 185 88
166 186 95
175 195 108
170 190 102
178 198 125
164 184 80
162 183 62
166 187 102
168 187 95
163 183 80
167 186 102
160 180 88
166 186 102
167 185 114
165 184 108
168 188 120
164 182 95
172 191 108
162 182 108
168 187 120
160 180 95
177 194 153
163 181 108
183 201 120
161 180 80
152 173 0
158 179 0
145 166 0
147 167 0
145 165 0
148 169 0
145 164 0
145 165 0
147 168 0
145 165 0
147 166 0
148 168 0
143 161 0
147 167 0
139 158 0
135 155 0
146 167 0
143 163 0
147 166 0
143 162 0
141 161 0
146 166 0
91 118 134
61 96 156
60 96 156
59 94 153
59 94 152
58 93 152
58 92 148
62 97 164
62 98 166
60 95 158
60 96 163
58 93 156
60 95 159
59 94 159
60 96 165
60 96 162
61 96 165
60 95 159
58 92 152
59 95 165
61 97 168
61 96 172
61 97 168
59 94 161
61 97 174
60 95 160
60 94 156
58 92 155
62 98 174
58 93 159
60 95 167
58 93 162
60 95 169
60 94 161
61 97 171
59 94 163
60 95 165
60 95 163
60 95 167
60 97 171
61 97 170
60 95 165
59 94 162
60 95 168
62 98 172
60 96 168
60 95 166
60 95 166
59 94 161
59 95 164
58 93 160
60 95 165
60 96 169
60 95 160
60 96 169
61 97 170
60 96 168
60 95 164
60 96 169
62 98 172
61 97 174
61 97 173
60 95 164
60 95 164
61 96 167
61 96 167
60 96 173
59 94 162
61 96 169
59 95 164
59 95 165
60 96 171
59 95 169
60 95 165
62 98 160
59 95 165
61 96 167
60 96 171
60 96 169
61 97 167
61 96 172
60 94 161
61 96 165
62 97 167
60 94 159
60 96 169
59 94 159
60 96 170
60 95 163
58 93 163
60 96 170
61 97 167
60 95 169
60 95 163
60 96 165
60 96 167
60 96 169
59 95 165
59 94 165
59 94 163
61 96 169
61 96 169
59 95 171
59 94 165
61 97 167
60 96 167
59 95 167
60 95 165
60 95 165
61 97 174
60 95 167
61 96 165
61 97 171
59 94 161
60 95 164
61 96 169
59 94 162
59 94 156
60 96 169
59 94 161
60 95 164
60 95 164
62 98 169
60 95 162
61 97 173
60 95 165
60 96 164
61 96 171
60 94 156
60 94 160
60 95 164
58 93 152
62 98 170
60 95 158
60 96 164
61 97 171
62 97 169
60 95 160
60 95 164
59 94 159
60 95 164
59 94 160
60 95 162
60 95 161
61 96 167
62 98 173
59 94 164
60 94 161
59 94 157
61 96 163
60 94 159
62 98 170
60 95 164
62 97 165
61 96 156
60 95 155
61 97 161
60 95 153
63 99 167
59 93 155
62 98 171
60 95 159
60 94 154
60 95 158
60 95 163
60 95 164
61 97 161
61 96 162
60 95 162
60 95 159
59 94 159
59 93 152
60 94 158
59 94 155
57 91 141
59 93 150
61 96 153
59 93 149
60 94 157
61 96 160
62 98 166
59 93 149
60 94 155
61 95 156
57 90 136
80 96 121
82 82 31
91 90 25
87 87 19
92 90 30
86 84 18
82 83 27
103 101 37
94 91 20
77 77 32
107 105 41
114 108 36
114 110 44
116 112 47
100 99 32
100 97 26
89 85 34
94 91 37
98 96 22
103 100 28
102 100 36
117 111 42
110 106 32
125 119 51
113 108 39
122 117 45
128 122 52
116 110 32
116 112 30
120 117 36
125 121 45
110 105 28
124 118 45
127 122 41
129 124 45
122 117 48
124 119 36
121 117 41
128 121 48
113 109 41
131 125 48
128 124 44
116 112 49
124 119 48
116 114 36
128 123 48
125 120 36
133 128 45
116 111 39
118 113 48
133 126 51
136 130 56
122 116 32
127 122 42
109 105 28
124 119 42
122 117 39
131 126 48
124 118 42
115 111 48
118 111 39
113 108 39
121 117 39
129 122 48
121 116 42
117 112 39
111 108 28
124 119 42
108 101 42
115 111 28
126 120 48
100 97 22
99 94 22
118 114 42
119 115 45
108 104 16
99 94 28
121 128 28
144 158 0
139 154 0
144 156 0
140 153 0
141 155 0
149 164 0
145 162 0
138 152 0
141 154 0
137 150 0
147 161 0
141 158 0
140 155 0
134 150 0
140 154 0
141 155 0
147 164 0
150 166 0
144 158 0
144 160 0
145 160 0
147 164 0
142 157 0
142 160 0
144 162 0
141 156 0
147 163 0
146 162 0
151 167 0
145 161 0
166 184 108
166 185 108
171 190 130
173 192 140
161 179 72
170 189 114
170 189 95
178 197 125
165 186 72
167 185 108
163 183 95
163 183 88
175 195 80
164 186 102
163 184 88
173 193 95
164 184 80
161 181 80
161 182 72
170 190 102
175 195 120
200 216 194
212 227 228
215 230 231
222 235 250
221 234 250
219 233 248
219 232 248
220 234 250
224 237 255
221 235 253
219 234 248
220 234 253
221 235 253
218 233 250
221 235 253
221 235 253
220 235 250
220 235 253
219 234 250
217 232 248
221 235 253
217 232 248
221 236 255
220 235 255
220 234 253
220 234 250
219 233 250
220 234 250
222 236 255
220 235 253
219 233 250
220 234 250
222 235 253
222 236 255
222 235 253
221 235 250
222 235 253
223 236 255
218 232 242
211 226 217
198 215 184
179 198 144
173 194 88
169 190 80
165 185 88
164 184 95
165 185 88
164 185 95
166 187 72
162 182 80
165 186 95
165 185 51
163 183 80
175 195 114
168 188 114
172 192 88
165 184 88
168 188 102
168 187 108
171 190 108
167 185 114
172 190 120
153 172 80
179 197 144
167 185 114
163 181 80
144 165 0
146 167 0
147 168 0
151 171 0
144 164 0
149 169 0
152 171 0
145 166 0
147 166 0
148 167 0
137 157 0
140 160 0
140 160 0
142 162 0
138 159 0
144 163 0
135 154 0
145 165 0
143 162 0
141 160 0
101 126 116
58 92 146
60 94 150
60 95 159
62 98 168
59 94 150
60 94 154
61 97 165
59 93 153
60 94 154
61 96 164
59 95 158
61 96 161
59 95 157
61 96 163
60 95 158
60 96 167
60 96 163
58 94 163
60 95 164
59 95 164
60 96 165
61 96 167
58 93 159
61 97 171
60 96 169
61 97 160
60 95 165
61 96 168
61 96 165
59 94 160
59 95 168
60 95 164
59 94 166
60 96 169
59 94 157
60 96 169
58 93 154
61 97 167
60 96 168
59 94 164
62 98 172
60 96 172
60 95 165
60 95 163
58 93 162
60 96 170
61 97 173
60 95 168
61 96 171
61 96 170
61 97 172
62 98 174
60 96 165
59 94 162
61 96 171
60 95 164
59 94 164
60 96 169
60 95 166
60 95 166
60 94 156
61 96 163
60 95 167
62 97 171
59 95 167
59 94 163
59 94 162
60 96 167
61 97 173
61 96 167
61 96 165
59 95 165
57 92 159
59 94 165
60 96 169
60 95 161
61 96 171
59 94 161
60 95 167
60 95 163
60 96 167
59 94 163
59 94 155
60 95 169
60 95 167
61 96 167
60 95 165
60 95 165
61 96 169
60 95 167
61 96 170
59 94 159
60 96 170
59 93 159
61 97 169
61 96 169
59 95 165
58 93 153
61 96 170
59 94 159
60 95 161
60 96 169
59 94 159
61 96 169
60 95 169
61 96 169
60 96 167
60 95 165
60 95 167
61 96 171
60 95 163
59 94 161
60 96 169
59 94 160
60 95 161
60 95 165
60 95 167
62 97 162
60 95 164
59 95 169
59 94 160
60 96 167
61 96 166
60 96 160
60 95 164
60 95 162
59 94 164
61 96 162
56 90 145
59 94 162
60 95 164
60 95 164
60 95 166
61 96 164
59 94 158
60 95 166
61 96 162
59 95 162
61 96 168
61 96 164
58 93 156
60 95 157
59 95 163
61 97 167
60 96 167
63 99 166
60 95 164
60 94 157
61 97 161
59 94 161
59 93 148
60 95 163
60 95 161
60 95 163
60 96 164
60 96 166
60 95 167
61 96 165
60 95 161
61 97 165
61 96 161
61 97 167
62 98 169
60 95 160
60 94 160
58 93 156
57 91 146
61 97 163
61 96 161
63 99 168
60 95 160
60 95 161
60 95 161
60 94 154
59 94 150
60 94 151
60 94 154
61 96 161
60 95 152
62 97 163
59 93 150
59 93 151
61 97 158
59 92 143
60 89 139
98 96 28
92 88 40
104 102 41
88 86 30
74 74 19
79 80 28
84 84 28
97 95 23
103 100 40
101 99 32
109 105 37
103 100 28
95 94 25
105 102 30
100 97 25
108 106 34
99 95 35
93 90 32
113 110 42
100 99 38
109 103 37
112 109 34
96 95 28
106 104 36
103 101 12
118 113 45
107 103 32
118 113 42
122 118 39
115 112 19
120 116 36
112 109 32
120 116 28
118 115 32
129 124 48
125 120 45
120 116 30
128 123 39
120 116 39
112 108 32
109 104 32
119 114 28
127 122 45
124 119 48
132 126 48
126 120 53
104 100 32
102 99 32
124 119 36
126 120 36
107 103 28
122 117 36
119 113 32
125 121 39
125 118 45
125 119 28
113 110 32
98 95 28
118 113 36
125 120 39
116 111 36
124 117 45
121 115 42
109 105 22
119 114 32
114 109 32
114 107 32
105 100 22
116 113 16
107 101 32
101 98 28
99 94 28
93 86 32
103 97 32
102 98 28
129 139 22
139 150 0
140 152 0
141 153 0
135 144 0
137 152 0
149 161 0
134 147 0
144 157 0
145 157 0
146 162 0
139 153 0
138 152 0
146 161 0
140 155 0
145 160 0
148 161 0
138 152 0
145 163 0
150 164 0
151 167 0
146 160 0
148 161 0
152 169 0
144 157 0
152 167 0
141 160 0
141 157 0
139 154 0
149 166 0
144 161 0
142 156 0
167 185 95
168 187 125
173 191 95
171 189 120
170 189 114
161 181 88
170 189 114
167 187 108
166 186 95
164 184 72
165 185 88
161 182 72
173 191 72
171 191 62
184 205 95
166 187 108
178 197 149
202 218 188
214 228 237
221 234 250
224 237 255
221 235 253
222 236 253
222 236 253
220 234 250
218 233 248
220 235 253
220 235 250
220 235 253
220 235 255
218 233 250
214 229 242
218 233 250
219 233 250
216 232 248
216 231 248
219 234 253
219 234 253
218 233 253
219 234 255
218 233 250
218 232 248
218 234 253
216 231 248
217 232 250
219 234 253
221 236 253
219 234 253
216 231 245
219 234 250
220 234 253
220 234 253
221 236 255
220 234 253
219 233 250
218 233 250
217 231 245
216 231 245
221 235 250
223 237 255
223 236 255
216 231 242
220 234 250
220 234 250
210 225 217
205 221 214
182 201 120
158 179 80
166 186 88
177 197 80
164 184 95
164 185 51
168 189 72
157 178 72
170 189 95
165 185 80
170 190 95
166 186 102
167 187 102
166 187 88
164 184 102
168 187 102
163 182 95
166 185 108
159 178 88
164 182 108
175 192 144
173 190 135
147 167 51
147 167 0
154 175 0
154 174 0
142 161 0
151 171 0
153 174 0
148 168 0
152 172 0
154 173 0
149 169 0
137 156 0
143 163 0
142 163 0
149 170 0
143 163 0
151 172 0
140 157 0
142 162 0
87 115 138
61 96 165
61 96 160
59 94 156
62 98 160
60 95 164
58 93 156
60 96 163
60 95 154
60 95 163
61 95 152
60 95 147
60 96 157
60 95 161
60 95 159
58 93 145
60 95 160
61 97 164
58 92 150
59 94 164
59 94 158
60 96 167
61 97 167
61 97 169
60 95 165
59 94 155
60 94 163
61 96 169
61 97 171
61 96 166
61 96 166
58 93 158
60 95 168
61 97 170
60 96 168
61 96 165
61 96 167
61 97 161
60 96 164
59 95 164
58 93 158
59 94 163
60 96 170
61 96 170
60 95 164
60 95 162
62 98 175
61 97 170
61 97 174
61 98 174
59 94 155
60 95 162
63 98 174
61 97 172
61 97 170
60 96 168
60 96 170
62 98 177
61 97 169
61 96 168
59 94 162
59 94 163
60 96 171
60 96 173
61 96 170
60 96 168
59 94 162
60 95 162
61 96 164
61 96 169
60 95 162
61 97 171
61 96 169
60 96 167
60 96 169
58 93 155
60 95 163
59 94 161
60 95 163
59 94 163
61 96 169
60 95 165
59 94 159
61 96 167
60 95 170
59 94 167
60 95 167
58 93 163
59 94 163
60 95 165
61 96 165
59 95 165
59 95 165
60 96 169
60 95 165
61 96 167
60 95 169
58 92 155
61 96 167
61 96 170
59 94 159
61 97 169
61 97 172
60 96 161
61 96 167
59 94 157
60 95 161
59 95 165
60 96 169
57 91 149
60 95 163
59 94 165
60 95 167
59 94 165
62 97 167
61 96 169
60 95 165
61 97 167
61 96 171
61 96 165
61 96 167
58 93 156
61 96 168
61 96 161
61 96 162
59 93 158
60 95 160
58 93 162
59 94 162
61 96 164
61 97 170
62 97 168
60 94 160
60 95 166
60 93 154
60 95 164
60 95 161
59 94 158
60 96 168
62 98 172
60 95 163
60 96 164
59 94 157
59 94 160
59 95 163
60 95 163
60 96 165
61 96 166
60 96 167
59 94 160
59 94 157
60 95 164
60 94 153
60 95 157
60 95 161
62 97 167
60 95 160
61 96 164
61 97 161
62 97 167
61 96 159
60 95 160
59 93 152
61 96 162
59 94 154
60 95 161
59 93 143
60 96 161
58 93 156
61 96 160
59 94 153
60 95 158
60 95 154
59 93 147
59 94 155
60 95 162
60 95 156
61 96 165
59 94 159
57 89 140
59 92 146
59 94 151
60 95 152
59 92 149
59 91 144
70 93 122
84 83 23
92 89 19
97 94 28
93 90 32
76 76 17
94 93 37
90 89 19
79 79 12
89 86 28
95 90 27
94 92 19
98 96 22
116 112 50
95 93 37
88 87 22
106 104 22
94 92 33
103 100 34
125 119 39
102 100 32
117 113 44
109 105 32
113 110 45
109 104 34
118 115 41
110 107 36
107 105 28
123 118 37
104 102 22
116 111 41
121 117 39
114 109 39
128 123 36
119 115 49
130 125 47
119 113 36
125 120 39
114 110 28
132 126 45
125 121 42
121 115 42
117 111 32
106 104 30
127 122 51
98 95 16
126 120 48
126 122 42
121 116 42
129 124 32
137 131 48
114 109 42
115 111 32
125 120 39
109 106 22
120 115 36
118 113 32
128 122 48
115 111 39
121 115 42
121 114 42
117 112 36
115 111 39
115 111 28
122 116 45
119 114 36
110 104 32
101 98 32
104 99 22
104 101 22
115 109 28
107 103 28
126 119 53
97 92 32
97 92 28
130 136 22
131 140 0
138 150 0
146 159 0
144 159 0
136 152 0
141 153 0
140 152 0
141 157 0
143 158 0
141 154 0
142 155 0
141 156 0
144 158 0
137 150 0
146 162 0
138 150 0
147 164 0
147 161 0
142 156 0
141 155 0
140 156 0
144 160 0
138 150 0
139 155 0
146 161 0
154 170 0
143 157 0
152 168 0
145 161 0
152 168 0
144 161 0
151 169 0
156 176 51
163 183 95
168 188 88
157 177 80
162 183 80
164 183 72
165 184 95
162 182 88
167 187 88
165 186 72
170 190 95
177 197 108
177 195 149
192 209 169
212 226 231
221 234 250
224 237 255
222 235 250
217 232 240
221 235 253
221 235 253
219 234 250
219 234 253
218 232 248
219 233 250
220 235 255
219 234 255
217 233 250
216 231 248
217 233 253
217 232 250
218 233 253
214 229 245
217 232 250
217 232 248
216 232 245
219 234 255
215 231 248
219 234 255
218 233 253
219 234 253
217 233 250
216 231 248
215 232 248
216 231 250
214 230 248
217 232 253
217 232 248
213 229 245
219 234 255
219 234 250
217 232 250
212 228 240
220 235 255
218 233 250
217 232 250
219 234 250
220 234 253
220 234 253
220 234 253
219 233 250
219 234 253
220 234 253
219 233 248
222 236 253
220 233 248
222 235 253
214 228 234
203 217 204
187 205 169
173 193 120
167 187 62
175 196 108
164 183 95
175 196 95
168 188 95
169 190 80
171 191 102
171 191 95
167 187 80
163 183 102
163 183 80
172 191 120
168 187 120
170 188 120
164 183 102
173 191 102
169 186 125
170 187 125
164 183 114
164 182 108
149 169 0
152 171 0
145 165 0
145 164 0
141 160 0
150 169 0
147 166 0
140 159 0
141 161 0
140 160 0
151 170 0
136 155 0
145 166 0
144 164 0
136 156 0
147 165 0
87 115 136
59 95 162
59 95 157
60 95 152
59 93 151
59 93 154
59 94 157
62 97 166
60 94 155
59 94 156
61 97 165
60 96 162
60 96 167
58 93 155
61 96 168
61 98 172
61 96 162
58 93 158
60 96 168
60 95 161
60 96 167
60 96 168
57 91 152
61 96 163
58 92 155
58 94 156
59 95 169
60 96 166
61 97 161
60 95 161
60 96 167
57 91 153
61 97 169
62 98 170
60 95 165
60 96 169
59 94 164
60 96 170
61 97 172
62 97 168
62 98 172
60 96 165
57 92 157
60 95 164
59 95 164
61 97 172
60 96 167
61 96 168
61 96 169
61 97 173
59 94 159
59 95 164
60 96 169
61 96 164
59 94 162
60 95 162
59 94 169
61 97 170
60 96 169
61 96 169
59 94 164
61 96 169
58 93 155
61 97 169
61 97 171
60 95 162
62 98 176
60 95 160
59 95 162
61 97 169
58 93 161
59 93 159
60 95 163
60 95 165
60 96 167
60 96 171
60 96 171
61 97 171
59 94 166
60 95 167
60 95 167
60 96 165
59 93 159
60 95 163
61 96 167
60 95 165
60 96 169
61 97 172
61 97 163
60 96 170
60 95 168
61 96 165
61 96 169
60 95 167
59 93 153
59 95 169
60 95 167
60 96 174
61 97 174
60 95 165
60 95 165
59 94 163
61 96 165
60 94 153
59 95 165
61 96 167
58 93 159
61 97 165
60 94 159
60 95 165
60 95 161
60 95 165
57 91 154
59 93 147
60 95 165
60 96 171
60 95 160
60 95 165
59 94 163
61 96 164
60 96 167
59 95 167
61 96 169
60 95 165
60 95 165
60 96 164
60 95 162
60 95 160
59 93 162
60 95 162
59 94 160
61 96 170
61 97 170
60 96 172
60 95 160
60 95 162
61 96 165
60 95 164
61 96 168
60 95 166
60 95 159
59 93 158
59 95 163
60 94 156
60 96 165
62 97 165
60 96 167
60 96 170
58 92 155
59 94 153
61 97 165
60 94 155
60 96 163
60 95 164
60 96 167
60 95 157
59 94 152
62 98 165
61 96 162
60 95 158
62 98 166
61 97 168
60 95 164
61 96 164
60 95 163
61 97 166
60 94 155
61 96 156
59 93 152
57 91 143
61 96 156
59 93 148
60 95 154
62 97 169
60 95 153
62 97 159
60 94 156
58 93 149
59 93 148
60 93 153
58 92 141
62 97 165
57 91 143
62 98 159
59 93 152
54 82 120
85 83 7
66 66 14
83 81 26
78 77 21
90 88 16
103 99 36
82 82 23
97 94 32
92 89 15
97 94 22
94 91 28
93 93 20
89 87 28
94 91 25
86 85 16
108 105 36
112 107 32
111 107 42
98 97 37
101 99 0
119 115 30
119 113 36
105 101 34
107 102 32
118 114 36
116 111 42
102 100 0
105 102 28
126 122 48
116 110 39
112 108 32
96 94 28
121 117 48
114 112 28
111 107 28
110 107 22
124 120 36
121 116 39
111 107 38
115 111 36
117 112 39
119 115 32
119 114 28
115 111 39
123 118 28
123 118 48
121 116 28
123 116 42
117 112 22
118 116 22
125 120 36
120 115 36
113 110 36
113 109 39
120 115 48
125 121 39
116 112 32
115 110 42
122 115 39
111 108 22
107 103 32
111 105 22
105 101 32
114 110 22
93 90 16
118 113 39
111 107 36
116 111 36
101 97 22
99 95 22
117 112 36
97 93 16
84 81 16
124 132 16
141 153 0
133 144 0
138 149 0
147 161 0
136 147 0
131 142 0
139 151 0
143 157 0
147 159 0
139 151 0
139 154 0
139 154 0
139 154 0
135 149 0
144 159 0
137 149 0
140 154 0
146 161 0
147 164 0
134 147 0
144 160 0
144 161 0
147 163 0
139 154 0
146 161 0
146 160 0
153 169 0
153 170 0
147 164 0
146 163 0
149 165 0
147 161 0
147 162 0
167 188 80
170 190 114
172 192 120
162 182 108
163 184 51
168 188 80
176 197 88
176 197 102
170 191 95
183 202 130
206 222 211
208 223 223
222 236 253
220 234 248
219 233 250
220 234 250
220 234 253
221 235 255
219 234 250
220 234 253
216 231 248
218 234 250
216 231 248
217 232 250
218 233 253
218 233 253
217 233 253
216 232 253
215 231 248
217 233 250
216 232 253
212 228 242
214 231 250
215 231 250
215 231 250
214 231 248
217 233 255
217 233 255
214 231 250
215 232 253
214 230 250
214 230 248
216 233 255
216 232 253
213 230 248
213 230 248
215 231 250
215 231 248
217 233 255
214 230 248
217 233 255
218 234 255
216 232 250
216 231 250
214 230 248
217 232 245
218 234 255
220 235 255
218 233 250
216 232 250
219 234 253
215 229 245
217 232 248
219 234 250
217 232 248
222 236 255
219 234 250
221 235 250
222 236 253
218 232 248
219 233 248
207 222 220
198 214 191
164 185 80
167 189 72
159 180 72
169 190 62
167 187 95
170 190 80
159 179 51
166 185 102
165 185 62
164 184 88
162 182 88
162 181 88
160 181 72
169 188 120
173 191 130
161 179 102
164 183 114
176 192 144
168 185 114
163 181 95
151 171 0
148 168 0
151 171 0
132 153 43
134 155 72
113 136 105
130 151 63
140 162 37
141 162 0
144 165 0
151 170 0
140 160 0
150 170 0
142 162 0
64 97 148
59 94 154
61 96 154
62 97 157
59 95 156
59 94 147
60 95 153
61 96 163
60 95 153
59 94 151
61 96 164
59 94 162
60 95 164
61 96 166
59 94 158
59 94 158
60 95 162
60 94 154
60 95 160
60 95 163
59 94 158
61 96 162
60 95 164
60 95 164
58 93 161
60 95 161
62 98 171
60 95 162
60 95 163
60 96 170
60 96 168
60 95 165
60 95 159
60 95 167
59 95 170
59 95 163
61 96 172
59 94 159
59 95 163
61 97 171
59 94 157
61 97 165
60 96 163
60 95 168
61 96 166
60 96 171
60 96 166
61 97 170
59 94 160
60 95 166
59 94 158
60 96 166
60 95 164
60 95 166
59 94 162
60 96 172
59 95 162
61 97 167
61 97 169
60 96 173
59 94 164
59 94 160
60 96 162
61 96 167
60 95 164
60 95 163
59 94 162
59 95 166
61 96 162
62 98 172
60 96 171
61 96 171
60 96 173
59 95 163
61 96 169
61 97 171
59 94 165
57 92 155
59 94 165
60 95 163
58 93 161
60 95 167
58 93 157
60 95 161
61 96 165
61 97 169
59 94 159
60 95 169
60 96 170
61 96 169
59 95 167
59 95 167
59 94 165
59 94 161
60 95 161
60 95 165
61 96 163
59 94 163
60 95 165
59 95 168
61 97 172
60 95 163
58 93 159
60 95 163
61 96 167
60 95 155
59 93 154
59 95 163
60 96 169
60 95 163
60 95 156
57 91 143
59 95 171
59 94 161
59 93 157
59 94 160
60 96 169
59 93 154
60 96 171
60 96 168
61 96 167
60 95 160
60 95 160
60 96 168
59 94 160
60 95 160
60 95 158
59 94 162
61 97 171
62 98 170
59 94 160
60 95 158
60 96 162
61 97 164
59 94 156
59 94 154
61 96 158
60 95 158
61 97 172
60 95 164
60 95 163
61 97 160
60 95 160
60 95 163
61 97 165
62 98 169
59 93 155
59 94 161
60 95 165
60 95 159
59 94 160
60 94 155
60 95 161
59 94 158
60 96 164
61 97 168
60 94 157
59 93 154
61 96 164
59 94 159
60 95 156
61 97 162
59 93 150
62 98 170
60 95 160
60 95 157
59 93 154
60 94 157
61 97 166
56 89 144
60 95 156
60 95 158
61 96 158
59 94 154
62 97 168
59 94 153
58 91 142
62 98 168
59 93 148
60 95 159
57 91 146
60 94 158
60 95 157
59 93 149
59 93 149
55 86 133
88 85 19
96 94 26
77 78 11
90 89 20
102 100 28
87 85 25
101 99 25
87 86 30
98 94 30
79 80 21
98 96 32
99 98 26
95 93 34
93 90 30
107 105 34
87 85 28
114 111 32
98 93 28
107 104 41
102 97 32
112 108 16
108 104 22
117 113 42
115 113 37
109 106 36
104 100 34
109 104 36
106 104 32
112 109 34
117 111 28
123 117 41
101 99 16
115 110 39
112 107 30
124 119 34
126 120 48
111 107 32
115 110 34
123 119 41
123 117 32
109 106 32
112 108 28
119 113 28
119 114 36
123 118 36
117 110 32
115 112 39
126 121 42
120 116 42
116 111 36
127 120 48
117 113 32
112 107 36
138 132 51
128 122 51
110 107 28
100 96 28
114 108 32
108 101 32
109 105 32
108 103 36
119 114 45
92 90 22
108 105 32
118 113 32
104 100 22
103 98 28
111 106 22
107 102 28
91 86 0
96 92 32
95 93 22
128 135 16
146 158 0
139 150 0
134 144 0
141 153 0
135 147 0
145 159 0
139 152 0
135 146 0
138 151 0
138 153 0
135 144 0
143 153 0
149 163 0
130 143 0
147 163 0
141 155 0
140 154 0
137 147 0
148 165 0
142 157 0
147 161 0
138 152 0
147 164 0
139 151 0
143 161 0
143 158 0
145 162 0
144 159 0
145 159 0
149 164 0
141 155 0
147 162 0
144 161 0
139 156 0
165 185 108
168 188 88
167 188 80
165 186 80
173 194 80
171 191 102
177 195 135
195 211 191
215 229 237
222 236 250
223 236 255
223 236 255
222 236 255
219 233 250
219 234 250
217 232 248
216 231 245
220 234 253
218 233 250
219 234 255
216 232 248
216 232 253
218 234 255
215 231 250
215 231 248
213 229 245
213 229 242
211 228 245
216 233 255
217 233 255
213 230 248
215 232 242
215 231 253
214 230 250
215 232 255
216 233 255
213 230 250
213 230 250
212 229 248
214 231 253
214 232 255
213 230 250
211 228 248
214 231 253
214 231 253
215 232 253
216 232 255
216 233 253
214 231 253
215 232 253
213 230 248
214 230 250
215 232 253
216 232 253
214 231 250
213 230 240
216 232 253
216 232 250
217 233 253
217 233 253
216 232 250
218 233 253
214 229 242
216 232 248
219 233 250
218 232 250
220 234 253
216 230 245
219 233 250
222 236 255
220 235 250
221 235 250
223 237 255
222 235 250
201 217 201
182 199 157
168 188 80
171 191 88
165 185 88
162 183 72
173 193 108
165 185 72
163 182 80
167 187 88
165 185 72
165 184 95
160 180 88
161 182 80
167 187 88
165 184 114
170 188 120
171 189 125
168 186 120
159 177 88
155 174 0
152 172 0
131 152 66
116 138 105
112 135 117
116 140 103
91 117 128
116 139 89
141 162 0
143 163 0
139 158 0
145 166 0
142 162 0
66 99 151
60 95 156
61 97 151
58 92 152
58 92 148
60 96 156
62 97 157
58 92 148
60 95 149
59 93 148
61 96 165
60 95 158
61 97 162
58 92 154
60 95 157
60 95 168
57 91 149
59 94 160
60 95 161
59 94 158
59 93 154
60 95 160
59 95 165
59 94 160
60 95 159
59 95 167
59 94 149
61 97 171
62 98 170
59 95 155
60 96 167
60 96 167
61 97 173
60 95 160
60 95 164
61 96 165
59 95 165
60 95 163
58 93 159
59 95 160
58 93 156
60 95 163
61 96 167
60 95 160
60 95 162
60 95 168
61 96 170
60 95 164
60 95 166
60 95 164
59 95 164
60 95 162
61 97 172
61 97 164
58 93 159
61 97 170
61 96 167
61 97 169
60 96 172
60 96 167
60 95 164
60 95 158
59 93 154
59 94 160
60 95 162
60 96 165
60 95 162
59 95 165
60 96 167
59 94 159
59 94 167
61 95 160
60 95 163
60 95 169
60 96 171
61 96 167
60 96 167
61 97 172
60 94 163
59 95 159
59 94 159
59 94 163
60 95 163
60 96 163
58 93 159
58 94 165
58 93 157
61 96 170
59 95 167
59 94 167
60 95 159
60 96 172
60 95 161
59 95 168
59 95 159
59 95 163
60 95 163
59 93 153
61 96 172
59 94 157
58 93 161
59 94 163
60 94 155
59 94 167
59 94 159
61 96 169
59 94 159
61 95 161
61 96 161
61 96 171
60 96 169
60 95 163
59 94 158
61 96 169
59 95 163
58 93 157
59 94 160
61 96 165
61 96 169
61 96 163
59 94 158
59 94 156
61 97 171
59 94 160
58 92 150
60 95 160
60 96 167
59 95 164
61 97 173
60 95 166
61 96 168
62 98 168
60 94 158
61 96 171
63 99 162
59 93 157
60 95 158
58 93 154
60 95 160
60 94 159
60 96 165
61 97 168
59 94 164
60 95 162
61 97 166
59 94 157
59 94 155
59 94 162
61 96 167
62 98 171
58 92 150
60 95 161
60 96 169
59 94 154
59 92 154
59 94 157
60 95 160
60 96 164
62 98 164
61 96 163
61 96 158
60 95 160
61 96 165
58 92 146
59 94 158
61 97 167
61 96 159
59 94 157
60 95 155
61 96 164
59 94 151
62 98 174
60 94 156
60 94 154
61 96 157
62 97 163
60 94 152
61 96 159
61 96 161
60 95 153
58 92 148
61 95 149
61 96 155
58 92 141
56 87 136
56 89 142
93 88 22
82 81 22
87 85 22
90 86 12
81 78 16
103 100 34
107 103 33
108 102 38
83 82 16
88 87 32
97 96 34
101 97 17
79 75 0
92 92 15
102 98 37
95 92 0
98 96 32
113 108 34
106 102 22
104 99 32
94 92 32
93 90 0
90 89 20
98 95 28
103 99 30
103 99 30
110 107 32
117 113 30
111 107 30
110 106 28
107 101 22
128 123 45
115 111 28
107 105 22
110 106 28
112 107 22
108 104 32
110 105 28
113 110 28
112 109 34
118 114 28
112 108 36
104 102 22
111 108 32
119 115 28
118 114 28
111 107 32
108 103 16
112 107 28
114 109 36
120 115 22
114 111 36
125 121 36
128 123 48
106 102 28
107 104 36
109 106 32
116 111 28
115 109 36
107 104 28
108 103 36
107 103 16
112 109 16
103 98 28
110 106 32
109 103 28
104 99 22
103 98 28
111 106 36
100 96 28
111 109 22
141 150 16
136 145 0
139 150 0
137 149 0
142 154 0
138 149 0
137 151 0
139 153 0
132 142 0
147 163 0
144 160 0
137 150 0
140 153 0
146 162 0
141 152 0
140 151 0
144 156 0
139 152 0
142 156 0
138 152 0
150 166 0
138 151 0
140 155 0
139 151 0
142 158 0
146 161 0
146 163 0
145 161 0
141 157 0
151 167 0
148 164 0
141 158 0
145 162 0
144 160 0
144 161 0
147 162 0
162 183 62
169 189 95
168 188 102
172 192 80
184 201 149
212 226 223
223 236 253
224 237 255
220 234 250
216 231 245
221 235 253
221 236 255
218 232 248
219 234 250
221 235 255
218 234 255
215 230 248
218 233 253
215 231 248
216 232 253
216 232 253
211 227 242
215 232 253
217 233 255
214 231 248
211 228 245
213 230 248
215 231 253
210 227 245
214 231 253
214 231 253
210 227 245
214 231 253
211 228 248
213 231 253
214 231 253
213 231 253
212 229 250
214 232 250
212 230 250
213 231 250
212 229 250
212 230 253
215 232 255
213 231 255
213 230 253
212 230 253
212 229 248
214 231 253
215 232 255
213 231 253
212 229 248
212 230 248
213 230 250
212 229 248
212 229 248
216 233 255
215 232 253
216 232 250
215 232 253
216 233 255
216 233 255
215 231 250
217 233 250
216 231 250
219 234 253
218 233 253
217 232 242
218 233 253
220 234 253
218 233 248
222 236 255
220 234 250
217 231 245
224 237 255
222 235 253
217 230 237
191 209 169
159 178 88
176 196 88
159 179 95
157 177 72
172 192 114
164 184 108
165 184 88
167 186 88
161 182 72
166 184 102
168 187 88
162 181 88
166 185 108
158 178 80
163 181 120
165 183 88
167 185 108
163 183 72
135 157 85
114 136 95
118 140 95
117 139 102
117 140 100
116 138 110
104 128 107
106 130 111
140 160 35
142 161 0
131 150 35
60 94 141
59 93 136
59 93 147
58 91 140
59 92 150
61 96 154
60 94 155
59 93 144
56 90 145
60 95 156
62 97 165
61 96 165
57 92 155
61 96 158
60 95 162
59 95 161
64 101 161
59 94 154
58 93 155
60 95 160
60 96 165
60 95 162
60 96 169
58 93 159
59 94 158
60 95 163
60 95 163
58 93 155
59 94 164
60 95 162
60 95 165
59 93 160
60 95 161
59 94 161
62 98 171
61 97 173
62 98 170
60 96 167
60 95 164
61 97 171
59 94 162
59 94 162
60 95 161
61 96 168
59 95 162
61 97 167
60 95 161
59 94 164
61 97 174
61 96 165
59 94 164
61 97 170
60 95 164
60 95 162
60 96 168
59 94 164
59 93 157
60 96 167
61 97 171
60 95 167
60 95 166
61 96 162
59 94 158
60 95 164
58 93 154
60 95 163
59 94 162
62 97 169
59 93 153
61 96 165
60 96 165
59 94 158
59 93 154
59 94 161
60 95 163
59 95 167
60 96 167
60 94 159
58 92 157
58 93 159
61 97 170
61 96 169
59 95 167
59 93 159
59 94 161
60 95 169
62 97 172
60 95 165
59 94 159
59 94 163
60 96 165
60 95 167
59 95 167
60 95 161
60 96 172
61 96 167
59 93 157
58 93 159
61 96 167
58 93 157
61 96 165
59 94 161
61 97 165
60 95 169
60 95 167
59 94 161
60 96 169
60 96 169
60 96 167
59 94 159
60 95 161
61 96 165
61 96 169
60 95 165
61 96 167
62 97 161
58 93 158
61 96 171
59 94 156
61 96 169
60 95 163
58 93 158
60 94 154
59 94 160
59 94 158
60 95 164
61 96 169
61 96 170
60 95 164
59 94 154
60 96 166
59 94 158
60 95 158
60 95 158
60 95 162
60 95 166
60 95 162
59 94 162
60 95 160
61 97 157
59 95 165
61 97 166
61 96 161
60 95 163
59 93 157
61 96 164
60 95 152
61 96 151
61 97 165
59 94 161
60 94 157
62 98 164
60 95 161
61 96 159
62 98 169
60 95 156
59 93 148
60 95 164
60 95 160
59 93 147
61 96 159
61 96 166
61 96 163
62 97 162
60 95 156
60 94 155
61 97 163
60 95 156
63 98 175
62 97 170
63 98 172
61 96 166
60 95 157
61 95 160
61 95 147
59 93 143
60 94 157
59 95 152
59 93 150
59 94 153
59 93 149
61 96 161
60 94 153
59 93 150
60 93 146
57 89 143
81 80 16
76 76 19
73 73 12
90 89 23
81 80 25
75 75 11
86 85 16
90 88 0
93 91 16
94 90 20
92 89 28
96 93 16
104 97 28
106 102 32
110 105 32
105 102 22
112 110 30
92 91 5
109 104 30
107 102 36
111 108 28
112 109 30
98 95 16
95 92 19
114 110 32
104 100 22
105 102 25
100 97 22
118 113 42
115 111 28
111 107 22
111 107 41
107 103 28
97 95 25
114 109 32
106 103 30
118 114 22
99 95 16
114 108 39
107 105 16
108 104 32
121 117 32
122 117 36
116 112 32
125 120 39
107 102 36
119 114 36
115 111 22
127 121 42
112 107 28
106 102 32
107 102 36
106 103 28
109 106 22
112 108 39
114 110 28
102 99 16
108 105 22
112 106 39
105 101 28
114 109 32
94 91 22
100 94 28
104 100 32
109 105 16
113 108 36
86 83 22
100 97 32
83 79 16
111 113 22
131 142 0
129 137 0
138 149 0
135 147 0
130 143 0
132 144 0
142 156 0
133 144 0
136 148 0
137 148 0
136 146 0
145 159 0
146 161 0
136 148 0
141 153 0
148 164 0
136 151 0
135 151 0
138 150 0
146 161 0
138 153 0
141 154 0
146 164 0
146 161 0
137 151 0
143 157 0
142 155 0
136 150 0
145 160 0
144 156 0
150 166 0
146 164 0
140 156 0
140 158 0
148 165 0
150 167 0
155 172 0
176 197 62
169 188 95
183 201 157
214 228 234
223 236 250
223 237 255
221 235 253
221 235 250
218 233 250
213 228 240
218 233 250
218 233 250
216 231 248
215 231 250
217 233 253
216 232 253
215 231 248
212 228 245
213 229 248
216 233 255
214 230 250
216 232 255
212 229 248
213 230 250
211 228 248
215 232 255
210 227 245
214 232 255
214 231 255
212 229 242
213 231 255
209 227 242
211 229 250
212 229 250
211 229 250
211 229 253
210 228 248
214 232 250
213 231 255
209 228 248
209 227 248
211 229 250
210 228 250
210 228 250
210 228 245
213 231 255
211 230 253
213 231 255
211 229 250
213 231 255
209 227 245
213 231 253
213 231 255
213 231 240
213 230 248
213 230 253
213 230 250
212 230 250
211 229 248
215 232 253
215 232 253
212 229 248
216 232 253
215 232 253
214 230 250
217 233 253
213 229 245
214 230 242
216 231 245
212 228 240
218 232 250
219 234 253
215 230 242
218 233 248
222 236 255
221 235 253
221 235 250
222 236 253
220 234 250
208 222 220
172 191 125
156 177 62
176 197 102
152 173 72
162 182 72
179 199 114
160 181 80
163 183 88
155 176 72
169 189 62
167 186 114
164 183 102
168 187 114
153 173 62
161 178 108
167 184 120
150 170 109
132 154 81
116 139 108
122 143 101
119 142 114
120 141 91
123 146 109
101 126 121
103 127 106
119 140 92
143 163 36
60 95 154
58 91 147
60 96 156
58 92 146
59 93 152
59 95 162
59 94 157
60 96 165
61 97 159
58 93 156
61 96 158
59 93 155
62 98 165
59 93 155
60 95 162
58 92 145
58 93 152
59 94 163
61 97 169
61 97 168
60 96 168
61 97 166
60 96 170
57 91 145
60 95 165
59 94 163
61 97 172
58 93 156
59 93 153
59 94 163
61 96 164
61 96 161
59 94 161
60 96 166
60 95 163
60 95 168
60 95 160
60 96 168
60 95 161
61 97 170
63 98 163
61 96 167
60 96 172
61 97 166
59 94 157
60 96 168
61 96 172
61 96 164
60 95 166
60 94 160
60 96 168
61 97 171
60 96 168
61 96 165
60 95 158
59 93 154
59 94 154
61 97 169
60 95 152
60 95 165
60 95 167
59 94 166
60 96 169
61 96 162
59 93 154
61 97 171
58 91 148
62 98 167
58 93 160
61 96 158
60 95 160
62 97 165
61 96 167
59 95 167
61 96 169
61 96 171
61 96 165
60 96 161
60 96 163
59 94 163
60 96 165
61 96 167
60 95 163
59 94 165
58 93 159
59 94 161
60 95 165
59 94 163
59 94 161
60 96 167
60 95 167
60 95 167
60 95 167
58 93 161
60 95 159
61 96 172
60 95 165
60 95 161
60 96 167
60 95 165
61 96 163
61 97 170
61 96 165
58 93 159
60 95 167
61 96 167
59 95 169
60 96 167
61 96 171
59 95 167
59 93 151
60 94 157
58 92 154
60 95 155
63 98 169
60 96 167
60 95 167
61 96 164
61 95 162
58 93 158
60 95 164
60 95 162
60 95 158
59 93 156
59 94 164
60 95 158
60 95 162
58 92 152
60 95 156
60 95 166
58 92 154
60 95 160
60 96 162
61 96 160
61 96 166
61 96 164
61 96 168
59 95 165
60 94 152
60 96 168
61 96 164
58 93 159
59 94 159
62 97 171
59 94 161
60 95 166
60 95 157
61 96 163
60 95 160
60 95 166
59 94 162
63 100 164
60 96 163
59 93 153
60 95 151
62 97 157
59 93 152
59 93 151
61 97 168
60 95 158
61 96 160
60 95 159
61 96 164
62 97 169
58 91 147
58 92 150
59 94 153
62 98 167
60 95 159
60 95 152
60 95 154
61 97 166
60 95 151
59 93 146
59 93 154
62 98 169
60 95 159
61 96 157
62 97 162
60 94 151
59 93 150
61 95 164
58 91 147
59 93 153
60 94 148
60 94 152
69 73 47
79 79 0
91 88 22
88 87 16
104 102 11
98 96 23
90 88 16
88 84 17
90 89 16
95 91 20
97 94 16
101 99 0
98 95 17
95 91 11
105 100 22
89 88 0
107 104 28
101 98 25
107 105 16
104 101 30
116 111 36
95 92 16
91 89 20
102 100 22
103 99 19
112 107 28
112 108 32
112 107 32
111 106 32
96 92 36
102 99 22
103 99 22
109 106 36
113 109 22
109 104 36
117 111 28
113 110 22
102 98 0
104 99 16
117 115 28
116 110 36
112 108 32
122 117 36
109 104 22
104 100 16
118 112 36
111 106 28
114 109 28
112 109 22
99 94 28
91 87 16
124 117 42
109 105 32
109 104 22
104 99 16
116 110 36
113 107 28
115 111 16
115 110 22
116 112 36
111 106 28
108 103 39
110 106 36
105 100 22
104 98 32
108 102 28
88 84 22
93 88 0
118 123 16
137 148 0
145 155 0
128 136 0
147 161 0
136 147 0
136 146 0
143 155 0
135 149 0
144 159 0
130 141 0
134 147 0
136 149 0
137 148 0
139 152 0
139 153 0
134 148 0
126 138 0
144 157 0
151 167 0
146 159 0
140 154 0
141 155 0
145 162 0
135 150 0
132 144 0
149 164 0
145 159 0
156 172 0
142 157 0
142 156 0
145 161 0
142 156 0
148 165 0
147 164 0
142 156 0
147 162 0
133 148 0
142 157 0
200 216 204
217 231 245
221 235 250
220 234 250
221 235 253
221 235 255
216 231 245
218 233 250
216 231 248
218 233 253
220 235 255
213 229 245
217 233 253
217 232 253
216 231 250
217 233 255
216 232 253
216 232 255
216 233 250
214 231 253
213 230 250
213 231 253
210 227 245
213 230 253
212 230 250
213 231 255
211 229 250
211 229 253
212 230 250
210 229 250
212 231 255
210 228 250
211 230 255
211 230 253
210 229 253
211 230 255
211 230 255
213 231 255
211 230 255
211 230 255
212 230 255
211 230 255
212 230 255
212 230 255
212 231 255
212 230 255
211 230 255
210 229 253
212 231 255
212 230 255
211 230 253
212 231 255
212 230 255
211 229 250
211 229 253
211 229 250
211 229 248
212 230 253
214 231 255
213 231 253
212 229 248
211 229 245
215 232 255
217 234 253
214 231 248
213 230 248
214 230 248
213 230 248
213 229 245
214 231 250
217 233 253
216 232 250
217 232 250
218 233 253
219 233 250
222 236 253
217 232 248
222 236 255
221 235 253
220 233 248
219 233 248
206 221 214
178 196 144
156 177 51
161 181 88
171 192 88
154 175 62
172 193 88
167 186 88
161 181 80
158 178 62
165 183 114
166 185 108
162 181 80
164 183 95
170 188 125
163 182 111
145 166 76
128 150 75
132 154 88
127 149 80
116 137 102
128 149 80
119 142 107
111 133 90
92 118 133
110 134 111
60 92 135
59 95 159
60 95 158
59 93 148
59 93 154
59 94 152
59 94 150
58 91 142
60 95 158
61 97 169
59 93 158
58 93 155
60 95 160
57 91 149
61 97 164
61 97 156
60 96 169
60 95 158
62 99 161
58 93 157
59 93 157
60 95 159
60 96 160
58 92 152
57 92 156
58 93 158
58 92 153
60 96 169
58 93 151
58 94 158
61 96 168
60 95 163
59 94 159
60 96 167
61 97 167
59 94 164
61 97 165
59 95 157
59 93 156
58 93 162
59 94 156
60 95 161
61 97 168
62 97 170
61 97 172
59 94 162
58 92 152
60 94 159
61 97 170
62 97 170
60 96 163
60 96 166
60 94 150
61 96 163
59 94 164
60 94 158
60 96 168
60 95 163
58 93 156
61 96 171
61 96 168
60 95 162
61 96 167
60 95 165
58 92 153
61 97 167
59 94 162
59 94 165
61 97 173
60 96 169
58 93 157
60 95 163
59 95 163
59 94 165
61 96 167
61 95 159
60 95 167
60 94 164
60 95 165
60 95 165
59 93 151
60 95 165
60 95 155
61 96 172
59 94 159
59 94 153
60 95 165
59 94 161
59 93 153
60 95 165
60 95 163
60 94 161
59 93 149
61 96 168
59 94 165
59 94 159
60 95 161
60 95 163
58 93 155
60 95 163
60 94 155
59 94 163
59 94 163
59 95 165
60 95 163
59 95 161
60 95 165
59 93 153
60 95 165
61 97 171
59 93 161
59 94 160
60 96 163
61 96 160
61 96 165
60 95 167
60 94 156
59 94 162
61 96 171
59 94 161
59 95 164
60 96 165
59 94 156
60 95 160
61 97 164
60 95 168
60 95 160
60 95 162
60 94 162
61 96 170
59 94 161
60 94 156
60 95 160
61 97 164
60 96 163
60 94 159
60 95 163
58 92 154
58 92 146
61 97 168
59 94 159
59 94 161
63 99 168
60 95 165
60 95 159
58 93 155
61 97 170
60 95 164
61 96 163
61 96 165
59 94 161
60 95 157
60 95 164
60 95 155
61 96 158
60 95 160
60 95 156
62 97 167
60 95 156
61 96 163
60 95 155
61 96 164
59 94 155
58 92 149
60 95 156
59 94 158
60 95 161
61 96 163
59 93 153
59 94 159
60 95 159
59 93 157
61 95 158
59 94 149
62 98 165
59 94 153
59 92 146
59 93 149
60 94 158
58 93 151
60 96 160
60 94 152
58 92 147
58 92 141
59 93 140
57 90 137
89 88 42
89 86 5
86 82 0
67 64 11
98 92 16
89 85 22
89 87 1
97 95 36
89 86 16
91 88 20
101 98 19
95 93 22
105 101 34
93 92 19
92 90 16
108 104 22
94 92 23
91 89 23
108 103 30
99 93 16
83 80 16
105 102 34
97 94 25
113 106 32
105 101 23
101 97 32
103 99 16
106 102 39
108 106 16
100 96 22
109 105 22
117 111 36
102 97 22
107 104 32
110 105 34
116 112 28
103 100 22
109 104 22
103 101 22
114 109 39
99 96 28
118 115 22
106 101 28
111 106 28
110 105 22
121 117 32
96 89 22
117 112 32
100 98 16
118 114 39
112 107 28
100 97 32
113 110 22
103 98 22
110 104 28
105 99 22
120 115 32
105 100 22
109 105 28
105 101 16
101 95 28
106 100 16
104 99 32
91 87 16
90 86 28
89 84 0
103 103 22
115 120 16
132 142 0
135 142 0
142 154 0
144 152 0
129 136 0
145 158 0
132 144 0
133 144 0
139 150 0
143 152 0
143 158 0
143 158 0
137 148 0
141 151 0
136 148 0
132 145 0
137 148 0
132 144 0
142 155 0
145 159 0
143 156 0
146 162 0
144 156 0
141 155 0
145 159 0
141 154 0
141 153 0
138 152 0
141 155 0
139 156 0
147 161 0
145 161 0
144 159 0
150 167 0
144 162 0
148 164 0
142 156 0
143 161 0
148 164 0
222 236 253
218 232 245
216 231 245
220 234 250
217 233 250
220 235 255
218 234 253
218 233 253
216 232 250
216 232 250
213 230 248
217 233 255
213 229 248
213 230 248
215 231 253
215 232 255
215 232 255
212 230 248
211 229 250
212 229 245
213 230 253
212 230 250
211 229 253
212 231 253
211 230 253
212 230 255
211 229 253
212 230 255
212 230 255
211 230 255
212 230 255
211 230 255
211 230 255
211 230 255
210 230 255
210 229 255
210 229 255
211 230 255
211 230 255
210 229 253
210 229 255
211 230 255
211 230 255
211 230 255
211 230 255
212 230 255
210 230 255
210 229 253
210 229 255
211 230 255
211 230 255
211 229 253
211 230 255
212 231 255
212 231 253
212 230 255
210 229 253
212 230 255
211 230 253
212 230 253
213 230 253
212 230 253
210 228 248
211 228 248
212 229 245
214 231 253
214 231 253
215 232 250
214 231 250
215 231 250
214 231 245
217 233 253
213 230 248
218 234 248
216 232 250
219 235 253
221 235 255
219 234 253
216 230 245
222 236 255
221 235 253
219 233 248
220 233 245
207 221 217
181 200 140
161 181 88
164 185 62
171 192 80
163 184 51
162 182 80
164 185 62
171 191 72
164 183 95
164 184 88
162 181 88
156 175 80
154 174 126
136 157 98
125 147 98
131 154 90
139 160 72
133 156 92
119 141 95
133 154 84
118 140 110
112 135 110
98 124 124
85 113 138
62 94 146
55 87 129
58 93 150
59 93 144
58 92 152
61 97 167
60 95 156
58 92 154
59 94 154
62 98 168
61 97 168
59 94 154
59 93 157
60 95 161
62 98 170
61 96 161
59 94 156
60 95 164
57 92 151
59 94 161
61 97 168
61 97 171
59 94 158
58 91 150
61 97 160
60 95 160
59 95 161
56 90 147
60 95 163
62 97 169
61 96 164
59 94 162
60 95 165
59 94 161
61 97 169
58 93 161
59 95 159
61 96 164
60 95 164
60 96 164
60 96 171
60 95 168
60 96 170
61 96 171
60 95 166
59 94 159
60 95 162
61 96 166
58 93 156
59 94 162
60 95 166
59 94 160
59 94 160
60 96 164
59 94 160
60 95 162
58 93 162
61 95 160
60 95 158
60 95 166
59 95 170
61 97 171
61 96 164
60 95 167
60 95 167
60 95 162
60 95 164
60 95 160
60 95 165
59 94 166
61 96 158
59 94 166
59 93 157
60 95 167
61 96 161
58 92 155
60 95 165
60 95 161
60 96 169
59 94 163
61 97 165
60 95 163
59 94 163
60 94 159
59 94 163
59 93 161
60 96 165
60 95 163
59 94 163
60 94 161
59 94 157
60 95 163
60 96 168
59 93 159
59 93 153
59 94 165
59 94 167
60 96 170
59 94 163
60 95 163
60 96 167
60 96 169
60 95 163
60 95 161
59 93 155
59 93 155
61 96 167
61 96 163
61 97 165
60 95 161
57 92 157
60 95 155
59 93 152
61 96 164
61 96 165
60 94 162
58 93 154
58 93 156
59 94 165
60 96 165
60 95 160
59 94 158
61 96 168
61 96 164
60 96 169
61 96 164
60 94 158
61 97 169
61 96 164
60 95 160
61 96 171
59 94 156
60 96 164
61 95 162
61 96 167
61 96 165
61 96 168
59 94 159
57 91 150
61 96 168
60 94 154
60 95 164
60 95 157
61 96 165
60 96 165
60 95 159
60 95 161
60 95 156
62 98 170
61 96 165
59 94 156
60 96 165
60 95 158
59 94 155
60 96 163
60 96 161
62 98 165
61 96 160
59 93 151
59 93 152
59 94 156
60 95 158
62 97 165
60 94 158
61 96 162
59 94 158
59 93 148
61 95 158
58 92 148
62 97 160
60 95 154
61 96 154
59 95 154
60 95 155
60 95 160
59 93 155
58 92 146
60 94 150
59 93 140
60 95 155
57 90 130
60 95 154
58 92 141
57 89 121
61 95 154
74 74 40
80 78 0
81 78 0
83 83 11
87 84 0
87 85 11
95 92 16
98 95 16
84 83 0
93 93 20
83 81 0
93 89 19
93 89 19
84 80 16
99 96 0
94 90 25
93 90 0
99 96 20
96 92 16
94 91 28
94 91 16
97 93 22
108 104 28
92 89 16
109 104 32
108 102 36
103 101 0
92 90 16
89 86 22
99 96 0
113 109 28
95 91 16
95 92 22
100 96 36
117 111 36
102 99 32
98 96 16
109 107 22
100 98 16
100 97 28
105 101 22
115 111 36
118 114 28
112 108 16
113 110 28
104 100 28
100 96 22
108 103 22
99 97 0
108 103 32
101 96 22
107 99 28
102 98 0
103 99 22
107 102 28
117 113 22
113 110 16
106 101 28
115 110 32
86 83 22
109 102 28
103 99 28
103 98 32
104 99 16
89 83 22
97 96 0
129 139 0
133 143 0
134 143 0
135 147 0
135 144 0
142 153 0
132 139 0
135 143 0
138 149 0
137 147 0
121 130 0
141 153 0
130 142 0
122 133 0
146 162 0
141 154 0
144 158 0
147 162 0
134 147 0
143 157 0
141 157 0
147 164 0
140 154 0
144 156 0
131 142 0
143 157 0
141 156 0
140 155 0
149 165 0
145 162 0
148 160 0
140 154 0
140 156 0
144 161 0
145 159 0
142 157 0
141 155 0
147 162 0
140 154 0
142 156 0
147 164 0
216 231 242
218 233 248
219 234 253
217 232 250
220 235 255
217 233 253
216 232 250
216 232 245
214 230 248
214 230 240
216 233 255
214 231 250
216 232 255
212 229 248
212 229 250
214 231 255
215 233 250
211 229 250
213 231 248
210 228 250
214 232 253
211 230 253
211 230 255
211 230 255
212 230 255
211 230 255
210 229 255
211 230 255
211 230 255
210 230 255
210 230 255
210 229 255
209 229 255
210 229 255
210 229 255
210 229 255
208 228 253
209 229 255
209 229 255
210 229 255
210 229 255
209 229 255
209 229 255
210 229 255
210 229 255
209 229 255
209 229 255
209 229 255
210 229 255
210 229 255
209 229 255
210 229 255
211 230 255
210 229 255
210 229 253
211 230 255
211 230 255
211 230 255
209 228 253
212 230 255
213 230 253
212 231 255
212 230 255
212 229 250
211 229 248
212 229 250
213 230 253
214 231 245
215 232 255
213 230 250
215 232 255
214 231 248
215 231 250
217 233 255
215 231 248
216 231 250
216 231 248
220 235 255
219 234 253
219 234 255
217 232 248
217 231 245
220 234 250
222 235 253
221 234 250
206 222 211
183 203 120
156 176 72
166 187 72
165 186 88
162 182 88
173 193 108
165 184 108
157 178 129
118 140 146
91 118 169
99 124 168
109 133 181
64 98 160
62 97 157
86 114 128
107 132 125
99 123 118
122 144 83
125 146 91
120 142 88
115 138 99
97 123 136
101 125 113
69 100 147
57 90 135
60 96 158
59 94 158
61 95 148
60 96 161
62 98 163
59 93 152
59 94 153
59 94 156
60 95 162
58 92 149
59 94 160
60 95 158
60 95 162
60 95 164
58 92 155
57 92 155
61 97 165
59 94 158
60 94 156
61 96 168
59 93 158
59 95 162
61 96 164
58 93 157
59 93 157
59 94 162
59 95 167
59 94 157
59 94 157
59 94 160
60 96 163
61 97 169
59 94 157
61 97 168
60 96 170
61 96 164
61 97 171
60 95 162
59 94 158
59 95 155
60 95 165
59 95 163
59 94 160
61 97 172
59 95 166
59 94 164
60 95 164
61 96 165
61 96 164
60 95 158
59 94 160
60 95 162
60 95 162
60 95 162
60 95 164
61 97 167
60 95 162
60 96 167
60 95 165
59 95 171
60 96 164
57 92 153
59 95 167
60 95 163
60 95 156
61 96 169
59 94 157
60 95 167
60 94 160
62 97 173
60 95 160
60 96 165
59 94 161
60 96 169
60 94 161
60 96 163
60 94 161
61 96 169
61 96 169
60 95 167
61 96 165
60 95 159
60 95 165
59 93 153
59 94 157
60 95 165
60 95 165
60 96 168
60 95 149
60 95 163
58 93 155
61 96 168
59 94 161
59 94 163
60 95 167
60 94 159
61 97 169
59 94 155
60 96 171
60 95 163
60 95 167
60 95 163
60 95 161
61 96 167
60 95 163
60 96 169
60 95 163
58 92 155
61 96 165
59 94 159
61 96 167
60 95 160
60 95 157
59 94 158
60 95 162
61 96 169
61 96 167
60 94 162
61 96 166
61 97 162
59 94 156
60 95 160
59 93 158
60 95 166
61 96 168
61 97 171
60 95 162
60 95 156
60 96 166
60 95 162
59 94 158
60 95 160
60 96 162
59 94 160
60 95 160
59 94 158
60 95 163
58 92 150
59 94 157
60 95 157
61 96 165
60 95 165
60 94 153
61 95 159
60 95 164
61 96 167
61 97 166
59 94 160
59 94 154
57 90 144
60 96 168
60 95 162
62 97 162
61 96 158
60 95 163
62 97 166
60 94 159
59 93 154
58 92 152
61 96 165
59 94 154
61 96 162
60 95 146
60 94 156
59 94 151
60 95 158
61 97 164
61 96 157
60 94 157
59 94 155
61 95 155
60 95 150
59 94 154
62 97 159
61 96 151
60 94 150
61 96 161
60 94 150
59 93 152
59 93 150
58 91 146
61 95 149
74 73 32
76 72 0
90 86 11
91 90 0
84 81 0
86 83 12
71 68 0
88 85 19
94 92 19
99 97 11
81 79 0
95 92 30
71 68 0
97 93 32
97 96 11
95 92 16
90 88 20
98 94 0
84 80 0
93 90 16
89 86 22
111 107 30
86 83 0
100 96 0
114 110 22
113 107 28
109 105 22
107 104 32
96 93 0
102 98 16
91 85 22
102 97 28
110 106 22
108 105 22
100 96 16
107 103 22
98 94 22
104 101 22
105 102 16
97 93 22
109 105 28
107 104 28
108 103 22
122 116 39
106 102 16
102 98 16
104 100 32
109 103 28
110 106 22
96 92 22
112 107 22
106 100 28
109 103 28
108 103 22
105 99 22
92 88 22
101 98 16
106 101 22
107 101 22
87 81 22
106 101 32
93 87 16
112 106 28
96 95 22
128 131 22
130 137 0
134 145 0
130 140 0
125 132 0
124 131 0
139 151 0
132 145 0
144 152 0
133 144 0
139 149 0
135 146 0
138 148 0
133 146 0
136 147 0
142 154 0
147 159 0
134 146 0
133 148 0
143 157 0
143 157 0
135 147 0
139 151 0
144 159 0
139 151 0
141 153 0
145 160 0
141 155 0
139 150 0
141 155 0
139 155 0
145 160 0
151 165 0
144 159 0
144 158 0
146 161 0
143 159 0
140 155 0
149 167 0
143 159 0
140 156 0
144 158 0
144 162 0
220 234 253
217 232 250
218 233 253
215 231 250
214 230 248
218 234 253
216 232 250
215 232 253
214 231 253
211 229 245
214 231 253
213 230 253
210 228 245
214 231 255
211 229 253
211 230 253
212 230 255
213 231 255
212 230 253
212 230 255
213 231 255
211 230 255
210 229 255
209 229 255
211 230 255
209 229 255
210 229 255
209 229 255
209 229 255
209 229 255
210 229 255
208 228 253
210 231 253
208 228 255
205 224 242
208 227 245
202 221 231
200 218 226
192 211 211
201 220 228
202 220 231
204 223 237
199 216 217
200 218 226
204 222 234
201 219 226
201 219 223
199 217 226
204 222 231
204 223 237
205 223 237
205 224 242
209 228 250
207 226 250
208 228 253
211 230 255
210 229 255
211 230 255
211 230 255
212 230 255
211 230 255
211 230 255
212 231 255
213 231 255
212 231 255
211 229 253
214 232 255
215 233 250
213 230 253
212 230 250
213 231 253
214 232 255
215 232 253
214 231 253
216 232 253
214 230 248
217 233 255
215 231 250
216 232 248
218 233 253
215 230 245
220 234 253
216 231 242
219 234 250
221 236 255
216 231 242
220 234 250
198 214 191
179 200 80
177 198 62
168 189 62
169 189 108
140 161 98
68 103 167
79 109 168
101 127 176
107 132 180
115 137 177
79 108 161
66 99 153
64 99 163
63 99 162
63 95 144
66 100 154
95 122 135
109 133 110
126 148 87
122 143 100
109 132 119
104 128 105
96 121 121
61 97 165
61 97 164
61 95 157
60 95 159
61 97 149
61 96 166
58 93 154
60 95 163
59 94 157
59 95 160
58 92 148
59 94 151
58 93 158
59 94 158
58 94 163
59 94 157
60 96 165
60 96 167
61 96 166
60 95 165
60 95 159
56 90 149
59 93 158
59 94 158
59 94 157
59 94 156
61 97 174
60 95 158
60 95 160
59 94 162
62 97 167
60 95 163
58 93 155
60 96 166
59 94 164
59 93 153
60 95 166
61 97 169
60 95 165
59 94 160
59 94 162
61 97 165
60 95 166
59 94 158
60 96 168
59 94 162
62 97 167
60 95 168
59 94 154
59 94 158
60 95 162
61 96 168
60 95 162
60 94 162
61 97 171
60 95 165
60 95 162
59 94 160
60 95 164
60 95 160
59 94 160
61 96 162
61 96 167
59 94 162
60 95 161
59 93 152
60 94 154
60 95 163
61 96 165
59 94 161
60 96 167
60 96 169
60 95 163
59 94 161
60 95 159
61 97 165
60 96 165
61 96 163
60 95 163
59 94 161
60 95 165
59 93 155
60 94 159
60 96 170
60 95 169
60 95 163
60 95 165
61 96 157
61 96 157
61 97 172
59 94 161
60 95 165
60 95 167
61 97 168
60 95 159
61 97 167
59 93 155
61 96 159
60 95 165
59 94 161
59 94 161
60 94 159
60 95 163
59 94 163
60 95 165
61 96 158
61 97 171
60 95 167
60 95 161
59 94 162
61 96 165
60 95 160
61 95 161
61 96 167
59 93 162
61 96 165
62 98 175
59 94 158
59 93 152
60 96 166
60 96 166
59 94 158
60 95 166
61 97 166
58 92 156
59 94 156
60 95 154
60 94 156
61 97 168
58 93 154
60 95 160
59 94 162
57 91 150
61 96 161
60 95 159
61 96 160
60 96 165
59 94 162
60 95 164
61 96 166
61 96 162
61 96 159
60 96 165
60 95 159
62 97 167
60 96 163
60 95 162
60 94 149
60 95 160
60 95 163
60 95 153
60 95 158
60 95 158
61 96 163
59 93 152
60 94 153
60 95 162
58 92 146
60 94 158
60 94 153
60 95 160
61 96 155
61 96 153
59 93 150
59 93 138
59 93 151
60 95 148
60 94 158
59 94 153
60 94 153
60 94 157
60 95 152
62 98 165
60 95 156
58 91 146
61 96 162
60 94 143
56 89 134
58 92 144
59 93 143
61 95 146
54 86 124
93 89 0
90 84 0
74 71 0
82 80 0
90 86 0
88 86 11
86 82 0
77 76 11
87 85 12
74 73 0
90 86 32
83 79 22
96 92 22
83 82 16
93 91 11
91 88 16
81 78 16
102 98 16
93 91 20
99 96 16
107 103 0
91 87 22
104 100 22
106 101 32
90 87 22
99 95 22
111 107 22
99 95 16
100 97 16
107 104 22
97 94 16
97 94 16
101 98 22
105 100 16
108 102 22
91 85 16
102 98 22
104 100 28
115 110 16
99 93 0
98 96 0
88 85 16
99 93 0
94 89 16
107 103 16
97 95 16
101 98 16
105 101 16
112 107 16
102 97 22
100 96 16
107 101 28
104 98 16
96 91 28
107 102 32
90 84 16
92 87 0
115 109 28
101 96 22
116 112 28
92 88 22
91 87 22
101 105 22
115 121 0
129 136 0
130 140 0
132 139 0
127 135 0
133 144 0
121 130 0
131 143 0
139 148 0
137 147 0
138 149 0
142 151 0
134 147 0
143 155 0
147 159 0
133 145 0
133 146 0
132 143 0
138 153 0
143 155 0
144 158 0
145 155 0
141 155 0
142 155 0
149 164 0
145 160 0
152 168 0
136 150 0
144 159 0
151 166 0
149 165 0
150 165 0
148 162 0
145 161 0
140 154 0
148 166 0
142 160 0
141 158 0
143 156 0
146 164 0
149 166 0
144 160 0
142 157 0
150 165 0
217 232 250
218 233 253
215 231 245
216 232 253
217 233 255
217 233 255
212 229 248
215 232 255
211 229 248
213 230 250
212 230 253
214 231 250
213 231 255
213 230 253
213 231 255
211 229 253
211 230 255
211 230 255
211 230 255
210 229 255
210 229 255
210 229 255
209 229 255
209 229 255
210 229 255
208 228 255
208 228 253
205 224 242
203 222 234
204 222 234
192 211 207
197 214 226
182 200 181
194 212 204
192 209 194
207 224 231
183 201 177
195 212 204
197 213 201
193 211 191
204 220 220
190 208 191
193 211 198
190 208 188
199 217 217
184 202 184
187 205 194
186 204 181
195 213 204
202 219 204
191 208 191
192 210 191
200 216 204
191 209 194
200 218 204
189 207 194
197 214 217
190 210 211
202 220 223
201 220 234
209 228 250
211 230 255
211 230 255
212 230 255
211 230 255
212 231 255
213 231 253
212 230 255
212 231 255
214 232 255
212 230 253
213 231 253
214 231 253
214 232 255
215 232 250
214 230 250
216 232 253
217 232 253
216 232 253
217 233 253
214 230 245
220 235 255
220 235 255
217 232 248
218 232 248
219 233 250
223 237 255
221 234 253
218 232 242
188 206 161
179 200 80
158 179 108
109 134 177
97 124 171
75 107 166
93 121 176
107 133 183
101 126 177
106 130 174
70 103 157
64 98 163
71 103 154
68 101 160
59 94 158
60 96 156
63 95 144
89 116 128
103 127 119
110 134 111
111 132 104
94 119 110
98 124 124
68 100 151
60 95 155
60 95 158
58 91 144
59 94 158
61 96 159
60 95 154
57 92 152
60 95 161
59 93 155
60 95 165
59 95 159
60 96 162
59 94 160
60 96 164
59 93 155
59 94 153
61 97 170
60 95 158
60 95 162
60 95 159
62 98 171
59 94 160
59 93 158
59 94 160
59 93 156
59 94 159
60 95 161
61 97 161
61 96 164
59 94 158
59 94 155
58 93 159
59 94 166
59 94 159
59 94 156
61 97 156
60 95 163
60 95 161
60 95 161
60 95 166
60 95 165
60 95 160
60 95 166
60 95 165
61 96 164
60 95 164
60 96 168
60 95 164
59 95 158
60 95 164
60 95 162
60 95 164
59 94 162
60 95 162
58 93 158
61 96 168
59 95 167
59 95 167
59 94 162
61 97 167
58 92 154
59 94 162
60 95 165
60 95 164
59 93 154
61 97 171
60 95 163
60 94 162
62 98 167
58 93 153
60 95 162
61 96 157
61 96 163
59 94 163
60 94 159
60 95 165
61 96 169
59 95 165
60 95 167
59 94 161
60 95 169
59 93 157
58 93 153
60 95 165
59 93 157
61 95 165
59 94 159
62 97 167
59 94 161
60 95 165
62 97 170
58 93 157
60 95 163
59 94 159
60 95 163
59 94 159
61 96 167
60 95 159
61 96 163
59 93 153
60 95 163
60 95 159
60 95 157
61 96 163
61 96 161
60 95 162
61 96 165
59 93 152
61 95 161
60 96 163
60 95 158
59 93 156
60 95 162
60 96 167
60 95 164
61 96 166
60 95 160
60 96 167
60 95 165
58 93 152
59 94 158
61 95 162
59 94 154
60 95 162
61 97 168
63 99 170
61 96 160
60 95 154
61 95 162
59 94 161
60 94 162
61 96 157
60 95 158
59 93 150
61 96 164
62 97 172
61 96 163
58 93 155
60 95 167
59 93 157
61 96 163
60 95 159
56 90 140
61 96 164
59 95 162
59 94 155
60 94 152
60 95 159
60 95 161
61 96 162
59 95 157
60 95 152
62 97 164
61 96 163
58 92 152
62 96 162
59 94 152
61 97 168
60 95 157
63 99 166
58 92 154
58 92 150
61 96 165
61 97 164
59 94 154
59 93 153
59 93 148
60 95 157
59 93 149
61 95 157
58 91 141
57 91 142
59 93 151
60 95 158
59 93 146
60 95 154
61 96 159
60 95 149
61 96 155
57 90 127
83 80 0
72 72 12
84 82 11
85 82 0
69 66 0
85 82 22
77 75 0
86 83 0
90 90 0
75 73 0
70 68 0
96 94 0
92 87 16
72 70 16
75 73 0
85 82 22
94 93 0
103 99 28
99 95 19
90 88 0
105 102 16
98 93 16
91 88 16
94 92 0
93 92 16
86 83 16
99 94 16
100 96 0
94 91 16
111 106 16
103 98 11
110 104 22
110 104 32
106 102 32
97 92 22
92 90 0
107 103 0
95 92 16
111 104 36
96 94 16
101 97 16
104 100 22
99 97 16
99 95 16
99 96 22
105 100 16
94 91 16
93 89 0
103 96 0
86 83 0
97 93 16
111 107 22
98 94 22
105 99 28
98 93 28
108 103 22
87 83 0
90 87 22
103 96 22
110 105 28
99 102 0
120 125 0
132 140 0
120 127 0
132 141 0
117 125 0
128 134 0
124 133 0
134 146 0
138 152 0
130 139 0
134 146 0
124 131 0
133 146 0
145 158 0
139 151 0
143 153 0
135 147 0
135 144 0
129 142 0
141 153 0
139 154 0
137 148 0
142 156 0
145 157 0
133 144 0
137 152 0
138 150 0
139 153 0
139 153 0
140 152 0
144 159 0
142 155 0
148 162 0
142 158 0
143 160 0
144 157 0
145 160 0
135 147 0
141 155 0
149 165 0
135 151 0
144 160 0
143 154 0
143 161 0
145 161 0
141 157 0
215 231 250
216 232 253
216 232 253
212 229 245
211 228 248
212 230 250
214 232 255
212 230 253
208 226 245
213 231 253
212 231 255
213 231 255
212 231 255
211 230 255
210 229 255
211 230 255
211 230 255
210 229 255
209 229 255
209 229 255
207 227 253
208 228 255
204 223 242
199 219 231
201 219 226
195 214 214
201 218 214
192 210 204
192 209 201
199 215 211
193 210 201
187 204 191
190 207 194
193 210 204
199 215 211
204 220 226
202 218 217
192 209 194
204 219 214
201 218 220
203 219 214
190 207 188
198 214 211
197 212 211
199 215 214
199 215 207
196 211 204
201 218 217
201 217 214
203 219 220
199 215 201
195 212 207
195 212 201
192 209 191
201 217 214
192 209 194
197 213 207
196 214 207
192 209 191
195 212 198
192 210 181
187 205 194
195 213 207
200 218 228
205 224 240
205 224 242
211 230 255
211 230 255
212 231 255
213 231 255
213 231 255
213 231 253
213 231 255
212 230 250
210 228 248
208 225 240
216 233 255
215 232 253
216 232 255
216 232 250
215 231 248
217 232 253
219 234 255
216 230 245
218 233 250
221 235 255
220 235 253
223 236 255
224 237 255
221 235 250
208 224 217
146 168 125
96 123 181
76 107 167
85 115 174
94 121 175
100 126 177
88 118 164
98 123 171
80 110 172
64 99 161
66 99 158
62 95 154
59 93 154
65 99 154
68 101 155
58 92 140
62 95 148
77 107 139
113 136 102
105 129 106
110 133 110
98 123 128
86 114 142
59 93 153
58 93 155
59 93 154
58 93 156
55 88 136
61 96 163
60 96 165
59 94 160
58 93 153
59 93 158
57 91 142
58 93 152
60 95 160
59 94 156
60 95 153
60 96 164
59 94 158
61 97 161
58 92 150
61 96 165
58 92 154
59 95 164
59 94 157
59 93 154
61 96 155
60 95 165
59 95 157
60 95 164
60 96 168
60 96 168
60 96 165
59 94 159
59 94 161
57 91 151
59 94 163
60 95 164
59 95 166
60 95 159
59 94 161
60 95 164
59 93 156
60 95 169
59 94 162
60 94 159
59 93 157
60 95 166
59 94 160
60 94 160
60 96 164
60 95 164
58 92 154
60 95 162
60 95 162
60 95 165
59 94 160
59 95 166
59 94 164
60 96 167
59 93 161
59 94 157
60 95 163
60 95 164
61 96 165
62 97 169
59 94 153
58 92 152
59 94 163
61 97 169
59 94 161
60 95 163
60 95 157
60 95 163
58 93 161
60 95 163
60 95 165
59 93 159
59 94 159
59 93 153
61 96 165
60 94 159
62 97 169
59 94 165
58 92 151
59 94 161
58 92 155
61 96 161
61 96 165
59 94 157
59 94 163
59 94 159
61 96 165
61 97 169
60 96 165
60 94 159
59 94 167
61 96 169
60 94 155
61 96 159
61 97 167
59 93 153
60 95 165
60 94 159
59 94 155
58 92 153
59 94 163
59 94 161
61 96 160
59 94 165
61 96 167
60 95 166
60 95 166
58 93 160
59 94 156
62 98 168
59 94 156
60 96 162
61 96 164
59 93 156
59 94 156
61 96 162
58 93 156
58 91 143
60 95 164
61 95 160
61 96 160
60 96 164
59 94 152
60 95 163
62 97 168
60 95 160
61 96 166
61 96 166
62 98 169
58 92 146
61 96 164
58 92 146
62 97 168
61 95 160
58 93 161
59 94 156
59 94 159
61 96 163
60 95 156
60 95 162
59 94 155
61 96 162
59 94 155
58 92 153
59 93 153
59 94 157
60 96 162
61 96 166
60 95 160
59 95 160
59 93 151
61 96 158
59 94 157
60 94 157
60 95 141
60 94 147
61 96 166
59 93 152
60 95 159
59 94 156
60 96 159
59 94 156
59 93 147
61 95 155
61 96 155
61 95 151
62 98 163
60 93 142
60 94 146
60 95 156
59 93 141
57 91 147
59 92 141
57 91 139
59 92 146
78 76 0
76 74 0
86 82 12
94 91 0
78 74 0
77 74 0
88 83 0
91 87 0
94 90 0
78 76 0
80 79 0
93 91 0
95 90 16
83 81 11
89 85 16
82 79 0
104 100 22
93 90 16
102 99 22
86 85 19
87 83 0
106 104 16
92 89 0
99 93 0
87 84 0
92 88 0
99 95 11
88 86 0
90 86 0
87 83 0
109 101 16
95 89 0
105 101 22
97 92 22
101 96 0
96 94 28
95 92 16
106 101 16
104 101 32
99 94 16
85 82 0
100 96 16
106 101 22
95 92 0
105 102 22
104 98 22
89 86 16
97 95 16
96 93 16
101 97 16
80 76 0
98 94 16
89 82 28
96 93 0
94 89 0
103 96 28
89 84 0
97 91 28
92 91 0
119 123 22
124 129 0
122 132 0
128 134 0
135 142 0
123 129 0
132 141 0
133 143 0
128 136 0
129 138 0
127 135 0
129 139 0
133 139 0
141 150 0
144 156 0
128 138 0
141 152 0
140 151 0
140 153 0
150 162 0
137 148 0
135 150 0
140 153 0
134 145 0
134 145 0
148 164 0
143 156 0
143 159 0
141 154 0
131 143 0
134 148 0
151 168 0
138 148 0
146 160 0
145 159 0
140 153 0
141 156 0
140 156 0
138 152 0
144 160 0
144 159 0
146 164 0
143 158 0
142 153 0
146 163 0
146 164 0
145 158 0
143 161 0
215 232 253
212 229 248
212 229 248
213 230 248
210 227 245
212 230 250
210 228 245
210 228 248
212 230 255
212 231 255
212 230 255
211 230 255
210 230 255
210 229 255
210 229 255
210 229 255
210 229 255
208 228 255
207 226 245
202 221 234
203 222 217
192 209 204
190 208 191
192 209 201
189 207 194
194 212 194
195 212 194
203 219 214
199 216 201
197 214 211
198 214 214
206 222 223
207 223 228
205 221 223
201 216 211
204 220 223
208 223 226
204 220 220
210 225 231
209 224 231
211 226 228
204 220 220
203 218 217
207 222 228
206 221 226
203 218 217
202 218 217
211 226 231
207 222 223
216 230 245
208 223 228
207 221 226
203 219 220
203 218 217
203 218 214
201 217 214
187 204 188
188 204 188
192 209 194
199 215 207
194 209 201
195 212 198
188 206 184
191 208 188
181 199 173
199 217 214
197 215 198
203 222 234
200 219 231
211 229 250
210 229 253
213 231 255
212 231 255
211 229 253
212 230 253
212 230 253
211 229 248
215 232 255
214 230 250
215 232 253
214 231 250
216 232 253
216 232 253
219 234 255
216 231 248
219 234 253
220 235 255
221 235 255
221 235 253
221 235 253
224 237 255
169 186 213
93 121 176
82 112 172
89 118 177
72 104 168
82 113 170
79 108 160
111 135 179
96 123 169
67 99 157
65 97 153
63 99 171
67 101 163
63 96 151
65 99 158
58 91 142
64 96 151
68 99 150
62 96 156
84 112 144
104 129 122
102 126 115
106 130 115
88 116 139
63 98 159
59 93 151
58 92 147
58 93 157
58 92 154
58 93 151
59 94 160
57 92 154
59 94 163
61 96 158
58 92 151
62 98 165
58 92 153
59 94 156
56 90 148
59 95 161
58 92 147
60 96 169
57 92 148
61 96 170
60 94 159
60 96 166
58 92 152
60 96 169
59 94 159
60 95 163
59 93 159
59 94 162
59 93 150
59 93 158
61 97 168
60 95 165
62 97 168
61 97 171
59 94 164
59 93 153
61 97 169
60 95 156
58 93 155
59 94 158
58 93 158
59 94 162
61 96 166
61 96 166
60 95 163
61 97 168
61 96 164
59 94 163
60 96 164
61 96 168
58 92 154
60 95 162
58 92 151
61 97 173
58 93 158
61 96 164
61 96 168
59 94 162
60 95 160
61 96 167
59 94 160
60 95 167
60 95 162
59 95 163
59 93 151
60 94 153
59 94 162
61 97 164
61 97 169
60 96 156
60 95 167
59 94 159
60 95 159
59 95 157
58 93 159
58 93 155
61 97 163
59 94 155
60 94 161
59 93 161
62 98 174
59 94 161
60 94 157
60 95 167
60 94 157
59 94 159
60 96 167
59 94 163
59 93 157
60 95 161
59 93 159
57 92 151
60 95 163
60 94 161
60 96 165
60 96 165
60 94 161
59 94 155
59 94 156
61 96 163
60 95 161
61 95 159
61 96 165
60 95 163
61 95 157
59 94 156
60 95 158
60 96 167
59 94 162
59 94 162
59 94 158
59 94 158
59 94 164
60 95 160
60 95 162
60 95 164
59 94 156
58 93 156
59 95 162
60 94 160
59 93 156
62 97 156
61 97 168
60 95 154
59 94 162
61 96 166
60 94 148
62 97 159
61 96 164
60 95 159
62 98 168
60 95 159
62 97 161
61 95 150
60 94 158
60 95 161
57 91 148
62 97 163
61 96 165
62 97 168
59 94 153
58 93 153
61 96 159
61 97 166
60 95 160
58 92 148
60 95 159
59 94 155
58 92 153
61 96 166
60 94 154
61 96 164
61 97 167
61 96 157
60 95 160
60 95 158
59 93 150
60 95 158
60 95 146
61 96 163
59 94 153
59 93 152
58 92 148
60 95 159
60 94 152
61 96 158
60 95 159
60 94 159
59 93 154
60 95 155
58 92 147
60 94 152
59 94 154
59 93 151
60 95 155
59 93 153
59 93 142
56 88 133
71 68 0
89 88 0
89 85 0
82 79 0
85 83 0
82 80 0
81 79 0
88 84 5
83 80 0
88 84 20
63 63 0
81 78 0
75 73 0
92 91 0
83 79 0
101 96 16
80 76 0
98 95 11
97 91 16
108 102 22
90 87 16
95 92 16
94 89 0
88 85 0
91 88 0
105 99 22
84 80 0
101 100 0
108 102 22
91 89 0
99 95 0
108 101 32
97 94 16
98 93 0
95 91 0
76 72 0
104 101 28
86 83 0
95 91 16
99 96 16
88 83 0
103 100 22
99 94 22
102 98 16
100 96 0
94 91 0
102 97 16
85 83 0
105 102 16
108 104 32
94 91 16
79 74 0
104 100 16
96 91 22
95 91 22
101 96 16
97 95 28
113 116 16
125 131 0
121 128 0
124 131 0
127 135 0
128 135 0
134 144 0
137 146 0
136 146 0
136 145 0
137 147 0
126 135 0
138 150 0
129 137 0
132 146 0
136 148 0
135 146 0
133 144 0
139 150 0
134 144 0
144 159 0
133 143 0
143 152 0
130 144 0
129 140 0
133 145 0
133 140 0
132 146 0
138 151 0
144 159 0
140 153 0
142 156 0
141 153 0
138 152 0
140 155 0
144 159 0
138 151 0
145 161 0
144 157 0
142 159 0
142 158 0
141 155 0
138 151 0
145 158 0
141 155 0
139 153 0
143 160 0
138 151 0
141 157 0
148 160 0
215 232 255
213 230 250
214 231 253
212 230 253
212 230 253
214 232 253
213 231 255
211 230 255
211 229 253
211 230 255
210 229 255
211 230 255
209 229 255
208 228 253
208 228 253
202 221 240
200 219 231
194 212 214
200 217 217
190 207 191
189 207 188
181 198 169
194 211 201
202 219 220
200 216 220
200 215 211
202 219 214
207 222 226
207 222 228
206 221 228
204 218 217
203 217 214
209 223 223
204 219 220
209 223 226
212 227 234
203 219 211
199 214 201
201 216 201
206 221 201
192 208 188
177 194 153
193 209 181
178 196 153
183 201 161
186 203 173
177 194 153
186 204 173
175 193 153
183 200 173
188 204 177
184 202 169
190 206 184
196 212 204
206 222 214
198 213 207
203 218 214
203 218 217
205 220 220
204 219 217
207 221 220
205 220 223
196 211 207
198 215 211
196 212 204
195 212 198
189 207 188
199 216 214
191 209 181
194 211 191
198 215 217
209 227 245
211 228 253
212 231 255
211 229 253
213 231 255
212 230 253
214 231 255
212 229 250
214 231 253
210 228 242
216 232 253
215 232 253
216 232 253
219 234 255
218 233 250
218 233 248
219 234 253
215 230 245
219 233 250
217 231 245
176 192 218
87 117 175
73 106 171
88 116 172
87 117 177
86 115 173
95 122 173
105 131 181
96 122 165
74 105 169
68 101 155
68 101 162
68 101 158
72 103 147
61 96 164
63 97 160
70 101 152
65 97 148
69 101 157
66 100 157
60 94 156
83 110 129
96 121 112
105 128 112
82 109 135
59 91 145
60 95 161
59 93 150
59 94 159
61 96 155
60 96 167
58 93 154
60 96 161
60 95 160
59 94 154
58 94 158
59 94 158
61 97 173
58 92 150
60 96 166
60 96 166
57 91 150
60 96 166
60 96 165
60 95 163
60 95 155
60 95 162
59 94 161
61 97 165
58 92 154
59 94 158
58 93 154
62 98 169
60 96 168
59 93 159
59 95 157
60 96 165
60 96 161
58 93 152
59 94 158
60 94 158
60 94 163
58 92 155
59 93 153
61 96 164
58 93 154
60 95 163
61 96 170
60 95 158
61 96 162
58 93 158
61 96 162
60 95 166
58 92 156
60 94 158
65 102 166
59 94 165
60 95 165
60 96 167
58 94 160
60 95 164
60 95 160
60 95 166
59 95 164
60 96 169
60 95 161
60 96 166
59 94 161
59 94 162
60 95 163
59 95 165
59 94 159
63 98 167
59 93 160
60 96 167
60 95 166
60 95 165
60 95 163
59 94 163
60 95 165
61 95 163
59 94 163
61 96 165
60 95 163
61 96 167
60 96 169
59 94 159
60 95 159
59 94 163
60 95 165
59 93 155
59 94 163
60 95 165
59 95 161
60 95 161
59 94 157
60 94 157
59 94 155
60 95 163
59 94 165
59 95 165
59 94 153
60 95 165
60 96 167
61 97 167
60 94 157
62 97 165
59 93 156
60 95 165
59 93 154
60 96 167
62 98 175
59 94 150
59 94 160
58 93 154
60 95 162
59 95 164
62 97 168
62 96 161
59 94 160
61 96 164
61 96 168
60 95 162
60 95 164
59 94 158
61 96 156
59 94 150
61 96 164
60 95 162
61 97 170
61 97 158
61 96 168
59 94 160
61 96 159
61 96 162
59 94 155
59 94 155
61 97 168
59 95 163
59 93 149
60 95 163
61 97 171
58 92 143
59 94 155
58 92 153
61 96 163
60 94 151
60 96 166
59 93 153
60 94 156
59 93 153
60 94 157
62 97 168
59 93 151
59 93 149
61 96 159
62 98 169
56 90 140
62 98 173
59 93 150
61 96 157
59 94 150
61 96 163
57 91 143
60 94 149
59 93 147
59 94 153
60 95 151
60 95 155
60 94 144
58 92 145
61 96 153
61 95 155
60 94 145
60 94 151
61 96 158
60 95 154
61 95 147
57 90 141
60 95 150
58 91 138
63 90 127
86 81 0
66 63 11
85 81 11
83 79 0
83 80 0
75 72 0
83 80 11
75 70 0
80 77 0
82 76 0
81 80 0
91 87 0
91 87 0
94 90 0
81 78 0
83 80 0
89 85 16
98 96 0
96 92 0
98 95 0
84 83 16
85 81 0
94 90 0
100 95 0
99 95 25
79 77 0
92 88 0
95 92 0
98 95 0
95 89 0
91 88 0
98 93 22
91 85 22
96 93 0
103 98 0
101 94 0
85 82 0
106 100 28
99 95 16
95 91 0
105 102 0
104 100 16
101 97 16
106 99 32
112 105 32
107 103 0
103 97 28
83 78 22
104 99 22
94 88 22
96 91 16
100 95 22
109 102 22
78 73 16
79 75 0
102 104 0
126 133 0
124 132 0
131 142 0
125 131 0
129 138 0
127 137 0
141 151 0
131 140 0
134 145 0
134 141 0
131 138 0
134 143 0
142 154 0
135 147 0
124 131 0
143 155 0
136 143 0
136 146 0
129 138 0
139 153 0
142 156 0
129 142 0
136 148 0
137 151 0
146 160 0
145 158 0
138 150 0
136 150 0
139 152 0
141 153 0
135 150 0
134 150 0
138 152 0
133 147 0
145 161 0
142 156 0
135 149 0
140 153 0
142 154 0
143 157 0
146 159 0
140 154 0
150 167 0
144 159 0
138 151 0
143 158 0
152 168 0
145 162 0
137 150 0
140 157 0
138 156 0
213 231 253
210 228 248
212 230 253
213 231 255
212 230 255
212 230 255
211 230 255
211 230 255
210 229 255
210 229 255
209 229 255
209 229 255
207 226 245
197 215 220
188 206 198
192 210 194
201 219 214
197 215 204
197 214 207
199 216 204
189 206 188
198 215 207
205 220 220
201 217 217
204 219 217
206 221 226
210 224 231
204 218 217
205 220 220
202 217 214
183 201 157
191 209 169
186 203 165
172 191 125
166 187 95
156 177 51
178 199 80
162 184 80
164 184 72
159 179 51
155 176 51
159 180 88
159 180 102
165 186 80
148 169 51
155 176 62
164 185 95
165 187 88
159 180 80
162 183 80
158 179 62
167 188 88
165 186 102
162 183 72
165 186 36
171 191 80
165 185 102
158 178 62
174 194 125
185 203 157
186 203 181
188 206 177
197 214 201
201 217 214
198 213 207
203 219 217
192 209 191
190 206 191
192 208 191
198 214 201
183 200 173
191 208 194
188 205 188
193 210 201
207 225 245
213 231 255
212 230 255
214 231 255
211 229 248
212 229 248
212 230 253
215 232 255
211 228 248
215 231 250
216 232 253
217 233 253
218 234 248
216 231 248
214 229 242
221 235 255
220 234 250
198 213 234
76 108 171
85 115 175
92 121 177
82 113 179
66 99 160
101 127 180
85 113 158
95 123 175
89 118 169
64 99 160
62 96 150
60 96 166
62 95 150
62 95 150
66 100 160
59 93 152
62 95 151
58 92 152
60 93 150
64 99 157
60 93 143
69 100 145
106 131 127
108 130 100
96 121 121
60 94 153
60 94 158
58 94 160
57 92 156
58 92 151
59 94 152
57 92 154
61 96 159
61 96 169
58 93 159
60 94 156
59 94 159
60 96 166
57 92 160
59 93 155
58 93 150
59 94 161
60 96 164
59 94 157
57 91 156
61 96 169
61 97 171
59 93 157
59 94 153
59 93 154
59 94 159
59 94 157
60 95 163
60 94 161
60 96 161
60 95 163
58 92 153
59 93 150
61 96 169
59 93 154
59 94 154
59 94 162
60 94 161
59 94 158
59 93 155
60 96 166
59 94 157
58 93 156
58 93 156
58 93 152
60 95 160
60 96 172
61 96 165
61 96 162
59 94 158
59 94 162
59 94 160
59 94 158
61 96 169
60 95 164
60 94 162
61 96 167
60 95 166
60 95 166
59 94 157
59 93 154
62 97 169
59 94 160
62 97 173
59 94 158
60 95 163
60 94 160
59 94 163
59 94 159
61 96 171
60 95 163
60 95 161
61 96 163
60 94 159
60 96 165
58 93 159
60 95 165
60 95 165
59 94 165
60 95 163
60 95 161
60 95 161
61 96 167
58 93 157
60 94 159
59 94 155
59 95 163
59 94 159
57 91 151
59 94 161
60 95 165
59 94 159
59 94 159
59 94 157
59 94 157
59 94 159
60 94 163
60 95 163
61 97 171
61 96 167
61 96 163
61 96 161
58 93 154
60 95 160
59 93 158
60 95 154
61 96 158
58 92 148
59 94 162
61 97 167
60 95 162
62 97 169
58 93 150
61 96 166
60 95 158
60 95 164
59 94 160
59 93 156
61 97 160
60 95 164
59 94 162
61 96 157
59 95 162
61 96 156
59 93 155
60 95 159
60 94 161
61 98 172
60 95 159
60 95 164
60 94 159
58 93 155
61 96 161
59 93 153
61 96 167
60 93 148
59 94 157
60 94 152
61 96 163
62 97 165
61 96 157
59 92 150
60 95 160
61 95 156
60 94 155
60 95 163
59 94 151
60 95 159
61 97 167
58 93 147
58 92 150
59 93 151
61 96 157
63 99 168
60 95 159
60 94 156
59 93 156
58 90 136
59 94 149
60 94 157
60 94 148
61 96 157
59 93 154
57 90 138
57 91 137
59 93 146
61 96 156
59 93 148
58 92 146
58 92 147
58 92 145
58 92 150
57 90 142
57 90 137
59 93 149
64 87 124
88 84 11
78 74 0
79 77 0
87 82 0
86 83 0
89 83 0
83 79 0
82 78 0
73 72 0
77 71 0
80 77 0
88 87 0
82 77 0
92 89 16
71 67 0
84 81 0
73 70 0
71 70 0
94 90 16
85 82 0
100 97 11
94 90 0
91 86 0
84 82 16
95 90 0
107 101 22
91 86 16
89 86 0
93 90 16
98 93 0
85 80 0
97 93 28
83 79 0
98 94 22
92 87 16
100 96 0
92 85 16
102 97 28
88 83 0
85 80 0
106 103 16
94 90 16
94 88 16
98 92 32
92 87 0
91 88 0
93 88 0
101 97 28
104 99 22
101 94 22
87 82 0
88 84 16
92 90 16
99 102 0
101 103 0
126 135 0
131 135 0
119 126 0
128 135 0
137 149 0
133 141 0
128 134 0
135 145 0
134 142 0
127 136 0
126 137 0
137 146 0
122 131 0
130 140 0
132 141 0
131 140 0
131 143 0
142 151 0
133 144 0
133 145 0
135 146 0
134 147 0
137 149 0
135 149 0
140 152 0
140 149 0
142 157 0
146 160 0
141 153 0
130 140 0
142 152 0
138 153 0
136 147 0
141 155 0
144 160 0
151 167 0
145 162 0
147 162 0
151 167 0
140 155 0
140 153 0
150 167 0
142 158 0
151 170 0
144 159 0
146 161 0
145 161 0
145 160 0
140 155 0
138 150 0
147 165 0
151 169 0
210 228 248
212 230 250
212 230 255
212 231 255
211 230 255
210 229 255
210 229 255
209 229 255
209 229 255
204 224 240
198 216 217
199 217 220
194 211 204
195 213 201
196 213 198
202 219 220
205 221 226
197 214 198
198 214 214
197 213 201
211 225 228
200 216 214
211 226 234
212 227 234
201 216 204
190 208 177
180 198 149
169 189 95
157 178 72
157 179 51
167 190 88
154 175 62
159 181 88
166 187 72
166 187 62
159 178 72
158 179 88
152 173 62
153 175 62
162 184 88
159 180 62
163 184 80
159 179 62
160 182 72
154 174 62
163 184 72
155 176 51
157 178 62
165 187 72
162 182 62
158 178 72
160 181 72
172 193 95
161 182 88
158 179 72
158 178 62
156 177 51
161 182 80
161 183 80
158 179 72
159 181 88
171 193 80
160 182 62
159 179 72
157 177 95
169 187 114
173 192 149
186 204 165
201 216 211
215 229 240
192 208 191
203 218 217
200 216 211
190 208 184
184 202 181
203 220 220
202 220 223
211 229 248
212 231 255
214 231 255
213 231 255
213 230 253
213 230 250
212 230 250
213 230 250
217 233 255
215 232 245
214 230 248
218 234 255
217 232 250
220 235 253
205 220 246
81 112 177
85 116 184
79 110 174
62 99 173
99 126 179
79 110 178
102 127 175
94 121 177
68 101 164
89 117 167
63 97 162
67 100 158
64 97 151
69 102 160
59 93 160
65 99 151
59 94 162
69 102 146
72 104 155
61 93 139
62 96 160
59 94 158
62 93 138
73 103 144
97 121 120
87 114 132
65 95 136
62 97 163
58 94 160
59 94 161
59 94 162
61 97 170
60 95 165
60 95 159
60 94 161
58 92 150
59 94 158
61 97 164
56 90 140
58 92 155
59 95 168
60 95 160
60 95 162
59 95 160
58 92 140
60 94 157
60 95 161
60 96 161
58 93 155
59 94 152
59 94 157
60 95 159
59 93 159
60 96 165
59 93 153
59 94 162
59 93 155
60 95 163
58 94 156
60 95 164
57 91 157
60 95 164
60 95 162
59 94 156
58 93 156
59 94 148
60 95 164
57 91 152
60 96 166
61 96 161
62 98 168
59 93 161
58 92 158
59 94 164
60 94 158
61 96 168
59 94 156
59 94 156
60 95 162
59 93 156
60 95 164
60 96 160
60 95 164
62 98 175
61 96 167
61 96 168
60 95 160
60 96 169
59 94 160
59 93 156
59 93 157
60 96 169
60 95 161
59 94 156
60 95 161
60 95 165
59 94 162
59 93 157
61 96 165
60 95 159
59 94 155
61 95 157
60 95 159
60 95 165
61 96 165
62 97 161
60 96 159
61 96 169
60 95 165
59 94 153
61 96 161
58 93 153
59 94 159
59 94 159
61 97 172
59 93 151
60 95 163
61 96 169
58 93 155
58 92 151
59 94 157
59 94 157
60 95 167
60 96 167
59 94 160
60 95 161
61 96 162
62 97 167
58 92 152
60 95 158
60 95 162
61 96 164
59 94 162
59 94 162
59 95 163
59 94 152
59 94 162
61 97 166
59 93 152
60 95 162
58 93 156
58 93 156
59 94 152
61 96 164
61 96 161
60 95 154
59 93 154
61 96 167
60 95 157
60 95 161
61 96 162
61 96 158
59 94 159
60 94 158
59 94 162
60 95 154
58 92 152
60 95 156
62 97 160
59 93 146
59 94 159
59 94 157
60 95 161
60 94 155
59 94 155
60 94 159
58 92 151
62 97 165
61 97 165
57 91 147
60 95 160
60 96 156
59 94 156
58 92 149
61 96 159
60 94 151
60 95 160
59 94 155
60 94 153
59 94 156
60 94 154
60 95 161
58 91 142
58 92 146
59 93 147
60 94 146
60 93 148
60 94 150
59 92 139
59 94 154
60 95 157
60 95 159
59 92 145
62 98 163
62 97 167
60 95 153
58 92 146
60 94 153
56 88 130
58 91 139
63 83 106
81 75 0
72 69 0
82 78 0
70 68 0
75 72 0
87 83 0
83 80 0
88 83 0
87 82 0
90 86 0
85 81 0
99 93 0
86 83 0
82 78 0
85 82 0
86 82 0
86 83 0
90 85 0
95 91 0
80 76 0
86 82 0
95 91 0
90 86 0
91 87 16
79 76 0
102 96 16
90 85 16
84 80 0
87 86 0
75 73 0
88 85 0
89 86 16
96 93 0
87 83 16
94 88 16
96 94 22
84 79 16
87 83 0
103 97 0
87 83 0
96 92 0
87 80 16
91 85 0
90 87 0
84 78 22
80 76 16
73 70 16
82 78 16
98 92 22
78 70 0
104 103 0
106 110 0
126 131 0
130 137 0
124 133 0
131 141 0
120 125 0
127 138 0
129 136 0
130 139 0
139 148 0
128 138 0
133 143 0
132 143 0
133 139 0
127 134 0
131 139 0
131 139 0
133 142 0
140 150 0
129 140 0
142 153 0
141 153 0
144 158 0
134 146 0
139 150 0
137 147 0
133 144 0
136 149 0
143 156 0
140 153 0
146 159 0
143 157 0
142 156 0
141 153 0
139 148 0
141 154 0
141 156 0
138 151 0
142 156 0
142 156 0
149 161 0
140 152 0
136 151 0
145 161 0
152 169 0
138 154 0
150 164 0
143 160 0
147 165 0
153 169 0
139 156 0
142 158 0
149 165 0
147 161 0
141 159 0
141 157 0
212 231 255
212 230 255
211 230 255
210 229 255
208 227 250
210 229 255
210 229 255
197 216 220
199 216 214
191 209 191
195 213 207
192 209 204
190 208 201
203 219 220
203 218 220
200 215 214
204 220 220
209 223 226
209 224 226
202 217 211
199 215 198
186 205 153
164 183 125
159 179 51
171 192 88
171 192 72
155 176 62
157 179 62
166 187 51
173 194 72
154 175 51
157 176 36
158 181 62
159 180 62
156 178 80
157 178 62
160 181 80
160 181 88
157 178 80
161 182 51
159 179 36
160 181 36
166 186 62
166 187 95
169 191 108
159 179 51
162 182 51
158 179 80
165 187 80
166 187 51
156 177 51
163 184 72
167 188 62
161 182 88
162 184 72
164 185 72
159 181 51
165 187 62
156 177 36
158 180 88
159 180 62
167 189 102
159 179 72
160 180 51
159 180 36
157 177 80
154 174 62
154 175 36
154 175 62
169 188 114
183 200 169
192 208 181
207 222 223
196 212 198
199 215 214
200 215 204
190 207 188
197 215 204
181 199 169
196 214 214
207 225 242
214 231 255
214 232 255
210 228 248
217 234 253
212 229 248
211 228 245
216 232 253
213 229 245
211 227 248
216 231 253
214 229 251
91 119 178
84 114 183
89 118 184
68 102 174
102 129 187
67 101 173
78 108 169
84 113 174
99 125 183
93 120 172
85 114 177
71 104 164
59 95 160
72 104 155
68 100 152
60 96 160
61 95 153
58 93 152
63 97 159
62 96 158
59 94 161
59 93 148
61 94 149
66 98 149
71 100 138
95 122 133
99 123 120
76 106 145
60 95 154
57 91 146
58 92 151
58 92 150
59 94 154
58 92 145
58 92 147
58 92 155
61 96 165
60 95 159
60 95 162
59 93 157
60 95 157
60 95 160
60 94 158
59 94 161
61 95 162
59 94 152
59 94 155
59 93 159
58 93 161
60 95 165
60 95 162
58 92 161
59 93 151
59 93 150
61 96 163
59 95 159
59 93 157
60 95 162
60 95 163
59 94 160
61 97 163
61 96 159
59 93 159
62 97 168
61 96 163
58 92 150
61 96 166
61 97 170
59 94 158
60 95 162
60 94 165
58 93 158
62 98 171
60 95 164
59 94 162
60 96 168
60 95 164
59 93 150
58 92 154
60 95 167
59 93 154
60 95 166
58 94 158
60 95 160
59 94 163
60 95 165
60 96 165
60 96 169
59 94 158
58 92 152
60 95 161
61 95 163
60 95 162
59 93 155
59 94 155
60 95 152
60 95 169
60 95 159
60 94 157
60 95 163
59 94 159
58 92 151
60 94 157
61 96 169
59 93 155
60 95 159
60 95 159
59 94 159
61 96 169
59 94 161
58 91 147
60 96 163
59 94 153
58 92 149
60 95 161
59 94 159
59 95 165
60 94 155
61 96 167
61 96 159
59 93 159
60 95 165
60 95 155
61 96 161
59 94 163
60 95 160
60 95 162
59 93 158
61 96 167
58 93 150
60 94 162
60 96 167
60 95 167
61 96 166
59 95 165
59 93 151
61 97 162
60 95 158
59 94 162
59 94 154
61 96 166
59 93 156
57 91 143
58 92 150
62 96 166
58 92 150
59 94 161
60 95 153
57 91 144
59 94 158
60 94 159
59 94 158
61 96 157
61 96 168
60 95 161
59 93 153
60 95 157
59 93 152
60 94 159
60 95 159
58 93 155
59 94 159
60 96 163
61 95 157
60 95 157
63 98 165
60 95 160
61 96 163
61 95 159
59 93 155
60 95 165
61 96 165
60 95 160
60 95 158
60 96 160
62 98 172
61 96 160
60 94 158
60 94 154
60 95 156
60 95 160
59 93 152
60 95 158
59 94 154
60 94 143
59 92 144
60 94 156
60 95 153
59 92 146
60 94 157
58 92 150
60 94 148
56 89 131
59 93 152
59 93 141
59 93 150
58 93 144
59 93 143
58 91 142
59 92 141
62 83 107
79 75 0
82 76 0
69 65 0
76 72 0
82 76 0
70 67 0
83 79 0
79 76 0
86 81 0
89 84 0
72 67 0
81 76 0
80 75 0
99 93 0
79 76 0
69 65 0
67 65 0
70 68 0
76 73 0
93 89 0
86 81 0
77 74 0
80 77 0
83 80 0
76 74 0
92 88 0
89 85 0
98 92 16
87 80 0
87 81 16
92 89 0
90 87 0
97 93 16
105 100 22
102 97 16
106 100 22
92 89 0
99 93 22
90 84 16
96 92 16
90 86 0
88 86 0
89 85 22
73 69 0
78 75 0
90 84 22
74 70 0
106 100 0
91 91 0
119 123 0
127 133 0
121 127 0
133 141 0
109 114 0
123 130 0
127 133 0
125 132 0
129 137 0
129 136 0
130 139 0
140 152 0
132 140 0
128 133 0
129 138 0
136 147 0
136 146 0
126 136 0
129 137 0
137 147 0
141 152 0
129 140 0
137 148 0
121 129 0
139 148 0
139 150 0
136 145 0
142 156 0
138 150 0
139 151 0
133 144 0
137 149 0
142 155 0
142 154 0
138 153 0
135 149 0
140 153 0
146 160 0
135 145 0
145 158 0
142 158 0
148 164 0
138 154 0
138 153 0
146 160 0
145 159 0
148 162 0
154 170 0
143 160 0
142 155 0
142 157 0
153 168 0
146 161 0
151 166 0
149 165 0
134 149 0
146 163 0
146 161 0
211 230 255
211 230 255
210 229 255
210 229 255
207 227 250
195 215 217
198 216 194
194 211 198
190 207 188
196 213 207
198 214 204
197 213 211
197 214 211
205 221 220
207 222 226
197 212 201
199 214 207
201 217 204
181 201 125
163 184 62
155 176 62
162 183 80
163 184 62
158 179 88
164 186 88
151 172 36
156 177 62
164 186 72
153 174 62
175 196 62
158 180 62
161 183 72
162 183 95
162 183 80
154 175 51
158 180 80
158 180 51
172 193 88
162 183 88
167 189 88
158 179 72
159 181 80
157 177 80
166 188 108
169 190 95
171 192 62
168 188 62
155 175 80
158 179 72
162 183 114
164 185 95
159 180 36
165 186 88
164 186 95
151 171 51
166 187 62
158 178 62
160 181 95
155 176 62
163 183 72
163 185 51
165 187 72
162 184 72
157 179 62
163 184 72
158 178 72
163 185 72
166 186 108
164 186 95
160 181 62
176 198 88
156 176 80
165 185 80
172 191 130
197 214 177
196 212 191
200 215 211
201 217 211
191 207 188
188 205 191
182 201 165
199 216 211
210 228 248
214 231 255
214 231 255
214 231 253
210 228 240
214 230 250
217 233 255
211 227 251
217 232 253
217 232 254
154 174 215
84 115 184
73 106 173
78 109 175
105 131 184
98 125 182
85 115 181
78 108 170
84 113 174
99 125 181
74 106 177
59 94 164
68 100 146
60 95 161
67 99 152
57 92 145
70 103 160
59 94 159
64 97 149
57 91 146
62 96 148
61 95 151
66 100 168
60 92 144
59 93 155
63 94 147
78 106 133
110 133 108
78 106 135
59 93 157
58 93 156
57 91 153
58 92 148
58 92 156
60 95 159
60 95 158
60 95 160
59 94 161
59 95 162
58 92 156
57 91 148
59 94 159
60 95 164
61 97 169
60 95 162
59 94 157
61 96 158
60 96 165
61 97 164
58 93 157
59 94 153
59 95 160
60 95 160
59 94 163
56 90 151
58 93 161
60 95 161
59 94 153
58 92 154
60 95 160
60 94 157
60 95 165
60 96 165
59 94 158
59 94 160
60 96 165
58 92 154
60 96 161
61 96 166
60 95 164
60 95 160
60 94 159
60 95 164
59 94 156
59 94 162
58 92 154
59 94 156
60 94 158
61 96 164
59 93 154
60 96 162
61 96 165
60 94 160
60 95 166
59 94 162
57 91 152
58 93 152
59 92 152
58 92 157
59 93 155
59 94 162
56 91 154
59 94 160
60 95 163
59 93 152
60 95 163
61 97 167
60 94 159
59 93 159
59 94 155
61 96 165
60 95 163
60 95 163
60 95 159
59 94 159
60 95 163
61 97 167
58 92 145
60 96 167
59 95 165
59 93 153
60 95 163
58 92 153
59 93 157
61 96 163
59 94 157
58 92 155
60 95 161
61 96 165
60 95 165
58 92 143
60 94 159
58 93 158
60 94 157
61 95 158
60 95 164
61 96 164
60 95 163
59 93 152
60 95 165
59 94 158
60 96 166
59 94 160
60 94 158
61 96 168
59 94 160
60 95 158
60 95 152
58 93 156
60 95 164
61 96 162
60 94 156
59 94 160
58 92 150
58 92 148
61 96 162
61 96 161
59 94 158
60 95 156
61 96 158
60 95 161
59 93 153
59 94 161
60 95 165
61 97 168
60 95 163
62 97 168
59 94 159
62 98 169
59 94 157
59 93 151
59 93 145
60 95 157
60 94 149
61 96 163
57 91 146
59 94 156
58 92 147
62 96 155
59 92 142
60 95 156
59 93 156
59 94 155
59 94 151
60 95 154
60 95 156
58 92 149
58 92 150
58 92 154
60 94 155
57 91 139
61 96 163
60 95 153
61 96 162
59 94 153
60 95 149
61 96 165
59 94 151
58 92 136
60 95 150
61 96 163
59 93 149
61 96 160
60 93 150
60 95 156
62 97 151
58 92 142
60 94 150
56 88 136
60 95 151
55 74 104
72 68 0
80 76 0
79 76 0
73 68 0
64 61 0
73 68 0
69 67 0
76 72 0
74 68 0
68 63 0
84 76 0
75 72 0
84 79 0
98 92 16
63 61 0
66 61 0
80 76 0
71 66 0
75 70 0
93 90 0
101 96 0
67 65 0
80 76 0
82 78 0
92 88 0
89 84 0
87 84 16
84 79 0
75 70 0
89 84 0
95 91 0
79 75 0
91 87 16
89 84 16
86 83 16
84 79 0
80 75 16
89 85 0
90 87 0
76 71 0
91 87 16
87 80 0
87 81 16
99 91 16
78 72 0
95 96 16
109 112 0
118 123 0
116 120 0
119 127 0
121 128 0
122 129 0
120 124 0
123 131 0
131 136 0
118 125 0
119 127 0
130 136 0
118 125 0
123 129 0
122 129 0
133 140 0
121 128 0
132 139 0
130 140 0
130 140 0
137 147 0
132 143 0
138 151 0
127 136 0
136 145 0
137 149 0
143 156 0
148 157 0
137 149 0
132 142 0
145 159 0
129 140 0
125 136 0
141 154 0
134 144 0
143 155 0
129 139 0
134 146 0
147 164 0
142 155 0
134 147 0
140 155 0
137 154 0
146 163 0
147 163 0
136 148 0
141 154 0
145 161 0
144 160 0
132 147 0
143 157 0
140 155 0
142 155 0
141 153 0
153 171 0
145 164 0
140 156 0
149 165 0
146 163 0
151 166 0
148 164 0
211 230 255
211 230 255
206 225 245
199 217 220
189 207 191
196 214 211
197 214 188
196 212 204
201 217 207
199 215 214
196 211 198
209 225 231
207 222 228
204 219 207
182 201 149
160 180 95
166 187 108
157 179 102
164 185 72
163 184 80
170 192 80
156 177 51
166 187 51
157 178 51
153 174 36
160 183 51
164 184 72
156 177 62
156 177 72
167 189 102
162 183 88
166 188 95
150 170 62
158 179 51
156 176 0
155 175 72
155 176 0
161 182 80
160 181 51
157 178 62
158 179 72
162 183 95
160 181 80
165 186 80
156 178 62
158 179 88
152 173 72
155 176 62
154 175 51
156 176 62
162 182 80
154 175 36
147 168 51
154 175 62
169 190 80
159 179 80
162 183 102
163 184 95
156 178 88
159 180 88
165 185 62
163 184 88
163 185 62
156 176 0
165 187 102
147 168 0
160 182 102
161 181 88
147 168 62
164 185 62
166 187 108
164 184 72
158 180 88
166 188 102
168 190 72
164 185 88
167 187 114
190 207 165
192 208 184
210 225 223
188 204 173
198 214 204
187 204 181
197 214 217
208 226 240
214 231 253
211 229 245
210 227 250
206 223 248
214 231 254
213 229 252
214 230 253
184 201 233
67 102 172
97 125 187
92 121 183
75 107 174
84 115 180
73 105 172
78 109 175
102 128 186
89 117 174
84 113 177
66 98 155
67 100 163
59 94 163
60 95 164
64 97 154
63 98 162
64 98 155
65 98 156
65 98 158
61 97 167
66 99 152
65 98 146
58 93 158
61 95 146
62 95 145
68 100 149
79 107 134
104 127 117
81 110 144
61 96 162
60 96 165
60 95 166
58 93 158
60 95 167
59 94 155
58 92 152
57 90 148
59 94 158
57 91 151
60 95 162
60 95 166
59 93 157
58 92 154
59 93 159
59 93 160
59 94 160
59 95 161
58 92 150
59 94 158
59 94 161
59 94 153
59 94 159
59 93 149
58 93 162
60 95 163
59 93 158
58 93 153
61 96 161
58 93 162
61 95 164
57 91 149
58 92 148
58 93 163
62 98 168
59 95 160
59 94 161
60 95 163
59 93 154
59 94 158
59 94 162
60 95 168
59 93 161
60 96 164
60 95 160
60 94 158
60 95 158
59 93 160
60 95 160
58 92 154
59 94 156
60 95 154
60 95 160
60 95 164
59 93 156
60 94 162
57 92 152
59 94 156
59 93 156
59 94 164
60 95 169
59 94 158
60 96 166
60 94 163
60 95 162
60 95 167
59 93 158
58 93 153
60 94 153
59 94 161
59 93 159
59 93 151
59 93 157
61 95 161
59 94 159
60 95 159
60 94 157
60 94 163
60 96 163
59 92 151
59 93 153
60 94 157
60 95 165
60 94 159
60 94 159
60 95 165
60 95 159
58 93 156
60 95 163
62 97 153
59 94 160
59 93 158
58 93 156
58 93 153
59 94 154
60 94 158
60 95 164
61 96 163
60 94 156
60 95 158
60 95 164
61 96 167
59 94 158
59 94 160
60 95 158
59 94 154
59 93 158
58 92 154
63 99 167
61 96 168
59 93 152
60 95 166
61 96 160
61 96 160
59 93 156
59 94 161
60 94 150
61 96 157
58 92 154
59 93 147
58 91 144
57 91 148
57 91 144
58 92 137
58 92 153
60 95 157
61 96 170
61 96 165
60 95 159
60 95 156
59 94 155
60 95 162
59 94 155
59 94 155
60 94 157
60 95 158
61 96 163
61 96 160
61 97 165
60 95 162
59 94 158
60 94 148
63 99 168
60 95 160
58 92 146
59 94 158
59 93 155
61 96 159
62 97 160
55 87 132
59 94 147
58 92 148
61 96 157
60 95 146
61 96 151
58 92 150
58 91 138
60 95 154
59 93 151
60 94 144
61 95 148
60 93 145
61 95 153
61 96 154
58 92 138
60 94 149
59 93 145
57 89 132
59 93 145
59 92 143
69 80 85
58 54 0
74 69 0
77 73 0
54 50 0
84 78 0
84 78 0
77 72 0
72 64 0
85 82 0
93 89 0
61 60 0
73 67 0
64 60 0
84 80 0
77 73 0
80 77 0
72 68 0
83 80 0
94 87 0
82 74 0
78 74 0
74 68 0
83 80 0
77 73 0
75 71 0
77 73 0
76 71 0
82 75 16
78 75 0
75 72 0
75 71 16
73 68 0
73 69 0
98 94 16
80 74 0
76 72 0
85 80 0
92 87 16
81 77 0
88 82 16
74 71 0
88 85 0
97 97 0
115 117 0
107 108 0
126 131 0
113 115 0
116 123 0
127 134 0
131 136 0
120 128 0
130 137 0
129 134 0
118 124 0
128 134 0
126 135 0
130 138 0
129 137 0
129 138 0
126 134 0
124 132 0
127 138 0
133 142 0
123 130 0
132 142 0
128 137 0
137 147 0
135 147 0
132 141 0
142 152 0
135 147 0
128 137 0
139 150 0
133 142 0
127 138 0
132 143 0
133 143 0
146 159 0
135 146 0
136 149 0
136 145 0
133 143 0
140 153 0
143 158 0
142 155 0
135 146 0
132 142 0
137 152 0
135 148 0
142 155 0
145 159 0
142 157 0
141 158 0
147 162 0
141 158 0
147 161 0
147 161 0
143 156 0
152 169 0
140 155 0
139 153 0
142 156 0
148 165 0
135 149 0
144 159 0
145 163 0
140 155 0
209 228 253
199 218 223
189 207 177
190 207 194
187 204 184
204 220 214
198 215 204
209 224 228
205 221 226
208 223 228
210 224 223
182 199 161
168 188 120
172 193 80
177 197 88
154 175 72
170 191 72
162 184 80
154 174 36
158 179 80
161 182 72
164 186 95
163 184 72
168 190 95
157 179 95
152 173 51
165 187 80
162 183 88
160 182 102
161 183 95
161 181 72
160 180 62
162 184 95
157 178 72
165 186 51
165 187 102
150 171 62
162 181 51
150 171 62
163 184 102
163 183 88
151 172 72
160 182 0
154 175 88
155 176 36
161 182 36
160 180 72
161 182 72
163 185 88
163 184 88
165 184 51
156 176 72
159 179 51
155 176 88
157 177 51
160 180 80
161 182 62
157 179 80
159 181 102
164 186 102
157 177 51
159 180 72
163 183 80
162 182 36
156 176 51
160 179 88
157 178 88
164 184 51
162 183 72
153 173 0
158 179 72
153 173 36
160 181 95
163 184 88
162 184 51
160 182 80
158 179 72
169 189 51
182 203 88
181 200 130
185 202 177
204 219 217
201 216 211
194 211 191
196 213 194
199 216 217
210 227 245
211 228 253
213 230 253
214 231 254
212 229 253
211 227 251
216 232 254
99 126 190
97 125 191
73 106 179
77 108 176
73 106 172
68 102 176
85 114 172
73 104 169
84 114 180
79 110 179
79 109 170
85 114 179
60 96 164
59 94 157
60 95 158
63 97 160
67 100 157
60 93 150
60 96 170
66 100 160
61 94 154
62 96 153
58 93 153
61 93 142
59 94 166
68 101 156
62 96 153
69 101 153
99 121 94
79 109 153
57 91 155
61 97 170
60 95 159
58 93 154
57 91 146
60 95 159
57 91 150
58 93 158
57 91 150
59 93 160
57 91 148
60 95 159
60 95 162
58 92 152
60 95 156
60 95 157
58 93 161
58 92 156
59 94 158
60 95 165
58 93 155
58 93 157
59 95 167
60 95 161
59 93 157
60 96 165
60 96 165
60 94 157
59 94 161
58 92 157
61 97 166
59 94 162
61 96 163
59 94 161
58 93 159
61 96 164
60 95 159
59 94 156
59 94 162
60 95 157
59 93 154
61 96 166
59 94 157
58 92 152
59 94 154
59 94 162
59 94 162
59 94 154
60 96 164
59 95 164
60 95 158
61 96 158
60 96 168
59 93 156
60 95 158
57 90 145
59 94 162
59 95 166
59 94 151
59 94 164
60 95 162
60 95 167
61 96 167
59 94 160
60 94 149
59 92 154
58 93 161
60 96 163
58 92 149
59 94 156
59 94 163
56 90 147
59 94 159
58 92 153
58 92 153
59 93 155
59 94 155
60 95 159
60 94 147
58 93 157
58 92 151
60 95 158
60 94 149
59 93 149
60 96 159
59 94 159
61 96 167
60 95 161
59 94 158
58 92 150
62 97 169
59 93 149
59 94 157
58 93 154
59 93 157
61 96 164
60 95 164
59 94 162
60 94 156
59 93 154
59 94 160
60 94 162
60 95 150
61 96 164
59 94 158
59 94 160
59 93 154
61 96 170
58 92 148
59 94 150
61 96 166
60 95 162
59 93 154
60 95 158
59 94 152
60 95 158
59 93 152
61 96 158
61 96 159
61 96 164
59 94 157
58 91 144
58 93 152
59 93 157
59 94 153
60 95 160
60 95 154
59 93 155
61 97 157
58 91 146
58 92 151
59 94 153
58 92 145
60 95 158
59 93 151
61 96 166
58 92 149
58 91 147
59 93 151
60 95 162
60 94 150
60 95 153
61 97 158
61 96 158
61 95 157
61 95 156
58 92 149
60 95 152
58 92 152
59 93 150
59 94 153
59 93 148
57 91 135
60 95 155
60 94 156
61 96 158
60 95 153
60 95 148
59 93 149
59 92 152
58 92 146
62 97 159
60 94 155
59 94 143
60 95 155
59 93 142
57 91 148
59 93 141
60 94 140
61 73 92
56 51 0
55 50 0
69 63 0
69 65 0
64 58 0
76 72 0
85 81 0
79 76 0
77 71 0
77 74 0
73 70 0
76 69 0
72 68 0
79 74 0
77 70 0
67 63 0
78 73 0
72 66 0
84 80 0
66 62 0
80 75 0
67 64 0
92 86 0
74 70 0
90 85 0
80 76 0
72 68 16
82 78 0
84 78 0
88 83 16
90 83 0
73 67 16
84 80 0
94 88 0
74 67 0
81 75 0
62 57 0
81 83 0
78 75 0
94 94 0
95 95 0
117 121 0
117 121 0
126 131 0
111 115 0
117 122 0
119 125 0
115 119 0
134 143 0
104 107 0
116 124 0
129 134 0
126 132 0
117 122 0
123 130 0
122 129 0
134 143 0
130 138 0
121 128 0
118 124 0
122 125 0
130 139 0
128 137 0
127 135 0
127 137 0
132 141 0
126 136 0
122 128 0
131 139 0
130 138 0
129 138 0
133 144 0
119 131 0
140 155 0
131 141 0
134 149 0
140 150 0
128 140 0
139 153 0
138 150 0
134 143 0
140 155 0
136 149 0
133 143 0
138 154 0
135 146 0
143 156 0
141 152 0
139 152 0
147 161 0
141 154 0
141 158 0
146 163 0
144 157 0
140 154 0
141 154 0
143 156 0
143 156 0
134 149 0
147 164 0
140 156 0
138 153 0
144 160 0
137 153 0
140 157 0
144 159 0
143 161 0
196 214 207
197 214 198
200 216 211
200 216 214
193 210 198
202 218 217
212 226 228
200 215 211
194 209 191
161 180 102
168 189 102
165 187 80
160 181 51
177 198 88
167 189 88
158 180 88
167 188 80
156 176 62
159 180 72
154 176 72
156 176 36
160 180 80
168 188 72
165 185 36
155 175 36
154 176 51
167 187 72
168 190 88
158 179 62
163 186 80
152 174 0
167 187 80
160 180 51
160 182 72
167 188 80
150 171 36
156 177 62
155 176 80
160 180 95
148 169 51
156 177 62
161 182 72
160 181 62
162 183 88
151 173 62
159 180 51
160 181 62
153 174 0
154 175 72
162 184 95
154 176 51
165 186 88
163 184 95
161 182 51
156 175 36
157 179 62
156 175 51
164 186 80
161 181 95
153 174 0
164 184 88
167 188 72
153 174 72
160 181 72
155 177 88
152 171 51
163 185 88
162 184 95
167 189 72
159 181 80
152 173 72
163 184 80
163 184 102
164 185 80
175 195 80
161 183 88
159 180 51
161 182 72
150 171 36
163 184 51
161 183 80
154 176 36
180 199 144
191 207 194
193 210 198
199 214 214
187 205 182
181 199 210
210 228 253
211 228 253
210 227 251
214 231 254
213 229 252
154 174 218
74 108 181
71 103 173
67 100 165
68 102 172
78 109 177
79 110 177
83 113 175
88 117 183
83 112 172
94 121 180
89 117 176
61 97 174
59 94 158
60 95 168
59 94 160
60 95 158
63 98 167
60 95 155
64 97 153
60 95 164
64 96 146
57 92 153
69 102 160
60 93 155
69 100 146
64 97 152
64 98 147
64 96 155
87 114 126
66 97 151
58 92 153
59 94 156
60 95 156
59 94 157
58 92 156
58 92 150
58 93 153
57 91 151
57 91 148
59 95 158
59 94 156
60 95 163
60 95 156
57 91 152
58 92 154
60 95 165
60 96 163
61 97 165
59 94 153
59 94 155
60 95 167
60 95 165
57 91 146
60 95 162
59 93 154
59 94 157
59 93 159
60 95 166
61 96 169
58 91 150
59 94 162
58 92 153
61 96 165
60 96 168
62 97 165
59 94 155
62 97 162
60 95 167
61 97 172
59 94 156
60 95 166
58 93 156
61 96 158
60 95 161
60 95 168
59 94 158
58 92 148
59 93 158
60 96 167
60 95 160
59 94 156
59 94 160
58 92 154
59 94 154
58 92 154
59 93 158
58 93 160
60 94 152
60 96 162
59 94 160
58 93 156
59 94 156
58 92 149
60 95 163
60 95 163
60 94 157
60 94 159
59 95 163
59 94 159
58 92 153
60 95 163
60 94 164
58 93 157
60 94 159
61 96 161
57 91 147
59 94 153
59 93 157
58 91 147
60 95 161
60 95 159
61 96 169
58 92 149
61 96 169
60 95 165
58 92 152
60 94 157
58 92 152
60 95 162
59 93 154
58 92 147
58 92 147
60 96 163
61 96 165
61 96 156
61 96 150
59 94 158
59 94 160
61 96 165
61 96 166
59 93 156
59 93 156
60 95 160
59 94 162
58 92 150
60 95 164
60 95 158
58 92 152
59 94 156
60 94 154
61 96 166
60 94 156
58 93 155
59 93 151
61 96 164
61 96 165
59 93 152
60 95 153
61 97 166
60 95 160
60 94 157
60 94 152
61 97 163
59 92 144
60 95 157
60 94 161
59 93 153
59 94 155
60 95 153
61 95 159
60 94 153
59 94 153
58 92 149
60 94 155
61 97 163
62 97 163
60 94 151
59 93 154
60 94 157
61 96 163
59 93 154
59 93 150
61 95 161
58 93 146
59 94 148
60 94 154
60 95 159
61 96 162
60 95 161
58 91 142
59 93 150
60 95 157
61 95 153
58 93 153
61 96 159
59 94 152
60 94 143
59 93 153
58 92 142
58 92 150
59 93 148
56 90 144
61 96 155
57 90 135
60 94 148
58 91 147
59 92 140
57 90 127
74 77 44
66 65 0
81 80 0
91 86 0
65 65 0
68 66 0
79 78 0
63 60 0
63 58 0
64 59 0
61 56 0
64 59 0
87 81 0
74 69 0
63 58 0
72 65 0
79 74 0
73 67 0
65 62 0
69 64 0
72 65 0
80 73 0
61 56 0
69 64 0
91 86 0
80 75 0
76 69 16
75 68 0
74 69 0
56 52 0
87 82 0
73 69 0
89 81 0
80 77 16
93 88 0
105 103 0
97 96 0
98 101 0
118 125 0
96 99 0
111 114 0
113 119 0
95 96 0
109 113 0
112 115 0
114 120 0
124 131 0
108 110 0
123 126 0
119 123 0
131 140 0
125 132 0
124 129 0
108 108 0
121 127 0
127 136 0
125 134 0
119 128 0
115 120 0
118 120 0
135 147 0
125 132 0
125 134 0
134 144 0
125 132 0
128 135 0
134 148 0
125 131 0
142 152 0
130 141 0
134 145 0
140 152 0
131 140 0
142 155 0
143 155 0
135 147 0
129 137 0
138 152 0
130 139 0
128 138 0
141 154 0
142 155 0
146 159 0
147 161 0
140 153 0
135 146 0
130 142 0
142 156 0
143 158 0
146 162 0
146 161 0
141 157 0
144 159 0
143 157 0
139 150 0
145 164 0
137 150 0
139 153 0
144 162 0
136 150 0
138 151 0
134 147 0
141 153 0
142 155 0
145 159 0
144 160 0
148 165 0
152 169 0
195 211 201
205 220 220
199 214 214
208 223 226
204 219 217
184 201 165
180 198 157
170 190 102
157 178 62
160 182 95
155 176 62
162 183 62
162 181 72
156 178 102
164 186 62
154 175 80
164 185 80
160 181 36
157 179 80
167 189 80
159 180 51
160 181 36
157 178 72
158 179 80
160 181 62
173 194 72
165 186 62
156 177 88
153 173 72
157 179 80
165 186 95
154 175 51
160 182 72
151 172 62
158 180 88
155 177 51
156 177 80
159 181 88
165 187 80
158 180 36
167 189 80
157 178 72
153 174 80
151 173 72
153 173 62
162 184 72
159 180 51
161 183 51
160 182 62
157 178 51
153 175 88
157 178 80
156 177 80
151 171 88
154 176 62
158 179 72
152 172 62
149 170 72
165 188 108
160 180 95
154 176 51
155 177 88
159 180 88
156 176 62
154 175 62
165 185 80
157 177 62
169 190 108
164 186 95
162 184 95
157 177 62
168 190 88
156 177 72
161 181 62
158 178 62
166 187 72
152 173 72
156 177 62
166 187 72
171 192 95
163 184 95
162 182 51
152 174 80
156 177 72
159 178 80
180 197 174
148 168 173
140 160 161
141 163 181
183 201 226
208 226 252
209 227 252
214 231 254
200 217 245
68 103 179
83 114 183
67 101 172
83 114 181
67 101 172
73 106 181
78 108 171
89 118 184
90 119 182
79 109 177
68 101 172
78 108 171
67 100 164
65 101 172
59 95 168
60 96 163
60 95 161
59 93 157
59 93 155
61 96 157
64 98 152
66 99 155
71 103 159
67 100 153
59 92 147
60 95 156
61 94 151
64 97 144
64 95 141
81 108 129
67 99 145
59 93 151
58 92 158
60 96 166
58 92 149
57 91 145
56 90 150
58 93 160
57 92 155
60 95 164
60 95 166
58 92 147
60 95 156
59 93 158
59 94 162
59 93 159
57 91 149
57 92 153
59 94 160
58 92 150
58 91 140
58 92 149
60 96 161
60 94 157
56 90 146
61 96 163
58 93 155
59 94 153
60 95 161
59 92 151
60 95 166
60 94 151
57 92 152
58 93 159
60 95 166
58 92 153
58 93 151
60 94 156
60 95 160
60 95 164
62 97 160
59 95 166
60 96 166
60 95 164
58 92 146
59 93 156
57 91 151
58 93 152
60 96 166
58 93 156
59 93 154
60 94 162
57 92 152
58 92 148
60 95 162
58 92 156
60 95 164
60 95 158
60 94 161
60 94 155
58 92 156
57 91 147
59 94 160
61 96 163
57 90 141
58 92 156
59 94 156
60 96 165
59 93 154
59 94 159
60 95 163
58 92 152
58 92 154
61 96 157
60 95 163
58 92 153
61 97 167
58 92 151
59 94 155
59 92 151
60 94 159
59 94 157
59 94 161
59 94 160
61 96 165
60 95 157
58 92 154
59 94 160
61 96 167
61 95 163
60 95 160
59 94 156
59 94 156
58 93 154
60 94 156
59 93 154
59 94 147
60 95 161
59 94 158
61 96 156
60 94 158
59 93 154
59 93 150
58 92 152
61 96 168
62 97 160
62 97 164
60 94 158
58 93 152
60 95 158
60 95 158
58 92 154
60 94 158
60 95 162
60 95 159
60 95 159
58 93 156
58 92 150
60 94 155
59 93 153
60 94 159
61 96 157
56 89 142
59 93 153
59 93 152
59 93 151
59 93 151
60 94 150
60 94 158
60 95 161
59 94 155
60 94 160
61 96 164
57 92 145
59 93 148
59 94 159
58 92 149
60 95 160
57 91 140
60 94 152
62 97 162
61 96 161
61 96 156
59 93 151
62 97 165
59 93 145
60 94 157
59 94 152
60 94 159
58 92 145
61 96 161
60 95 148
59 93 144
58 91 146
62 97 166
58 92 148
62 97 161
58 91 142
59 94 154
60 94 153
57 90 129
59 93 142
58 92 151
59 93 138
60 95 152
58 91 145
58 91 143
55 88 132
93 93 0
82 81 0
93 96 0
100 105 0
79 79 0
64 66 0
91 92 0
80 81 0
64 64 0
66 65 0
66 63 0
79 77 0
71 66 0
68 62 0
75 70 0
83 80 0
71 66 0
86 83 0
68 64 0
78 72 0
78 73 0
82 77 0
86 77 0
69 66 16
66 61 0
69 62 0
68 67 0
72 66 0
81 80 0
103 106 0
96 99 0
89 86 0
90 93 0
110 111 0
96 98 0
121 124 0
115 115 0
114 116 0
108 113 0
113 118 0
113 117 0
118 125 0
114 121 0
106 110 0
105 106 0
112 115 0
105 112 0
109 114 0
126 134 0
120 122 0
118 123 0
107 112 0
122 131 0
125 135 0
125 131 0
133 142 0
124 128 0
133 141 0
126 132 0
127 133 0
129 135 0
130 138 0
125 134 0
134 143 0
123 131 0
139 150 0
140 151 0
118 123 0
136 147 0
138 149 0
128 135 0
130 141 0
129 137 0
127 138 0
130 142 0
146 158 0
129 139 0
137 147 0
139 153 0
141 152 0
135 146 0
135 146 0
132 144 0
142 153 0
135 148 0
136 148 0
144 159 0
135 146 0
139 153 0
145 158 0
145 161 0
140 154 0
139 155 0
140 156 0
149 165 0
145 159 0
140 155 0
145 161 0
143 156 0
142 154 0
151 165 0
144 158 0
142 160 0
147 161 0
141 156 0
142 159 0
146 164 0
139 156 0
193 208 191
208 222 223
199 216 211
200 214 211
176 195 135
167 189 120
160 181 95
170 192 72
152 173 72
162 183 51
162 183 62
163 183 51
157 179 95
155 175 51
159 180 72
157 178 51
160 182 62
163 184 36
156 177 51
167 188 72
158 179 62
153 174 62
168 188 80
158 179 36
167 186 36
152 173 72
152 172 51
154 175 51
159 181 102
160 181 62
159 180 62
155 177 51
172 194 80
156 178 88
156 177 51
159 180 72
162 183 62
156 177 72
164 185 95
154 176 72
159 180 80
158 180 72
152 173 36
151 171 36
161 183 72
162 183 80
153 174 88
156 178 102
153 173 51
154 174 51
156 178 80
161 182 88
154 174 51
158 179 72
159 181 72
160 181 72
154 174 62
155 176 62
157 177 62
161 183 80
155 177 62
157 178 62
156 176 51
157 178 62
158 180 80
160 182 80
159 180 88
161 182 62
156 177 88
154 176 95
157 177 72
158 179 51
156 177 80
155 175 88
163 182 62
166 187 95
165 186 72
161 182 72
161 182 72
166 187 72
150 170 62
153 174 62
163 184 80
161 181 72
163 183 72
133 155 120
114 139 141
116 141 143
102 128 152
106 131 150
129 151 170
200 218 241
213 230 254
212 228 252
119 143 199
84 115 184
73 106 179
68 102 177
78 110 172
68 102 178
73 105 175
79 110 180
79 109 174
93 121 182
89 117 178
84 113 181
72 103 164
61 97 171
62 96 160
61 97 169
61 96 169
58 93 154
58 93 160
59 94 168
60 95 159
65 98 155
61 96 159
60 93 150
57 91 152
65 99 154
57 91 146
66 98 148
57 90 146
58 91 153
89 116 136
66 97 142
58 92 151
60 95 158
58 93 157
58 94 165
57 91 146
59 94 153
59 94 159
60 96 170
60 96 167
60 95 164
58 93 155
59 94 152
61 96 164
60 95 161
60 95 160
58 92 154
56 90 145
59 95 158
59 93 157
59 95 162
57 92 149
60 95 161
59 94 159
58 93 155
59 93 155
59 93 159
60 94 153
58 92 152
59 93 158
58 93 153
61 96 163
61 96 163
61 95 161
56 90 145
59 94 160
59 94 158
58 93 159
60 96 168
59 94 160
59 94 155
60 95 159
59 93 160
59 93 158
58 93 154
59 94 162
57 91 146
60 96 168
59 94 162
60 96 170
59 94 162
57 92 150
60 95 154
60 95 160
60 96 166
58 92 151
59 94 158
58 92 154
58 93 156
60 94 152
59 93 154
56 90 141
58 93 156
60 95 163
59 93 153
59 94 164
61 97 167
60 96 167
60 94 159
62 97 169
58 92 149
57 91 150
59 93 160
59 93 153
59 94 160
59 93 149
60 96 167
59 95 165
61 96 159
59 94 151
61 96 163
58 93 160
59 94 162
60 94 159
60 95 165
60 94 153
60 95 165
61 96 163
58 93 156
60 95 162
61 96 162
60 94 162
59 94 156
61 96 160
59 94 158
61 96 164
60 94 162
60 95 158
60 94 160
59 94 156
59 93 154
58 93 152
61 95 162
60 95 156
59 94 156
61 95 158
60 95 158
58 91 146
59 94 154
60 95 160
59 93 152
61 97 163
59 93 154
59 94 160
58 92 154
61 96 163
60 93 155
57 90 137
57 90 140
60 94 155
61 95 155
60 94 153
61 96 161
61 96 165
59 93 149
59 93 152
60 95 156
59 93 150
57 91 138
60 95 163
61 95 159
59 93 154
58 93 153
59 93 153
61 96 162
60 94 157
59 94 162
61 96 157
59 93 151
60 95 150
60 94 153
58 91 141
61 96 162
60 95 160
58 92 149
59 92 138
59 93 145
58 92 155
60 95 154
60 95 159
60 95 161
58 92 145
61 96 154
60 94 156
59 92 142
60 94 152
58 91 134
58 93 145
62 97 159
60 95 143
57 91 144
59 92 147
59 93 146
63 98 164
59 93 144
59 92 144
63 88 122
73 75 0
71 71 0
86 88 0
88 90 0
72 76 0
82 80 0
74 72 0
90 94 0
99 102 0
91 95 0
98 100 0
89 90 0
84 85 0
84 87 0
84 86 0
87 89 0
78 79 0
82 83 0
93 92 0
85 84 0
104 108 0
81 80 0
85 84 0
100 102 0
96 96 0
100 101 0
100 103 0
102 106 0
103 104 0
105 111 0
113 119 0
84 85 0
109 114 0
85 87 0
115 120 0
96 98 0
118 122 0
105 105 0
115 118 0
112 116 0
113 116 0
127 132 0
109 110 0
117 125 0
109 113 0
120 124 0
116 124 0
134 140 0
114 119 0
125 136 0
106 108 0
127 133 0
134 140 0
110 115 0
105 112 0
119 128 0
121 126 0
123 132 0
139 147 0
129 137 0
122 132 0
127 134 0
138 148 0
134 146 0
132 144 0
136 147 0
122 128 0
130 139 0
141 150 0
131 142 0
126 139 0
125 136 0
142 158 0
130 143 0
130 143 0
127 138 0
139 151 0
133 143 0
140 151 0
136 150 0
142 154 0
135 147 0
146 161 0
132 144 0
143 157 0
140 154 0
141 155 0
144 158 0
142 157 0
138 152 0
140 154 0
135 149 0
142 157 0
138 152 0
146 162 0
137 149 0
147 162 0
145 157 0
142 159 0
150 168 0
143 158 0
144 155 0
141 156 0
140 157 0
144 159 0
143 159 0
143 161 0
147 163 0
214 229 237
196 212 194
169 187 108
155 175 36
170 191 72
161 182 51
161 182 0
162 183 62
161 182 62
158 180 95
165 186 88
160 181 95
157 178 88
153 174 51
159 180 80
160 181 102
167 188 36
150 171 36
148 168 51
163 183 72
163 184 62
153 175 80
155 177 80
163 186 102
158 180 80
150 170 51
155 176 80
162 184 72
152 173 88
161 182 72
156 176 80
165 186 88
151 171 62
163 185 88
150 172 62
153 174 62
156 178 72
157 178 88
157 176 62
157 178 88
154 175 51
159 180 72
160 182 72
158 179 62
154 176 51
159 180 51
158 179 95
163 184 62
156 177 72
153 174 62
156 177 80
154 177 62
162 184 102
157 179 72
155 177 62
153 174 51
158 178 51
159 181 102
156 177 72
161 183 88
156 176 51
159 179 62
153 174 51
151 171 51
158 179 51
157 178 95
156 176 62
163 183 62
157 178 88
151 172 62
156 175 0
157 179 80
152 173 80
154 175 62
161 182 62
156 177 88
154 175 88
151 171 36
163 184 72
165 185 95
161 181 62
161 180 62
155 176 62
160 181 72
159 179 51
123 146 138
108 132 136
98 124 138
106 132 161
106 131 144
110 136 166
111 135 142
150 170 193
203 221 247
186 205 238
72 106 178
67 102 175
67 101 175
78 110 174
74 106 175
66 100 167
67 101 172
73 105 179
69 102 178
88 117 180
84 113 172
87 114 169
67 100 167
61 97 172
61 96 169
59 94 160
60 96 163
58 93 160
60 96 167
60 96 160
59 93 159
65 98 156
61 95 159
59 94 163
59 93 159
64 98 166
68 100 150
60 94 152
64 96 155
64 96 147
82 108 135
70 103 153
58 91 147
57 90 154
59 94 161
61 95 158
55 88 147
59 94 155
60 94 156
57 91 149
60 96 171
58 92 153
58 92 156
59 94 162
57 91 152
61 96 157
60 96 169
60 95 161
59 93 145
59 93 152
59 94 159
59 94 161
59 94 161
60 95 160
61 96 167
60 95 161
59 93 161
61 96 161
58 91 150
60 94 155
60 95 160
59 94 164
60 96 166
57 91 152
59 94 159
59 94 154
57 91 145
56 90 147
57 91 148
59 94 162
58 93 154
60 95 162
60 95 162
58 92 151
59 94 160
61 96 166
60 95 158
59 93 155
60 95 164
59 93 156
59 93 162
60 95 154
59 94 156
60 95 164
60 94 162
60 95 156
59 94 158
61 96 156
58 92 152
60 94 159
60 94 161
59 93 156
60 95 159
60 94 156
61 96 165
58 92 156
60 95 157
61 95 157
58 92 148
58 92 154
59 95 164
60 95 165
59 92 151
58 92 151
60 94 161
60 95 163
59 94 160
61 95 163
60 94 160
59 93 159
60 95 159
61 96 163
59 94 161
61 95 159
60 95 162
58 92 150
60 95 159
60 95 156
61 95 162
61 96 165
61 96 165
61 96 164
59 93 161
59 94 152
60 95 160
58 92 148
60 96 152
60 94 154
60 94 158
60 94 156
58 92 143
58 92 150
60 94 156
60 94 156
59 94 154
60 95 162
58 93 152
61 96 162
61 96 164
59 93 150
60 96 165
59 93 152
59 93 150
58 93 159
60 95 159
59 94 158
60 94 155
59 94 155
58 92 150
60 95 159
58 92 148
59 94 157
59 93 156
59 94 153
60 94 153
60 95 157
59 93 154
60 95 153
59 94 156
61 96 164
60 94 159
60 95 150
58 92 147
59 93 147
60 94 148
59 93 153
61 96 161
58 93 149
61 96 163
60 95 156
59 93 150
61 96 162
59 94 146
59 94 149
61 96 167
60 94 149
60 95 157
61 96 160
59 93 141
57 91 139
60 95 156
58 92 135
58 92 148
59 93 151
58 92 145
60 95 147
59 93 147
59 92 132
58 91 141
64 99 154
57 90 132
59 93 144
60 94 150
59 92 140
60 94 149
58 90 137
78 101 127
89 93 0
89 92 0
82 85 0
93 95 0
79 80 0
78 82 0
90 95 0
91 95 0
86 88 0
92 92 0
87 86 0
95 96 0
93 95 0
74 75 0
77 77 0
86 91 0
107 110 0
101 104 0
87 87 0
94 96 0
101 104 0
95 93 0
99 97 0
87 89 0
110 117 0
92 93 0
98 99 0
102 106 0
103 103 0
102 103 0
98 102 0
100 103 0
100 103 0
96 101 0
110 117 0
103 106 0
110 116 0
98 99 0
118 122 0
101 107 0
100 100 0
106 110 0
113 117 0
123 130 0
114 119 0
120 124 0
114 117 0
125 132 0
115 119 0
127 132 0
105 106 0
119 127 0
128 134 0
120 128 0
123 131 0
118 124 0
126 136 0
123 131 0
124 135 0
138 147 0
136 147 0
126 133 0
124 134 0
125 132 0
135 146 0
141 151 0
128 141 0
131 140 0
130 140 0
124 133 0
134 143 0
141 155 0
143 154 0
137 143 0
130 140 0
129 140 0
135 146 0
147 161 0
131 141 0
130 142 0
140 154 0
137 151 0
140 153 0
137 150 0
143 159 0
141 152 0
138 150 0
143 157 0
146 160 0
143 159 0
139 156 0
135 151 0
142 156 0
145 162 0
145 156 0
141 154 0
141 155 0
140 153 0
146 160 0
140 157 0
141 155 0
153 169 0
145 160 0
140 156 0
140 154 0
146 162 0
141 156 0
139 151 0
162 183 88
168 189 80
170 192 51
156 177 72
152 174 36
162 184 80
165 185 0
164 186 72
159 181 80
153 174 80
155 176 51
159 179 95
160 181 95
160 182 62
159 180 62
160 182 88
160 181 0
152 174 51
157 177 80
154 177 72
160 181 72
154 175 51
151 173 51
155 176 88
152 174 72
161 183 72
152 174 80
152 172 80
154 176 88
150 171 51
155 175 51
155 177 72
156 177 51
154 175 80
152 173 62
155 177 72
153 173 51
158 180 80
152 171 51
154 176 62
157 178 80
152 173 62
158 178 88
164 185 72
161 182 62
156 176 36
155 176 51
156 177 72
159 180 95
152 174 88
155 175 51
163 183 72
151 173 80
161 183 72
153 175 72
158 179 80
157 178 62
156 178 80
153 174 88
159 181 88
165 187 80
153 175 72
159 180 72
159 181 72
160 181 88
153 172 36
152 172 51
157 178 62
158 179 51
155 177 62
154 174 72
163 184 80
153 173 72
161 181 80
156 176 36
157 178 95
157 177 80
152 171 72
159 180 108
160 180 80
155 175 62
152 173 72
161 181 88
165 186 80
152 172 51
127 149 120
108 132 153
92 118 149
105 131 159
90 117 140
114 138 150
110 134 136
101 127 168
130 152 181
174 192 219
117 142 201
62 99 177
79 111 182
62 98 175
97 125 190
67 102 176
68 102 171
74 106 175
66 99 161
71 103 164
88 116 176
84 113 176
74 105 166
61 97 169
59 95 163
60 96 172
60 95 160
59 94 161
58 92 154
58 93 153
59 93 160
59 94 157
64 98 159
67 98 147
65 97 151
61 94 150
57 90 145
61 95 157
67 98 151
67 101 163
61 93 136
76 106 147
64 96 148
57 91 150
57 91 149
58 92 159
59 94 161
60 95 167
58 92 149
58 93 155
59 94 160
57 92 158
58 92 154
57 90 143
57 92 156
60 94 160
58 93 156
59 94 160
59 94 155
58 93 152
59 94 162
60 94 161
54 86 130
59 93 155
60 95 164
59 94 161
59 94 155
57 90 143
60 95 159
57 92 147
58 92 156
60 95 161
60 95 155
59 94 158
59 93 152
60 95 160
57 91 144
59 93 156
58 93 156
57 92 154
58 92 152
61 96 156
61 96 168
60 95 166
59 93 152
59 94 158
60 95 160
59 94 158
59 94 156
58 93 152
60 95 164
59 94 157
60 95 162
61 95 160
60 95 162
61 96 162
61 95 160
59 93 158
59 93 150
59 93 154
61 96 165
58 93 152
59 94 162
57 90 148
60 95 160
58 93 156
59 93 152
58 92 154
60 95 163
58 93 152
59 94 160
57 91 147
59 93 157
58 92 149
61 95 161
60 95 153
61 95 163
59 93 158
62 96 167
59 94 151
59 92 149
58 93 156
59 93 147
60 95 157
59 94 158
58 92 154
59 93 152
58 91 154
61 96 162
58 92 152
61 97 158
60 95 152
58 92 152
57 91 148
60 93 150
60 95 162
60 95 164
61 97 168
60 94 150
59 93 150
59 94 154
60 95 162
60 94 160
59 94 156
60 94 152
60 95 160
62 98 156
60 95 160
60 94 150
57 90 141
59 94 156
62 97 170
57 90 146
60 95 162
58 91 148
61 95 158
60 94 150
60 94 161
61 96 162
60 94 155
62 97 159
61 95 148
59 92 152
60 94 154
61 95 153
58 92 147
60 95 155
60 94 149
58 91 146
61 96 164
58 92 149
61 96 157
57 90 141
61 96 160
60 95 156
58 91 141
60 95 156
60 95 154
57 91 140
60 94 155
57 91 142
60 95 153
59 93 138
59 93 142
60 95 153
60 94 152
58 93 144
61 96 145
57 91 140
60 95 153
61 96 161
60 94 154
59 94 150
60 94 152
60 95 139
58 92 145
59 93 147
59 93 149
61 95 158
61 95 158
62 97 151
61 96 152
60 94 152
58 91 145
58 91 133
56 89 131
77 91 89
102 108 0
78 82 0
92 94 0
70 70 0
79 80 0
75 76 0
77 79 0
66 67 0
97 103 0
83 87 0
74 75 0
73 73 0
79 80 0
87 89 0
74 75 0
82 81 0
98 104 0
89 88 0
97 99 0
98 102 0
96 100 0
105 110 0
92 94 0
92 91 0
93 95 0
100 103 0
95 98 0
94 98 0
93 92 0
103 105 0
105 107 0
114 118 0
98 98 0
107 111 0
108 111 0
104 107 0
103 110 0
119 122 0
115 120 0
113 119 0
130 138 0
127 136 0
127 133 0
123 132 0
107 111 0
110 114 0
122 129 0
130 140 0
115 122 0
113 119 0
110 115 0
122 129 0
133 141 0
122 132 0
117 124 0
124 135 0
136 146 0
124 132 0
128 136 0
134 144 0
131 140 0
128 136 0
133 142 0
140 151 0
129 139 0
125 135 0
133 142 0
139 151 0
124 134 0
146 159 0
131 141 0
131 142 0
141 157 0
133 146 0
141 153 0
133 142 0
136 151 0
150 165 0
130 141 0
133 146 0
142 157 0
138 152 0
128 138 0
148 163 0
133 145 0
136 148 0
137 150 0
137 151 0
139 156 0
150 166 0
136 151 0
138 151 0
137 152 0
139 153 0
138 151 0
143 160 0
129 143 0
142 156 0
132 144 0
143 160 0
143 158 0
144 158 0
144 160 0
144 159 0
145 161 0
143 157 0
142 156 0
150 167 0
166 188 62
166 187 80
157 178 51
157 177 51
158 178 80
163 184 88
168 190 80
168 189 95
154 175 62
155 177 72
158 179 51
157 178 62
161 182 95
157 179 80
159 180 51
163 185 102
156 175 62
158 181 72
158 180 88
158 179 62
156 176 51
158 179 62
157 178 72
160 182 80
157 177 51
157 178 80
163 185 62
156 177 0
157 179 95
154 176 80
159 179 36
157 179 95
155 178 102
156 177 72
160 181 88
152 173 80
151 172 62
161 182 80
158 180 62
155 176 62
153 175 51
148 170 62
152 173 72
153 174 88
157 179 62
168 188 80
160 181 108
162 183 80
155 177 88
160 181 72
156 177 62
162 181 62
149 171 51
154 175 51
148 167 72
151 172 80
158 179 88
160 181 88
152 174 72
155 176 62
159 180 102
156 178 95
156 176 72
154 175 62
159 180 80
156 176 72
155 175 62
160 181 62
160 181 80
150 172 36
157 177 72
161 181 62
154 177 102
150 170 62
159 181 72
165 186 88
153 174 51
151 171 51
164 185 72
155 175 80
158 179 80
172 194 125
155 175 72
159 180 80
163 182 102
129 150 94
97 123 142
102 127 147
97 122 129
107 132 143
102 126 151
124 146 159
114 139 149
111 135 158
104 130 156
94 122 168
83 114 184
69 104 180
61 97 175
73 106 180
67 101 173
79 110 174
84 114 178
92 120 182
67 101 171
84 113 177
94 121 180
85 114 181
60 95 167
66 100 170
61 97 165
59 94 163
60 95 164
60 96 169
60 96 163
58 92 160
60 95 163
57 91 150
61 94 148
69 102 151
72 103 155
67 99 151
67 100 156
57 92 151
60 94 151
71 103 152
66 99 155
60 93 154
64 98 159
58 92 147
59 94 157
57 89 135
60 95 159
59 93 160
57 90 147
57 92 151
58 92 152
59 93 159
60 95 157
60 95 161
59 93 155
57 91 148
59 94 159
58 92 153
59 93 156
62 98 169
55 88 140
58 93 152
58 91 151
58 92 157
60 94 159
59 94 164
58 92 152
59 94 161
58 93 157
61 96 165
58 93 152
59 94 164
59 93 161
58 93 157
57 91 149
59 94 160
60 95 158
59 94 164
58 92 150
57 91 151
58 92 157
59 93 152
58 92 150
60 95 162
57 91 150
58 92 156
58 92 150
58 93 150
59 94 158
60 95 168
61 96 164
59 93 143
58 92 153
59 93 154
59 94 156
59 95 158
59 92 149
58 92 150
59 93 154
60 95 160
58 92 147
58 93 152
60 95 162
60 95 160
58 92 154
60 95 160
59 93 155
58 92 152
62 97 163
59 93 154
60 95 156
59 93 151
57 91 148
60 95 159
60 94 157
59 93 158
60 95 159
60 94 157
58 93 160
58 93 154
57 91 147
59 94 158
59 93 156
59 93 149
57 90 139
60 95 164
59 93 154
59 93 150
59 93 150
59 93 156
58 91 148
58 92 152
58 92 150
60 95 160
61 96 154
60 94 162
61 95 162
60 94 158
59 94 154
58 93 154
60 95 160
60 95 162
58 92 152
59 93 156
61 96 162
60 94 158
60 95 164
58 93 156
60 95 162
59 93 152
58 92 151
59 93 146
60 95 157
60 95 159
59 94 163
60 94 160
61 95 158
58 92 150
59 93 152
57 91 144
59 93 152
59 94 153
62 97 161
58 92 147
61 96 166
59 93 147
60 95 156
59 93 153
60 94 153
58 92 147
60 94 147
58 91 143
60 94 158
59 94 153
61 95 152
59 94 156
57 91 146
57 90 143
60 94 154
60 94 153
59 93 150
59 94 157
59 94 149
60 94 152
60 93 144
59 92 137
60 95 157
59 93 150
60 95 154
59 94 152
58 92 147
58 91 141
60 95 153
58 92 147
59 92 143
61 95 158
58 92 134
63 98 162
58 92 135
59 93 143
61 95 147
56 89 139
60 94 156
54 86 120
55 88 127
87 101 86
83 87 0
87 89 0
92 93 0
74 79 0
83 85 0
93 97 0
81 83 0
81 83 0
95 101 0
82 84 0
92 93 0
88 89 0
91 94 0
94 99 0
83 83 0
97 101 0
91 94 0
103 106 0
107 110 0
91 94 0
117 121 0
99 105 0
105 106 0
99 100 0
110 115 0
97 99 0
91 91 0
104 108 0
111 114 0
121 125 0
103 107 0
108 110 0
116 124 0
111 115 0
120 124 0
108 109 0
109 113 0
126 131 0
122 128 0
116 121 0
127 132 0
121 130 0
114 119 0
113 118 0
119 128 0
124 129 0
123 130 0
124 126 0
120 129 0
117 122 0
125 130 0
110 115 0
124 131 0
120 127 0
118 125 0
124 130 0
133 142 0
128 134 0
129 137 0
128 138 0
110 116 0
119 125 0
130 138 0
125 135 0
130 141 0
118 128 0
117 123 0
119 129 0
125 135 0
122 131 0
135 147 0
136 145 0
131 141 0
131 145 0
136 150 0
134 147 0
124 135 0
134 147 0
131 143 0
141 155 0
137 151 0
143 156 0
139 151 0
135 146 0
127 139 0
144 161 0
146 160 0
144 157 0
135 150 0
139 153 0
143 157 0
134 147 0
142 160 0
144 157 0
137 150 0
144 158 0
139 156 0
127 141 0
145 161 0
150 167 0
139 153 0
147 163 0
140 158 0
141 156 0
147 163 0
143 158 0
146 161 0
149 166 0
163 184 95
162 183 72
162 183 51
157 178 62
165 186 88
166 187 51
163 185 114
154 175 51
159 181 62
159 180 62
162 181 62
158 179 72
157 178 72
158 181 72
162 183 88
163 184 95
157 177 72
161 182 62
160 181 80
160 181 51
162 184 88
164 184 62
149 171 62
160 182 62
156 178 62
156 177 88
160 180 72
157 178 62
152 173 62
161 181 62
159 180 51
158 179 62
161 181 80
160 182 108
155 176 51
158 180 88
158 180 88
150 172 62
155 177 62
159 180 88
154 176 62
150 171 72
160 181 80
156 177 88
156 177 36
159 182 88
165 187 88
164 185 88
158 181 80
158 178 51
152 173 80
157 179 80
144 164 51
153 174 72
156 178 62
162 184 102
149 170 80
151 171 62
153 173 51
152 172 36
161 180 72
154 173 80
155 176 80
159 181 102
150 171 36
156 178 88
150 169 51
160 180 72
154 174 62
155 175 80
155 177 88
158 179 80
161 182 80
153 173 62
159 180 88
159 180 95
159 180 51
156 177 72
160 180 80
152 174 62
167 188 88
166 187 95
158 180 80
157 177 95
156 175 62
160 180 88
118 142 148
87 115 145
101 127 151
103 129 156
92 119 140
84 112 152
105 131 153
115 139 143
88 115 148
108 132 162
99 127 161
64 99 172
67 102 178
79 111 181
73 105 176
77 109 178
88 117 183
74 106 178
93 121 184
66 99 163
88 117 176
79 109 172
78 108 171
59 94 169
60 96 168
61 97 172
62 98 171
59 94 159
58 93 160
58 93 155
59 94 160
60 96 165
57 91 150
61 95 156
64 96 151
58 92 153
61 97 167
63 95 151
64 96 149
60 94 162
62 95 159
65 98 149
73 101 134
57 92 146
56 90 150
56 89 147
58 92 153
56 90 153
58 93 150
58 92 156
57 91 150
59 94 160
59 93 154
57 91 148
58 93 156
57 90 146
57 91 149
56 90 143
59 94 151
58 93 161
58 92 146
59 93 151
59 95 159
59 94 160
58 92 154
59 94 162
56 90 139
60 94 157
59 93 157
59 94 159
61 95 162
58 93 153
60 95 161
61 97 164
60 95 157
58 92 155
59 94 158
59 95 159
59 94 161
60 95 164
59 93 154
58 92 154
58 93 152
60 95 164
59 94 160
58 92 150
61 96 164
59 93 156
59 94 156
59 93 156
59 93 154
60 95 158
59 94 160
58 92 152
58 91 143
59 93 152
57 91 152
59 94 162
61 96 165
60 95 162
59 94 160
60 94 160
60 95 160
59 94 162
58 92 156
60 95 165
58 92 152
59 94 158
57 91 150
57 91 147
58 92 158
60 95 163
60 96 163
60 95 158
57 91 147
60 94 157
58 93 141
58 92 152
59 93 143
59 93 154
61 96 159
61 95 165
59 93 158
59 94 156
60 95 162
58 92 150
57 90 146
60 95 158
59 94 154
60 95 160
59 93 152
58 93 156
59 93 158
59 93 158
57 91 150
58 93 154
59 94 160
56 90 146
61 96 166
58 92 156
60 94 156
57 90 137
60 95 158
59 94 158
58 93 154
60 95 162
59 94 158
58 92 148
59 93 148
60 95 162
59 93 152
59 93 153
59 94 153
58 91 145
60 94 152
60 94 159
60 94 151
60 94 155
61 96 161
59 93 150
60 94 157
60 95 160
59 93 148
60 95 157
58 93 155
57 90 140
59 93 153
61 96 162
59 93 155
59 93 147
58 91 144
60 94 154
58 91 145
59 93 149
60 94 157
61 95 160
58 92 150
59 92 140
57 90 137
60 94 153
61 96 159
57 91 139
59 93 153
59 94 146
60 94 156
61 96 152
58 92 143
57 90 136
60 94 150
59 94 150
57 90 135
59 92 139
58 93 149
61 95 149
59 93 142
58 92 138
59 93 148
58 91 140
59 93 139
61 95 149
60 94 152
59 93 139
58 91 138
61 94 151
60 94 146
83 89 26
102 107 0
100 103 0
86 91 0
95 100 0
87 92 0
100 107 0
91 94 0
88 91 0
91 97 0
104 109 0
91 90 0
111 112 0
106 112 0
81 78 0
87 89 0
97 100 0
104 107 0
85 86 0
99 102 0
96 98 0
85 88 0
107 110 0
100 101 0
103 100 0
109 114 0
112 116 0
111 115 0
100 104 0
105 110 0
99 104 0
109 112 0
122 128 0
110 117 0
104 105 0
101 103 0
96 101 0
115 120 0
103 106 0
109 113 0
99 103 0
125 132 0
114 119 0
116 122 0
109 115 0
112 118 0
117 125 0
125 130 0
116 123 0
133 142 0
116 123 0
125 132 0
121 128 0
130 140 0
132 142 0
134 143 0
119 126 0
129 137 0
125 134 0
123 133 0
130 137 0
130 137 0
127 139 0
132 142 0
119 124 0
135 147 0
123 134 0
136 146 0
124 134 0
135 146 0
123 132 0
140 152 0
127 138 0
141 153 0
135 146 0
132 143 0
132 142 0
136 150 0
135 146 0
135 147 0
141 153 0
150 165 0
137 150 0
142 157 0
141 154 0
135 148 0
146 161 0
146 161 0
147 163 0
130 144 0
138 153 0
144 158 0
139 156 0
141 155 0
134 148 0
138 150 0
147 162 0
149 164 0
141 156 0
146 161 0
139 152 0
139 154 0
135 149 0
140 155 0
140 154 0
137 154 0
148 166 0
148 164 0
148 165 0
154 175 88
165 187 95
153 174 62
160 180 95
161 182 95
157 178 62
152 172 62
162 184 80
161 181 51
160 181 72
156 175 36
156 178 95
158 180 62
153 174 0
158 178 62
160 180 80
155 177 51
148 170 62
154 174 51
152 172 72
153 174 72
154 175 72
157 179 72
154 176 62
150 170 51
154 175 51
156 177 88
153 174 51
158 180 88
158 179 95
150 171 80
153 174 51
154 175 62
154 175 80
152 173 80
154 176 51
161 183 88
161 182 108
151 172 51
152 174 62
156 177 88
148 171 62
153 175 80
161 181 72
154 176 80
157 178 88
150 170 36
158 179 72
155 176 88
145 166 72
160 181 62
154 175 36
156 177 95
154 176 62
152 172 51
148 168 51
155 175 51
156 176 72
145 167 36
149 169 36
153 174 36
155 175 95
152 175 72
153 173 51
158 178 80
153 174 72
159 178 72
154 175 51
157 177 72
153 174 51
153 172 62
159 180 72
159 180 51
153 173 62
152 172 80
156 176 62
157 178 88
157 178 108
160 181 80
168 188 88
156 177 80
146 167 51
164 184 88
157 177 51
154 173 72
158 179 80
118 142 127
91 118 149
91 117 138
101 127 157
101 127 157
97 124 151
111 134 143
105 131 158
108 132 170
117 140 149
111 135 160
93 122 164
75 105 161
94 123 187
74 107 179
68 102 178
78 109 177
73 105 173
64 99 169
79 109 177
73 104 170
67 101 174
92 119 179
67 101 172
59 94 157
60 96 169
59 93 160
59 94 158
59 94 153
60 95 161
61 96 168
59 94 157
61 96 159
59 94 157
58 92 156
58 92 152
64 96 149
65 98 155
59 92 137
60 94 156
61 94 157
59 92 136
58 91 149
64 97 153
57 90 150
57 92 157
57 91 152
59 94 156
60 95 151
57 91 151
56 89 136
59 94 156
58 93 155
59 94 151
60 95 163
55 88 140
58 92 144
59 94 157
57 91 148
58 92 147
62 98 166
60 94 162
56 90 143
57 91 148
60 96 165
61 96 165
57 91 150
58 92 154
61 96 158
59 93 153
59 94 155
60 95 163
62 97 171
59 94 152
58 93 153
58 93 151
60 95 160
60 95 164
59 93 148
57 91 156
58 92 148
59 92 149
61 96 164
57 91 142
59 93 154
60 95 160
60 95 160
58 92 155
60 95 166
58 93 157
61 97 156
58 92 146
59 93 156
61 95 160
57 92 152
60 94 158
60 95 160
60 94 160
59 94 160
59 93 158
59 93 154
60 94 158
59 93 156
58 92 154
57 91 146
60 94 162
59 95 162
60 94 160
60 94 157
58 92 152
60 95 162
58 93 156
58 93 152
60 95 160
57 90 139
58 92 147
58 93 156
60 95 165
59 93 154
58 91 145
59 93 158
60 95 152
59 93 152
59 94 162
61 96 167
60 94 160
58 92 146
59 94 162
62 97 170
60 94 154
57 91 144
59 94 160
58 93 158
61 96 166
59 93 152
59 93 152
58 92 150
60 94 160
59 94 152
57 92 152
60 95 163
60 94 162
58 92 150
61 96 162
60 94 154
59 94 155
59 94 157
58 92 146
59 93 155
59 93 154
59 93 149
59 93 144
59 92 151
59 93 146
59 94 154
59 93 149
59 93 157
61 96 163
59 93 153
61 97 167
61 95 157
62 97 163
60 95 157
60 94 151
59 93 151
60 94 156
60 94 157
60 94 160
57 90 143
62 97 162
58 92 149
59 93 151
59 93 156
60 94 156
59 94 152
58 92 147
59 93 150
60 95 160
58 91 138
58 91 143
59 92 139
61 96 152
58 92 146
61 95 150
60 95 160
60 94 153
59 92 141
59 92 143
61 96 159
57 90 143
58 93 149
57 90 136
59 92 152
61 96 159
58 92 144
59 93 152
60 94 145
58 92 147
58 91 136
57 90 129
56 89 127
56 87 123
59 93 144
60 94 154
58 85 120
99 102 0
95 98 0
109 115 0
91 96 0
86 92 0
107 114 0
98 101 0
103 108 0
78 80 0
99 101 0
95 99 0
85 88 0
97 101 0
92 93 0
95 99 0
107 113 0
85 88 0
96 101 0
99 101 0
96 97 0
116 120 0
99 102 0
102 105 0
93 96 0
103 107 0
90 92 0
113 119 0
107 110 0
97 100 0
108 112 0
97 99 0
115 121 0
99 103 0
107 113 0
108 114 0
114 118 0
104 111 0
114 118 0
107 109 0
100 105 0
107 109 0
124 131 0
99 103 0
115 123 0
114 119 0
129 140 0
131 140 0
117 122 0
133 141 0
129 134 0
129 137 0
124 130 0
121 127 0
128 136 0
125 136 0
120 127 0
116 125 0
122 131 0
129 138 0
133 140 0
134 145 0
125 137 0
132 141 0
130 141 0
126 136 0
118 128 0
123 130 0
126 136 0
133 147 0
125 134 0
138 149 0
131 143 0
131 139 0
135 146 0
137 149 0
132 146 0
132 145 0
139 150 0
134 147 0
134 148 0
136 150 0
148 161 0
131 144 0
133 147 0
134 146 0
137 149 0
150 165 0
132 146 0
136 150 0
127 138 0
142 157 0
140 154 0
135 148 0
135 149 0
133 148 0
147 163 0
133 146 0
141 153 0
141 153 0
142 158 0
147 164 0
143 159 0
146 163 0
150 166 0
145 161 0
147 162 0
151 169 0
145 160 0
147 164 0
151 172 51
161 181 51
164 185 102
165 186 88
164 186 51
150 169 51
166 187 80
152 173 62
159 180 80
157 179 80
157 178 51
156 178 95
157 178 72
154 175 62
157 179 62
151 173 62
158 180 80
156 178 95
155 176 62
153 175 62
155 176 72
153 176 95
157 178 72
159 182 102
154 174 51
156 177 95
155 176 80
153 175 80
159 181 80
152 173 51
154 176 80
154 175 72
161 181 88
152 174 72
159 181 80
161 184 102
154 175 62
148 169 62
148 170 72
155 176 72
159 179 51
151 172 51
158 179 62
152 173 51
150 171 80
149 170 72
153 174 72
159 181 72
150 172 62
151 173 88
157 179 72
158 178 51
156 179 80
151 171 51
154 175 51
152 172 62
161 184 88
155 177 95
161 183 108
153 173 72
159 179 62
158 177 51
158 180 88
153 174 62
161 183 88
153 173 88
152 172 62
153 172 62
162 182 62
152 172 51
155 176 62
160 180 62
155 175 80
154 175 80
149 168 72
157 177 72
148 169 72
161 182 72
158 179 51
160 181 88
146 166 51
152 173 95
159 179 72
156 177 72
158 179 62
156 177 80
130 152 111
106 131 158
106 133 173
82 111 145
91 117 140
98 125 160
96 122 140
100 125 153
99 124 147
100 126 151
101 127 160
87 115 146
76 106 149
87 117 166
76 109 182
78 110 180
73 106 179
67 101 174
67 100 167
88 117 183
78 109 177
78 107 171
84 114 184
89 117 178
59 94 160
61 97 165
60 95 166
60 95 160
58 93 162
59 94 161
59 94 161
59 93 157
59 94 163
58 92 154
59 94 161
63 95 148
65 97 143
65 96 147
67 97 138
66 100 156
68 101 152
63 97 157
66 98 148
60 92 148
68 100 153
57 91 151
58 93 161
57 91 151
60 94 153
58 93 157
59 94 157
60 95 160
57 91 149
57 91 150
58 92 151
58 93 158
58 92 150
59 93 153
59 94 160
60 94 158
57 91 147
57 91 148
58 92 159
60 94 153
59 93 157
59 94 163
59 94 159
60 95 165
58 93 155
59 94 159
57 91 152
58 92 152
58 92 144
58 93 151
58 92 153
59 93 150
57 91 152
56 90 144
59 93 156
57 91 148
59 93 144
59 94 157
59 94 150
59 94 163
59 94 158
61 96 164
59 93 154
59 94 158
59 93 156
58 93 158
59 92 148
56 90 141
58 93 152
60 94 160
59 94 156
60 95 166
60 95 160
59 94 160
59 94 150
59 93 156
62 98 165
60 95 162
59 93 158
60 94 160
59 94 164
59 94 156
58 92 154
58 92 148
59 94 160
59 93 156
59 94 156
60 95 160
60 95 154
59 93 156
58 93 156
60 95 160
58 92 145
59 93 158
56 90 145
58 92 154
58 91 139
60 94 158
58 92 152
60 94 158
60 94 156
57 91 148
61 95 162
59 93 154
59 93 150
61 95 160
60 95 162
59 93 156
61 96 158
60 95 152
60 95 166
59 94 158
61 97 166
59 94 156
60 95 162
59 93 154
60 94 148
59 93 154
58 92 148
57 92 146
59 93 148
62 97 162
60 95 160
59 93 152
59 94 158
59 93 155
60 94 155
59 93 151
60 94 156
59 94 155
58 92 137
58 92 149
59 93 156
58 92 153
59 93 153
59 93 151
60 95 163
58 92 151
57 91 144
61 95 155
60 94 155
57 90 140
61 95 149
58 92 147
61 96 160
60 95 155
61 96 165
59 93 147
60 94 149
59 93 152
60 94 149
61 96 161
59 93 148
61 96 162
56 90 136
59 93 152
60 95 158
58 92 148
62 97 165
58 92 151
60 94 143
61 95 159
59 92 143
59 94 148
58 92 147
61 96 154
58 91 140
58 91 138
60 95 156
58 91 143
60 94 153
55 87 123
60 94 153
65 101 142
58 92 140
57 90 134
56 88 124
59 92 142
58 92 142
60 95 144
63 86 112
84 87 0
79 84 0
96 102 0
80 83 0
87 90 0
102 106 0
84 89 0
96 98 0
81 82 0
98 102 0
99 102 0
109 112 0
98 101 0
103 108 0
82 85 0
103 110 0
92 93 0
108 114 0
122 130 0
95 100 0
93 94 0
100 106 0
103 108 0
112 121 0
104 110 0
105 107 0
110 113 0
100 104 0
106 108 0
105 111 0
114 118 0
106 107 0
111 116 0
123 130 0
111 118 0
108 114 0
100 106 0
110 114 0
118 122 0
116 120 0
108 114 0
109 112 0
121 124 0
135 145 0
115 119 0
114 119 0
115 124 0
115 120 0
125 134 0
125 134 0
121 128 0
127 135 0
110 117 0
122 127 0
112 118 0
130 137 0
136 144 0
137 148 0
128 140 0
130 138 0
126 137 0
134 143 0
131 143 0
130 140 0
127 136 0
143 155 0
124 135 0
127 138 0
125 135 0
146 160 0
129 140 0
128 138 0
133 144 0
129 139 0
143 158 0
132 144 0
134 147 0
134 147 0
134 147 0
139 150 0
142 155 0
132 144 0
132 145 0
139 154 0
141 154 0
144 156 0
137 152 0
142 157 0
147 165 0
131 143 0
145 162 0
149 163 0
150 167 0
141 154 0
144 158 0
147 163 0
151 166 0
142 157 0
145 162 0
145 159 0
133 146 0
142 155 0
130 146 0
143 157 0
140 155 0
136 151 0
135 151 0
148 165 0
149 166 0
164 185 95
155 176 80
166 187 88
153 173 62
165 186 88
157 177 62
153 174 36
156 177 72
156 177 51
157 177 72
151 171 51
170 193 102
155 176 80
156 177 36
156 176 51
155 175 36
156 178 88
168 188 72
153 175 80
153 174 36
156 176 62
160 181 72
156 176 36
157 179 95
151 172 62
159 180 72
161 181 51
164 185 95
154 176 102
156 177 80
151 173 95
149 169 36
161 183 88
155 176 80
150 172 95
148 169 51
152 174 72
157 178 72
159 179 51
153 173 72
156 177 62
158 179 88
160 180 80
157 179 80
154 175 80
156 178 88
154 176 72
158 180 80
157 178 72
155 176 62
153 174 80
152 173 51
147 168 72
154 174 80
153 175 72
158 178 51
161 181 88
154 176 72
156 177 62
162 183 88
150 171 36
152 172 62
157 178 62
156 177 88
148 171 72
153 173 36
148 167 51
160 179 80
154 175 62
149 170 62
159 181 72
153 173 80
155 175 72
158 179 88
148 168 88
155 175 88
154 175 80
153 175 88
157 178 102
150 170 51
160 181 51
154 175 51
152 172 62
163 184 120
159 180 62
157 177 72
148 168 92
86 114 152
94 121 152
87 114 152
96 122 136
92 118 130
91 119 154
93 120 155
109 132 134
113 135 151
100 123 129
94 121 152
93 118 141
99 125 156
84 113 161
64 98 169
62 98 172
71 103 168
78 109 177
66 99 160
78 109 174
73 105 172
74 106 178
87 115 174
73 105 173
62 97 158
57 92 157
60 95 162
59 94 157
58 92 154
60 95 163
60 95 162
59 93 161
57 91 152
59 94 157
57 91 156
62 95 155
67 99 156
58 93 154
64 96 154
64 97 150
60 92 144
59 93 147
58 92 146
61 94 154
63 94 137
57 92 149
55 90 148
56 90 144
55 89 143
57 91 151
57 90 147
58 92 149
59 93 155
60 94 158
57 91 145
58 92 156
58 93 157
59 94 161
59 92 146
56 89 145
59 95 169
58 92 160
57 91 152
58 93 159
56 90 147
59 94 153
57 92 148
61 96 160
60 95 161
58 93 159
59 94 160
61 96 167
58 92 149
60 94 161
59 94 160
59 93 159
59 94 159
59 94 160
61 97 154
60 94 161
61 96 166
59 95 152
59 93 148
58 92 152
58 93 151
60 94 156
59 93 158
61 96 164
59 94 160
61 96 160
58 93 156
58 93 156
61 95 160
60 94 160
57 91 146
59 94 156
58 93 154
59 94 154
60 95 164
58 93 154
59 94 158
59 93 150
60 95 164
59 94 161
60 94 158
59 93 154
60 94 160
58 93 148
61 97 167
58 93 152
59 93 156
59 94 156
58 93 154
58 91 145
59 93 152
57 91 146
59 93 156
60 95 156
58 92 148
60 94 156
60 94 156
60 95 154
60 94 159
59 93 158
58 92 148
59 93 146
58 92 145
60 95 160
61 96 166
59 93 143
61 95 160
60 96 166
60 94 158
59 93 156
59 93 156
61 96 162
60 94 160
58 93 152
59 93 152
59 93 156
60 95 158
59 93 152
59 94 156
58 92 148
59 94 154
60 95 162
59 94 152
59 93 150
59 94 159
61 95 151
59 93 155
58 93 155
60 94 155
60 95 165
60 94 155
58 92 147
56 90 138
59 93 151
60 95 153
58 92 149
61 95 153
59 92 147
61 96 159
57 91 145
60 95 160
60 94 151
60 95 153
61 95 157
57 90 136
60 94 152
58 92 147
60 95 163
58 92 153
59 93 147
60 94 152
59 93 152
62 98 145
59 93 144
59 93 152
60 94 153
59 92 148
61 96 153
62 96 158
60 94 155
59 94 146
59 93 151
58 91 138
59 93 143
61 95 160
59 93 143
58 92 140
57 90 142
57 90 135
59 93 144
58 91 140
60 95 146
61 95 150
61 96 151
58 92 141
58 92 145
57 90 138
55 86 127
60 94 138
91 106 101
110 118 0
85 88 0
97 101 0
80 85 0
92 98 0
102 105 0
82 81 0
113 120 0
103 108 0
91 93 0
104 110 0
107 114 0
97 101 0
101 106 0
100 106 0
96 99 0
95 101 0
100 103 0
96 102 0
102 108 0
111 115 0
101 107 0
94 97 0
104 110 0
110 119 0
105 112 0
85 85 0
99 106 0
107 113 0
111 117 0
108 113 0
113 117 0
105 112 0
110 118 0
111 114 0
115 122 0
112 116 0
123 130 0
118 122 0
120 125 0
125 133 0
117 121 0
121 126 0
114 119 0
113 119 0
117 127 0
119 126 0
117 127 0
117 128 0
123 134 0
123 130 0
122 128 0
132 140 0
128 137 0
120 132 0
121 128 0
121 125 0
126 136 0
132 138 0
132 146 0
122 132 0
127 134 0
128 138 0
136 147 0
125 134 0
130 141 0
134 146 0
137 153 0
134 143 0
131 143 0
126 134 0
129 142 0
136 149 0
135 146 0
142 157 0
137 151 0
137 148 0
131 143 0
144 157 0
144 157 0
138 148 0
143 155 0
140 155 0
128 139 0
126 141 0
133 146 0
140 154 0
138 154 0
137 151 0
140 156 0
145 162 0
144 162 0
134 148 0
145 161 0
138 154 0
147 163 0
146 163 0
144 159 0
146 161 0
144 162 0
139 156 0
133 146 0
139 152 0
140 156 0
144 160 0
140 155 0
142 156 0
143 159 0
148 166 0
158 179 88
162 184 72
163 184 72
156 177 62
159 179 88
156 176 72
161 182 95
159 180 72
160 180 0
156 175 36
165 186 80
155 175 62
156 178 62
157 180 88
157 178 62
158 180 51
155 178 95
159 179 72
151 172 62
159 180 72
152 172 36
148 168 0
163 183 51
154 175 62
158 180 95
152 173 62
152 175 88
156 177 80
153 174 72
156 177 80
161 183 102
151 172 72
143 163 51
156 177 51
158 180 51
158 179 72
155 177 95
154 175 62
151 171 36
150 172 88
159 181 88
151 172 36
154 176 80
156 177 95
153 174 72
148 169 62
154 174 72
153 175 72
164 185 88
159 180 62
157 178 62
160 182 88
153 174 88
149 169 80
155 177 62
148 170 72
152 173 62
148 169 72
148 170 51
156 177 102
159 180 88
157 178 88
156 176 62
144 164 51
152 173 51
154 175 88
155 176 95
155 176 51
157 178 95
153 174 62
151 172 80
149 170 51
162 183 88
153 173 62
157 178 80
157 177 62
152 174 80
152 174 72
158 177 102
153 174 80
153 174 95
154 174 51
154 174 72
157 177 62
158 177 36
159 178 51
149 169 62
120 144 136
81 110 157
93 121 157
93 120 146
109 134 153
91 118 142
78 107 150
102 128 165
107 131 153
104 128 142
117 140 139
93 121 157
77 107 151
95 121 147
78 107 155
73 106 170
83 112 176
67 101 169
74 106 174
68 103 166
61 97 168
60 95 164
78 108 172
82 111 168
68 101 173
59 94 164
59 94 162
60 95 168
60 94 161
59 94 158
58 93 156
60 96 165
60 95 166
61 96 160
62 98 169
58 93 153
60 95 164
65 99 162
62 95 154
60 93 155
58 92 149
59 94 163
69 99 145
60 94 148
64 96 140
62 95 158
59 94 152
57 91 156
59 94 154
56 90 149
58 91 150
57 91 143
57 91 144
59 94 157
56 90 144
59 93 157
59 94 156
59 93 155
56 89 138
57 92 152
56 89 138
59 94 162
59 93 157
60 95 153
59 94 161
57 91 150
59 94 161
59 94 155
60 95 161
58 92 150
60 95 167
60 95 161
60 95 163
58 92 148
57 91 142
58 92 147
58 93 158
59 93 150
60 95 162
59 93 160
58 92 148
60 94 148
57 90 142
61 96 162
59 94 146
58 93 152
59 93 150
59 93 154
59 94 152
59 93 156
60 94 158
61 96 166
59 93 143
61 96 162
59 93 152
59 94 152
60 94 158
58 91 146
58 92 152
59 94 152
59 93 148
59 94 156
60 95 160
59 94 156
60 95 160
58 91 143
59 94 158
58 92 156
59 93 150
60 94 158
60 95 164
59 93 154
59 94 152
60 95 162
60 95 158
60 94 158
58 92 150
58 92 147
58 92 152
60 94 150
61 96 158
60 95 162
59 94 162
60 94 152
60 95 160
60 94 158
60 95 158
58 93 148
58 92 146
58 92 145
60 95 162
59 93 148
60 95 156
58 93 157
60 94 150
60 94 156
59 92 150
59 94 158
59 93 148
59 93 154
60 95 160
59 94 158
59 93 157
58 92 146
60 94 155
60 94 157
59 94 163
56 90 144
58 93 153
59 93 151
59 93 148
58 92 149
59 93 155
58 91 142
58 92 148
59 92 146
58 91 144
58 93 149
58 91 149
60 95 157
61 96 160
59 93 155
60 95 159
58 92 155
56 89 138
60 94 153
56 89 133
59 93 150
59 93 153
59 93 147
60 94 156
59 93 154
58 92 147
58 91 148
61 96 154
58 92 147
58 92 148
59 92 149
59 93 143
59 93 150
60 95 158
61 96 149
58 92 142
59 93 151
57 89 134
59 93 143
57 90 133
60 95 157
57 90 133
61 96 157
58 92 133
56 89 141
60 95 148
58 92 144
59 92 139
56 88 130
56 88 127
59 93 149
59 93 145
57 90 141
61 95 147
56 89 130
58 91 137
87 94 48
106 113 0
82 86 0
83 86 0
89 97 0
90 92 0
89 94 0
116 123 0
100 107 0
91 95 0
92 97 0
99 103 0
102 108 0
104 109 0
106 113 0
86 88 0
89 92 0
93 99 0
106 110 0
92 98 0
103 107 0
95 99 0
108 112 0
87 91 0
99 104 0
119 126 0
110 118 0
107 111 0
106 113 0
104 111 0
119 127 0
110 114 0
109 115 0
106 111 0
122 131 0
110 114 0
120 126 0
111 118 0
114 122 0
127 136 0
106 110 0
127 135 0
124 130 0
117 125 0
108 113 0
108 112 0
124 136 0
115 124 0
125 133 0
116 124 0
119 126 0
127 133 0
118 126 0
127 136 0
115 123 0
113 116 0
118 128 0
134 143 0
131 141 0
130 142 0
124 134 0
138 150 0
118 125 0
120 129 0
129 141 0
126 139 0
135 147 0
130 142 0
130 143 0
128 136 0
128 141 0
136 148 0
134 151 0
134 145 0
130 144 0
134 146 0
136 149 0
139 149 0
142 157 0
134 148 0
136 149 0
122 134 0
142 156 0
131 142 0
132 145 0
128 138 0
141 153 0
133 148 0
138 149 0
129 139 0
132 145 0
133 147 0
138 149 0
141 157 0
134 146 0
130 146 0
142 157 0
147 161 0
134 148 0
140 155 0
142 159 0
135 149 0
143 159 0
138 151 0
142 158 0
140 155 0
145 163 0
144 160 0
143 158 0
144 161 0
162 182 62
158 179 88
157 179 62
161 183 88
158 180 80
159 180 36
152 173 88
155 177 72
156 178 51
151 172 0
153 174 62
161 183 102
160 182 88
154 174 72
158 179 62
161 181 72
155 176 72
156 178 95
158 178 51
158 179 80
154 175 62
154 176 88
159 182 80
159 181 72
153 175 36
157 178 95
160 181 80
159 181 80
158 180 62
159 180 80
155 176 72
150 172 88
153 173 36
150 171 62
154 175 51
156 177 62
159 180 72
153 174 51
150 170 62
159 181 62
158 179 80
160 180 80
153 173 72
154 177 102
152 172 72
151 173 88
154 176 72
159 179 62
157 177 36
145 166 62
154 175 51
153 174 72
162 183 95
152 173 80
156 177 72
152 173 62
159 180 88
150 170 72
147 167 62
153 175 80
158 180 95
159 179 95
154 175 88
157 178 80
147 166 51
152 172 51
152 173 88
159 180 88
151 172 51
149 171 80
149 170 51
156 174 72
144 164 51
154 175 88
167 187 102
154 175 80
152 173 36
149 168 36
155 176 88
151 171 80
150 171 62
157 177 51
147 167 62
151 171 72
150 171 80
154 173 95
154 175 62
137 159 106
96 123 163
77 108 146
103 127 149
82 109 143
80 109 143
90 116 137
97 124 167
95 121 151
110 134 145
88 114 136
100 124 141
121 145 148
77 106 151
84 110 142
95 121 142
76 108 174
73 106 178
88 117 183
101 127 186
93 120 176
73 105 174
72 103 166
74 106 176
93 121 178
73 105 174
61 97 175
58 93 156
59 94 162
56 91 154
59 94 162
56 90 153
60 95 162
59 94 158
57 91 152
61 96 164
57 91 156
58 92 151
60 94 156
60 95 153
65 98 153
60 93 151
61 95 143
66 98 147
58 92 150
61 94 154
61 93 149
56 90 149
54 87 141
56 90 142
59 93 151
56 89 139
60 94 164
58 93 156
58 93 152
59 93 158
59 93 149
59 93 149
57 91 146
59 94 162
60 95 161
57 91 150
58 93 156
59 93 156
59 93 162
58 92 151
58 91 148
57 91 146
56 89 140
61 96 166
58 92 153
59 94 157
60 95 157
59 93 160
60 95 151
60 95 160
60 95 163
58 92 151
58 93 157
57 92 153
60 95 151
55 88 130
59 95 159
60 95 161
60 95 152
57 91 155
59 94 157
59 93 156
60 95 158
61 96 158
57 92 152
59 94 158
59 93 152
59 94 160
59 94 154
59 94 152
60 94 156
59 93 157
58 93 154
59 94 158
59 93 154
59 94 162
57 91 146
59 93 154
57 90 143
58 93 158
60 94 158
58 92 152
59 94 156
59 94 162
59 93 152
60 95 162
59 94 156
60 96 156
60 94 158
59 92 150
58 92 147
58 93 150
57 91 146
59 93 152
58 93 150
60 95 158
58 93 145
59 93 154
58 92 150
58 92 139
55 88 130
58 91 150
58 92 150
58 93 154
62 97 162
56 90 144
59 93 148
60 95 162
60 95 152
59 93 162
59 94 160
61 96 166
56 90 142
58 92 152
58 91 141
58 92 150
59 93 152
59 93 150
60 94 157
58 92 151
58 92 144
60 94 154
62 97 158
61 95 161
59 92 150
59 93 153
58 92 144
59 93 155
60 94 155
59 93 155
60 94 155
60 94 157
60 96 162
62 97 169
60 95 158
59 93 153
58 93 149
59 93 151
60 96 160
59 94 159
58 92 143
59 92 143
60 93 147
60 94 155
59 93 151
58 91 140
57 91 147
57 91 139
60 94 153
59 92 145
59 93 150
59 93 146
60 95 152
61 96 154
58 92 147
58 92 147
56 89 131
59 94 148
59 93 149
59 94 146
60 94 146
58 92 142
61 95 142
59 93 144
60 94 149
55 87 123
58 91 151
58 91 139
59 92 141
57 89 135
62 98 161
60 94 154
53 83 116
57 90 131
58 90 129
59 92 143
67 97 139
103 109 26
103 107 0
94 100 0
90 95 0
102 108 0
103 106 0
105 110 0
96 100 0
115 123 0
103 107 0
101 103 0
96 98 0
104 112 0
97 102 0
92 97 0
88 92 0
97 99 0
99 103 0
102 107 0
93 97 0
115 124 0
100 106 0
105 112 0
97 101 0
97 99 0
110 114 0
115 122 0
103 108 0
105 104 0
108 114 0
105 112 0
112 117 0
96 101 0
111 114 0
107 112 0
118 127 0
117 123 0
114 120 0
116 123 0
111 117 0
116 121 0
122 132 0
125 134 0
122 129 0
116 125 0
122 130 0
114 119 0
117 123 0
119 129 0
131 138 0
127 138 0
123 131 0
131 140 0
114 120 0
121 127 0
118 125 0
127 136 0
136 146 0
132 143 0
120 129 0
138 151 0
116 123 0
121 132 0
137 149 0
125 133 0
143 156 0
120 129 0
126 137 0
128 136 0
133 141 0
129 136 0
128 140 0
128 136 0
134 144 0
133 145 0
144 159 0
137 148 0
148 161 0
146 163 0
137 151 0
140 153 0
141 156 0
131 142 0
136 149 0
140 154 0
135 148 0
127 141 0
126 141 0
139 154 0
148 163 0
138 151 0
142 155 0
129 144 0
146 162 0
137 151 0
148 163 0
137 154 0
139 154 0
134 146 0
142 157 0
136 150 0
144 161 0
144 162 0
141 156 0
147 162 0
149 166 0
144 162 0
134 148 0
137 154 0
143 159 0
162 183 88
154 175 36
154 175 80
162 183 72
156 178 62
157 178 95
157 178 72
158 179 62
158 179 51
151 172 62
159 181 102
156 176 72
155 176 51
155 177 102
153 173 62
159 180 51
151 171 62
155 176 80
154 176 36
161 184 95
155 176 51
157 178 62
152 174 80
153 176 88
157 177 72
155 177 95
156 176 51
163 185 72
156 177 80
159 181 88
153 174 36
158 178 88
154 175 51
149 171 88
160 183 108
151 174 80
150 172 62
154 175 72
156 176 36
156 178 102
156 178 95
151 172 80
149 170 51
150 170 0
156 177 51
155 176 72
155 175 51
155 177 88
161 182 62
151 172 72
150 172 72
152 173 62
152 172 51
153 173 72
157 179 88
147 169 62
149 169 72
154 174 80
147 167 0
153 174 88
148 168 62
155 175 62
154 176 88
157 177 95
154 176 80
154 176 95
150 170 88
155 176 88
153 173 62
152 172 36
153 174 72
153 174 36
156 176 51
155 175 72
153 175 80
155 175 51
154 174 80
154 175 72
140 160 51
157 178 80
161 181 88
157 177 88
151 172 51
143 163 62
154 175 51
158 179 95
152 172 62
154 174 91
92 120 162
82 111 147
91 117 150
98 125 170
92 118 146
85 111 139
92 118 135
93 120 144
105 129 162
87 113 140
100 124 145
109 132 141
98 124 137
95 120 145
76 105 147
91 118 156
99 125 173
79 110 180
74 107 175
69 103 175
72 104 174
67 101 173
65 98 158
72 103 170
67 101 171
60 94 162
60 96 163
63 96 153
60 96 168
57 91 151
59 93 152
58 93 158
60 94 159
60 95 160
57 91 154
58 92 151
59 94 157
58 92 146
57 91 155
62 94 143
61 95 147
59 91 143
57 91 150
62 94 142
58 91 141
60 94 156
56 90 145
58 92 150
56 90 147
58 92 154
58 92 150
59 94 158
57 92 156
59 94 161
60 95 167
58 93 152
57 91 148
58 92 151
57 90 141
57 91 150
59 94 154
57 91 150
58 92 146
58 92 150
57 90 146
58 91 152
56 89 144
57 90 147
58 92 150
58 92 147
58 93 155
60 95 163
59 93 146
59 93 153
59 94 154
57 91 151
60 94 158
58 92 151
59 93 154
58 92 152
58 92 148
58 92 151
58 92 148
58 93 155
58 93 148
58 92 152
60 95 152
58 93 158
60 94 162
59 93 148
59 94 150
59 92 154
58 92 156
60 95 166
60 94 154
58 91 149
57 91 146
59 93 150
61 95 160
59 94 154
61 95 164
59 93 152
60 96 168
59 93 154
60 95 162
59 93 156
59 94 158
60 94 152
58 93 152
59 93 152
60 95 162
59 94 158
59 94 156
58 92 148
59 93 158
59 93 156
59 93 148
58 91 139
57 91 146
58 93 158
58 92 148
60 94 160
60 95 162
59 92 146
59 94 158
59 93 154
58 92 137
59 94 158
59 93 150
60 95 160
58 92 150
59 93 157
58 92 150
59 93 152
60 94 150
60 94 154
59 94 156
58 91 146
61 97 157
58 92 148
60 95 159
60 96 159
58 92 152
58 92 146
58 92 144
58 92 141
59 94 152
60 95 151
58 92 138
61 95 164
61 96 159
60 94 153
61 96 159
60 95 157
58 92 142
59 93 144
61 96 165
61 96 147
60 95 159
58 92 141
58 92 149
60 95 157
60 95 154
60 94 153
57 91 141
56 89 139
61 96 162
61 95 156
59 94 152
57 90 141
59 93 140
60 94 149
58 92 148
60 93 148
58 92 145
60 94 154
58 92 141
59 92 144
57 90 139
58 92 141
60 94 154
58 92 144
57 91 139
59 93 153
59 93 147
58 91 139
58 91 141
59 93 151
60 93 148
60 95 155
59 92 146
60 94 154
57 89 136
62 97 153
57 90 137
60 93 148
57 90 135
54 86 125
54 85 113
59 92 142
58 91 127
81 101 104
100 107 0
101 109 0
115 123 0
100 105 0
100 106 0
101 111 0
93 100 0
89 93 0
108 114 0
103 111 0
96 104 0
95 99 0
103 110 0
104 109 0
109 118 0
98 103 0
94 103 0
86 89 0
105 110 0
100 105 0
115 120 0
106 114 0
100 106 0
115 121 0
110 118 0
104 108 0
109 114 0
107 112 0
105 111 0
117 127 0
125 132 0
101 109 0
108 115 0
109 115 0
117 123 0
117 123 0
107 109 0
109 117 0
109 114 0
126 132 0
111 118 0
125 135 0
114 122 0
129 141 0
127 139 0
132 141 0
124 130 0
118 129 0
112 118 0
126 138 0
118 125 0
130 142 0
122 132 0
125 133 0
127 137 0
119 129 0
133 144 0
105 112 0
129 137 0
132 139 0
130 140 0
120 127 0
124 135 0
141 152 0
130 143 0
136 148 0
135 146 0
130 140 0
118 125 0
132 142 0
135 149 0
139 150 0
138 149 0
128 135 0
140 154 0
137 149 0
134 148 0
137 149 0
133 146 0
137 150 0
143 158 0
136 147 0
142 157 0
143 158 0
133 147 0
133 146 0
137 149 0
132 147 0
140 155 0
134 146 0
137 153 0
133 144 0
143 158 0
131 145 0
138 155 0
142 158 0
138 153 0
141 157 0
149 163 0
147 163 0
139 153 0
133 146 0
138 151 0
142 156 0
137 152 0
147 163 0
138 154 0
145 162 0
140 156 0
143 161 0
158 179 80
160 181 102
153 173 36
162 183 62
152 173 62
163 184 80
156 177 80
159 180 62
155 177 80
162 184 102
161 184 88
157 179 88
154 176 72
159 180 80
151 172 62
159 180 72
156 177 62
153 174 36
159 180 51
156 176 51
148 169 72
158 181 95
156 177 62
156 177 62
157 178 88
157 180 80
156 178 62
155 177 80
162 182 51
153 175 88
156 178 72
149 171 72
154 174 62
155 177 72
153 173 62
157 179 72
150 172 80
153 172 62
153 174 80
150 172 80
148 169 51
147 167 0
156 177 72
160 180 51
150 173 80
146 166 0
160 181 80
151 172 51
159 181 95
149 170 72
146 167 62
153 174 80
151 172 51
147 167 72
158 178 51
156 176 80
156 178 80
160 181 72
153 176 88
153 174 72
151 172 72
150 171 62
149 169 72
153 174 88
154 175 80
152 174 95
147 167 0
160 180 62
146 167 62
150 171 95
158 179 62
142 164 62
143 163 62
156 175 72
155 176 80
153 173 80
147 167 88
147 168 80
162 183 72
153 174 51
151 171 80
156 177 51
145 166 62
155 176 88
155 174 80
144 163 51
149 168 62
152 172 80
109 132 105
83 111 154
88 114 138
83 111 143
108 132 163
98 124 151
102 127 151
88 116 151
83 111 156
101 126 150
86 113 153
100 124 146
104 130 131
84 112 146
100 126 157
90 116 149
110 133 155
77 108 168
92 121 184
73 106 172
78 109 172
72 104 168
73 104 168
73 104 167
85 114 177
60 95 158
61 96 166
59 93 159
60 95 162
61 95 151
58 93 158
60 95 160
61 95 158
61 96 166
60 95 169
58 93 155
60 95 161
58 92 155
61 93 145
64 95 141
56 89 140
60 95 156
64 95 146
64 96 149
57 92 150
67 99 150
60 92 146
60 95 157
57 90 146
58 92 150
58 92 154
56 89 142
56 90 146
56 89 150
57 91 147
59 93 153
57 91 149
59 93 150
58 92 151
58 93 152
59 93 151
57 90 145
57 92 154
59 93 155
58 92 146
61 96 164
59 94 164
56 90 140
59 93 157
57 90 146
59 94 156
58 93 159
57 92 156
59 93 148
58 93 160
58 91 142
57 90 146
57 92 152
58 92 150
58 92 151
58 92 151
59 94 158
59 93 154
57 92 150
58 92 144
61 96 162
59 93 154
60 95 160
59 93 152
58 93 149
58 93 157
58 93 156
58 92 148
59 93 154
59 93 156
58 93 152
60 95 156
57 91 146
58 92 150
58 91 145
58 92 150
60 95 164
58 93 156
59 93 146
59 94 158
60 94 162
60 94 154
60 95 162
59 94 158
57 90 143
56 89 139
59 93 152
57 91 146
58 92 150
59 93 156
58 92 148
59 94 158
61 96 166
58 92 150
60 95 164
57 91 146
59 94 152
59 93 154
59 94 150
59 94 152
59 93 154
60 94 154
59 93 150
59 94 156
58 91 141
61 96 160
60 94 162
60 94 158
57 91 137
57 90 137
58 92 148
60 95 162
60 95 160
60 95 162
59 93 152
59 93 148
58 91 144
60 95 158
61 95 163
60 94 150
58 92 150
60 95 159
59 94 149
58 92 142
60 95 161
58 92 147
58 91 144
58 93 157
59 93 145
57 90 139
56 88 128
59 92 140
60 95 157
58 91 144
59 93 149
60 95 158
58 92 140
59 93 153
59 93 153
59 93 153
59 94 155
60 95 152
58 91 133
60 95 154
61 96 152
59 93 144
58 91 140
60 95 158
57 90 135
60 94 154
57 91 144
58 91 147
60 95 151
59 93 149
61 96 155
61 96 151
57 91 134
57 90 138
59 92 139
58 90 134
62 97 160
57 89 135
58 93 145
58 91 136
57 89 130
58 91 134
60 94 146
57 91 148
60 95 145
56 89 128
56 89 122
59 93 149
57 90 137
58 91 139
55 87 123
59 92 140
67 78 78
96 103 0
104 112 0
111 118 0
99 107 0
99 106 0
100 109 0
101 110 0
107 118 0
93 94 0
99 105 0
96 101 0
97 99 0
98 106 0
82 85 0
91 98 0
102 109 0
103 108 0
109 119 0
98 105 0
104 110 0
106 114 0
98 103 0
118 127 0
114 121 0
121 128 0
116 124 0
106 110 0
115 119 0
116 125 0
104 103 0
102 107 0
116 124 0
117 127 0
122 132 0
110 116 0
108 112 0
116 125 0
116 124 0
115 125 0
115 123 0
108 115 0
110 117 0
111 119 0
116 121 0
121 131 0
122 133 0
120 128 0
118 126 0
124 132 0
129 136 0
126 139 0
124 131 0
127 135 0
121 132 0
124 135 0
131 142 0
112 114 0
128 135 0
126 136 0
123 132 0
128 138 0
131 143 0
119 129 0
121 130 0
131 141 0
140 152 0
119 129 0
134 146 0
138 150 0
125 137 0
136 147 0
130 142 0
129 139 0
137 151 0
134 145 0
120 127 0
133 146 0
138 153 0
136 149 0
132 144 0
130 143 0
132 144 0
136 149 0
134 148 0
126 138 0
140 155 0
142 157 0
133 148 0
143 156 0
138 153 0
141 156 0
130 143 0
141 156 0
138 152 0
137 152 0
141 157 0
140 154 0
137 152 0
146 164 0
138 153 0
149 166 0
136 150 0
141 156 0
148 165 0
138 155 0
135 149 0
147 165 0
147 164 0
148 163 0
137 151 0
163 184 72
156 179 80
157 178 88
151 171 51
153 174 72
158 180 80
158 180 72
159 181 80
156 177 51
159 180 88
150 172 80
151 172 51
151 173 80
151 171 62
158 179 51
155 177 88
152 173 62
144 163 0
151 173 51
155 175 62
160 183 120
166 186 62
150 171 62
158 180 80
154 175 36
156 177 51
153 175 72
155 177 62
156 179 51
157 178 62
155 177 62
156 178 72
153 174 62
152 173 80
157 177 62
145 167 62
149 169 62
157 178 51
167 189 95
157 179 102
155 176 51
150 171 72
156 178 80
154 175 72
152 173 36
151 172 80
146 167 51
155 177 62
153 174 62
151 172 51
149 170 62
152 174 88
151 173 88
151 172 72
153 175 72
154 175 95
148 169 36
152 173 62
154 176 88
148 169 62
153 174 80
157 179 80
148 170 51
152 172 51
153 173 62
147 168 36
150 170 62
153 174 36
150 171 80
147 167 36
158 179 95
150 171 95
160 181 95
149 170 80
155 175 88
146 167 72
150 171 88
152 173 80
159 180 114
151 171 62
151 171 62
150 172 88
159 179 80
154 174 72
148 168 62
155 175 80
145 165 80
151 172 72
138 159 102
75 106 152
92 118 149
85 112 151
84 111 129
91 118 147
101 127 162
80 109 144
92 118 148
93 119 156
105 131 161
97 122 143
87 114 140
88 115 127
106 130 145
79 108 149
99 124 145
83 110 146
74 105 161
73 105 174
78 109 178
84 113 180
79 109 174
78 108 170
84 113 176
78 108 171
59 94 159
60 95 166
59 93 159
59 94 158
61 95 156
58 92 153
60 94 164
60 96 162
59 94 158
58 92 153
58 93 161
57 91 151
58 92 149
57 91 147
55 89 145
62 93 146
57 91 153
58 93 156
63 97 155
58 89 140
57 90 143
60 93 136
57 91 146
57 90 144
57 90 148
58 92 150
59 94 161
58 92 152
57 90 151
58 91 138
59 93 158
57 91 150
59 94 149
58 93 145
58 92 148
59 93 155
57 91 144
58 92 149
60 94 158
58 91 144
58 92 151
59 94 153
59 93 153
58 92 147
59 92 144
58 92 150
59 93 154
59 93 146
58 92 144
59 93 150
58 92 149
58 92 156
56 89 142
59 93 150
58 92 148
58 92 144
59 93 153
58 92 152
61 96 162
58 92 150
59 93 158
60 95 166
61 96 165
57 91 151
60 94 160
59 94 152
59 94 159
59 94 156
60 95 162
58 91 146
58 91 137
60 95 160
59 93 154
59 93 160
59 93 156
60 94 158
60 93 152
59 93 152
59 92 152
60 95 164
60 95 160
59 93 154
57 91 146
58 92 148
59 93 156
59 94 156
57 92 152
58 91 141
60 95 154
60 95 158
57 91 146
58 93 158
59 93 154
58 92 144
61 97 152
59 93 150
58 92 146
59 93 145
59 93 152
60 94 150
61 96 158
58 93 152
60 95 162
60 95 154
59 93 159
56 88 137
60 94 158
57 90 144
58 92 148
59 93 153
60 94 158
59 94 156
59 93 152
59 93 153
58 91 143
59 93 153
59 93 150
58 92 151
59 93 151
60 94 159
58 93 147
58 92 146
61 96 162
59 93 151
57 91 140
59 93 149
58 91 142
60 94 153
57 89 133
59 92 142
60 94 157
58 92 146
60 95 157
61 95 157
59 93 146
58 92 145
61 96 161
58 92 143
60 94 157
59 93 149
59 93 153
59 94 158
57 91 141
60 94 151
58 92 139
58 92 150
60 95 150
57 90 139
61 96 159
59 92 148
60 93 151
60 94 149
60 94 157
56 88 125
59 92 142
58 92 137
57 90 134
58 91 126
60 93 144
58 91 145
58 92 145
57 90 138
60 93 143
58 91 140
58 91 136
57 89 130
58 92 143
58 92 140
59 93 141
60 93 143
58 92 141
56 89 127
62 97 145
59 92 139
58 90 142
84 89 26
98 105 0
117 123 0
100 105 0
98 108 0
94 98 0
104 111 0
84 89 0
112 121 0
116 124 0
115 119 0
97 105 0
88 95 0
80 86 0
90 94 0
115 124 0
122 131 0
101 112 0
113 121 0
120 128 0
114 125 0
105 114 0
94 100 0
107 111 0
104 110 0
108 118 0
99 106 0
108 114 0
120 127 0
123 130 0
98 105 0
95 101 0
109 119 0
112 122 0
120 131 0
115 126 0
130 138 0
106 113 0
111 121 0
116 123 0
111 120 0
121 129 0
110 116 0
122 134 0
116 122 0
123 132 0
114 121 0
110 118 0
120 130 0
114 123 0
124 134 0
125 134 0
130 138 0
125 134 0
119 130 0
125 134 0
115 125 0
124 135 0
128 136 0
128 140 0
142 156 0
129 139 0
137 151 0
133 145 0
141 152 0
120 135 0
129 140 0
131 143 0
135 148 0
135 148 0
135 145 0
131 140 0
141 153 0
134 148 0
129 142 0
132 146 0
146 158 0
138 150 0
130 145 0
131 142 0
144 159 0
140 154 0
130 142 0
148 162 0
144 160 0
144 160 0
136 150 0
131 146 0
134 151 0
140 155 0
147 163 0
140 150 0
138 152 0
140 155 0
144 159 0
145 163 0
141 155 0
142 157 0
142 157 0
143 158 0
138 153 0
139 157 0
143 159 0
138 155 0
137 153 0
141 158 0
136 149 0
150 168 0
145 161 0
140 156 0
144 162 0
154 175 62
160 182 80
153 174 72
157 178 72
151 171 0
161 182 80
158 179 51
161 181 62
154 174 0
155 177 102
156 178 80
146 166 51
154 175 80
156 177 72
151 173 62
156 177 36
157 179 62
152 173 62
157 177 51
156 178 102
157 179 51
158 180 72
151 173 72
155 177 88
155 176 80
148 168 51
159 180 88
153 175 80
157 179 95
149 170 51
161 182 80
149 170 95
156 178 72
150 172 51
152 173 62
148 168 51
160 183 95
155 177 72
156 177 88
154 176 80
158 180 62
150 169 51
161 183 80
149 171 80
153 173 51
149 172 80
149 171 72
146 167 51
155 176 72
156 177 95
152 173 72
153 174 72
156 177 102
151 173 88
151 173 72
151 172 80
156 177 80
150 170 51
148 169 62
146 166 36
146 167 51
151 172 80
153 174 72
151 173 88
146 167 36
147 168 51
152 172 72
152 173 51
151 173 95
144 165 80
151 171 36
157 178 95
150 170 62
148 168 36
150 169 62
152 174 102
146 167 62
149 170 72
148 168 51
153 174 62
155 175 80
145 166 51
154 175 80
154 173 72
159 179 102
139 157 36
151 172 80
156 176 88
148 169 51
112 136 124
101 128 160
101 127 157
82 109 129
75 104 142
99 125 158
97 124 152
107 132 153
108 132 155
102 127 152
83 110 144
111 134 159
94 119 145
93 120 150
89 115 131
83 112 162
80 110 147
79 106 138
82 112 169
67 100 170
93 121 183
59 95 160
73 104 164
78 108 168
88 116 171
79 109 170
60 95 162
60 95 167
59 94 158
60 95 156
60 95 160
60 95 167
59 94 159
60 96 167
59 94 163
59 93 155
56 89 142
57 92 155
63 97 162
58 92 156
59 92 147
58 93 157
57 90 148
57 90 151
62 96 159
62 95 153
58 92 150
54 86 133
55 87 136
58 93 153
57 91 151
60 95 156
57 91 145
59 95 162
59 94 154
60 95 160
58 92 154
58 92 151
58 92 157
59 94 159
58 92 147
60 95 145
60 95 161
59 94 157
59 93 153
60 95 150
59 92 147
59 93 158
60 95 157
57 90 142
59 94 150
56 89 142
60 96 163
60 95 163
59 93 155
59 94 151
60 95 161
61 96 163
62 97 162
60 94 156
59 93 157
59 93 154
59 94 159
59 93 152
61 95 152
59 94 160
58 92 153
59 94 154
59 93 152
60 95 158
56 89 130
61 95 152
60 95 160
58 92 150
59 93 150
59 93 156
57 91 147
59 93 154
59 93 152
59 93 154
59 93 156
60 95 154
59 94 154
58 92 154
58 92 150
58 92 148
57 90 137
58 92 148
58 92 156
58 93 154
60 95 162
61 96 162
59 93 154
57 91 148
60 95 158
58 91 152
57 90 146
59 93 152
60 94 158
61 96 162
60 95 158
57 90 148
58 92 141
59 94 156
60 94 156
58 92 144
60 95 160
58 93 154
59 93 152
61 95 160
58 92 148
60 94 154
60 93 150
60 95 162
62 97 157
57 92 153
61 96 162
58 92 148
60 95 160
58 92 148
59 93 148
59 92 148
59 93 144
58 91 142
59 93 147
59 92 148
58 92 147
59 94 153
60 94 155
60 95 153
59 94 151
56 90 136
59 93 147
58 92 151
59 92 149
57 90 142
58 92 146
61 96 166
59 93 148
58 92 148
60 94 151
58 91 137
59 93 153
59 93 138
55 87 131
61 95 151
59 93 145
60 95 160
58 92 147
59 93 145
60 95 156
56 88 123
58 92 146
61 96 160
59 94 152
59 93 147
58 92 151
59 93 147
60 94 144
59 93 145
59 93 146
58 91 143
60 94 158
58 90 141
59 93 144
59 93 143
60 94 149
58 91 146
60 94 144
59 93 150
59 93 142
57 90 139
56 88 125
59 94 144
57 90 135
60 94 150
59 92 144
58 91 134
58 90 133
72 96 110
92 100 0
101 109 0
113 121 0
107 115 0
98 103 0
112 119 0
105 111 0
127 137 0
115 123 0
97 104 0
100 106 0
98 104 0
101 107 0
91 98 0
109 115 0
113 120 0
101 108 0
111 117 0
121 133 0
88 96 0
104 111 0
115 119 0
103 111 0
115 123 0
102 107 0
102 111 0
122 129 0
103 109 0
109 119 0
116 120 0
115 127 0
119 129 0
115 122 0
120 127 0
97 102 0
123 133 0
112 121 0
127 138 0
118 127 0
126 136 0
102 110 0
104 114 0
116 123 0
122 130 0
121 129 0
122 129 0
131 141 0
126 136 0
111 117 0
127 136 0
129 138 0
126 136 0
140 152 0
132 144 0
135 149 0
128 137 0
126 136 0
128 138 0
133 146 0
131 140 0
123 132 0
130 142 0
139 153 0
131 144 0
120 131 0
125 135 0
122 130 0
129 141 0
124 133 0
119 131 0
117 127 0
128 141 0
142 157 0
138 150 0
142 155 0
142 154 0
132 144 0
129 141 0
135 148 0
141 155 0
137 149 0
134 147 0
135 149 0
143 157 0
138 152 0
134 147 0
142 155 0
142 156 0
141 156 0
143 158 0
138 153 0
139 151 0
141 155 0
138 151 0
143 158 0
143 157 0
135 150 0
139 154 0
137 151 0
135 150 0
143 159 0
149 164 0
151 168 0
144 160 0
138 155 0
140 156 0
141 158 0
144 159 0
128 144 0
144 162 0
135 150 0
155 176 88
161 183 95
162 182 62
159 180 0
150 172 72
159 180 72
158 179 72
158 179 72
155 178 80
156 178 72
148 170 72
159 180 80
157 177 88
150 171 62
153 174 80
158 180 80
155 176 62
151 172 62
159 180 80
150 171 0
148 169 62
158 181 102
158 180 62
155 176 62
154 177 95
152 174 102
147 167 51
149 169 62
158 179 62
153 172 36
158 179 80
157 179 88
157 177 51
154 175 51
153 174 80
157 178 72
158 178 72
154 177 88
153 174 72
153 174 80
157 179 72
154 174 62
155 177 95
149 168 51
152 173 80
159 180 72
155 176 80
149 171 80
150 172 102
151 173 72
145 165 51
155 175 72
146 167 80
152 173 88
153 174 72
148 170 80
155 176 80
151 172 80
148 168 51
147 168 72
152 173 72
155 176 80
154 175 62
142 164 72
145 167 62
160 183 114
153 175 72
147 168 62
150 170 62
151 172 88
148 168 62
147 168 51
151 171 72
145 166 72
150 171 72
148 169 62
154 174 80
149 169 51
139 158 36
154 173 72
147 167 62
154 176 62
150 172 72
150 171 88
157 177 80
151 172 80
145 165 51
146 166 36
153 173 80
132 152 108
101 126 160
93 119 148
107 132 151
89 116 137
102 127 158
81 110 155
87 114 143
81 108 144
93 118 145
106 130 149
86 114 146
86 113 140
86 112 134
97 123 153
97 121 133
100 125 160
91 118 159
83 111 153
70 101 159
78 108 169
83 112 177
93 121 181
72 103 168
93 120 174
67 101 171
65 98 158
60 96 163
59 93 159
60 95 162
61 96 164
58 93 156
58 92 157
60 95 164
59 94 158
59 95 158
60 94 156
56 90 151
56 90 153
57 91 143
56 90 152
64 96 152
58 91 150
60 92 140
64 96 149
69 99 151
60 92 141
63 93 135
57 90 152
56 89 144
59 94 158
58 92 150
57 91 147
57 90 141
54 85 134
58 92 152
57 91 151
58 92 147
59 94 151
58 92 154
58 92 148
56 90 144
56 89 138
60 95 149
58 92 153
61 95 155
59 93 151
60 94 153
59 94 157
56 90 144
57 90 143
56 90 142
57 91 147
58 93 155
60 95 163
58 92 149
58 91 142
58 93 151
57 90 151
60 94 152
61 95 161
59 93 156
58 92 148
59 93 148
59 94 158
61 96 161
56 89 141
57 90 137
58 92 149
59 94 157
61 97 160
59 94 148
57 91 146
59 93 150
60 95 162
58 91 148
60 94 150
59 93 152
58 92 152
59 94 158
61 96 164
58 92 146
59 94 156
58 92 143
59 93 156
61 97 164
58 92 146
59 93 158
59 93 156
59 93 150
61 96 164
59 93 152
59 93 148
58 91 146
59 93 156
58 92 152
57 90 146
57 92 150
59 93 150
59 94 156
59 93 156
58 91 137
59 94 158
60 94 158
60 94 154
60 94 156
60 94 154
60 95 159
61 97 168
59 93 152
58 92 144
57 91 144
60 95 159
59 94 148
57 91 144
58 92 150
58 92 144
58 91 146
57 90 148
60 95 161
58 93 153
59 94 156
57 90 146
58 92 148
60 94 146
59 93 148
60 94 150
58 92 147
61 96 157
58 92 144
57 89 130
59 92 140
59 93 148
59 93 147
57 91 143
56 89 136
59 92 143
59 93 154
57 90 131
59 93 148
58 91 138
58 92 151
58 91 149
59 93 149
59 93 149
58 91 138
59 93 156
60 94 151
59 93 154
59 93 146
59 93 150
58 93 150
58 92 147
60 94 154
58 91 142
59 93 139
61 96 159
58 91 139
57 92 149
57 90 132
59 93 149
59 93 149
57 90 138
59 93 146
58 92 143
61 95 152
58 91 135
59 92 141
59 92 142
59 93 149
60 95 147
57 89 137
60 94 147
60 93 145
60 95 154
60 95 149
60 94 148
60 95 153
55 87 121
88 104 87
109 115 0
106 115 0
96 102 0
100 105 0
111 119 0
114 125 0
98 108 0
105 112 0
109 116 0
109 115 0
96 103 0
87 92 0
114 121 0
113 123 0
104 111 0
94 100 0
101 109 0
105 112 0
96 99 0
114 123 0
121 130 0
105 112 0
115 124 0
115 123 0
115 123 0
108 112 0
108 116 0
99 105 0
126 135 0
114 124 0
102 112 0
105 114 0
122 132 0
122 133 0
104 110 0
116 123 0
117 125 0
112 118 0
123 132 0
119 130 0
107 112 0
115 122 0
107 115 0
116 126 0
122 130 0
127 136 0
132 142 0
133 145 0
111 118 0
122 133 0
122 131 0
129 137 0
124 132 0
123 131 0
125 136 0
134 145 0
123 132 0
122 134 0
120 126 0
151 159 0
129 141 0
137 153 0
132 143 0
137 150 0
129 142 0
136 147 0
132 143 0
120 129 0
130 142 0
126 137 0
139 153 0
139 152 0
127 139 0
128 137 0
139 152 0
140 152 0
137 148 0
136 149 0
130 142 0
135 147 0
149 163 0
129 143 0
145 158 0
142 157 0
136 149 0
142 154 0
132 147 0
131 143 0
143 158 0
128 141 0
136 153 0
135 147 0
147 165 0
133 148 0
149 165 0
141 154 0
144 158 0
148 163 0
140 155 0
136 152 0
129 144 0
138 151 0
138 156 0
144 158 0
143 160 0
143 158 0
148 165 0
148 161 0
143 160 0
145 162 0
139 156 0
157 178 80
151 171 36
165 186 80
160 181 80
149 170 36
156 177 62
154 175 51
163 184 102
156 178 72
153 173 62
152 173 72
157 177 62
148 170 80
157 178 80
154 175 36
153 174 72
154 176 80
155 177 95
154 175 72
161 181 72
151 173 62
148 169 36
148 170 72
155 177 95
150 171 51
151 173 72
153 175 62
162 184 95
153 174 51
154 175 62
152 174 62
154 175 62
154 175 95
152 173 72
151 173 62
148 170 51
152 174 72
152 174 80
154 175 72
141 161 51
154 177 102
149 171 72
155 176 95
153 176 80
152 173 72
148 169 62
154 174 88
149 170 62
149 171 51
150 170 72
153 173 72
152 171 36
151 174 102
153 174 72
152 174 72
154 176 72
153 175 88
150 172 72
152 173 62
156 177 72
154 175 88
149 171 72
145 166 51
155 176 62
154 175 51
149 170 72
152 173 62
152 173 51
151 172 62
159 179 95
152 174 95
148 168 62
154 177 88
148 167 80
146 167 62
154 174 80
141 162 62
151 172 62
144 164 62
152 172 72
151 172 95
148 168 51
154 173 72
151 172 80
151 171 62
152 172 80
150 170 72
146 166 62
161 180 88
158 178 95
102 127 133
101 127 150
85 113 152
83 110 133
86 112 143
96 122 150
83 111 146
89 116 156
79 109 148
95 121 148
91 116 142
99 124 160
100 125 153
83 112 150
88 116 136
87 113 135
70 101 141
84 111 146
94 120 158
75 106 170
73 105 172
72 104 173
93 120 179
61 96 166
69 101 164
77 106 162
59 95 165
60 95 165
60 95 156
60 95 167
57 92 154
60 95 165
58 92 149
59 94 164
59 94 156
58 92 157
56 90 152
57 90 151
61 96 159
57 90 148
66 97 147
55 89 146
63 94 144
65 98 156
65 96 136
57 91 144
58 92 139
56 89 140
58 92 150
55 88 146
58 91 150
58 92 145
56 88 132
58 93 150
56 89 139
61 96 163
57 90 142
57 91 137
58 93 149
56 89 143
58 92 148
59 93 152
60 94 156
59 93 145
60 95 159
59 94 160
60 95 157
59 93 157
60 94 153
60 95 159
56 89 141
57 91 146
56 89 137
59 93 146
57 91 148
58 92 147
58 92 151
58 91 140
59 94 157
59 93 155
60 96 165
60 96 159
59 93 152
59 94 152
58 92 150
60 94 158
57 90 135
56 89 139
57 91 146
60 95 160
58 92 146
59 94 159
59 93 157
58 92 148
58 91 146
60 94 158
59 94 156
59 93 152
59 93 154
59 94 155
58 93 157
59 94 152
59 93 158
57 91 144
59 94 154
57 90 142
56 89 142
60 94 154
58 92 148
58 92 146
58 92 154
60 94 154
59 94 156
59 93 152
59 94 160
59 93 154
59 92 143
60 95 160
61 95 160
59 94 152
60 95 160
56 89 137
59 93 158
57 91 139
58 91 146
59 93 152
58 92 141
56 89 137
58 92 144
59 94 159
60 94 148
58 92 142
58 92 150
58 92 150
58 92 146
59 93 148
59 94 159
59 92 148
59 93 148
61 96 159
60 94 156
62 97 166
60 95 157
58 92 151
57 90 142
60 95 155
57 91 145
58 91 136
60 95 149
59 92 147
59 93 148
59 93 144
57 91 140
61 96 156
58 91 140
61 95 148
58 91 145
57 91 143
60 95 153
59 93 150
56 88 123
60 94 150
54 86 126
59 93 147
61 95 156
59 92 147
60 95 157
58 91 142
59 93 146
57 91 141
56 89 132
59 94 155
57 91 143
57 91 134
61 95 153
59 93 152
60 94 152
59 93 142
57 90 128
58 92 140
58 92 140
61 96 149
58 92 144
59 93 148
58 91 147
58 91 135
60 93 140
60 94 150
59 93 146
57 90 132
58 91 132
55 88 130
59 93 143
58 92 144
58 91 130
57 90 132
55 86 124
55 87 125
86 96 58
101 110 0
112 124 0
111 121 0
105 115 0
99 108 0
88 94 0
112 120 0
104 114 0
99 107 0
109 116 0
108 114 0
106 115 0
86 93 0
104 113 0
109 119 0
105 111 0
100 105 0
96 105 0
119 129 0
123 131 0
110 117 0
123 132 0
114 125 0
105 119 0
126 137 0
109 118 0
122 129 0
114 118 0
120 129 0
119 127 0
110 119 0
122 131 0
110 119 0
128 138 0
121 132 0
117 127 0
125 138 0
120 130 0
123 130 0
113 117 0
114 122 0
124 133 0
110 121 0
130 140 0
120 129 0
121 131 0
119 125 0
138 153 0
103 108 0
119 126 0
127 136 0
140 152 0
132 143 0
136 149 0
128 141 0
133 147 0
127 137 0
122 133 0
128 141 0
132 142 0
133 144 0
132 145 0
128 140 0
134 144 0
129 142 0
127 134 0
126 139 0
126 136 0
136 147 0
121 132 0
130 143 0
133 147 0
134 145 0
137 150 0
130 141 0
130 143 0
139 154 0
141 156 0
142 158 0
136 148 0
132 147 0
134 149 0
134 146 0
137 151 0
129 141 0
134 147 0
141 156 0
136 151 0
133 147 0
143 158 0
143 158 0
141 155 0
139 153 0
143 160 0
130 142 0
141 155 0
139 153 0
151 168 0
141 157 0
137 152 0
137 153 0
146 163 0
139 153 0
135 149 0
137 151 0
141 152 0
142 158 0
137 153 0
149 164 0
141 157 0
136 150 0
154 174 72
161 182 62
156 176 80
159 182 108
151 170 51
157 178 80
157 177 72
159 181 36
157 177 36
161 183 95
151 172 51
156 178 72
152 174 95
163 183 36
151 171 72
156 176 88
148 169 51
150 171 62
153 174 51
150 170 62
150 171 80
153 173 62
159 180 80
146 167 80
153 173 51
157 179 62
154 176 51
151 172 72
155 177 88
155 176 36
162 184 88
155 175 62
151 172 51
146 168 80
152 174 72
159 181 108
158 179 62
156 179 80
155 178 102
145 166 62
148 169 62
153 174 72
153 175 62
149 169 0
146 168 72
145 167 80
146 166 51
150 171 62
151 173 72
153 175 88
156 178 102
154 176 80
148 170 72
148 170 62
158 180 95
151 172 62
154 175 80
160 180 62
147 167 0
148 169 80
162 183 72
140 161 80
147 168 62
154 175 62
149 171 88
150 168 80
149 171 62
148 168 36
154 176 80
148 169 62
153 174 51
153 174 72
162 184 102
148 169 62
153 175 72
147 168 80
150 172 51
150 172 72
154 174 108
156 176 80
148 170 62
150 170 72
144 161 36
145 167 72
143 161 62
151 172 62
157 177 88
145 166 62
147 167 62
150 170 80
121 144 102
87 115 148
76 105 144
87 113 148
107 132 152
83 111 151
78 107 151
109 134 151
75 102 143
83 110 149
102 127 158
97 121 143
93 120 149
82 110 156
97 123 149
74 105 150
98 123 157
79 106 145
71 101 152
91 117 134
79 110 158
81 110 167
79 110 176
73 105 173
73 104 166
67 100 169
66 100 171
57 92 157
60 94 161
58 93 161
60 95 164
59 94 160
59 94 158
58 92 152
59 93 156
57 92 158
57 91 149
57 91 147
58 92 155
59 94 157
60 92 145
60 93 141
56 88 143
57 89 136
60 93 148
63 96 151
60 92 138
59 94 153
58 92 148
59 93 159
57 92 155
57 91 147
58 93 147
56 90 146
60 96 160
58 93 156
57 90 150
59 94 162
58 93 150
58 93 156
60 95 159
59 93 154
58 93 159
60 94 156
59 93 153
56 90 146
57 90 136
59 92 144
56 89 132
59 93 153
58 92 142
56 91 147
57 91 138
60 94 154
56 90 146
57 91 145
58 92 147
58 93 144
57 91 142
61 95 156
59 93 148
59 92 148
59 94 153
60 95 153
58 91 144
58 91 152
58 92 144
58 92 150
60 94 158
60 94 153
59 93 148
60 95 162
59 94 155
61 96 163
59 93 155
57 91 151
59 92 147
59 93 148
59 93 152
58 91 141
60 95 160
58 92 154
59 94 152
58 92 145
59 93 152
59 93 142
60 94 158
59 93 148
58 92 150
61 96 160
59 93 150
58 92 151
57 91 148
57 92 152
58 92 150
60 94 150
61 96 160
57 91 139
58 92 148
60 95 162
60 94 154
60 95 160
60 95 160
60 94 152
59 93 146
60 94 154
61 95 141
58 93 148
59 92 146
58 91 144
59 94 157
60 94 154
60 94 154
58 91 144
59 92 146
59 93 155
58 91 139
59 93 152
58 92 146
60 94 155
60 94 157
59 94 153
60 94 150
59 93 155
61 96 159
59 93 146
58 92 146
57 90 144
58 92 149
59 94 147
59 93 151
59 93 151
58 92 140
58 92 140
60 95 155
59 93 149
59 93 144
58 93 149
59 92 145
58 92 147
59 92 145
59 93 142
59 94 155
59 93 148
59 93 143
56 89 136
61 95 156
57 90 141
57 90 136
59 94 152
60 94 155
56 89 131
59 94 150
58 92 147
57 91 139
61 95 151
59 93 148
57 90 138
57 91 142
60 94 149
59 93 144
58 91 142
59 93 144
58 91 139
59 94 144
62 96 149
58 91 138
57 90 131
60 94 148
59 93 140
59 92 143
59 92 144
59 92 143
60 95 153
57 89 137
57 90 129
59 92 146
64 89 111
88 94 0
104 114 0
92 98 0
99 106 0
113 120 0
106 112 0
93 100 0
102 110 0
90 95 0
108 116 0
116 126 0
108 116 0
116 125 0
124 134 0
116 125 0
108 118 0
123 134 0
113 123 0
108 117 0
96 105 0
111 119 0
112 119 0
112 118 0
118 129 0
103 110 0
113 122 0
113 123 0
118 129 0
115 123 0
113 123 0
103 113 0
112 120 0
126 139 0
113 122 0
110 119 0
106 116 0
121 129 0
131 140 0
125 134 0
112 121 0
132 141 0
121 129 0
123 132 0
121 129 0
133 145 0
129 141 0
120 130 0
122 132 0
124 134 0
131 143 0
120 127 0
133 145 0
122 130 0
119 129 0
124 135 0
127 137 0
124 131 0
126 137 0
116 126 0
139 151 0
134 148 0
123 134 0
120 130 0
138 149 0
132 145 0
131 145 0
126 137 0
132 144 0
131 144 0
130 142 0
131 143 0
131 144 0
137 153 0
134 144 0
139 153 0
129 142 0
133 149 0
144 161 0
131 143 0
138 152 0
127 141 0
133 146 0
130 141 0
137 151 0
140 155 0
148 163 0
131 143 0
146 162 0
139 155 0
138 152 0
141 156 0
138 153 0
136 149 0
140 155 0
132 147 0
138 152 0
130 145 0
146 164 0
139 153 0
138 154 0
145 160 0
136 152 0
143 159 0
138 154 0
143 156 0
147 163 0
143 159 0
135 150 0
148 166 0
139 155 0
140 157 0
144 159 0
160 182 80
157 178 72
154 175 72
150 172 80
158 178 62
160 181 88
157 178 62
156 177 80
157 178 72
154 175 88
154 175 62
154 176 80
158 180 80
157 179 80
155 177 88
157 178 80
157 180 72
150 173 62
160 183 95
159 181 72
156 180 108
153 175 62
150 171 51
152 175 80
153 175 36
157 178 72
150 172 72
153 174 51
149 172 114
147 167 36
156 177 0
157 179 72
153 174 62
149 170 51
152 172 51
151 173 102
143 166 80
144 166 36
155 177 72
151 173 88
151 173 72
153 175 62
155 175 62
153 174 62
152 173 51
153 174 72
154 175 80
148 171 114
150 171 72
150 170 62
150 171 80
144 165 72
156 176 80
141 162 62
154 176 72
153 175 80
157 180 114
149 169 72
152 174 88
149 170 80
153 174 72
148 169 72
147 169 72
153 173 80
139 160 36
149 170 62
154 174 72
159 179 72
149 170 62
149 170 62
151 172 72
147 169 72
147 167 36
150 172 95
148 169 80
152 172 72
147 169 72
145 165 36
151 172 72
138 158 51
153 173 80
153 174 80
149 169 72
154 174 108
152 173 95
148 167 62
150 171 80
146 167 72
147 168 51
151 172 114
150 171 92
75 103 136
96 123 153
86 114 150
97 122 145
97 123 150
81 109 156
96 121 146
84 112 148
94 119 152
95 120 145
95 120 152
83 111 154
86 113 150
88 113 136
86 114 152
111 134 161
86 113 138
83 111 154
79 108 143
90 117 150
80 110 166
73 104 164
73 105 179
60 95 164
78 108 175
78 108 168
60 96 167
61 96 165
59 95 162
59 92 147
58 93 151
62 96 160
59 94 163
58 92 158
58 93 156
56 89 143
56 90 147
58 92 155
58 91 149
59 93 157
57 90 144
58 92 153
63 94 138
67 99 150
60 92 135
55 88 145
55 88 135
56 90 148
58 92 149
59 94 154
59 93 154
58 92 144
58 92 156
60 94 153
59 93 156
59 93 153
57 91 147
56 90 141
58 92 146
58 91 145
57 92 152
60 95 158
58 92 150
60 95 163
57 91 152
58 91 144
57 90 141
56 90 138
60 96 164
57 92 153
58 91 151
61 96 157
60 95 161
59 94 161
58 92 151
57 90 142
59 92 152
60 95 165
57 91 155
59 93 146
57 91 146
59 93 146
59 93 153
57 91 140
60 95 162
59 93 150
60 95 160
59 94 160
58 92 150
59 93 152
59 93 156
60 95 162
58 92 153
58 92 152
57 91 144
60 94 158
57 91 148
59 93 156
57 90 141
58 92 143
60 94 148
61 95 156
58 92 152
58 93 154
61 96 154
60 94 154
59 93 150
58 92 144
58 92 146
58 92 150
59 93 150
60 95 162
59 94 152
56 89 135
59 93 152
60 95 162
58 92 150
60 94 152
60 95 158
59 94 159
59 92 150
59 93 152
59 93 154
59 94 156
59 93 150
59 93 154
59 94 157
57 91 151
59 93 148
59 93 153
60 94 146
59 93 155
61 96 160
58 92 148
58 92 146
62 97 152
59 93 155
57 91 149
59 93 146
58 91 140
59 93 148
58 91 145
57 91 141
60 95 155
58 91 144
60 93 151
59 93 149
59 93 151
56 89 133
57 91 141
59 93 147
57 90 142
59 92 144
59 93 155
60 94 147
57 90 143
57 90 140
59 92 145
59 93 151
59 93 147
60 95 159
57 90 142
56 88 126
59 93 148
59 93 148
61 96 151
60 94 150
59 94 148
60 94 156
59 93 148
57 90 132
59 94 157
59 94 144
60 94 150
58 92 147
57 91 133
59 93 147
58 91 140
56 90 130
57 90 138
58 91 132
59 93 152
58 91 145
61 95 154
60 95 149
59 93 151
57 89 129
60 95 146
55 87 123
61 96 155
61 95 151
60 94 147
56 87 128
55 87 127
57 89 126
56 89 129
80 96 62
105 114 0
116 124 0
107 115 0
115 125 0
119 128 0
109 119 0
108 119 0
115 124 0
100 107 0
107 117 0
97 106 0
113 122 0
114 122 0
123 136 0
116 128 0
109 119 0
114 121 0
112 122 0
110 116 0
107 114 0
111 118 0
97 105 0
126 136 0
97 102 0
115 123 0
128 140 0
99 107 0
105 112 0
101 109 0
102 111 0
111 117 0
122 132 0
111 118 0
114 121 0
118 129 0
109 117 0
128 141 0
124 135 0
122 130 0
110 117 0
129 140 0
120 129 0
113 122 0
113 121 0
121 130 0
117 126 0
125 134 0
132 141 0
107 115 0
118 125 0
108 115 0
132 144 0
140 154 0
125 135 0
132 144 0
140 154 0
127 139 0
124 138 0
128 140 0
133 145 0
131 139 0
130 140 0
137 151 0
137 151 0
125 137 0
122 134 0
133 146 0
130 144 0
134 144 0
137 150 0
137 150 0
140 156 0
139 152 0
140 154 0
137 151 0
132 146 0
136 149 0
135 147 0
141 157 0
142 155 0
137 150 0
134 149 0
131 142 0
141 157 0
144 158 0
142 156 0
137 150 0
146 165 0
138 152 0
140 154 0
147 163 0
136 150 0
143 160 0
145 161 0
143 157 0
142 157 0
136 150 0
141 157 0
150 167 0
137 153 0
147 164 0
151 167 0
133 145 0
144 160 0
146 161 0
140 157 0
148 163 0
149 165 0
147 166 0
145 162 0
141 157 0
141 158 0
150 170 36
159 180 88
156 178 95
150 171 51
157 178 80
153 174 80
155 176 72
162 184 88
154 176 72
158 180 88
156 177 62
160 182 102
159 182 95
153 174 62
155 177 95
162 185 80
154 175 102
150 171 0
148 169 72
154 176 102
149 170 80
149 170 80
154 176 80
152 173 62
157 178 88
156 176 51
153 172 51
153 173 51
156 177 51
152 174 72
153 173 62
147 168 51
149 170 62
152 173 72
152 174 80
145 166 80
158 180 62
152 174 95
149 170 51
146 168 51
153 174 72
155 176 51
150 171 51
152 172 51
155 176 88
158 182 102
145 168 95
152 173 62
152 173 62
146 169 80
153 174 102
146 167 80
149 169 0
161 185 102
145 165 72
155 177 88
157 179 72
143 164 80
149 171 95
150 172 62
152 174 80
145 166 80
149 170 62
151 172 88
151 171 72
150 171 108
149 170 62
153 173 80
155 176 62
152 174 72
155 177 72
146 167 51
150 170 62
151 171 72
145 166 62
145 165 72
151 172 62
157 177 95
151 172 95
154 175 80
152 173 102
147 168 88
150 171 72
148 168 80
152 172 102
147 166 62
150 170 72
155 175 72
146 165 51
158 178 80
156 177 88
125 147 121
91 117 129
86 112 145
88 114 143
102 128 163
97 122 144
85 112 149
93 118 144
107 133 174
85 113 158
90 115 146
86 112 152
84 110 133
90 117 155
79 108 147
90 117 153
83 111 138
72 102 141
92 118 152
81 111 164
73 103 163
75 106 161
72 103 172
78 107 165
73 104 166
66 100 171
74 105 173
57 92 154
60 95 166
60 95 160
61 96 158
58 92 152
58 92 155
58 92 157
58 92 155
58 92 148
60 94 160
57 90 139
58 91 149
57 91 149
56 89 146
56 90 146
66 97 146
61 93 142
60 92 149
66 97 140
56 90 144
58 92 154
57 90 143
57 90 146
57 91 145
55 88 144
58 92 151
56 90 144
57 91 148
57 90 145
56 89 134
56 91 149
58 93 140
57 90 148
58 92 148
59 93 149
58 92 145
59 94 157
58 92 154
58 92 138
57 91 147
60 94 157
58 92 147
58 93 151
58 92 151
58 92 152
59 93 151
58 92 149
56 89 140
58 93 157
56 88 137
55 88 134
58 91 148
56 90 145
58 92 154
58 92 148
59 93 151
57 90 135
58 92 154
59 93 146
59 93 152
59 93 154
58 93 150
58 91 142
55 89 141
59 93 148
59 92 146
60 95 158
60 95 150
59 93 150
59 94 160
59 94 158
58 91 146
58 92 151
59 93 152
57 92 150
58 92 148
60 94 156
58 92 150
58 93 154
58 91 141
59 93 146
57 92 148
57 90 139
58 91 148
57 89 135
59 93 154
58 93 152
59 93 150
58 92 146
57 91 137
60 95 156
60 94 150
59 93 150
60 94 148
56 89 137
57 90 137
61 95 160
58 92 148
60 94 156
59 93 148
57 91 142
57 90 137
61 96 163
58 92 150
60 95 163
58 92 147
60 94 154
60 94 154
58 91 147
58 92 146
60 94 153
60 94 151
59 94 146
58 92 144
57 90 140
58 92 146
59 94 149
58 91 144
58 92 149
59 93 145
57 91 145
62 97 159
58 92 147
60 95 161
59 93 147
58 91 142
59 93 153
58 93 150
57 91 141
56 90 137
59 93 147
58 91 138
59 93 150
59 93 145
59 93 152
57 91 132
58 92 147
60 94 148
56 90 137
60 95 159
61 96 162
60 94 148
61 95 157
56 89 131
58 92 144
58 92 144
57 91 141
59 93 142
58 92 141
58 92 140
56 89 133
59 93 147
56 88 131
59 92 133
58 91 137
56 89 136
58 91 142
58 91 140
58 91 142
56 89 127
57 90 136
57 90 135
57 91 138
59 93 147
58 92 132
58 91 132
59 92 146
56 88 132
57 89 133
107 116 0
94 102 0
110 120 0
98 108 0
100 108 0
86 94 0
115 123 0
111 121 0
102 112 0
105 115 0
100 108 0
112 121 0
104 112 0
123 135 0
123 135 0
106 115 0
124 133 0
101 113 0
105 111 0
112 123 0
121 131 0
107 114 0
106 115 0
125 134 0
120 126 0
121 131 0
119 129 0
123 135 0
121 132 0
121 130 0
112 121 0
100 109 0
102 111 0
109 117 0
113 120 0
119 130 0
121 130 0
110 120 0
125 137 0
120 132 0
124 136 0
125 135 0
125 138 0
116 128 0
127 137 0
128 138 0
131 142 0
140 151 0
124 135 0
122 132 0
122 131 0
129 142 0
121 133 0
121 134 0
128 141 0
129 142 0
129 143 0
126 135 0
127 139 0
135 144 0
133 144 0
137 149 0
130 140 0
129 140 0
122 133 0
136 148 0
140 155 0
137 151 0
134 147 0
128 140 0
142 157 0
126 138 0
124 136 0
129 141 0
131 144 0
131 145 0
136 149 0
129 140 0
131 146 0
127 143 0
145 159 0
136 149 0
132 147 0
145 160 0
139 157 0
131 147 0
133 146 0
136 149 0
138 154 0
144 158 0
134 146 0
145 160 0
136 151 0
145 160 0
139 155 0
141 156 0
144 160 0
139 154 0
142 157 0
138 155 0
142 158 0
144 160 0
142 159 0
146 162 0
135 148 0
140 156 0
138 154 0
146 161 0
140 157 0
142 157 0
140 159 0
140 157 0
145 163 0
149 170 62
157 178 62
151 172 51
156 177 80
153 174 72
165 187 95
153 175 88
155 177 72
150 171 80
160 180 72
153 174 51
149 170 51
153 174 62
152 175 62
150 171 51
152 173 51
157 179 51
148 169 62
149 169 51
148 169 80
157 178 80
156 178 80
160 183 114
157 179 95
156 178 80
153 174 62
152 174 80
147 169 72
148 168 62
155 177 62
152 174 88
161 182 88
154 176 72
155 177 88
147 168 51
150 172 88
151 173 62
151 172 36
154 175 62
142 164 80
145 167 80
141 162 36
147 168 72
149 170 36
150 170 62
146 166 0
144 166 80
153 174 88
149 169 36
149 169 51
155 176 51
152 174 72
145 165 0
155 176 80
148 169 80
149 170 51
154 175 88
155 176 72
153 173 62
152 173 72
148 170 72
140 160 62
156 178 114
150 171 72
154 174 80
147 168 72
153 174 88
147 167 36
143 163 51
151 173 72
152 174 102
146 165 62
151 172 80
139 159 36
156 176 88
155 176 72
148 168 62
148 168 62
149 169 80
154 175 88
151 172 51
145 165 0
147 168 88
152 172 62
147 167 51
152 174 80
148 167 72
144 163 62
151 171 95
148 169 62
143 162 62
149 171 109
91 118 148
86 114 142
82 109 139
98 123 157
82 110 151
89 114 135
73 101 143
103 128 164
102 126 143
92 118 153
95 122 157
93 119 150
91 117 152
69 98 127
86 114 157
90 117 149
91 117 147
98 123 144
76 104 143
87 113 139
83 110 149
87 115 165
78 108 173
72 103 164
84 113 177
84 113 175
66 99 169
60 94 156
60 95 163
60 95 164
59 94 159
60 96 164
57 92 151
62 94 147
57 91 153
57 92 159
59 94 156
56 89 134
58 92 149
55 89 148
60 94 155
55 88 139
56 89 143
64 96 149
57 90 156
56 89 146
60 93 146
54 86 134
55 88 136
57 90 144
60 95 162
56 88 143
57 90 137
57 91 144
56 89 131
59 93 150
57 91 149
57 91 150
58 92 150
57 91 149
58 92 149
59 94 158
57 90 145
59 93 151
57 90 143
58 91 145
60 95 168
58 91 144
58 93 154
59 94 153
60 94 144
60 94 158
58 92 134
56 89 137
59 94 157
56 90 145
58 92 152
57 90 139
57 91 144
59 94 152
58 91 140
59 93 155
58 92 148
60 95 158
58 92 149
59 93 149
58 91 146
57 90 144
57 91 144
57 91 149
58 92 152
61 97 166
58 92 152
56 89 137
57 90 139
58 92 150
57 91 144
60 94 156
57 91 140
60 94 154
60 94 158
59 93 154
58 92 152
59 94 154
59 93 148
58 91 146
58 92 150
59 94 159
59 93 152
57 91 139
57 91 144
59 93 155
56 89 135
60 95 161
55 87 135
60 94 159
60 95 160
60 95 152
57 90 142
57 91 139
58 92 144
60 94 154
58 92 146
59 94 156
57 91 144
59 93 148
58 92 150
58 92 150
59 94 157
59 93 150
59 93 146
58 93 153
60 94 154
60 94 151
60 95 157
59 93 153
58 91 142
57 90 140
56 90 138
57 90 144
56 88 130
59 94 146
57 91 140
59 94 151
60 93 149
59 93 151
61 96 160
60 94 155
58 92 133
59 93 149
58 91 144
58 92 149
58 92 147
59 93 151
59 93 151
61 95 153
59 93 147
58 92 145
59 93 149
59 93 143
60 94 144
59 93 150
59 93 148
55 87 129
59 93 150
60 94 154
60 94 147
56 89 130
57 91 141
61 96 159
59 93 144
58 92 144
57 90 136
60 94 147
57 91 141
58 92 142
58 91 145
60 94 151
55 86 114
57 91 138
59 94 150
57 90 130
57 89 133
57 90 136
56 89 132
62 96 140
58 91 135
57 89 134
55 87 124
59 92 138
56 88 125
58 91 132
55 87 113
60 95 145
71 94 101
115 127 0
107 116 0
102 113 0
102 111 0
95 105 0
101 109 0
126 138 0
110 120 0
99 104 0
115 124 0
101 109 0
110 120 0
112 122 0
113 122 0
100 106 0
114 126 0
112 122 0
99 110 0
112 124 0
111 119 0
118 127 0
103 110 0
112 123 0
112 122 0
114 124 0
118 128 0
97 102 0
116 122 0
107 114 0
106 113 0
117 125 0
127 137 0
105 116 0
121 131 0
113 124 0
108 119 0
124 135 0
118 130 0
122 129 0
118 128 0
126 137 0
120 131 0
115 126 0
115 122 0
129 142 0
127 139 0
129 138 0
121 132 0
128 141 0
125 135 0
131 144 0
129 141 0
140 154 0
125 135 0
141 153 0
135 149 0
132 145 0
133 145 0
117 126 0
126 137 0
133 146 0
128 142 0
131 145 0
138 147 0
126 142 0
132 146 0
131 141 0
137 149 0
129 138 0
127 137 0
133 144 0
128 141 0
137 150 0
132 144 0
133 145 0
132 146 0
139 152 0
135 148 0
142 156 0
126 139 0
136 151 0
133 148 0
132 145 0
131 143 0
130 146 0
141 156 0
137 154 0
142 154 0
141 160 0
139 155 0
134 149 0
135 149 0
137 153 0
146 163 0
138 154 0
145 161 0
144 161 0
143 158 0
132 144 0
137 153 0
141 157 0
150 166 0
153 169 0
135 150 0
143 156 0
147 163 0
140 158 0
150 168 0
151 166 0
144 162 0
145 163 0
147 165 0
142 159 0
156 176 62
160 182 51
155 177 80
160 181 72
152 173 51
148 169 51
153 175 88
157 179 80
157 178 72
157 179 72
149 171 62
151 173 88
153 174 62
152 173 80
157 179 72
152 173 80
153 174 51
156 177 88
156 178 80
157 179 72
152 174 72
150 169 62
155 177 80
152 173 51
147 168 36
147 169 72
154 175 51
156 178 72
151 171 72
148 168 72
156 175 51
150 173 95
157 179 95
155 177 72
156 177 88
152 173 80
154 176 88
151 171 51
145 167 80
152 174 72
154 175 80
147 168 51
151 172 72
152 174 108
145 166 72
151 172 95
156 178 72
151 173 72
150 172 88
145 166 51
145 168 95
147 169 80
156 177 62
147 169 80
151 173 88
153 174 108
150 172 72
147 169 80
153 175 62
140 162 51
149 170 62
145 167 62
152 173 51
153 174 88
145 166 80
150 171 51
157 179 72
149 169 36
146 168 72
149 170 51
150 171 62
147 168 72
147 167 80
149 170 51
142 161 51
147 167 72
143 164 72
152 173 88
148 169 80
148 169 88
151 172 88
142 163 80
148 169 80
152 172 80
147 168 102
144 163 51
140 161 51
146 167 62
142 162 80
147 166 72
155 175 88
152 172 102
108 127 92
78 106 137
96 120 143
96 120 137
86 112 150
86 113 144
92 117 148
88 115 152
95 119 139
93 120 152
86 112 144
92 117 154
89 116 147
90 117 158
88 116 146
94 119 141
97 123 149
83 111 152
86 113 146
86 114 146
76 105 145
94 120 142
74 106 174
78 108 168
77 106 163
72 103 164
89 117 177
66 99 162
59 94 160
59 93 157
58 92 150
56 90 149
57 91 152
59 94 159
57 91 152
58 92 153
58 92 158
57 90 141
54 87 144
59 92 149
58 92 150
60 95 149
56 90 153
64 95 145
59 93 160
66 95 132
59 93 149
56 89 141
61 95 159
56 89 134
57 91 145
61 96 159
58 91 150
59 93 152
58 92 144
58 91 152
56 89 129
54 87 136
57 91 150
61 96 161
57 91 142
57 90 145
58 91 149
56 90 143
58 92 149
56 89 135
57 91 138
59 93 155
61 96 153
59 92 152
56 89 136
59 93 155
59 94 153
59 93 156
58 92 153
59 93 151
57 91 144
58 91 146
58 91 137
55 89 138
59 94 152
58 91 144
60 94 146
59 94 154
58 93 157
59 93 151
57 90 143
58 92 153
57 90 140
59 93 156
59 94 153
59 93 151
60 94 148
56 89 142
59 93 154
58 92 151
58 92 148
59 93 148
58 93 144
56 90 146
57 91 144
58 91 141
56 89 137
61 95 158
59 93 154
58 91 146
58 92 150
60 95 150
60 94 156
59 93 158
57 90 144
60 94 156
58 92 151
58 92 152
58 92 146
57 90 142
60 95 160
58 91 144
60 95 161
60 94 154
58 92 146
60 94 156
56 89 137
60 94 146
59 93 154
58 92 142
59 93 154
59 92 144
58 91 146
59 94 155
61 95 156
57 91 142
59 93 153
58 91 144
59 92 146
58 92 151
57 91 140
60 95 157
58 92 138
60 94 155
60 95 155
59 93 153
60 95 157
59 94 147
61 96 161
59 93 154
57 90 138
59 93 151
57 89 135
58 92 135
60 94 149
58 92 143
58 91 143
58 92 144
58 91 143
57 91 144
57 90 142
60 95 143
58 92 145
60 95 150
61 95 157
58 92 139
57 91 139
60 94 149
59 93 143
60 94 150
61 95 153
59 92 142
59 92 142
62 97 161
59 93 145
58 90 141
56 89 134
59 93 148
59 93 145
59 92 148
59 93 133
59 92 142
56 88 125
57 89 138
57 89 129
57 90 137
57 91 142
59 93 148
59 93 145
57 90 135
58 91 138
57 90 138
56 89 127
57 90 140
58 92 143
57 90 127
58 91 140
56 88 124
87 99 69
102 111 0
100 107 0
112 123 0
114 126 0
101 114 0
111 121 0
96 104 0
102 112 0
107 115 0
111 120 0
104 114 0
105 113 0
97 109 0
114 123 0
103 115 0
114 126 0
117 127 0
100 108 0
122 132 0
111 122 0
130 143 0
114 123 0
101 113 0
121 134 0
103 113 0
111 121 0
116 129 0
108 115 0
116 125 0
111 123 0
116 124 0
117 127 0
139 152 0
116 125 0
111 121 0
107 114 0
117 125 0
115 127 0
120 127 0
108 115 0
102 108 0
114 124 0
128 139 0
138 153 0
123 133 0
129 139 0
121 133 0
132 143 0
133 143 0
121 134 0
120 129 0
138 151 0
130 143 0
127 137 0
129 139 0
129 141 0
123 130 0
140 154 0
129 140 0
121 133 0
133 142 0
136 147 0
128 141 0
128 140 0
130 142 0
134 147 0
127 139 0
127 140 0
130 143 0
135 148 0
138 150 0
137 153 0
133 148 0
130 143 0
147 163 0
126 135 0
131 144 0
145 160 0
131 143 0
144 160 0
130 143 0
144 162 0
131 144 0
134 150 0
134 146 0
144 158 0
133 148 0
140 154 0
144 159 0
135 146 0
145 161 0
149 165 0
138 154 0
140 155 0
146 163 0
149 164 0
139 155 0
144 157 0
141 157 0
146 162 0
153 169 0
136 151 0
152 170 0
144 158 0
138 157 0
141 156 0
141 157 0
134 150 0
150 165 0
143 160 0
146 162 0
139 156 0
130 145 0
151 172 51
158 180 72
155 176 51
153 175 72
150 171 62
151 172 51
155 175 72
159 181 108
151 171 51
156 178 95
151 172 51
159 180 95
158 179 95
155 177 72
150 171 51
157 178 80
154 175 72
152 172 62
158 181 95
158 179 62
154 175 80
151 173 72
152 173 62
154 176 80
151 172 62
159 181 88
158 179 80
149 171 36
154 176 80
155 176 62
148 169 62
153 175 72
152 175 95
148 171 88
157 177 62
145 166 51
155 176 80
147 167 72
150 172 72
146 168 72
152 174 72
153 174 62
150 171 88
152 173 62
146 168 88
150 172 72
147 168 51
150 170 80
150 172 72
148 170 80
157 178 80
153 174 72
150 172 72
142 162 51
149 170 72
147 168 72
155 176 88
141 163 72
145 166 72
152 174 80
147 168 62
148 171 88
151 172 72
144 165 62
151 171 72
138 160 62
149 170 72
149 171 102
157 179 102
156 176 102
144 164 72
147 168 51
156 174 51
144 165 72
146 168 72
149 168 51
148 168 62
150 171 62
143 164 72
146 167 51
148 169 72
144 164 36
152 171 88
145 164 36
146 166 62
151 172 95
147 165 51
141 161 62
148 168 72
142 163 80
147 167 95
148 167 88
130 149 80
92 118 147
82 110 132
81 109 150
70 99 138
86 112 148
85 110 133
99 124 139
83 110 130
91 117 147
91 116 155
70 98 127
94 120 145
91 116 136
96 122 153
88 115 155
72 103 144
77 106 136
89 114 129
79 107 147
81 109 137
93 118 141
78 106 146
67 100 164
88 116 176
73 103 168
79 108 166
72 103 162
61 96 162
59 93 150
57 91 148
59 93 157
60 96 167
57 91 151
58 93 154
59 94 162
59 94 162
59 93 158
57 91 147
59 92 150
58 91 152
56 88 130
57 90 146
58 91 147
59 92 142
59 91 142
58 93 148
58 90 138
64 95 146
60 94 153
58 91 137
58 92 152
58 92 146
59 93 150
58 91 143
56 88 136
57 91 139
55 87 137
55 87 125
57 90 144
56 90 143
57 91 147
57 90 143
54 87 140
58 92 146
56 89 136
57 91 148
58 92 147
59 93 149
60 94 154
58 92 143
59 94 149
59 93 151
59 93 155
58 92 149
57 90 147
57 90 139
61 96 157
57 90 141
60 95 161
58 92 148
57 91 147
58 92 146
59 94 160
59 94 151
60 95 157
56 89 142
59 93 155
61 96 162
59 93 147
58 93 155
56 89 137
58 92 151
58 92 144
59 94 157
58 92 147
58 92 144
57 91 144
59 94 153
59 93 152
60 94 152
58 91 146
59 93 155
59 94 156
58 91 154
60 95 158
57 91 142
60 95 161
60 94 150
59 94 155
59 93 156
59 92 152
58 91 146
60 94 150
60 94 152
59 94 155
58 91 146
59 93 148
59 92 152
58 92 150
60 94 146
58 91 139
57 90 139
60 94 154
60 94 157
57 90 144
59 94 157
59 93 148
60 94 155
56 89 137
58 92 146
60 94 155
59 92 146
59 94 153
59 92 151
58 92 149
59 93 149
59 93 149
59 93 147
56 90 147
59 93 151
56 88 137
58 92 142
61 95 154
59 93 153
58 92 147
59 92 141
58 92 147
59 93 145
60 94 154
57 92 145
57 90 140
62 98 162
59 93 141
59 93 145
58 92 150
58 92 143
60 94 149
59 92 140
59 93 147
60 94 154
58 91 142
58 92 139
61 95 151
57 89 129
59 93 147
57 89 140
62 98 158
59 92 148
59 93 150
59 93 148
57 90 136
60 93 150
58 91 135
56 89 135
59 93 147
59 93 146
57 89 133
62 97 149
58 91 141
56 89 129
57 90 130
57 90 139
61 96 150
54 86 125
60 94 147
54 86 119
59 92 136
58 91 130
56 88 131
56 87 114
57 90 133
53 83 102
63 88 115
116 126 0
112 123 0
116 128 0
98 110 0
93 102 0
121 129 0
102 109 0
116 126 0
119 129 0
111 121 0
98 107 0
116 126 0
115 126 0
117 128 0
107 120 0
101 111 0
99 109 0
119 128 0
120 131 0
108 116 0
111 122 0
103 110 0
110 120 0
119 130 0
109 119 0
128 137 0
115 124 0
110 120 0
122 130 0
112 122 0
123 133 0
99 108 0
123 132 0
117 127 0
122 137 0
121 131 0
117 129 0
124 136 0
130 143 0
112 119 0
122 130 0
112 119 0
110 118 0
115 125 0
119 131 0
118 129 0
108 118 0
127 138 0
130 143 0
112 121 0
131 143 0
125 137 0
133 144 0
128 140 0
124 136 0
128 139 0
134 146 0
130 140 0
122 132 0
125 134 0
125 133 0
135 145 0
130 142 0
138 152 0
140 153 0
133 147 0
136 149 0
131 148 0
137 152 0
132 146 0
138 151 0
130 143 0
131 141 0
140 154 0
126 139 0
139 153 0
134 149 0
142 157 0
136 152 0
141 156 0
129 144 0
140 155 0
137 150 0
138 154 0
133 144 0
146 163 0
139 153 0
139 155 0
135 150 0
136 151 0
142 156 0
141 157 0
140 155 0
145 163 0
146 163 0
142 157 0
139 157 0
138 155 0
142 158 0
136 153 0
140 155 0
148 166 0
140 158 0
143 161 0
136 153 0
147 161 0
141 156 0
141 161 0
131 144 0
144 161 0
139 154 0
143 159 0
149 166 0
136 151 0
151 172 62
159 180 62
161 182 88
152 172 62
160 181 51
151 173 36
160 182 72
147 168 36
148 169 72
152 173 62
158 180 95
159 182 95
156 176 36
141 162 51
149 170 80
153 174 62
155 176 95
146 167 80
156 177 72
153 175 62
147 168 51
155 176 95
151 172 72
151 172 62
150 171 72
157 179 62
161 183 88
153 175 62
150 171 62
151 174 80
156 179 102
142 163 51
152 173 80
151 174 88
149 171 51
158 180 102
152 172 62
152 173 80
150 171 62
154 174 72
149 169 51
145 167 72
153 176 95
150 171 72
143 165 72
150 172 62
149 169 72
151 173 72
156 178 80
150 171 72
143 164 62
151 173 72
145 167 80
150 172 88
152 174 72
150 169 51
143 162 36
149 171 88
142 164 80
147 168 72
150 173 95
148 168 51
154 175 62
158 180 95
144 164 51
150 172 95
146 167 51
149 169 80
152 172 80
153 174 72
157 177 72
150 171 62
138 160 80
154 174 51
144 165 51
143 164 36
144 164 80
154 176 102
144 164 62
146 165 51
139 159 80
148 168 72
148 168 80
142 163 51
146 166 80
143 163 62
139 159 36
149 170 36
146 165 62
141 162 51
142 162 72
151 171 51
148 168 80
107 129 127
96 122 153
86 112 128
89 115 143
86 112 136
98 123 158
87 113 139
98 121 143
87 113 139
104 129 160
69 99 137
89 114 144
87 113 142
79 107 149
80 108 146
81 109 148
93 119 146
98 122 149
78 105 143
77 106 149
89 115 154
90 117 160
61 96 164
72 103 166
93 119 177
65 98 158
74 105 170
58 93 156
58 93 156
57 91 152
59 94 167
57 91 154
57 92 150
58 93 159
57 90 151
58 92 154
57 91 149
56 89 143
59 92 141
56 89 150
56 90 143
59 92 145
63 95 144
61 92 139
58 91 140
60 93 145
61 94 147
55 88 137
60 90 138
57 90 140
58 92 148
56 89 135
55 88 142
55 87 132
60 94 157
56 90 145
58 91 140
59 93 145
57 90 143
58 91 150
57 92 145
56 89 137
56 90 145
58 92 139
56 89 137
58 91 144
59 94 158
59 93 156
55 88 140
56 90 142
57 91 147
60 94 153
59 93 149
57 90 144
59 93 155
58 92 149
59 93 147
57 90 144
56 89 133
58 91 148
57 91 142
59 93 155
61 96 155
60 95 150
56 90 140
58 93 156
59 93 148
59 94 155
58 92 149
57 90 137
59 93 151
59 92 146
56 89 138
60 94 156
58 93 151
58 91 137
58 91 137
58 92 148
58 92 144
57 91 142
58 92 151
58 92 148
58 91 145
57 90 142
58 91 144
58 92 150
59 93 152
60 94 143
57 91 142
58 91 144
57 91 144
59 93 151
60 94 152
59 93 146
59 93 151
57 91 151
57 91 146
58 92 146
58 92 146
60 95 155
58 92 146
59 93 153
59 94 150
57 90 142
59 93 148
59 93 150
60 94 154
56 88 132
58 91 139
59 93 155
58 91 142
57 91 147
57 90 142
57 90 137
60 94 142
59 93 148
59 94 145
59 94 158
59 94 149
58 92 145
59 94 147
58 91 129
58 92 149
58 92 140
58 91 142
59 93 147
57 91 136
61 96 157
60 94 154
58 91 136
60 94 151
58 92 143
58 91 146
59 93 153
59 92 145
57 91 143
58 91 137
59 92 143
58 92 147
60 93 154
59 93 150
61 95 145
60 95 150
58 91 141
57 91 146
57 91 140
58 91 151
57 90 135
57 90 137
58 91 141
59 93 151
58 91 140
58 92 137
59 93 146
61 95 153
59 92 144
55 88 129
58 91 139
56 89 116
60 94 146
57 90 139
61 95 152
58 91 142
58 91 140
59 93 143
57 89 127
56 89 133
57 90 135
56 88 126
57 89 125
55 87 124
57 90 134
87 103 82
109 118 0
105 115 0
108 120 0
109 119 0
104 112 0
105 115 0
107 118 0
97 106 0
101 112 0
95 103 0
110 122 0
89 97 0
106 114 0
135 149 0
113 124 0
107 117 0
106 116 0
117 129 0
114 121 0
118 131 0
123 134 0
110 120 0
103 111 0
108 118 0
109 121 0
113 123 0
115 126 0
115 127 0
116 127 0
120 131 0
114 126 0
119 128 0
134 145 0
115 124 0
111 117 0
124 137 0
118 128 0
111 123 0
122 133 0
115 127 0
130 143 0
114 122 0
128 141 0
123 133 0
137 150 0
117 130 0
126 139 0
136 152 0
123 133 0
114 123 0
116 126 0
131 145 0
131 142 0
124 135 0
130 141 0
135 148 0
120 132 0
132 146 0
139 153 0
126 137 0
124 135 0
131 145 0
136 148 0
122 134 0
131 143 0
124 136 0
136 150 0
131 146 0
128 141 0
134 148 0
131 141 0
135 147 0
129 142 0
136 150 0
135 147 0
133 149 0
136 150 0
133 148 0
134 147 0
147 162 0
137 151 0
139 153 0
141 155 0
139 154 0
131 147 0
138 154 0
133 148 0
136 150 0
135 151 0
137 150 0
138 155 0
147 162 0
140 156 0
140 156 0
142 157 0
132 147 0
135 151 0
133 145 0
138 152 0
143 158 0
146 164 0
153 170 0
147 162 0
148 165 0
137 154 0
144 160 0
144 159 0
137 154 0
148 163 0
147 165 0
137 154 0
137 154 0
143 161 0
146 164 0
157 179 95
157 178 62
155 177 51
149 170 51
151 172 51
154 175 62
153 175 62
151 172 51
160 183 114
152 173 72
147 168 51
142 163 51
152 174 88
152 173 80
151 172 72
154 175 72
146 167 72
148 169 51
151 171 72
154 177 88
156 178 62
153 174 88
151 172 36
150 172 80
155 178 114
154 175 80
150 172 51
143 165 62
150 171 72
152 173 36
149 170 72
148 168 72
150 172 72
146 169 80
154 176 95
149 170 51
146 167 51
148 170 72
155 177 80
160 183 88
146 167 62
151 173 72
151 171 62
155 177 51
142 162 0
148 170 80
154 177 95
149 170 72
157 178 80
149 171 51
151 170 36
143 163 51
151 171 62
154 176 108
148 170 72
147 168 95
151 174 80
150 171 51
148 168 36
151 174 108
139 159 51
146 166 51
147 168 72
151 173 62
147 169 62
141 161 51
153 174 51
141 161 72
146 168 51
147 168 62
147 168 102
139 159 62
146 166 80
154 175 102
147 167 51
148 169 51
147 168 80
150 171 95
140 160 72
145 165 72
149 170 62
150 170 51
141 162 72
144 165 80
144 164 88
141 161 72
151 170 88
150 171 108
142 162 80
144 165 88
145 166 51
137 158 36
147 166 88
140 160 98
85 112 141
77 105 128
83 110 144
89 114 135
102 125 146
88 115 147
83 111 143
98 123 150
90 118 160
91 116 150
101 125 147
93 118 153
93 119 145
103 128 155
77 105 136
82 108 144
88 114 151
110 132 146
91 116 128
87 113 142
68 96 132
70 100 153
71 102 158
72 104 166
67 99 162
59 93 155
78 107 156
59 93 157
58 93 158
60 95 165
58 91 141
57 91 151
59 92 149
59 93 151
58 91 149
58 93 154
58 92 152
58 92 144
57 91 150
58 91 139
57 91 140
57 90 140
60 93 141
60 92 142
55 88 140
57 91 152
58 92 151
54 85 125
58 91 146
54 87 130
55 88 131
60 95 159
57 90 141
55 88 137
57 90 142
58 91 141
56 90 139
57 90 145
58 92 146
56 90 142
59 93 148
58 91 142
52 84 125
56 88 139
56 88 134
58 91 149
56 89 146
59 93 136
59 93 153
59 93 147
57 90 142
59 94 155
58 92 144
59 92 144
59 92 152
57 91 142
56 89 131
59 92 154
57 91 147
58 91 149
60 95 153
61 96 157
60 93 153
59 93 151
57 90 140
59 93 151
58 92 149
58 92 142
60 93 152
59 93 144
57 92 147
60 95 157
59 94 153
57 90 135
59 94 152
60 94 150
60 94 150
57 91 142
59 93 146
57 90 140
59 93 150
59 93 150
60 94 154
57 91 142
58 91 147
56 90 137
58 92 142
59 93 150
58 92 142
57 91 147
57 90 144
56 89 139
60 95 158
57 90 144
58 92 142
59 93 151
57 90 137
58 91 144
60 94 155
61 96 159
59 93 153
59 93 155
59 94 153
58 92 149
60 95 153
57 91 151
57 90 140
56 90 136
58 92 142
58 91 149
58 92 151
58 91 147
59 93 149
60 94 151
60 94 155
59 93 151
60 94 155
59 93 151
59 93 149
59 93 147
60 94 151
61 95 147
59 92 145
57 90 133
55 87 129
59 93 148
59 93 144
58 92 145
57 90 140
58 92 136
56 89 136
59 93 143
60 94 143
59 93 152
58 91 134
59 93 148
58 91 134
59 93 150
58 92 150
59 92 141
59 92 146
57 90 138
57 90 138
59 94 144
59 94 156
59 93 148
56 89 130
59 92 142
58 92 144
61 95 149
57 90 129
59 93 145
60 94 144
59 93 145
56 89 138
57 90 137
57 90 136
59 92 131
59 93 143
57 90 133
57 90 134
59 92 142
58 91 138
57 90 136
59 93 147
56 88 122
57 90 135
58 92 136
56 88 126
57 90 124
62 88 98
105 116 0
119 130 0
110 121 0
106 116 0
105 117 0
94 103 0
111 123 0
103 112 0
109 122 0
115 125 0
101 110 0
108 118 0
110 122 0
108 118 0
114 124 0
114 126 0
110 120 0
124 134 0
119 128 0
117 130 0
109 119 0
100 107 0
124 135 0
116 126 0
102 111 0
116 126 0
117 129 0
122 131 0
113 121 0
113 121 0
129 141 0
105 114 0
106 114 0
121 131 0
131 142 0
127 136 0
118 125 0
107 118 0
119 130 0
124 135 0
126 139 0
123 135 0
122 134 0
126 138 0
115 123 0
128 139 0
133 148 0
123 137 0
112 120 0
124 136 0
116 131 0
130 142 0
115 126 0
126 137 0
135 146 0
113 122 0
130 145 0
137 150 0
134 151 0
134 146 0
134 147 0
122 135 0
135 150 0
129 141 0
126 140 0
136 148 0
145 160 0
135 150 0
132 144 0
116 129 0
140 155 0
132 143 0
127 140 0
139 154 0
132 147 0
136 150 0
136 153 0
141 154 0
130 145 0
143 157 0
131 142 0
131 143 0
129 144 0
144 160 0
131 145 0
141 159 0
138 156 0
138 155 0
143 159 0
144 160 0
140 156 0
140 157 0
139 152 0
137 151 0
132 147 0
143 161 0
143 160 0
147 162 0
136 148 0
137 152 0
144 160 0
141 155 0
140 156 0
137 154 0
142 157 0
142 161 0
135 151 0
139 157 0
139 156 0
142 159 0
144 159 0
137 153 0
135 151 0
139 157 0
143 160 0
160 182 88
149 169 36
157 179 62
161 182 72
158 180 80
157 178 95
145 166 62
156 178 36
157 176 62
155 177 72
147 167 62
152 174 72
146 167 51
156 177 62
154 175 62
144 165 62
155 176 88
152 174 80
158 179 51
146 168 62
152 174 72
156 179 102
150 171 88
157 179 80
150 172 88
151 172 88
148 170 80
159 181 102
149 171 62
151 173 62
151 172 62
157 178 51
153 175 80
144 166 51
151 173 80
151 171 62
146 168 80
149 170 62
147 171 108
152 174 80
147 169 72
154 176 88
150 172 88
153 174 72
146 166 51
154 174 72
150 171 72
157 179 102
154 177 95
144 164 36
146 168 80
144 165 62
146 166 62
152 173 51
147 169 88
151 172 51
144 165 80
150 171 88
152 173 80
148 170 72
153 175 80
147 168 51
148 168 62
141 162 88
143 164 62
146 167 51
142 163 51
144 163 51
148 168 95
146 166 51
152 172 80
141 161 72
149 169 72
145 166 80
145 166 102
144 164 62
150 171 88
136 155 62
140 161 80
145 165 62
148 169 108
140 160 72
150 170 72
141 162 62
140 161 62
149 170 88
144 164 72
145 165 36
140 161 62
146 167 88
137 156 62
149 169 72
143 163 51
152 173 80
108 133 148
107 132 163
83 110 143
91 116 140
99 125 154
101 125 145
95 118 131
91 116 127
82 108 129
80 108 143
96 121 155
86 112 148
90 115 149
82 108 141
80 106 136
71 99 124
87 113 141
93 119 118
97 122 151
81 107 144
99 122 139
75 104 154
87 112 154
78 108 166
71 101 158
75 107 173
79 109 173
67 100 156
59 94 163
58 93 155
57 91 154
59 93 158
59 94 161
60 94 159
59 93 152
58 92 151
61 95 160
58 92 156
55 88 145
57 90 144
55 88 140
57 90 146
58 90 137
64 95 135
58 91 149
62 93 136
58 93 148
58 91 143
56 90 141
57 90 144
56 89 137
57 90 146
58 92 156
57 91 145
57 90 140
58 91 151
56 90 145
58 92 154
58 91 140
60 95 161
55 87 124
56 89 145
57 90 138
58 92 138
57 90 138
56 91 147
60 96 154
58 92 147
60 95 152
59 93 146
58 91 147
59 93 147
57 90 142
59 94 157
59 93 153
62 97 137
56 89 142
58 91 144
57 90 146
57 90 135
56 88 140
59 92 148
61 95 155
58 92 149
58 91 142
60 94 145
57 90 137
59 93 153
57 89 140
58 92 151
60 95 145
59 93 144
60 94 156
60 95 158
58 92 144
57 91 142
60 94 152
58 92 142
59 93 149
60 95 158
61 96 152
59 94 159
57 90 130
59 94 155
59 93 150
57 91 142
58 92 153
60 94 154
60 94 154
60 93 152
58 93 148
59 94 150
59 93 151
58 92 150
59 92 150
59 93 149
58 92 140
60 94 154
57 90 137
56 90 140
59 92 150
59 93 139
60 94 155
60 95 155
57 90 142
60 93 146
57 90 136
59 94 133
59 93 148
55 86 125
57 90 131
58 92 146
58 92 144
59 93 147
59 93 153
57 90 142
59 93 149
57 91 143
57 91 143
58 91 138
60 95 159
59 93 153
57 90 138
58 92 143
59 92 137
59 93 149
56 89 138
60 95 160
57 91 145
59 93 147
60 95 155
58 92 146
57 90 141
58 91 138
59 93 143
59 93 148
58 92 148
57 90 139
60 95 156
56 89 132
59 93 151
57 89 139
60 95 154
59 93 145
57 89 130
59 92 149
58 91 139
54 86 123
59 93 144
57 91 130
58 91 142
59 93 144
59 93 139
58 91 140
59 93 145
58 92 141
59 92 135
59 92 139
59 93 153
58 92 140
55 87 126
58 92 143
56 89 133
57 89 132
60 93 145
57 90 121
58 91 135
58 91 136
54 85 118
54 85 112
101 119 84
117 129 0
107 120 0
105 115 0
104 114 0
110 122 0
113 122 0
95 103 0
110 117 0
109 121 0
111 123 0
116 127 0
97 104 0
117 129 0
96 105 0
106 115 0
108 115 0
109 119 0
119 131 0
116 127 0
95 106 0
135 146 0
116 127 0
105 116 0
117 132 0
126 138 0
121 131 0
106 115 0
114 126 0
114 127 0
121 133 0
126 139 0
118 129 0
110 121 0
119 130 0
131 143 0
117 129 0
118 130 0
127 139 0
111 124 0
118 129 0
128 141 0
122 135 0
119 132 0
124 136 0
117 126 0
126 138 0
125 136 0
132 144 0
120 133 0
125 138 0
134 146 0
129 141 0
131 142 0
135 147 0
132 146 0
132 146 0
124 138 0
140 156 0
132 146 0
135 149 0
133 146 0
139 151 0
132 147 0
135 149 0
137 151 0
131 145 0
136 149 0
135 149 0
131 145 0
121 132 0
126 140 0
131 144 0
132 146 0
129 144 0
140 155 0
131 145 0
140 154 0
121 134 0
129 142 0
141 158 0
130 146 0
130 142 0
130 143 0
141 157 0
138 154 0
135 151 0
137 152 0
136 151 0
130 144 0
143 160 0
134 149 0
137 154 0
143 160 0
141 156 0
133 147 0
142 157 0
130 146 0
137 152 0
142 158 0
143 159 0
141 159 0
146 161 0
139 155 0
137 152 0
148 165 0
143 160 0
143 160 0
152 168 0
147 162 0
147 162 0
138 155 0
145 162 0
143 160 0
141 160 0
139 156 0
154 174 72
161 183 108
166 187 95
154 177 102
158 179 36
158 178 62
160 181 88
157 178 62
156 176 80
158 179 51
148 169 51
155 176 72
149 171 62
152 171 62
153 174 62
152 173 72
151 172 62
154 177 88
146 167 51
153 174 51
154 176 88
154 176 72
151 173 72
151 171 36
155 177 80
153 175 51
158 181 88
144 166 72
150 172 72
152 174 36
151 172 0
152 172 51
157 178 72
155 177 88
151 173 72
152 172 36
149 171 80
155 177 72
149 171 62
150 171 62
147 170 88
148 169 36
151 174 88
144 165 62
151 172 72
150 171 62
149 171 88
150 173 102
148 169 62
160 182 88
147 169 80
153 175 80
145 166 80
145 167 72
154 176 108
152 173 72
146 167 51
145 167 80
149 170 88
154 176 95
151 172 72
145 166 62
153 174 72
139 160 62
151 174 102
153 174 95
148 168 72
144 165 72
148 168 51
136 153 36
146 167 62
147 169 95
148 170 80
147 168 80
152 174 72
153 174 88
141 162 51
147 167 80
152 173 102
137 157 36
151 171 114
146 166 62
150 171 95
141 162 62
151 171 102
150 170 80
152 173 95
136 155 72
154 173 80
144 164 88
136 155 62
146 167 51
147 167 80
141 159 36
126 147 91
112 136 155
80 107 141
74 104 145
103 128 158
80 108 141
94 118 133
82 108 136
78 104 127
94 119 144
91 115 133
94 118 139
96 119 139
109 133 159
101 125 145
96 121 143
106 129 153
85 111 141
78 105 146
85 112 138
67 96 138
87 113 133
99 123 153
75 105 164
72 103 164
98 123 175
78 107 164
78 107 168
58 92 149
58 92 157
60 95 158
58 92 156
57 92 153
59 93 161
57 91 151
58 92 147
58 93 159
59 94 158
57 91 153
56 89 143
55 87 136
55 88 139
58 91 150
61 94 151
61 93 143
58 92 151
57 90 146
54 86 131
60 93 146
53 85 126
57 90 135
57 91 144
56 88 129
56 89 136
58 93 157
55 88 137
58 91 145
56 90 149
54 86 130
57 89 140
56 89 137
60 94 157
58 91 140
57 91 148
54 86 127
58 92 148
60 96 166
60 94 157
57 91 143
58 91 147
55 88 139
59 92 149
59 93 152
55 88 135
58 91 150
57 90 144
57 90 138
57 91 140
59 93 149
57 91 138
57 90 138
58 92 145
57 91 140
57 90 143
59 92 146
56 89 129
58 92 149
58 91 146
57 90 142
59 93 149
61 96 163
58 91 140
58 93 147
56 90 142
59 93 150
60 94 157
57 90 142
57 90 142
56 89 137
59 92 150
56 89 137
56 89 136
59 93 155
59 93 148
59 92 137
59 92 146
61 96 152
60 94 150
57 91 144
59 93 150
58 91 135
57 90 135
58 91 149
59 92 148
58 91 142
59 93 148
58 92 149
58 92 144
59 93 148
56 88 128
58 92 146
60 93 148
59 93 151
59 93 155
58 92 146
58 91 147
59 94 144
59 93 144
60 94 155
56 90 140
59 93 151
59 93 147
60 93 150
60 95 159
58 92 149
59 93 156
57 90 138
57 90 138
57 90 140
57 90 141
58 92 150
57 90 140
58 90 135
57 91 138
57 91 146
57 90 145
61 96 162
57 91 133
57 90 143
58 92 143
59 94 154
59 93 152
57 89 134
56 89 134
56 89 128
56 89 129
59 92 143
57 90 139
57 90 138
60 95 157
57 90 140
58 92 144
57 91 143
58 92 135
58 91 144
58 93 151
59 92 146
56 89 125
58 91 133
58 92 133
58 91 142
56 89 125
59 92 141
59 92 144
57 90 130
58 92 143
56 90 136
60 94 150
58 92 144
61 95 143
58 91 140
59 92 142
59 93 139
58 91 139
57 90 133
59 92 136
56 89 130
55 87 125
53 84 117
57 85 115
98 110 36
111 124 0
99 109 0
95 103 0
102 111 0
108 119 0
114 126 0
104 117 0
113 121 0
113 124 0
128 141 0
108 120 0
109 120 0
109 119 0
112 122 0
115 126 0
123 138 0
119 131 0
107 117 0
111 122 0
119 131 0
110 120 0
107 118 0
122 134 0
101 111 0
113 122 0
127 138 0
102 111 0
127 141 0
107 117 0
117 128 0
113 125 0
132 144 0
128 141 0
131 141 0
111 121 0
124 135 0
121 131 0
112 120 0
124 137 0
124 135 0
119 129 0
129 142 0
129 142 0
125 139 0
121 133 0
119 131 0
126 138 0
134 148 0
128 140 0
131 144 0
127 141 0
132 145 0
124 135 0
125 134 0
129 142 0
129 143 0
126 138 0
121 132 0
121 135 0
127 140 0
133 145 0
132 147 0
126 137 0
133 149 0
131 145 0
129 142 0
135 148 0
137 152 0
130 143 0
128 142 0
139 153 0
126 138 0
135 149 0
128 141 0
129 143 0
130 145 0
129 144 0
131 149 0
132 144 0
138 151 0
135 148 0
141 156 0
129 144 0
141 155 0
139 158 0
132 144 0
147 163 0
137 153 0
141 157 0
145 162 0
137 153 0
131 144 0
137 153 0
147 165 0
139 156 0
140 156 0
138 157 0
149 165 0
137 153 0
134 149 0
138 155 0
138 154 0
131 145 0
139 156 0
152 169 0
140 158 0
146 164 0
142 158 0
139 157 0
145 164 0
145 164 0
147 163 0
143 160 0
145 162 0
135 153 0
149 169 36
149 169 51
152 172 62
156 177 36
153 174 72
155 178 102
150 171 51
154 174 72
155 177 102
154 175 62
153 174 72
155 177 80
152 175 102
152 173 88
151 172 36
151 172 62
155 175 62
162 183 72
151 173 80
152 174 88
148 169 36
155 177 72
151 172 88
160 181 80
153 175 51
152 173 80
150 172 72
151 173 72
156 178 72
152 174 80
153 176 108
147 168 72
149 169 62
144 165 62
157 178 62
149 171 62
151 175 88
155 177 95
156 177 62
150 172 95
148 171 80
148 169 51
146 169 80
142 164 62
150 172 80
157 179 88
154 177 102
147 170 80
146 166 36
146 168 72
153 174 80
151 172 62
151 173 80
152 174 80
148 169 72
150 172 72
154 175 62
150 171 88
156 177 80
148 169 72
155 178 102
150 171 62
154 177 102
149 171 62
149 171 95
151 171 80
144 165 80
156 178 95
142 163 80
150 171 80
153 173 88
138 158 36
150 172 80
146 166 51
148 169 88
152 173 72
144 164 62
153 174 88
150 172 72
144 164 44
148 169 80
142 162 80
140 160 62
141 162 0
150 170 62
151 171 88
146 166 80
140 160 62
148 168 114
140 160 72
139 158 72
146 166 80
141 160 51
145 165 72
138 157 67
95 119 124
95 121 151
91 116 146
93 119 149
89 112 138
82 108 137
87 114 156
89 114 141
96 121 150
91 116 136
87 111 127
87 113 147
95 119 147
98 123 153
81 108 134
78 106 137
89 114 142
87 113 137
95 120 139
103 127 142
74 103 151
80 107 147
78 106 148
84 113 169
88 114 166
79 109 164
88 115 166
73 104 152
58 93 154
60 95 160
58 92 155
59 94 159
56 89 140
57 90 150
56 89 146
58 92 153
57 91 147
58 92 151
57 91 152
56 89 151
58 92 151
58 92 147
59 91 140
63 96 146
62 94 131
60 92 142
57 91 154
64 95 141
55 88 130
58 92 142
58 92 149
56 89 124
56 90 151
56 89 135
58 91 138
56 88 136
59 93 154
58 92 144
57 91 146
56 89 134
60 95 158
58 91 147
57 91 143
57 91 146
58 92 145
60 94 155
56 89 146
58 92 143
55 88 142
60 95 158
58 92 142
60 94 156
59 94 156
58 92 152
59 92 145
57 90 138
60 94 152
57 90 142
58 92 145
59 93 149
56 89 139
59 93 149
58 92 149
59 93 149
59 92 146
59 93 149
56 89 140
58 92 138
59 92 146
59 92 147
55 87 133
60 94 157
58 92 149
59 93 151
56 88 130
59 94 149
59 94 157
58 93 153
57 90 142
60 93 150
57 90 137
57 90 146
58 91 149
57 90 144
60 94 152
59 93 155
59 94 153
58 93 153
58 92 147
59 93 151
60 94 159
59 93 149
59 93 155
59 93 150
59 93 150
58 91 144
58 92 147
57 92 149
56 89 138
59 94 146
58 92 149
57 90 142
59 94 155
62 96 159
57 90 143
57 90 138
56 89 138
58 92 147
57 90 142
59 92 146
59 93 146
57 90 133
59 93 146
58 91 140
58 91 145
57 90 138
57 91 140
58 93 149
56 89 130
57 90 142
58 91 142
59 93 149
59 94 147
57 91 136
58 91 141
60 94 153
56 89 134
58 92 143
58 92 138
55 88 139
58 90 138
58 92 138
56 88 126
57 91 139
57 90 137
57 89 131
57 90 141
60 94 150
59 92 147
60 94 152
60 94 148
57 91 137
58 92 141
57 91 146
57 90 137
57 90 132
55 88 130
59 93 149
57 90 139
58 92 139
56 89 127
56 88 123
60 94 151
58 91 135
59 93 140
56 89 131
58 91 143
57 89 136
58 92 144
59 93 139
58 91 134
59 92 145
56 89 137
60 93 128
54 84 113
57 90 127
55 87 126
56 88 118
83 105 91
125 138 0
113 125 0
104 114 0
95 106 0
108 120 0
116 128 0
98 109 0
113 127 0
126 141 0
112 125 0
106 117 0
114 127 0
116 126 0
111 122 0
114 125 0
105 115 0
121 134 0
116 125 0
107 120 0
117 127 0
106 116 0
99 109 0
101 113 0
107 111 0
111 122 0
121 130 0
133 147 0
114 127 0
120 131 0
111 122 0
125 138 0
118 125 0
122 135 0
120 134 0
127 140 0
116 128 0
126 138 0
117 128 0
126 135 0
125 135 0
117 131 0
129 142 0
129 142 0
119 133 0
129 144 0
124 134 0
125 136 0
122 136 0
127 139 0
130 144 0
111 122 0
134 148 0
136 149 0
127 140 0
136 148 0
129 141 0
141 155 0
127 139 0
142 159 0
125 135 0
135 151 0
128 141 0
136 147 0
139 154 0
130 143 0
134 149 0
137 152 0
142 156 0
128 143 0
130 143 0
134 148 0
127 141 0
132 146 0
129 143 0
134 148 0
135 149 0
138 152 0
133 147 0
125 138 0
137 149 0
131 144 0
139 156 0
143 160 0
143 158 0
138 155 0
138 153 0
136 151 0
146 162 0
133 147 0
143 159 0
138 152 0
141 158 0
146 163 0
125 141 0
130 144 0
126 143 0
138 154 0
138 153 0
146 163 0
139 155 0
136 151 0
138 155 0
151 169 0
136 153 0
131 148 0
141 157 0
139 157 0
142 159 0
138 157 0
140 156 0
138 153 0
142 160 0
141 157 0
143 159 0
140 158 0
144 161 0
149 171 72
153 175 72
145 165 51
160 181 80
149 171 80
146 168 51
149 169 72
154 174 0
152 176 88
150 171 72
150 172 72
154 176 95
158 178 36
150 171 51
152 173 51
154 177 95
146 167 51
156 177 62
161 182 108
149 170 88
150 172 51
152 172 62
155 178 80
149 170 72
150 172 62
151 173 102
152 174 80
151 170 51
150 170 36
155 178 95
150 170 36
150 173 80
148 170 72
147 170 88
159 182 80
146 168 51
149 171 80
148 168 62
154 177 108
152 174 72
147 168 80
151 172 62
149 172 62
151 174 108
151 173 72
143 165 62
145 167 95
147 169 72
150 172 80
149 171 51
148 170 80
151 173 72
145 167 72
147 167 0
147 169 108
148 170 72
150 170 80
147 168 62
151 171 62
142 163 88
157 180 108
147 168 88
159 180 80
153 174 62
150 172 95
148 169 62
146 168 80
140 161 80
148 168 62
145 165 51
150 172 80
145 167 72
142 162 51
158 179 95
135 157 72
152 174 80
145 166 88
145 166 62
142 162 88
145 165 51
146 167 67
144 166 95
152 173 95
139 159 62
145 166 88
144 164 95
148 167 80
150 171 88
139 158 80
140 162 62
141 160 62
151 171 88
143 163 72
143 161 51
140 158 62
131 151 116
89 115 140
88 115 144
89 116 154
87 114 149
78 105 132
83 108 136
97 119 128
94 119 149
84 111 138
81 108 139
103 126 155
89 115 144
101 128 161
76 103 129
68 96 124
99 124 151
96 120 146
79 107 144
98 123 150
93 118 147
74 103 133
85 113 158
83 112 166
76 105 157
83 112 164
67 99 160
98 123 179
67 99 162
58 92 157
60 95 160
56 90 143
58 91 147
59 93 153
60 92 149
59 94 152
56 89 134
59 93 147
56 89 135
57 90 146
55 87 131
56 89 138
55 87 128
59 91 139
56 90 138
66 97 148
55 87 135
61 91 133
60 93 147
58 92 148
57 91 151
56 89 136
57 90 144
54 86 133
55 88 139
57 91 151
55 87 131
59 93 147
59 92 141
58 92 141
56 90 141
58 91 143
56 89 142
58 91 141
57 91 137
58 92 145
54 86 124
58 92 134
57 90 138
56 90 135
57 90 145
57 91 145
55 86 130
60 95 162
59 93 153
57 90 140
56 90 143
59 93 149
59 93 151
61 96 157
58 91 146
59 93 151
58 91 149
57 91 147
59 93 151
57 91 144
57 90 131
58 91 146
61 95 157
58 92 142
59 93 149
58 91 138
59 93 150
59 93 149
56 87 123
56 89 138
58 91 144
58 91 144
61 95 154
58 91 147
58 92 144
59 93 151
60 94 159
58 92 144
59 94 152
54 86 127
56 89 137
58 92 151
58 91 146
58 92 142
58 92 144
61 96 167
59 92 148
57 90 144
60 95 157
58 92 149
58 93 147
59 93 153
59 93 155
60 95 158
60 94 155
58 91 144
58 92 149
56 90 140
58 92 149
56 89 133
58 91 144
60 94 155
59 94 154
60 95 153
58 92 149
58 91 143
59 92 149
58 92 154
58 91 142
55 87 126
60 94 142
61 95 159
58 91 144
57 91 145
57 89 132
59 93 152
58 91 149
58 92 136
60 93 147
58 91 145
58 91 145
59 93 154
59 93 147
57 91 141
56 88 126
58 90 133
60 93 151
57 90 143
58 92 141
60 94 150
59 93 146
59 93 157
60 95 155
54 86 114
58 90 139
60 94 148
58 91 144
54 86 132
58 92 139
57 89 128
57 90 133
58 92 138
56 89 124
57 90 130
59 92 142
57 90 134
60 94 147
58 91 134
55 88 127
57 89 128
57 89 130
57 91 139
59 92 139
55 87 129
58 92 139
59 93 133
55 88 128
54 86 118
58 91 134
57 89 126
55 86 122
57 86 108
112 126 48
112 126 0
117 131 0
110 124 0
99 111 0
104 117 0
120 134 0
105 117 0
100 111 0
107 117 0
87 98 0
109 119 0
114 128 0
108 120 0
111 120 0
122 138 0
101 109 0
122 133 0
120 132 0
108 119 0
106 116 0
104 112 0
115 124 0
115 125 0
119 133 0
123 136 0
118 131 0
119 130 0
116 129 0
118 128 0
123 135 0
115 125 0
117 130 0
115 126 0
123 133 0
118 132 0
112 123 0
123 136 0
114 125 0
120 132 0
116 128 0
133 147 0
132 143 0
133 149 0
125 139 0
127 140 0
118 130 0
115 125 0
118 132 0
128 142 0
126 139 0
131 145 0
122 135 0
115 126 0
131 144 0
126 139 0
128 142 0
132 142 0
122 132 0
125 135 0
129 142 0
123 136 0
126 140 0
130 146 0
128 141 0
137 150 0
123 137 0
136 150 0
123 139 0
126 138 0
135 150 0
134 148 0
140 156 0
126 138 0
129 143 0
145 159 0
143 158 0
141 157 0
136 151 0
132 148 0
134 147 0
135 152 0
135 149 0
129 142 0
125 140 0
130 144 0
130 146 0
142 158 0
137 150 0
143 158 0
132 146 0
135 150 0
132 147 0
133 150 0
137 152 0
143 161 0
139 154 0
142 159 0
122 134 0
140 156 0
142 157 0
144 161 0
138 154 0
132 146 0
137 153 0
149 165 0
146 164 0
142 159 0
142 159 0
140 158 0
142 158 0
146 164 0
145 162 0
145 161 0
138 155 0
139 157 0
144 163 0
153 173 72
150 170 62
157 180 95
154 175 72
158 178 80
154 176 72
154 176 80
151 173 80
155 176 36
159 181 88
145 167 51
156 179 95
156 177 72
161 183 102
156 178 72
151 172 80
153 174 72
150 171 88
150 172 62
149 171 80
153 174 62
154 175 51
154 176 80
143 165 51
152 173 36
157 179 88
153 173 62
149 171 80
149 170 72
149 171 62
148 170 51
153 175 80
142 163 36
147 169 62
146 167 51
150 173 88
150 172 88
150 171 62
151 172 80
150 170 88
152 174 80
147 167 51
149 171 62
155 178 102
158 177 72
149 170 62
144 165 62
145 166 80
151 172 72
140 160 62
144 166 72
149 170 72
153 174 80
152 174 80
148 169 51
149 170 80
147 167 51
158 179 72
147 169 88
156 177 88
152 173 72
152 174 72
157 179 95
142 161 36
149 170 62
151 172 51
141 162 80
142 162 72
149 170 72
147 167 36
154 176 88
148 170 80
149 170 72
151 173 88
148 167 36
157 178 62
148 170 88
146 168 72
152 173 108
158 178 88
139 159 51
148 169 95
142 163 88
150 171 62
140 159 72
138 156 36
138 157 51
148 169 88
143 163 72
141 160 88
140 161 51
146 167 62
140 160 88
144 162 88
150 170 95
129 148 72
91 117 136
84 110 127
76 103 121
88 112 121
81 107 145
88 113 147
81 110 152
84 110 143
99 121 144
94 118 133
99 123 149
84 109 141
73 101 151
83 108 146
107 130 141
78 106 146
94 119 137
84 109 127
87 112 131
84 109 119
81 107 116
90 116 147
78 105 139
95 122 161
70 100 151
78 106 162
73 104 172
67 99 157
58 93 157
58 91 152
58 92 149
58 92 158
59 93 147
57 90 151
60 94 159
56 89 138
53 85 128
55 88 142
59 93 150
57 91 150
58 92 146
58 90 134
61 93 147
56 88 136
60 92 140
60 93 144
61 95 150
65 97 152
64 96 149
54 85 133
56 89 133
58 91 143
58 91 149
56 89 143
58 92 156
56 90 142
56 89 144
57 90 141
57 91 143
56 89 143
55 87 132
59 93 145
61 95 153
56 90 144
59 92 149
56 88 137
58 91 147
55 88 136
59 93 153
57 90 141
57 90 134
56 89 138
57 91 145
57 91 147
58 93 151
60 94 153
56 88 133
56 89 133
60 94 153
57 91 148
58 91 145
59 93 158
59 94 154
56 89 138
58 92 147
58 91 137
59 93 150
58 91 137
60 94 145
58 92 144
56 89 140
58 91 149
58 92 142
59 93 151
59 93 146
60 94 158
58 91 138
58 91 149
58 91 146
57 90 140
59 93 147
57 91 142
57 90 140
61 95 159
60 94 152
56 89 133
58 91 142
58 92 151
58 92 142
57 90 140
59 93 133
60 94 151
58 92 145
59 93 151
59 93 144
57 90 130
55 87 125
59 93 148
58 92 142
60 94 148
58 92 149
57 90 142
58 92 140
56 90 136
61 95 147
56 88 133
60 95 155
59 93 154
58 92 147
58 91 145
55 88 131
58 91 142
59 93 151
57 90 137
55 87 126
58 91 143
56 88 128
58 91 136
58 91 138
58 91 147
57 91 143
57 90 140
57 90 138
57 89 136
58 92 145
57 90 139
59 93 149
55 88 132
54 86 127
59 93 143
60 95 155
56 89 134
59 92 143
57 91 144
58 92 144
59 93 140
58 92 144
58 92 149
58 92 142
60 94 150
58 92 146
59 93 148
58 91 141
58 91 137
59 93 150
58 91 138
56 88 130
58 92 144
58 91 136
55 87 121
58 91 139
57 90 125
59 92 141
60 93 143
56 89 131
58 92 142
57 89 137
58 91 139
58 91 144
57 90 130
56 87 123
59 93 146
56 89 125
56 88 136
56 89 123
58 91 128
77 96 78
92 102 0
107 120 0
99 112 0
104 114 0
122 135 0
113 127 0
102 115 0
119 131 0
95 104 0
118 130 0
109 121 0
104 115 0
119 130 0
107 120 0
95 105 0
117 127 0
125 138 0
122 134 0
105 117 0
120 130 0
114 125 0
106 118 0
117 130 0
128 140 0
116 127 0
114 125 0
129 142 0
126 137 0
124 135 0
115 128 0
107 121 0
115 125 0
119 130 0
112 126 0
125 138 0
104 114 0
124 136 0
122 133 0
123 133 0
120 135 0
121 129 0
136 152 0
119 131 0
121 134 0
116 126 0
117 128 0
128 142 0
134 150 0
120 132 0
114 126 0
128 144 0
117 129 0
116 129 0
128 140 0
127 140 0
119 133 0
129 142 0
134 149 0
134 148 0
132 144 0
126 139 0
133 148 0
128 142 0
140 153 0
134 148 0
138 150 0
138 153 0
126 137 0
127 139 0
135 150 0
124 138 0
133 148 0
138 152 0
134 148 0
134 147 0
141 157 0
129 142 0
130 143 0
124 136 0
132 145 0
129 141 0
136 151 0
137 151 0
134 150 0
138 155 0
134 148 0
131 145 0
138 154 0
136 151 0
145 161 0
141 159 0
140 156 0
145 160 0
143 160 0
140 156 0
135 151 0
133 148 0
132 147 0
134 150 0
138 153 0
138 156 0
143 159 0
138 157 0
145 163 0
135 152 0
141 156 0
146 162 0
137 155 0
144 161 0
142 159 0
146 160 0
141 159 0
142 157 0
136 151 0
143 160 0
134 153 0
142 159 0
150 171 72
150 172 72
152 173 80
153 175 88
152 175 72
148 170 51
157 177 62
151 172 36
154 175 80
149 170 51
154 176 80
149 171 80
156 177 62
151 172 36
147 169 80
150 171 72
150 172 62
146 167 36
156 178 88
146 167 51
153 175 88
152 175 88
157 177 62
144 165 72
146 168 72
146 166 51
152 173 88
144 164 51
150 173 102
153 175 95
149 171 88
151 173 62
149 170 51
150 173 80
158 180 95
144 166 51
154 175 72
155 178 108
145 166 51
153 175 80
152 173 72
152 174 72
148 168 62
153 173 62
158 180 88
153 175 80
160 181 62
149 171 95
149 170 80
148 169 88
157 179 95
144 166 80
152 174 62
145 165 72
154 176 80
138 159 72
144 166 80
142 163 36
150 172 80
147 168 72
144 164 62
143 164 0
145 166 88
142 163 72
144 166 88
142 163 62
153 173 72
151 173 95
142 162 51
143 164 51
145 166 95
148 169 80
143 164 62
138 159 62
144 164 72
149 171 72
151 171 80
153 173 51
149 171 80
143 164 80
143 164 36
144 164 88
140 159 36
145 166 88
151 172 102
146 167 88
144 163 51
145 164 51
136 158 72
144 162 51
150 170 72
143 163 51
140 159 62
146 166 80
141 161 80
141 161 51
114 135 92
80 106 115
97 121 126
90 115 134
71 100 145
78 104 125
94 120 145
93 119 140
92 118 151
110 132 145
94 120 163
82 109 132
90 115 151
84 109 133
93 117 142
74 102 134
81 107 130
103 127 141
91 116 154
96 121 131
101 126 162
90 116 142
98 122 151
84 108 123
74 106 175
72 102 156
93 118 163
68 101 165
58 92 153
58 92 151
60 95 149
57 91 148
59 93 148
58 92 152
58 92 152
58 92 152
56 88 140
58 92 152
60 92 147
59 93 154
54 85 131
58 92 153
56 89 138
61 94 147
63 95 140
65 98 142
57 89 135
58 92 148
57 91 148
53 85 127
55 87 132
59 93 147
57 90 141
58 92 145
57 91 149
60 94 160
57 90 149
59 93 134
60 95 158
58 92 152
55 87 133
55 87 123
59 93 151
57 90 148
56 88 129
57 91 144
59 93 149
57 91 143
59 93 154
56 88 141
59 94 154
59 94 156
58 91 140
58 91 145
58 91 140
58 92 144
60 94 153
57 91 135
58 92 148
56 90 142
57 91 146
56 89 139
58 92 145
60 94 155
59 93 144
58 92 136
59 94 144
55 88 132
60 94 153
56 89 137
56 89 138
58 92 149
59 92 148
59 93 153
57 89 135
58 91 140
58 93 156
57 89 140
57 90 147
58 92 149
57 91 140
56 90 140
57 90 147
57 89 135
58 91 147
58 92 146
58 91 137
56 89 128
60 94 151
58 91 146
58 91 138
59 93 151
59 93 151
61 95 157
57 89 132
58 92 146
58 92 149
60 94 142
60 94 150
55 87 130
57 90 140
59 93 148
56 89 133
58 91 140
60 94 149
60 95 149
58 92 151
58 92 147
60 93 151
58 91 138
59 94 152
58 92 152
59 94 151
59 93 152
60 94 153
58 91 140
58 92 145
60 94 153
58 91 138
57 91 141
60 93 154
57 91 136
58 92 150
57 89 134
59 94 153
57 90 129
58 91 140
57 90 139
57 91 143
57 90 136
56 89 139
58 91 141
57 90 139
58 92 145
57 90 134
58 93 142
61 95 160
60 94 147
57 90 132
58 91 137
60 94 148
59 93 144
60 94 151
59 93 144
60 94 150
58 91 136
57 90 138
56 88 123
57 90 134
57 90 137
58 92 135
56 89 131
55 87 133
56 89 125
57 91 131
58 92 133
61 95 152
58 91 135
58 92 142
59 92 141
57 89 125
57 90 134
56 88 120
56 88 124
55 87 120
59 90 131
94 107 0
111 120 0
112 124 0
103 115 0
108 121 0
112 124 0
105 116 0
103 114 0
104 116 0
119 130 0
119 131 0
113 126 0
123 134 0
108 120 0
98 108 0
100 111 0
124 134 0
118 132 0
121 135 0
106 120 0
115 128 0
116 129 0
115 127 0
116 126 0
120 135 0
116 128 0
125 138 0
120 134 0
124 137 0
118 131 0
127 140 0
123 137 0
117 128 0
113 122 0
124 141 0
122 135 0
132 145 0
119 128 0
108 120 0
128 140 0
118 131 0
126 141 0
127 141 0
115 126 0
126 140 0
124 137 0
127 139 0
128 139 0
129 140 0
126 137 0
125 138 0
129 147 0
133 149 0
127 142 0
122 134 0
136 150 0
145 160 0
136 152 0
126 140 0
126 137 0
129 145 0
133 146 0
132 147 0
125 138 0
129 143 0
133 145 0
138 149 0
122 134 0
132 147 0
129 143 0
117 132 0
138 152 0
145 163 0
118 127 0
141 158 0
132 142 0
145 162 0
135 147 0
131 145 0
140 155 0
124 138 0
127 140 0
132 146 0
135 150 0
136 150 0
142 157 0
138 153 0
131 147 0
144 162 0
132 148 0
127 141 0
137 153 0
133 148 0
142 158 0
124 138 0
136 153 0
135 152 0
135 150 0
141 157 0
142 159 0
138 155 0
138 153 0
137 152 0
140 158 0
145 163 0
139 153 0
146 165 0
145 161 0
135 151 0
145 164 0
140 158 0
157 172 0
137 152 0
138 154 0
141 157 0
142 161 0
149 167 0
138 153 0
146 166 36
158 180 102
151 172 62
153 175 72
153 175 95
157 179 95
153 175 80
157 178 95
156 178 95
156 178 62
149 170 80
151 172 72
157 180 72
148 170 72
153 175 72
158 180 88
152 173 51
153 174 62
151 172 72
156 177 80
150 171 51
152 175 80
153 174 62
155 177 72
152 174 88
156 178 88
152 174 72
155 177 80
148 170 62
150 171 36
145 166 51
152 173 36
146 168 62
151 173 102
148 169 62
147 169 80
148 169 51
149 171 80
150 172 62
153 174 72
146 168 80
146 168 72
151 174 95
151 172 72
151 172 80
151 173 95
145 166 72
152 174 72
145 167 80
151 173 80
152 172 51
150 174 114
152 173 36
149 170 95
149 170 80
147 168 72
145 166 72
143 164 51
146 168 62
148 168 72
136 158 95
148 170 62
135 155 51
146 165 51
149 171 72
151 173 114
144 164 36
155 176 95
144 164 62
146 168 88
141 160 80
158 179 80
156 175 51
143 164 80
146 167 62
145 166 62
149 169 80
143 163 76
147 167 72
141 162 72
149 170 62
141 160 51
145 165 51
148 168 0
134 153 51
140 159 72
133 154 72
148 170 95
151 171 95
141 161 72
144 164 72
136 156 62
142 161 51
139 159 72
143 163 72
142 161 80
155 176 95
79 106 130
85 110 125
90 115 126
77 103 128
102 125 156
67 94 119
88 115 141
90 114 146
107 129 154
85 110 129
96 120 136
91 116 143
93 118 137
95 118 139
88 114 155
87 112 141
85 113 157
86 113 151
73 101 143
97 121 136
80 108 139
81 106 137
102 126 143
96 120 144
59 94 162
79 108 168
66 98 154
59 94 162
59 94 161
59 94 155
58 92 148
60 94 154
56 89 136
57 91 152
57 90 143
56 90 151
56 88 142
58 92 149
57 91 144
60 94 157
56 89 140
54 85 132
56 88 138
64 95 142
59 92 143
53 83 131
65 96 135
64 96 141
61 94 147
54 86 135
56 89 139
55 87 138
57 90 146
56 89 137
55 88 141
56 88 135
57 89 123
57 90 144
57 90 144
55 87 130
58 91 143
59 93 148
56 89 139
57 89 144
59 92 139
56 88 136
58 92 142
57 90 144
56 89 143
59 93 152
55 87 129
60 94 150
59 92 147
57 90 135
58 90 140
58 92 155
59 93 147
55 87 134
58 91 149
57 90 144
57 90 139
59 92 147
57 90 138
61 95 157
59 93 152
56 90 147
55 87 128
57 91 140
59 93 153
58 92 147
60 94 157
59 92 151
57 90 130
56 89 141
59 93 153
59 93 140
58 92 142
58 92 149
59 92 148
57 90 144
57 91 145
61 95 157
57 90 140
56 88 128
59 93 149
58 91 144
57 90 138
60 95 157
57 90 136
56 88 128
58 91 149
56 89 140
55 87 129
58 92 151
58 91 147
61 95 159
59 94 154
58 92 145
57 89 135
59 92 135
57 90 135
58 92 147
59 92 144
59 93 151
60 94 149
57 90 140
59 94 158
57 90 138
58 92 142
59 93 149
56 89 131
57 91 132
58 93 143
57 89 136
58 90 142
57 91 145
57 91 143
57 90 139
55 88 128
59 92 133
56 89 129
60 94 156
57 91 144
57 90 133
59 92 138
57 89 134
59 92 143
58 91 134
59 93 130
58 91 136
60 93 150
57 90 143
59 93 148
59 93 144
59 93 146
58 93 153
62 96 160
57 90 137
56 89 129
58 91 135
56 89 133
55 87 127
59 93 145
60 93 144
59 92 146
53 85 112
56 89 125
57 90 139
56 88 128
59 92 143
57 89 132
57 90 130
59 92 140
58 91 131
56 88 124
55 88 127
58 92 141
59 93 140
56 88 124
54 85 115
61 95 148
59 92 140
58 91 137
58 90 105
91 110 73
106 119 0
116 128 0
79 88 0
86 97 0
100 113 0
105 116 0
104 116 0
102 116 0
99 112 0
123 136 0
113 127 0
115 126 0
118 130 0
123 134 0
114 125 0
107 122 0
121 135 0
130 143 0
102 112 0
118 133 0
123 137 0
119 132 0
118 130 0
102 114 0
120 132 0
120 132 0
105 116 0
127 139 0
125 139 0
113 125 0
117 131 0
129 140 0
120 132 0
111 123 0
122 135 0
121 134 0
117 130 0
118 134 0
129 144 0
133 147 0
125 138 0
120 132 0
119 132 0
127 140 0
119 132 0
121 132 0
132 146 0
127 140 0
119 130 0
119 132 0
129 141 0
131 143 0
125 139 0
124 139 0
128 143 0
124 138 0
132 148 0
136 150 0
125 139 0
134 150 0
117 132 0
135 150 0
133 147 0
125 139 0
117 128 0
137 151 0
127 139 0
130 144 0
134 150 0
129 144 0
129 142 0
126 140 0
131 148 0
130 146 0
123 137 0
131 145 0
129 142 0
127 142 0
127 140 0
128 144 0
128 145 0
146 160 0
131 147 0
138 156 0
141 156 0
125 139 0
144 161 0
130 143 0
140 156 0
145 163 0
131 147 0
126 143 0
143 160 0
137 154 0
139 157 0
133 150 0
141 157 0
134 152 0
143 161 0
142 158 0
137 152 0
142 158 0
139 153 0
131 146 0
146 164 0
128 142 0
136 153 0
136 151 0
138 155 0
141 157 0
136 152 0
144 162 0
135 151 0
136 153 0
150 167 0
146 161 0
145 161 0
146 163 0
150 172 72
146 167 36
158 180 88
151 172 72
156 177 62
144 166 72
150 171 62
154 177 88
157 178 51
152 173 62
154 175 95
153 175 72
149 170 88
155 179 114
146 167 51
152 175 88
149 171 51
150 172 51
154 176 88
149 170 62
148 170 80
157 177 51
154 176 72
151 173 88
152 174 95
148 171 80
150 171 62
145 168 80
154 176 95
156 178 88
149 169 72
152 174 72
155 175 51
147 169 72
143 164 72
154 176 51
152 173 62
148 169 62
153 175 62
143 165 72
152 174 80
149 170 51
151 173 88
141 162 62
153 174 36
148 170 72
148 171 62
150 172 72
145 167 88
150 171 51
152 172 36
153 175 72
144 165 51
149 171 88
142 162 0
141 162 36
145 167 72
150 172 80
149 170 88
145 167 88
143 164 72
150 171 72
153 174 62
135 157 51
146 167 62
144 164 80
152 172 72
135 155 72
151 172 80
150 171 88
143 164 62
142 163 80
148 169 62
148 170 88
143 164 80
150 171 51
146 167 72
142 162 72
144 164 62
148 168 72
139 158 62
143 164 62
141 162 62
138 158 72
140 162 72
152 171 88
141 162 95
140 162 62
147 167 62
150 170 114
142 162 51
146 166 95
149 168 88
129 148 36
139 160 36
135 154 51
137 156 72
121 142 108
90 116 130
87 111 119
90 116 133
93 116 131
103 125 138
88 111 124
95 120 154
92 115 142
85 110 124
85 110 144
80 106 129
92 115 143
96 119 143
91 117 149
84 110 141
88 114 140
74 104 138
92 117 130
72 100 132
95 119 140
80 106 128
80 105 132
96 119 138
81 110 167
78 108 168
95 121 176
67 99 156
65 96 150
58 92 147
58 93 159
58 92 151
57 91 145
58 91 145
57 90 144
59 92 148
57 90 142
58 92 148
53 85 129
59 93 147
60 95 158
57 90 151
59 91 140
59 90 140
58 89 133
56 89 139
61 94 145
54 85 129
63 93 128
57 91 138
56 88 136
53 85 134
57 90 143
57 90 140
54 86 128
57 91 147
58 92 145
58 91 148
56 89 138
57 90 138
58 91 143
55 87 125
56 89 138
55 88 131
58 92 143
56 89 134
59 92 145
58 91 145
58 92 147
59 92 146
57 90 149
58 92 151
56 88 128
57 90 135
59 93 152
58 91 143
57 90 141
58 90 142
55 88 142
57 90 142
60 93 151
58 92 147
58 91 145
60 94 142
58 92 140
56 89 128
57 91 147
59 94 149
60 94 157
58 92 137
58 92 145
57 90 144
57 90 142
60 95 149
59 93 157
60 95 163
58 91 135
58 92 149
57 90 138
58 91 149
57 91 142
57 90 142
57 90 137
56 88 133
56 88 133
59 93 142
57 89 130
57 90 135
59 93 153
59 93 154
58 92 137
57 89 137
56 89 133
59 93 151
58 91 144
58 92 138
60 94 150
59 93 149
59 92 144
58 91 147
60 94 151
59 93 153
57 90 143
58 92 147
57 90 138
55 88 129
57 90 133
59 93 143
61 95 144
61 95 155
57 91 145
58 92 147
55 87 127
58 92 143
58 90 142
58 91 143
57 90 140
57 89 136
58 91 142
59 93 148
57 90 137
58 91 143
58 91 146
59 94 148
59 93 146
58 92 139
61 96 156
59 92 139
58 91 144
57 90 129
57 89 135
56 89 135
58 92 141
59 92 137
54 85 110
55 87 121
54 87 128
58 91 139
58 92 143
58 91 135
57 90 140
60 95 149
59 93 141
57 90 141
59 93 148
59 92 148
59 92 143
60 93 143
56 89 124
58 91 140
60 94 135
58 91 133
60 94 148
58 91 138
59 92 140
56 89 125
56 88 127
54 86 110
56 88 125
59 92 132
56 88 127
58 91 126
56 87 136
64 91 119
107 118 0
96 109 0
114 127 0
126 140 0
110 122 0
116 129 0
109 119 0
122 134 0
127 141 0
111 123 0
117 133 0
112 124 0
117 131 0
103 116 0
113 123 0
112 124 0
117 132 0
119 134 0
98 110 0
122 135 0
114 127 0
124 139 0
114 126 0
118 133 0
117 130 0
131 144 0
123 135 0
115 126 0
121 130 0
115 130 0
115 127 0
123 136 0
122 135 0
122 137 0
131 143 0
133 145 0
125 137 0
126 137 0
126 137 0
132 142 0
124 136 0
121 134 0
122 133 0
131 147 0
124 137 0
108 121 0
107 120 0
119 129 0
125 137 0
123 137 0
133 146 0
131 148 0
119 133 0
122 135 0
147 163 0
127 141 0
133 148 0
123 134 0
130 143 0
131 146 0
127 141 0
139 153 0
114 127 0
124 137 0
136 154 0
138 155 0
126 140 0
136 153 0
131 144 0
138 153 0
133 148 0
132 145 0
132 147 0
135 151 0
124 138 0
134 150 0
126 138 0
125 139 0
134 149 0
126 140 0
136 150 0
137 153 0
133 145 0
142 159 0
139 156 0
133 148 0
134 147 0
139 155 0
125 137 0
147 163 0
140 156 0
145 162 0
134 150 0
140 158 0
138 154 0
135 149 0
142 156 0
141 159 0
140 156 0
137 153 0
143 161 0
130 148 0
145 163 0
143 162 0
135 151 0
148 167 0
144 162 0
140 156 0
148 164 0
137 153 0
140 158 0
140 155 0
147 165 0
138 153 0
139 156 0
139 156 0
134 151 0
138 154 0
141 156 0
149 170 88
161 182 80
151 171 62
148 170 62
158 178 72
152 173 51
154 175 80
152 173 80
154 175 72
154 177 88
149 169 72
151 172 80
149 170 62
149 169 62
154 175 88
150 170 36
152 174 80
147 168 72
147 170 88
154 175 80
142 162 36
149 171 88
154 175 88
155 178 95
158 180 108
148 168 62
152 173 62
146 167 51
153 174 62
152 174 80
150 172 72
152 173 62
149 171 62
153 176 72
149 170 51
148 170 51
154 175 72
154 175 72
149 170 51
147 169 62
149 170 72
148 171 72
151 171 36
147 169 72
158 180 88
145 167 36
148 170 80
147 168 72
147 168 72
148 169 80
150 171 62
150 171 51
158 179 36
142 164 80
153 175 62
152 173 88
152 173 62
143 162 80
155 176 88
141 161 62
151 174 95
149 171 62
153 175 102
142 162 51
147 168 51
149 171 62
150 172 88
149 171 80
139 160 62
144 166 51
147 168 72
143 163 72
147 168 102
150 170 62
144 165 51
143 164 80
144 166 80
141 163 88
135 155 51
149 170 72
151 170 95
151 172 95
154 174 72
136 156 72
148 169 80
138 159 51
141 161 80
142 162 80
137 155 80
143 163 80
138 159 72
139 158 51
130 149 72
154 173 88
140 160 62
145 164 88
147 168 80
142 161 102
106 127 103
78 104 124
91 115 136
71 99 131
75 102 128
103 127 153
75 101 129
76 104 140
85 109 112
93 119 157
81 107 138
82 107 129
91 116 129
93 119 149
71 100 139
84 109 133
81 108 136
101 123 143
82 109 135
105 128 138
81 107 135
93 116 133
101 125 169
90 114 140
77 106 157
71 100 146
73 103 160
65 97 148
59 94 155
56 89 145
59 93 155
58 92 149
59 93 154
59 93 146
57 91 141
54 86 136
56 90 137
54 87 135
55 88 138
56 90 149
58 91 140
54 85 128
67 98 142
66 96 133
62 92 125
54 85 124
56 89 136
65 94 132
61 94 148
55 88 129
59 93 148
57 89 135
60 94 156
58 91 139
54 85 126
55 88 129
56 89 138
58 92 142
58 92 150
58 91 144
56 89 144
53 85 113
58 92 148
58 91 143
58 92 135
56 89 135
56 89 132
56 89 137
56 90 144
58 92 147
57 90 138
59 93 149
58 91 142
59 93 142
58 92 150
58 92 148
57 90 137
58 91 145
56 89 139
57 90 140
58 92 144
58 92 155
59 92 146
57 91 147
59 94 149
56 89 136
58 91 140
59 93 145
59 93 149
58 91 143
57 91 141
58 92 147
59 93 144
57 91 136
56 89 136
60 95 157
56 88 133
57 90 138
55 88 126
57 91 145
59 93 140
56 89 135
57 90 140
56 89 142
59 93 147
60 95 155
58 91 132
57 90 142
60 94 147
59 92 153
60 94 151
58 91 140
60 94 153
59 93 149
59 93 156
57 90 141
57 90 138
56 88 133
59 94 153
59 92 146
59 93 151
60 93 151
58 91 136
58 91 134
58 92 140
59 92 147
58 91 141
59 93 146
58 91 143
56 88 131
58 91 143
57 90 139
58 92 152
56 89 138
56 88 132
58 92 146
58 92 140
58 92 143
60 94 143
60 94 147
60 94 156
57 91 134
58 92 137
59 92 143
58 91 143
56 88 132
60 93 150
58 92 144
57 91 141
58 92 139
58 92 143
56 89 133
56 88 121
60 94 152
58 92 137
57 90 139
58 91 149
58 91 140
60 94 147
58 91 144
57 89 132
62 97 157
58 90 131
60 93 127
59 93 148
57 90 134
57 90 127
57 89 138
57 90 138
57 90 128
57 89 128
55 87 124
58 90 128
55 87 131
59 92 140
59 93 134
56 89 127
55 86 124
55 86 126
56 88 123
51 81 107
55 86 122
101 117 69
110 122 0
105 117 0
106 118 0
124 139 0
128 143 0
103 113 0
112 123 0
105 118 0
109 121 0
103 117 0
106 120 0
111 121 0
113 126 0
119 128 0
117 131 0
102 114 0
115 126 0
122 134 0
124 137 0
109 121 0
130 142 0
102 114 0
128 140 0
124 133 0
114 126 0
119 131 0
116 128 0
116 127 0
110 122 0
115 125 0
117 130 0
115 127 0
121 133 0
117 129 0
120 132 0
107 119 0
120 134 0
133 149 0
115 127 0
134 147 0
108 120 0
128 142 0
117 130 0
125 139 0
122 135 0
134 149 0
113 127 0
131 146 0
127 140 0
123 136 0
132 147 0
122 136 0
128 142 0
128 142 0
141 153 0
118 131 0
126 139 0
133 146 0
123 136 0
130 142 0
130 143 0
133 148 0
130 145 0
125 138 0
131 145 0
124 138 0
127 142 0
132 147 0
132 148 0
140 157 0
136 151 0
132 145 0
131 145 0
124 139 0
137 151 0
139 154 0
142 158 0
142 158 0
136 152 0
136 151 0
130 143 0
128 141 0
140 155 0
131 146 0
138 154 0
136 151 0
137 152 0
147 164 0
125 137 0
138 156 0
131 147 0
137 154 0
135 151 0
145 160 0
141 157 0
138 154 0
132 147 0
135 151 0
137 155 0
141 156 0
136 151 0
143 162 0
143 158 0
136 152 0
131 146 0
137 154 0
137 153 0
138 156 0
147 165 0
140 156 0
133 149 0
144 161 0
143 162 0
132 149 0
140 156 0
140 156 0
137 152 0
139 153 0
143 160 0
155 177 102
154 176 95
149 171 72
157 178 88
153 174 51
151 173 72
151 172 36
158 182 102
152 172 51
155 176 51
156 178 72
152 173 62
153 174 80
145 165 51
155 179 108
157 179 102
147 168 36
154 178 102
154 176 102
153 175 95
146 167 72
147 169 62
151 173 72
158 180 80
145 167 72
154 176 72
152 173 80
159 181 88
147 168 72
152 173 72
152 174 88
153 173 51
147 168 51
157 178 88
151 174 102
149 170 51
151 174 80
155 176 62
148 169 72
145 168 80
144 166 72
152 174 95
144 165 62
149 171 88
146 167 72
152 172 36
150 170 36
151 175 120
150 170 51
154 176 88
151 173 62
152 173 88
144 165 51
147 169 80
148 169 51
150 173 80
148 169 51
154 175 72
141 162 51
133 154 62
148 170 95
150 170 62
142 163 62
148 168 62
155 176 88
150 171 88
146 167 62
143 165 88
142 162 36
140 161 62
148 170 72
151 173 95
138 158 36
152 173 80
149 169 88
150 171 62
144 164 92
146 165 88
141 162 88
137 158 62
139 158 72
142 162 72
147 167 51
146 168 62
140 161 51
137 157 51
140 158 36
135 155 51
138 158 36
146 164 72
132 151 36
140 161 51
145 165 95
136 155 36
139 159 62
139 159 36
136 156 72
135 154 72
131 152 107
85 111 136
98 121 145
94 117 129
107 131 142
101 124 138
76 103 144
94 118 140
99 122 156
98 119 142
82 107 128
83 110 149
102 120 131
88 105 115
80 104 129
78 104 138
76 104 135
84 109 124
86 113 150
78 107 134
88 113 125
76 104 135
71 98 123
96 122 151
84 110 146
73 103 160
77 106 155
79 107 168
57 90 145
60 94 158
57 91 147
58 92 152
58 93 148
58 92 151
57 91 150
57 90 132
58 91 141
57 91 142
55 87 136
57 90 144
55 88 137
55 88 136
59 90 136
63 94 131
57 89 129
57 88 123
58 91 148
54 86 123
58 92 141
57 90 148
54 87 126
53 85 131
56 89 134
59 93 148
59 92 151
57 90 137
58 92 153
56 89 144
57 91 132
56 88 127
58 92 152
57 90 143
57 90 136
56 89 137
60 94 150
55 87 134
58 91 136
59 93 150
57 90 143
56 90 134
55 88 127
59 94 158
57 91 146
54 86 130
56 88 131
58 91 146
59 93 143
58 91 134
58 92 145
57 90 136
58 92 145
55 87 131
57 90 138
59 93 149
57 90 140
58 92 146
59 93 151
58 91 141
56 89 138
57 90 135
54 87 129
57 91 143
58 91 142
57 90 138
59 93 140
57 91 145
60 94 155
56 89 134
56 89 140
56 88 128
58 93 151
59 93 142
56 89 136
57 91 149
57 90 128
57 89 137
58 92 147
55 87 128
57 90 135
58 92 147
57 90 138
60 94 157
62 97 155
57 90 143
60 94 153
57 90 145
60 95 158
60 95 157
59 93 143
58 92 147
58 92 149
60 95 151
59 94 149
56 89 141
58 91 140
57 91 145
57 90 136
56 89 131
57 90 134
57 90 138
59 93 150
58 92 136
60 94 150
58 91 136
57 91 139
61 95 158
55 87 129
59 93 151
57 90 139
59 93 136
60 94 147
56 89 130
58 92 132
56 89 142
56 87 127
59 93 148
59 91 141
58 92 144
58 91 139
60 94 144
56 89 129
56 88 130
60 94 146
59 93 142
60 93 139
55 87 120
58 91 130
58 91 144
58 91 144
59 92 135
58 91 135
58 91 131
59 93 137
57 90 133
57 90 130
59 93 146
56 88 126
57 89 133
60 94 147
55 87 117
57 91 133
60 95 152
56 89 124
56 89 136
57 89 131
55 87 124
54 85 112
56 89 122
60 95 135
59 91 134
58 91 130
66 91 110
115 128 0
108 120 0
113 125 0
116 131 0
126 140 0
123 137 0
97 110 0
109 123 0
101 112 0
133 147 0
105 117 0
101 114 0
113 128 0
106 119 0
113 126 0
107 121 0
109 122 0
112 123 0
109 121 0
126 140 0
123 137 0
122 137 0
115 128 0
120 134 0
126 139 0
116 128 0
120 135 0
116 128 0
115 129 0
127 141 0
116 127 0
114 129 0
111 124 0
123 136 0
115 128 0
119 133 0
114 124 0
123 138 0
116 128 0
120 133 0
132 146 0
128 145 0
107 119 0
119 131 0
125 139 0
130 143 0
127 142 0
131 142 0
122 138 0
125 139 0
129 145 0
130 142 0
126 141 0
117 128 0
127 142 0
134 148 0
128 142 0
137 153 0
124 138 0
131 145 0
135 147 0
129 142 0
127 141 0
125 139 0
127 141 0
136 153 0
126 140 0
131 145 0
132 150 0
138 155 0
130 142 0
132 147 0
136 149 0
133 149 0
132 147 0
132 146 0
133 147 0
140 158 0
139 155 0
132 149 0
130 143 0
132 146 0
135 149 0
133 146 0
141 155 0
142 157 0
139 153 0
142 159 0
137 154 0
139 155 0
140 155 0
145 162 0
139 156 0
137 153 0
141 158 0
139 155 0
138 153 0
147 162 0
140 156 0
134 150 0
138 151 0
139 156 0
138 154 0
139 156 0
137 150 0
139 156 0
151 169 0
140 155 0
138 153 0
137 154 0
138 156 0
137 154 0
145 164 0
141 159 0
134 150 0
143 161 0
143 158 0
145 163 0
145 161 0
143 159 0
151 174 108
154 177 62
154 175 72
154 177 72
153 173 51
148 170 80
154 175 72
150 171 51
154 173 62
155 176 95
153 175 72
145 166 62
153 176 80
146 166 51
148 169 62
152 174 51
152 173 62
155 177 102
152 175 102
151 172 62
149 170 51
157 178 80
150 172 88
154 176 88
148 170 51
153 175 80
155 176 62
146 167 72
157 179 88
146 167 62
154 176 95
143 164 72
153 174 72
151 173 62
150 171 51
151 173 72
153 176 95
153 175 88
151 173 72
149 171 102
150 172 88
151 172 80
153 174 72
143 163 51
155 177 80
151 173 72
149 170 51
153 174 72
144 164 51
152 173 80
146 168 36
144 165 36
153 176 88
144 165 51
149 171 62
148 171 88
151 171 72
145 165 62
151 173 95
131 152 62
147 170 62
148 170 88
151 173 72
153 175 102
150 169 51
151 172 62
140 160 88
148 167 72
142 163 80
140 161 72
152 173 62
143 164 62
140 159 51
148 168 36
143 164 88
137 156 51
138 159 88
140 161 51
136 155 36
137 157 72
148 168 62
148 168 72
142 162 80
143 163 72
144 164 36
140 161 36
147 166 72
138 159 72
148 168 80
142 162 62
138 158 62
140 160 62
134 153 36
152 172 88
139 158 80
145 165 95
148 167 88
147 167 95
149 169 80
77 106 134
93 116 134
96 120 146
83 106 123
103 127 154
90 115 143
83 109 139
102 125 158
76 104 138
83 110 143
85 110 141
69 89 105
77 85 88
77 90 66
84 109 134
94 118 146
70 99 137
86 112 146
80 108 138
90 116 135
85 111 146
87 113 139
97 122 153
80 106 142
71 101 154
71 100 149
84 112 166
64 95 145
58 93 153
55 88 136
57 90 148
58 92 150
58 92 152
60 94 160
60 94 158
59 93 158
54 86 124
56 89 130
55 88 141
58 92 142
57 91 150
64 96 147
56 88 136
57 89 138
58 89 134
62 93 140
62 94 138
62 93 144
55 88 129
55 87 128
55 87 128
54 86 136
57 90 141
56 90 142
55 88 136
56 88 137
61 95 161
55 87 132
56 89 134
56 89 138
58 90 141
58 92 147
58 92 136
57 90 143
57 91 145
57 90 144
57 91 141
57 90 146
55 88 130
55 87 132
57 89 140
57 91 133
56 89 135
56 89 129
57 90 143
56 89 137
57 89 133
56 89 141
60 94 149
57 90 144
57 90 133
59 93 153
58 92 145
56 88 123
57 90 145
58 92 149
56 89 138
58 92 145
56 89 136
56 88 141
58 92 147
57 90 140
56 88 130
58 91 138
58 91 145
58 92 147
55 88 131
58 91 142
59 93 151
57 90 143
56 88 133
57 88 130
59 93 153
58 92 145
57 90 138
61 96 152
58 92 143
59 92 133
56 89 136
57 90 142
59 94 156
58 92 138
60 93 144
58 92 145
59 93 154
59 93 149
57 90 140
58 92 144
59 92 140
58 91 139
56 89 129
58 92 140
58 91 140
57 90 143
55 88 124
60 94 150
56 88 126
58 91 143
56 88 129
60 94 150
58 91 143
58 91 138
58 92 133
59 92 145
59 92 145
58 93 141
56 89 137
58 91 133
57 89 134
57 90 136
56 89 132
56 89 127
55 87 124
57 90 142
55 88 129
57 89 125
57 90 137
57 91 138
57 89 134
57 89 131
57 89 129
57 90 133
57 90 142
58 91 140
57 90 135
58 92 143
56 88 136
59 94 150
59 93 145
58 91 131
61 95 152
57 89 131
57 90 133
61 94 153
57 89 128
57 90 138
58 91 125
56 88 126
55 87 121
57 90 132
59 93 144
58 91 136
57 89 136
57 90 131
57 90 128
53 85 123
57 88 130
57 89 121
52 82 101
62 91 117
100 112 60
101 115 0
96 108 0
107 120 0
127 139 0
109 122 0
102 115 0
104 115 0
119 132 0
94 102 0
104 116 0
95 108 0
111 125 0
123 137 0
106 120 0
112 126 0
102 111 0
112 124 0
110 123 0
106 118 0
121 136 0
107 120 0
126 140 0
117 131 0
117 130 0
126 139 0
116 128 0
123 136 0
117 131 0
109 120 0
131 146 0
118 134 0
119 133 0
115 131 0
121 136 0
122 135 0
114 127 0
119 131 0
133 147 0
117 132 0
133 149 0
122 136 0
127 141 0
132 146 0
133 148 0
124 137 0
130 144 0
125 139 0
120 133 0
133 148 0
125 138 0
129 145 0
123 136 0
123 136 0
135 150 0
128 139 0
115 129 0
126 140 0
138 152 0
137 153 0
131 147 0
123 138 0
120 134 0
134 149 0
124 137 0
133 148 0
122 137 0
134 147 0
132 148 0
128 142 0
134 150 0
131 147 0
121 134 0
138 155 0
135 149 0
123 138 0
136 152 0
142 158 0
136 152 0
130 144 0
127 141 0
130 146 0
126 141 0
132 146 0
135 154 0
131 146 0
134 149 0
139 155 0
138 154 0
131 146 0
139 155 0
131 145 0
138 154 0
137 154 0
145 162 0
140 155 0
142 160 0
147 164 0
148 166 0
139 156 0
136 154 0
143 159 0
136 154 0
136 153 0
141 157 0
139 156 0
145 163 0
142 159 0
144 161 0
146 162 0
147 166 0
145 164 0
143 161 0
141 159 0
139 157 0
145 163 0
140 158 0
145 162 0
147 166 0
142 160 0
143 160 0
151 173 36
153 174 72
150 171 62
163 185 102
149 170 51
158 180 95
151 173 80
145 166 51
156 178 62
153 176 95
147 170 88
149 170 80
149 171 95
150 171 51
153 175 62
150 172 72
150 171 72
148 170 62
155 176 36
153 176 80
148 169 72
150 171 80
154 175 62
151 173 62
150 171 36
152 174 72
162 185 95
150 173 95
149 173 95
154 176 80
153 176 80
152 172 62
155 177 80
156 176 51
146 167 51
147 168 51
155 177 80
148 169 80
149 169 72
149 170 88
147 169 80
152 175 102
149 170 72
146 169 88
151 173 108
148 169 62
146 167 51
141 163 36
141 162 51
145 167 95
150 170 72
144 164 0
145 166 62
141 162 51
148 170 80
141 162 51
154 176 80
142 163 62
146 166 72
152 174 72
149 170 80
144 164 62
150 172 88
153 175 108
145 166 80
145 166 62
141 161 80
144 166 72
136 156 51
138 159 51
140 160 62
148 169 80
148 168 72
152 174 102
143 164 62
147 168 62
144 165 72
141 162 72
135 155 72
141 162 80
147 168 95
143 164 72
139 160 62
154 175 102
141 162 62
141 161 62
143 163 88
140 160 95
139 158 51
144 164 80
142 161 62
144 164 88
149 170 80
137 156 62
143 163 108
137 157 80
135 153 72
139 159 88
146 165 88
130 151 104
99 123 136
98 122 150
96 120 138
79 104 118
80 106 133
96 119 140
87 110 125
87 113 146
97 121 152
101 125 162
81 106 135
52 59 36
66 74 62
75 94 106
88 114 134
94 118 128
80 105 128
78 103 135
116 137 141
94 118 136
91 116 153
99 123 142
93 117 133
76 105 150
78 107 162
89 115 168
66 98 158
85 112 168
60 94 157
60 94 154
57 91 148
56 90 150
57 90 145
60 93 147
55 88 139
58 92 150
58 92 144
59 92 152
56 89 146
59 93 154
57 90 140
61 93 143
60 92 146
62 93 146
56 89 139
62 93 133
54 85 124
68 96 130
56 89 138
55 87 132
54 85 125
55 87 139
58 91 135
58 92 148
57 91 145
56 89 143
58 91 146
56 88 131
58 91 145
54 87 131
57 90 134
58 92 143
56 89 131
59 92 144
58 92 146
57 90 139
56 89 135
58 91 147
57 91 141
57 90 138
55 87 135
58 91 147
54 87 134
56 90 146
56 90 143
57 90 138
59 93 152
60 95 153
57 90 141
57 90 141
58 92 150
59 93 152
58 92 148
58 91 147
60 93 149
58 91 143
58 91 140
56 89 141
57 90 136
58 92 145
55 87 123
59 93 143
57 91 138
59 93 155
58 92 145
58 92 141
58 91 125
57 90 145
58 91 136
57 91 140
58 92 145
56 90 144
59 93 149
58 92 145
58 91 138
60 94 155
59 94 148
57 90 136
58 92 143
56 89 140
61 95 157
60 95 147
56 88 131
59 93 149
59 93 147
57 91 136
58 91 147
57 91 136
56 90 146
58 91 145
57 90 138
59 93 147
59 93 150
58 91 138
58 92 147
58 91 138
56 89 139
58 91 141
58 92 141
58 91 138
55 88 136
57 90 141
59 93 145
59 92 143
56 88 126
60 94 146
60 94 152
60 94 145
58 91 137
59 93 140
58 91 139
58 91 137
57 91 146
58 92 143
58 91 134
57 90 132
57 90 132
60 94 152
58 92 145
60 94 144
58 92 141
58 92 139
58 92 134
60 93 140
59 92 147
58 91 137
59 93 146
58 91 129
60 93 136
57 89 134
55 86 111
54 85 116
58 92 141
58 91 135
59 93 142
55 86 123
58 91 133
59 92 144
57 90 130
56 88 123
55 87 115
56 88 131
56 88 123
53 84 118
61 96 147
55 88 129
51 81 101
60 93 147
92 111 72
90 101 0
106 118 0
110 124 0
112 124 0
105 118 0
108 122 0
104 118 0
108 120 0
109 120 0
111 123 0
112 126 0
102 113 0
123 137 0
110 122 0
106 120 0
125 142 0
112 127 0
112 126 0
112 126 0
121 133 0
114 127 0
106 118 0
125 140 0
107 118 0
125 139 0
113 126 0
122 135 0
131 146 0
119 134 0
119 133 0
136 151 0
124 137 0
129 143 0
117 129 0
128 141 0
117 132 0
130 145 0
127 142 0
128 142 0
126 143 0
122 135 0
128 142 0
115 128 0
124 140 0
118 130 0
123 137 0
126 140 0
125 138 0
125 140 0
110 123 0
135 152 0
119 131 0
123 134 0
123 139 0
121 134 0
129 142 0
145 161 0
138 152 0
130 144 0
136 153 0
130 144 0
127 141 0
139 154 0
132 147 0
130 143 0
139 155 0
130 145 0
132 147 0
128 144 0
125 138 0
130 145 0
139 155 0
130 145 0
126 140 0
137 152 0
128 143 0
132 147 0
140 157 0
133 149 0
129 140 0
132 150 0
129 145 0
128 144 0
127 140 0
131 147 0
132 146 0
140 158 0
142 158 0
136 148 0
142 159 0
139 156 0
135 151 0
132 150 0
140 154 0
136 152 0
143 160 0
136 153 0
139 156 0
124 138 0
147 164 0
141 157 0
127 141 0
142 156 0
141 159 0
138 153 0
150 168 0
138 157 0
136 151 0
137 153 0
132 149 0
144 160 0
135 152 0
129 146 0
142 160 0
144 162 0
141 156 0
139 157 0
140 158 0
141 159 0
144 162 0
136 152 0
156 178 95
158 179 62
154 176 72
152 174 62
152 174 72
153 175 62
159 181 102
149 172 95
148 170 62
151 172 51
153 175 72
151 173 72
152 174 72
145 168 72
151 173 88
158 180 72
146 167 51
154 176 80
157 179 80
153 174 62
156 177 95
151 171 72
154 176 88
157 179 95
150 172 95
148 170 72
153 176 88
153 173 51
152 172 36
154 175 62
151 174 88
148 169 80
159 181 88
151 172 72
153 175 80
147 168 51
140 161 51
153 174 51
148 171 72
152 173 51
151 171 36
140 161 51
147 169 72
150 171 62
155 177 51
142 163 72
154 176 88
150 171 72
140 161 51
157 179 80
148 169 62
153 175 88
150 171 62
149 169 51
141 163 62
145 167 62
148 169 51
144 165 62
151 171 72
156 177 72
148 168 36
148 167 51
145 166 72
147 168 80
147 169 88
148 168 62
150 172 102
146 166 36
156 179 114
149 170 88
153 175 102
146 168 108
154 175 80
143 164 72
147 166 51
150 171 80
144 165 72
137 158 80
136 157 72
146 167 95
145 167 88
139 159 62
147 168 72
147 168 102
145 167 72
134 155 80
138 158 72
133 152 72
139 158 51
139 158 62
147 167 72
139 159 72
142 162 95
135 154 62
140 158 80
139 160 80
137 157 0
143 162 80
150 171 88
141 159 76
90 116 131
83 110 138
93 117 132
94 119 137
98 121 138
88 113 136
100 122 143
82 107 133
83 108 135
93 115 136
95 119 163
85 98 95
65 71 51
61 69 76
71 99 137
86 109 113
86 112 139
85 109 112
84 110 133
103 127 138
68 97 135
78 108 148
98 120 140
85 111 148
88 114 161
84 111 163
66 97 152
71 101 153
59 92 151
60 94 154
56 90 139
59 94 152
56 90 137
56 90 146
58 91 138
57 90 139
56 89 137
57 90 144
57 89 139
56 89 130
58 91 149
55 88 135
57 89 140
59 90 131
54 85 128
61 94 146
58 91 132
66 96 132
56 89 143
60 94 142
54 87 128
55 88 126
56 90 145
57 90 136
54 87 125
53 84 120
56 89 129
56 88 130
55 87 121
55 87 137
58 92 146
57 89 135
58 92 144
60 94 145
55 87 131
57 91 143
57 90 141
61 95 149
56 88 139
58 91 152
58 92 146
56 89 130
57 89 133
58 91 145
57 91 146
56 89 136
58 92 139
55 87 126
58 92 136
60 94 152
57 90 139
59 93 152
58 92 136
58 92 143
57 90 138
57 89 134
59 93 152
56 88 133
58 93 149
58 92 131
57 90 130
60 95 152
58 92 143
57 90 142
58 92 145
60 95 156
59 92 147
59 92 147
58 91 133
56 88 127
60 94 143
59 93 152
57 89 140
58 91 140
58 91 142
56 89 138
59 93 147
61 95 153
59 93 149
59 92 147
58 92 138
58 92 147
58 92 143
59 92 140
57 90 141
56 89 136
54 86 124
55 87 126
57 90 141
56 89 136
59 93 145
56 89 137
60 94 145
58 91 146
58 91 138
57 90 134
56 89 134
56 90 139
56 89 141
60 94 143
59 93 141
59 92 143
58 91 144
58 92 144
55 87 124
56 89 134
56 89 135
59 92 148
59 93 151
59 93 139
58 92 142
56 88 127
55 87 122
55 87 125
59 92 144
58 91 137
58 91 139
57 91 144
57 90 135
57 90 130
55 88 129
57 89 133
56 89 134
57 89 133
55 87 122
55 87 120
57 90 134
56 88 135
59 92 143
57 91 137
55 87 126
56 89 129
57 90 137
60 94 139
58 91 144
55 87 130
51 81 96
52 82 111
59 92 131
55 87 119
59 92 143
56 88 126
56 88 136
58 91 132
59 93 143
55 86 118
53 84 118
69 93 94
108 119 25
91 102 0
108 120 0
113 124 0
111 123 0
114 127 0
107 118 0
105 118 0
89 101 0
112 125 0
97 109 0
123 137 0
117 129 0
115 128 0
112 124 0
113 125 0
102 115 0
114 130 0
114 126 0
104 116 0
105 118 0
114 129 0
118 134 0
122 138 0
121 135 0
118 132 0
116 132 0
109 123 0
120 133 0
129 142 0
124 138 0
119 131 0
129 143 0
112 122 0
120 135 0
126 140 0
119 131 0
127 142 0
125 138 0
116 131 0
119 132 0
127 141 0
128 146 0
126 138 0
124 136 0
118 129 0
129 143 0
125 138 0
134 149 0
130 143 0
120 137 0
117 130 0
124 136 0
125 139 0
124 139 0
136 149 0
137 153 0
129 143 0
126 140 0
136 151 0
133 146 0
128 140 0
133 147 0
133 147 0
132 148 0
128 143 0
130 145 0
132 147 0
127 141 0
133 147 0
142 157 0
126 141 0
134 150 0
137 149 0
133 151 0
130 144 0
127 145 0
130 147 0
135 151 0
147 165 0
126 141 0
138 156 0
126 140 0
134 148 0
139 158 0
135 150 0
151 166 0
138 156 0
139 156 0
134 150 0
132 147 0
132 148 0
136 153 0
153 170 0
134 150 0
138 154 0
141 158 0
140 153 0
144 162 0
132 148 0
139 155 0
136 152 0
147 165 0
138 153 0
143 160 0
142 161 0
135 151 0
140 156 0
143 158 0
136 150 0
147 164 0
139 154 0
146 166 0
142 161 0
140 158 0
142 162 0
138 155 0
145 161 0
142 158 0
140 156 0
149 168 0
143 160 0
148 169 72
149 170 72
153 175 72
150 171 80
148 169 62
150 172 72
158 179 72
153 174 72
153 175 72
150 171 62
152 173 36
148 169 36
158 180 80
154 175 72
148 170 62
154 175 51
148 168 51
149 170 62
154 176 72
153 174 51
153 175 62
149 170 62
148 170 88
152 174 62
148 169 51
155 176 62
149 172 102
147 168 51
149 169 62
155 176 95
147 168 62
150 172 72
148 169 51
145 167 80
146 168 80
148 170 88
152 173 62
149 172 88
148 171 102
152 174 36
146 168 80
147 168 80
149 169 62
152 172 62
147 169 80
153 174 62
142 163 62
151 173 80
147 170 80
147 170 95
143 163 62
145 166 62
152 172 80
146 167 72
140 161 62
152 175 95
150 171 36
152 173 88
154 176 95
143 163 0
153 173 51
148 170 72
152 173 62
147 168 80
150 172 102
146 167 95
138 158 51
141 163 72
156 177 80
139 159 51
146 167 80
147 169 102
145 167 88
145 166 72
141 162 51
138 157 51
148 169 95
138 158 72
149 170 88
145 166 88
142 162 62
151 172 102
144 163 72
144 163 88
134 154 51
146 167 102
144 164 80
138 158 72
140 161 72
141 161 72
146 167 88
142 160 88
142 161 72
136 155 72
138 157 36
124 142 51
140 159 62
141 161 80
136 154 51
136 155 72
121 142 81
87 110 111
97 121 133
93 117 130
81 103 120
102 126 145
85 110 119
78 104 134
82 108 122
95 119 134
94 117 145
90 110 129
97 108 105
91 100 88
69 88 99
80 106 134
74 100 116
79 106 149
86 111 115
77 106 144
104 127 133
75 103 148
99 122 153
87 113 142
66 98 154
78 107 161
78 106 155
77 105 156
67 99 158
56 90 145
60 95 160
57 90 141
58 92 148
58 92 152
56 89 135
57 90 139
57 91 139
62 95 151
58 92 149
59 92 142
55 86 128
54 86 123
58 90 132
63 92 122
61 92 144
53 84 125
54 86 123
71 99 105
58 89 129
55 87 130
53 85 123
56 88 120
56 89 128
57 91 140
58 91 143
58 91 142
59 93 146
54 86 129
57 90 136
55 87 135
53 85 124
57 91 135
56 89 136
58 93 148
55 87 137
56 89 134
58 93 148
59 92 143
57 90 136
57 90 146
58 92 146
55 88 128
56 89 129
58 91 144
56 87 124
58 91 143
56 90 146
58 92 147
57 90 138
58 92 147
60 93 151
56 90 139
56 89 136
57 90 136
57 89 140
59 92 140
57 90 144
58 92 152
57 91 136
56 88 136
58 92 141
58 91 131
58 91 140
57 91 145
59 93 149
57 91 143
58 92 147
58 91 136
57 90 143
56 89 134
56 89 141
55 88 124
58 91 143
57 90 131
58 92 150
57 91 141
57 91 134
58 91 138
57 90 143
57 89 133
58 91 140
57 90 145
59 93 145
57 90 137
54 86 127
57 90 143
58 91 141
57 90 143
57 89 136
58 92 140
59 92 142
56 89 131
59 92 142
55 87 123
58 91 145
58 91 141
55 87 119
57 90 133
57 91 139
60 93 143
60 94 157
57 90 132
56 89 135
58 92 142
56 89 129
59 92 141
60 94 146
54 85 107
57 90 139
59 92 136
57 90 125
60 94 144
57 90 135
59 93 142
57 90 133
58 92 146
57 90 130
57 90 134
59 92 139
55 87 127
57 90 147
58 91 140
54 85 126
60 93 149
57 90 139
57 90 136
53 85 121
57 90 139
55 86 123
57 90 133
59 93 144
58 91 131
57 90 134
56 88 115
57 89 125
57 91 138
55 87 128
57 90 127
57 90 133
56 88 117
54 86 120
54 86 111
57 89 121
57 90 135
55 87 118
55 87 117
58 89 127
106 118 43
110 123 0
102 112 0
104 117 0
115 129 0
106 119 0
103 116 0
109 121 0
108 121 0
107 118 0
94 104 0
112 123 0
99 111 0
124 139 0
108 121 0
106 118 0
115 129 0
108 119 0
116 128 0
119 134 0
128 143 0
112 126 0
127 141 0
112 123 0
113 128 0
120 136 0
123 136 0
111 125 0
121 135 0
118 128 0
117 129 0
125 139 0
130 148 0
113 125 0
122 137 0
121 135 0
126 139 0
116 128 0
111 124 0
126 143 0
115 126 0
123 139 0
125 138 0
124 139 0
122 135 0
121 133 0
118 132 0
133 147 0
127 142 0
122 137 0
123 138 0
135 152 0
131 146 0
133 150 0
123 136 0
132 145 0
130 147 0
128 144 0
134 150 0
130 144 0
136 148 0
127 142 0
132 147 0
129 144 0
129 142 0
131 147 0
131 146 0
127 140 0
136 152 0
134 150 0
138 156 0
121 135 0
142 159 0
139 156 0
130 147 0
134 148 0
131 146 0
133 149 0
121 137 0
138 154 0
131 146 0
136 153 0
130 146 0
133 150 0
144 160 0
139 156 0
134 151 0
129 146 0
140 157 0
147 165 0
148 166 0
139 153 0
144 160 0
139 152 0
132 149 0
149 166 0
126 139 0
135 149 0
134 150 0
137 152 0
140 157 0
134 152 0
145 163 0
136 153 0
138 155 0
140 157 0
140 157 0
149 165 0
135 152 0
139 155 0
137 152 0
138 154 0
143 161 0
145 162 0
139 156 0
137 154 0
148 165 0
136 152 0
147 165 0
143 160 0
137 154 0
143 161 0
147 165 0
156 177 80
152 174 80
153 176 95
149 171 80
151 172 0
153 174 51
160 182 80
159 180 88
155 177 88
151 173 72
153 175 95
153 174 80
145 166 62
149 170 62
150 172 72
155 176 72
148 170 88
152 173 72
149 171 88
150 172 72
154 175 80
149 170 62
150 171 72
148 168 51
152 174 62
151 172 72
152 174 88
150 170 72
148 170 80
147 168 51
144 167 80
154 176 80
145 165 36
148 170 88
154 176 80
146 166 0
151 171 72
151 174 88
143 163 36
152 174 72
146 168 72
152 173 62
149 172 72
152 173 88
142 163 72
153 175 95
156 178 88
151 170 36
155 177 88
148 167 51
166 188 95
138 158 72
146 168 51
149 171 72
146 167 72
145 164 36
148 170 95
147 170 102
154 176 62
157 179 102
149 170 80
149 170 62
142 161 51
145 165 62
149 168 72
146 165 36
143 163 62
151 172 80
147 167 62
145 165 88
148 168 62
154 175 95
144 164 51
143 164 80
145 165 51
142 162 51
136 156 62
138 158 80
138 158 36
149 171 88
151 173 51
142 162 36
139 159 72
148 169 80
144 164 72
144 165 72
140 160 102
135 156 76
141 161 80
141 161 72
134 154 36
143 162 72
133 152 88
143 162 62
140 159 88
142 162 72
141 162 88
134 153 62
135 154 51
129 148 36
137 155 80
105 127 112
93 117 141
88 112 129
93 115 131
106 129 139
80 106 139
99 122 158
88 112 134
88 112 127
97 120 147
101 123 148
70 96 139
89 102 106
77 100 125
91 115 121
86 111 135
79 105 138
89 113 128
86 111 129
90 114 123
92 117 136
77 105 148
87 111 142
80 107 142
58 93 154
84 111 165
89 115 161
69 101 164
65 96 149
56 89 137
58 92 154
60 95 162
57 91 138
54 86 132
59 92 139
57 91 146
55 87 125
59 93 151
57 90 148
54 85 118
55 87 135
56 89 140
54 87 131
61 92 124
61 91 125
58 91 134
57 91 130
69 99 135
54 86 122
55 86 134
55 87 121
55 88 131
55 88 128
56 89 137
55 87 122
53 84 106
57 90 134
52 82 119
56 88 132
55 88 135
57 89 134
56 88 129
55 88 134
56 88 137
58 91 141
58 91 141
58 92 148
55 87 130
58 91 149
60 93 145
58 91 132
55 86 124
59 92 141
55 87 127
58 91 146
58 91 141
57 90 131
55 87 132
59 93 147
58 92 148
59 93 147
57 90 138
56 88 121
59 93 154
56 89 134
56 89 133
56 89 126
59 92 145
60 95 148
54 86 121
58 92 143
56 89 141
58 91 136
56 88 136
57 90 129
58 92 138
58 92 146
57 90 140
55 87 130
56 89 126
57 90 133
58 91 147
59 93 145
58 92 140
55 88 136
57 90 134
58 92 138
55 88 127
57 90 134
58 91 145
58 92 154
56 89 131
57 90 136
57 91 136
56 89 126
59 91 145
58 91 145
58 91 138
57 89 134
57 89 126
56 88 121
58 90 141
57 90 131
56 89 134
58 91 143
58 91 139
60 94 149
56 88 130
56 88 121
60 93 134
58 91 131
58 91 142
59 93 146
57 89 135
58 91 137
61 95 155
57 90 142
57 90 134
58 92 140
59 93 146
58 92 149
57 90 135
58 91 135
57 90 135
60 93 144
58 91 143
58 90 130
56 89 137
55 86 118
58 91 130
58 93 148
57 89 128
56 88 128
58 91 137
59 93 144
56 88 128
57 90 130
56 88 126
55 87 123
57 90 130
56 88 128
61 95 147
54 85 129
58 91 115
58 92 145
55 87 119
55 87 122
54 86 117
57 89 122
54 86 124
54 86 117
57 89 127
57 89 131
60 94 144
53 84 112
85 109 104
89 101 0
112 124 0
108 120 0
113 127 0
113 126 0
106 119 0
88 98 0
119 132 0
99 110 0
113 127 0
118 129 0
101 113 0
119 133 0
110 124 0
131 147 0
110 123 0
123 138 0
117 129 0
114 128 0
108 122 0
122 134 0
122 136 0
117 132 0
132 148 0
124 140 0
121 135 0
126 142 0
119 134 0
120 134 0
113 125 0
128 142 0
117 131 0
108 120 0
104 114 0
124 136 0
130 141 0
117 130 0
131 147 0
122 134 0
125 140 0
127 141 0
131 146 0
119 130 0
121 135 0
118 133 0
122 136 0
117 131 0
118 134 0
125 138 0
124 138 0
146 163 0
131 147 0
141 159 0
122 137 0
119 133 0
118 129 0
137 154 0
128 143 0
125 140 0
134 148 0
131 148 0
139 155 0
127 143 0
123 139 0
134 143 0
122 135 0
139 155 0
129 147 0
122 138 0
131 146 0
126 140 0
133 147 0
130 144 0
133 149 0
128 143 0
131 148 0
142 159 0
134 150 0
139 154 0
137 153 0
129 143 0
147 165 0
130 147 0
133 150 0
136 153 0
141 159 0
139 155 0
133 147 0
141 157 0
143 161 0
141 159 0
132 147 0
132 147 0
128 144 0
136 153 0
139 155 0
142 159 0
143 158 0
144 160 0
146 161 0
145 161 0
141 158 0
148 164 0
142 159 0
139 156 0
137 154 0
131 148 0
142 160 0
143 160 0
143 160 0
132 147 0
140 157 0
141 159 0
143 160 0
145 161 0
140 159 0
145 163 0
136 153 0
141 157 0
143 159 0
147 166 0
151 168 0
142 158 0
153 174 36
157 178 72
156 178 108
153 175 88
154 176 95
153 175 95
150 171 62
150 173 95
150 172 62
151 172 80
156 177 62
150 171 62
149 172 108
153 175 80
144 166 80
145 165 62
143 165 62
148 170 62
153 174 88
149 171 80
149 170 36
152 174 80
149 171 80
144 166 72
155 176 80
149 170 36
151 173 80
155 176 80
148 168 62
149 172 95
138 159 62
149 170 88
148 170 62
145 166 51
150 174 102
152 174 88
146 167 51
147 168 0
152 173 80
152 173 72
141 162 72
146 167 80
148 169 72
149 169 80
143 165 51
143 164 51
147 169 95
152 173 51
149 171 80
151 174 108
148 168 72
150 171 51
153 173 95
146 168 80
153 174 80
152 172 95
151 172 88
148 170 95
149 169 62
147 166 80
144 165 95
144 163 72
148 169 88
149 169 51
146 168 95
145 165 51
157 179 62
141 162 72
138 159 51
125 145 51
140 159 62
149 170 95
148 169 88
151 171 62
148 169 95
145 166 80
142 162 36
135 154 62
150 170 95
157 178 88
137 158 72
144 163 80
148 168 102
133 153 36
141 160 51
146 168 99
136 156 62
145 164 72
142 161 36
141 161 62
132 151 62
144 165 72
140 159 62
142 161 51
143 163 80
137 157 36
145 164 88
145 164 88
137 155 80
132 150 80
134 153 62
139 158 77
83 108 118
71 97 116
99 121 140
93 118 133
113 135 136
97 121 144
94 117 141
79 106 137
81 105 135
84 110 143
71 97 114
104 126 135
73 99 122
76 101 145
75 102 118
84 108 131
85 110 142
91 115 124
94 118 129
91 116 136
81 107 124
77 103 127
93 117 142
84 112 150
66 99 157
79 108 164
77 105 152
60 94 155
58 91 144
57 91 145
60 95 159
56 89 137
52 84 126
57 90 137
57 90 141
57 90 142
55 87 136
57 90 135
56 89 136
56 88 134
59 91 133
58 89 125
66 94 127
52 83 122
60 92 137
62 92 127
71 99 121
56 88 129
56 88 125
56 89 134
55 88 129
56 89 140
58 92 146
58 91 144
58 92 144
58 92 148
55 88 130
57 90 129
58 92 142
59 93 149
53 85 111
56 89 126
57 91 145
55 87 132
57 90 139
58 91 139
56 88 136
58 92 142
56 89 138
57 91 144
57 90 139
56 89 134
56 88 125
61 95 154
54 85 119
53 85 117
56 89 134
57 90 139
56 88 137
57 90 136
57 90 138
57 90 136
56 89 132
59 92 136
59 92 149
58 91 139
59 94 154
59 93 145
57 90 136
58 92 148
58 92 134
57 90 138
57 89 140
59 93 147
57 89 133
57 91 141
59 92 140
58 91 143
56 89 131
56 89 131
56 89 134
57 91 134
58 92 150
58 91 140
58 91 143
58 91 133
57 90 128
57 90 138
58 91 146
56 89 132
58 91 138
56 89 134
58 91 136
58 92 143
56 89 134
57 90 143
58 91 142
58 91 136
58 92 143
57 91 150
57 89 127
58 92 138
58 91 145
56 89 127
56 89 134
57 90 141
55 87 127
60 93 154
58 92 146
55 88 129
56 89 129
58 91 134
58 92 136
59 93 148
59 93 141
56 89 128
61 95 152
60 94 148
54 86 116
60 93 150
56 89 130
56 88 132
55 88 129
60 94 142
58 91 136
58 91 127
55 87 122
57 91 141
54 85 109
60 94 155
58 91 135
55 87 129
56 88 128
54 86 120
57 89 128
57 89 132
56 88 120
56 89 129
59 93 130
56 89 133
58 91 136
55 87 121
57 90 131
57 89 130
57 89 124
55 87 120
58 91 133
54 85 119
56 89 128
53 84 106
53 83 111
52 82 105
52 82 109
74 103 112
101 111 0
103 116 0
107 118 0
113 128 0
113 128 0
115 130 0
108 122 0
112 124 0
110 123 0
101 113 0
106 119 0
119 132 0
100 113 0
114 127 0
117 130 0
106 120 0
118 132 0
120 130 0
122 137 0
124 139 0
122 138 0
104 117 0
115 129 0
120 132 0
113 127 0
115 130 0
124 139 0
123 137 0
116 128 0
115 128 0
117 129 0
118 132 0
124 138 0
111 123 0
121 135 0
131 147 0
113 126 0
117 133 0
121 135 0
130 147 0
125 141 0
123 137 0
118 130 0
120 133 0
130 147 0
122 136 0
140 154 0
124 139 0
123 139 0
120 135 0
119 134 0
126 138 0
132 147 0
126 143 0
124 140 0
124 138 0
140 154 0
134 149 0
114 127 0
125 139 0
135 150 0
133 149 0
134 150 0
132 148 0
134 151 0
127 140 0
139 156 0
136 151 0
124 138 0
131 149 0
134 150 0
128 143 0
133 148 0
145 162 0
136 151 0
130 145 0
141 158 0
133 151 0
123 137 0
143 160 0
144 160 0
139 157 0
139 156 0
137 152 0
136 153 0
143 159 0
135 153 0
137 154 0
141 158 0
132 146 0
136 152 0
138 156 0
131 145 0
130 145 0
144 161 0
142 160 0
136 152 0
129 146 0
144 160 0
134 150 0
140 154 0
140 158 0
137 155 0
139 157 0
143 159 0
141 157 0
136 152 0
143 160 0
147 163 0
140 158 0
142 160 0
146 161 0
128 143 0
143 159 0
147 163 0
143 159 0
142 160 0
141 157 0
146 166 0
139 155 0
141 160 0
147 164 0
141 159 0
136 153 0
158 179 88
155 177 80
156 178 95
151 174 72
153 174 36
156 178 72
152 174 80
146 167 36
149 170 62
152 173 62
151 172 62
150 171 62
151 173 80
153 175 80
146 169 88
149 171 80
154 176 80
151 173 72
148 171 88
153 175 80
150 171 36
153 175 80
152 173 62
148 170 62
148 169 51
151 172 80
157 179 80
155 177 62
146 168 72
146 167 72
152 174 88
151 173 80
148 168 51
148 170 72
152 174 95
149 171 72
153 175 80
153 175 80
151 173 72
151 173 72
142 162 51
158 180 80
146 167 95
145 166 62
151 171 80
153 173 51
153 176 102
151 171 51
145 165 72
151 170 72
154 175 88
151 172 114
152 171 72
148 167 80
152 172 62
160 181 88
149 170 72
153 174 95
149 169 80
144 165 72
152 171 72
150 170 95
149 168 88
146 167 72
148 168 51
145 165 62
153 174 114
145 165 95
145 166 62
140 160 72
143 162 88
142 162 51
151 172 72
152 174 80
135 155 72
145 166 72
149 170 80
142 162 72
143 163 88
137 156 51
148 168 88
141 162 72
152 172 102
146 166 36
140 159 72
134 153 36
138 158 36
143 164 57
146 166 80
143 163 62
138 158 88
144 164 95
136 156 80
127 146 36
149 169 72
133 151 80
141 162 72
132 152 51
134 153 51
135 154 51
132 150 51
129 147 80
105 125 93
84 108 92
82 107 126
76 102 122
92 114 123
94 117 126
81 107 133
92 114 130
105 128 149
98 122 125
87 111 127
94 115 132
96 120 155
92 116 146
90 113 127
90 115 131
94 118 134
79 109 158
82 107 135
77 103 135
100 121 126
96 121 136
75 102 133
93 117 143
79 108 163
79 108 161
89 114 163
85 112 162
65 96 150
59 92 144
55 88 135
59 93 157
55 87 122
56 90 134
56 89 144
57 90 142
53 84 117
55 87 132
55 87 139
55 88 134
64 95 146
65 96 140
55 87 121
60 90 123
52 83 114
55 87 128
58 87 108
57 91 138
54 85 119
56 88 133
53 83 115
56 88 134
54 86 132
59 92 142
55 86 119
58 92 146
56 89 128
54 86 117
58 92 135
57 90 139
54 85 124
59 92 146
54 86 130
57 90 140
56 88 138
57 89 132
56 88 131
56 89 139
57 90 139
57 90 139
55 87 127
57 90 138
57 90 139
58 90 138
57 91 141
56 89 134
54 86 131
59 93 150
58 91 143
56 88 126
57 90 137
56 88 134
59 93 154
57 90 127
57 90 134
58 91 138
59 93 143
57 89 138
58 91 141
55 87 126
56 88 134
57 90 140
57 91 146
54 85 127
59 93 150
54 86 124
59 92 147
58 91 143
57 90 133
56 89 129
57 89 133
55 88 129
57 90 140
53 84 124
59 93 146
57 89 136
57 90 138
57 91 142
56 89 136
58 92 150
57 89 134
57 90 137
56 89 127
59 92 143
57 91 136
54 86 127
56 89 139
59 92 144
58 91 135
58 91 139
58 91 131
56 89 134
56 89 129
58 91 143
56 88 130
57 91 146
60 94 148
57 90 140
59 92 139
57 89 133
58 91 139
57 89 132
58 91 143
58 91 137
58 92 146
56 88 129
58 91 142
58 92 143
57 90 139
53 85 109
58 92 140
59 93 147
59 92 138
58 91 141
59 91 137
54 86 112
57 89 129
57 90 138
58 91 141
56 88 116
58 92 143
57 90 126
58 91 138
56 88 129
57 89 128
56 88 132
53 83 109
57 89 121
57 89 132
54 85 115
56 88 132
56 88 116
56 89 130
60 93 138
59 93 141
56 88 126
55 87 119
55 87 122
59 92 132
53 84 118
52 82 104
55 88 124
61 89 122
106 121 47
110 123 0
88 100 0
108 121 0
107 120 0
113 126 0
109 122 0
115 129 0
115 129 0
114 126 0
106 120 0
122 139 0
117 129 0
102 117 0
120 134 0
99 110 0
115 128 0
102 114 0
117 130 0
114 126 0
119 133 0
118 133 0
120 134 0
111 123 0
117 131 0
117 132 0
122 136 0
124 136 0
121 132 0
118 132 0
117 131 0
124 138 0
114 126 0
120 134 0
121 138 0
123 140 0
124 138 0
126 139 0
129 144 0
122 137 0
131 146 0
116 128 0
120 132 0
129 144 0
122 136 0
121 137 0
126 140 0
120 134 0
131 147 0
130 144 0
126 143 0
134 150 0
119 135 0
129 143 0
133 148 0
130 146 0
127 141 0
132 147 0
131 145 0
124 141 0
125 141 0
138 155 0
133 148 0
141 157 0
137 151 0
124 139 0
123 137 0
130 146 0
130 146 0
133 148 0
129 146 0
129 145 0
136 153 0
126 139 0
134 149 0
139 155 0
132 146 0
136 151 0
126 142 0
143 161 0
129 145 0
142 158 0
132 147 0
130 144 0
134 148 0
140 155 0
134 149 0
135 150 0
136 152 0
135 151 0
135 150 0
140 157 0
131 147 0
139 157 0
136 153 0
133 148 0
137 153 0
139 156 0
136 152 0
145 162 0
136 151 0
141 159 0
142 157 0
142 157 0
133 149 0
140 158 0
137 155 0
136 152 0
142 159 0
141 159 0
146 163 0
139 157 0
137 154 0
145 162 0
134 150 0
135 152 0
137 154 0
143 162 0
142 158 0
141 157 0
141 158 0
141 159 0
155 174 0
151 171 0
149 167 0
156 177 51
149 169 62
155 177 95
152 173 72
149 171 72
152 173 51
153 174 62
147 169 80
145 167 72
149 171 72
150 171 51
151 173 72
151 171 62
153 174 88
151 173 88
147 169 62
148 171 80
158 181 80
150 171 72
146 167 80
155 177 80
159 181 72
154 177 88
147 168 51
152 173 88
150 172 72
149 171 80
146 168 62
152 174 80
149 171 72
146 167 62
147 169 80
150 173 95
153 174 51
150 171 80
148 170 72
157 179 102
150 172 80
150 173 72
153 174 95
149 170 80
156 177 80
147 168 72
149 170 80
159 180 114
143 163 36
144 165 62
143 164 36
155 175 88
148 171 95
156 177 95
147 168 62
154 176 80
149 170 102
151 171 95
148 170 62
148 169 88
146 167 88
153 173 72
154 176 88
147 167 51
146 166 80
146 166 51
154 174 88
152 174 114
147 167 80
147 167 72
153 174 88
153 173 88
149 169 95
150 171 88
143 162 72
152 173 102
143 163 51
141 162 51
150 171 72
140 160 72
142 162 51
148 169 80
153 173 80
145 166 72
151 172 88
140 160 51
142 162 62
139 159 72
143 163 80
134 154 72
146 165 80
151 171 72
140 160 80
142 161 95
140 158 72
137 156 72
142 162 62
142 160 62
139 159 88
137 157 88
137 157 72
133 152 36
132 151 72
146 166 88
141 160 80
120 140 52
86 111 121
93 114 134
66 95 125
88 112 133
97 121 147
89 114 137
69 96 120
108 130 154
90 116 142
78 103 113
89 113 142
101 122 128
92 115 137
86 109 138
80 104 121
83 107 123
99 124 145
95 120 128
105 127 131
108 130 122
70 99 136
88 113 150
90 115 138
80 108 153
72 101 146
78 106 147
84 111 161
73 103 156
59 93 155
56 89 138
60 95 158
59 93 150
56 89 135
59 93 153
57 89 132
54 86 134
58 91 144
55 88 146
55 88 129
55 88 137
54 85 121
56 86 121
63 93 119
65 95 142
69 98 133
74 100 105
67 96 118
55 87 130
56 89 136
54 85 125
56 88 133
60 94 155
57 89 127
55 88 128
58 91 139
59 92 137
56 89 140
52 82 104
55 87 122
58 91 145
55 87 138
58 91 140
60 94 138
56 88 132
58 92 129
55 87 114
56 88 135
56 89 142
55 87 128
56 89 145
58 92 137
55 88 137
57 90 136
57 91 144
58 92 146
58 91 141
57 90 137
59 93 139
61 94 152
57 90 138
57 91 146
57 90 139
58 91 143
57 89 131
56 89 131
57 89 128
57 90 141
60 93 147
57 90 141
58 91 139
56 89 142
56 89 137
58 91 141
57 91 141
57 90 146
58 91 141
56 88 134
57 90 136
57 90 131
59 93 146
54 86 129
56 89 137
57 89 133
58 93 144
58 91 140
59 93 141
56 89 129
55 87 127
58 91 143
56 89 132
59 93 141
57 90 136
57 89 132
59 93 145
60 93 143
57 89 129
58 92 146
56 88 134
58 92 144
59 92 139
59 92 144
56 88 133
54 86 127
57 91 140
55 87 124
57 91 137
59 94 147
57 90 135
56 88 132
55 88 127
56 88 127
56 89 130
56 88 119
56 88 135
56 89 130
59 92 141
56 88 131
57 90 144
58 91 142
61 95 137
57 90 130
54 86 128
56 89 137
59 93 137
57 90 131
58 90 142
56 88 126
55 87 122
56 88 130
55 86 121
56 89 128
56 89 131
58 90 134
54 85 121
57 89 131
55 87 115
59 93 137
58 91 140
56 88 130
56 89 124
58 90 126
56 89 122
54 85 119
56 88 131
56 88 128
56 88 131
56 88 128
54 85 112
51 81 116
51 81 101
52 82 100
93 109 63
97 108 0
104 118 0
103 118 0
106 119 0
101 114 0
117 132 0
91 102 0
104 117 0
112 124 0
122 137 0
111 126 0
129 144 0
105 119 0
100 112 0
109 123 0
118 130 0
112 126 0
111 124 0
108 119 0
123 137 0
119 133 0
119 132 0
111 126 0
108 122 0
121 135 0
121 137 0
122 138 0
111 125 0
112 125 0
115 132 0
120 134 0
118 134 0
124 139 0
126 141 0
124 137 0
123 137 0
126 142 0
112 128 0
129 143 0
120 133 0
126 139 0
124 139 0
143 161 0
130 144 0
127 143 0
126 137 0
125 141 0
112 126 0
118 132 0
131 148 0
133 147 0
119 134 0
116 131 0
135 149 0
125 139 0
129 146 0
138 155 0
124 138 0
128 142 0
130 144 0
130 146 0
139 155 0
126 142 0
117 131 0
137 154 0
134 149 0
130 145 0
120 130 0
133 148 0
132 146 0
146 164 0
128 143 0
131 147 0
134 149 0
134 151 0
127 142 0
124 140 0
139 156 0
137 153 0
136 154 0
137 151 0
131 149 0
128 142 0
128 144 0
140 155 0
135 153 0
140 156 0
144 160 0
141 158 0
140 156 0
130 146 0
131 146 0
150 167 0
129 145 0
144 160 0
142 159 0
136 151 0
142 159 0
136 152 0
131 146 0
140 155 0
129 146 0
146 164 0
139 154 0
143 160 0
137 155 0
147 162 0
143 159 0
143 162 0
142 158 0
142 160 0
144 161 0
133 150 0
143 159 0
133 149 0
143 159 0
143 160 0
138 155 0
142 159 0
149 166 0
145 164 0
147 164 0
147 165 0
143 159 0
148 164 0
154 175 62
146 167 51
152 173 62
148 170 72
149 170 72
150 172 72
152 175 88
153 175 72
153 174 62
154 176 51
153 174 88
149 170 62
152 173 36
159 182 114
152 174 62
146 167 80
150 172 88
151 173 72
153 174 95
138 159 36
151 173 80
152 174 88
144 164 0
150 171 72
155 177 72
147 169 62
144 165 62
146 167 51
150 170 72
149 170 72
152 173 80
148 169 72
146 167 51
147 168 72
152 173 51
150 172 88
151 172 102
149 171 88
149 170 80
151 171 62
155 176 62
159 179 108
142 162 62
157 178 102
148 169 88
152 173 88
165 186 120
149 169 80
149 170 80
149 171 88
153 174 95
153 173 108
145 165 72
155 174 80
147 169 95
148 168 88
159 178 108
151 172 80
145 165 95
152 174 95
145 167 80
152 173 88
144 164 88
155 176 108
145 166 88
148 169 51
157 177 88
157 177 102
156 177 102
153 172 95
149 169 88
152 173 72
145 166 80
142 162 62
141 160 62
153 172 62
144 164 51
152 171 88
136 153 62
148 169 95
155 175 51
141 161 80
138 157 72
136 157 62
144 164 80
136 157 51
139 159 51
143 164 51
139 159 80
140 159 62
142 161 62
138 159 88
141 161 95
137 155 51
129 147 36
134 153 62
141 161 88
134 153 72
133 153 36
133 152 51
127 145 51
135 154 62
122 140 51
118 140 94
73 98 90
97 120 138
68 94 100
92 114 121
84 108 118
105 126 153
86 110 145
101 123 146
97 118 126
87 109 130
82 106 107
89 111 120
103 125 136
87 111 122
83 108 137
80 106 116
97 120 138
99 123 140
103 125 140
77 103 133
71 97 116
98 121 130
71 100 142
72 101 148
59 92 146
95 121 169
94 118 163
72 102 146
58 92 144
58 91 146
57 90 139
59 93 155
58 92 150
61 94 144
57 90 141
56 88 140
58 91 144
57 90 141
57 90 144
65 95 125
56 88 127
59 89 124
61 92 134
55 87 125
55 84 113
79 106 124
53 84 118
54 84 123
57 90 141
55 87 126
57 90 135
55 87 125
57 89 130
56 89 128
54 86 126
57 89 136
56 89 127
56 88 124
54 87 123
59 93 140
55 88 139
57 89 132
56 88 133
58 91 148
54 86 117
56 89 136
55 87 127
56 88 132
54 85 118
57 90 140
54 85 123
58 92 148
59 93 145
57 90 139
57 90 134
54 87 122
56 90 143
55 87 124
58 90 141
57 90 139
59 92 145
55 87 127
58 92 145
55 88 132
56 88 129
58 91 129
58 91 139
57 90 141
58 91 138
58 92 147
55 88 124
56 89 132
59 93 150
59 92 147
58 91 150
58 92 146
57 90 134
57 90 133
59 93 150
55 86 121
58 91 139
59 92 141
60 94 146
57 90 131
60 94 158
58 92 143
57 89 139
55 87 121
58 91 141
57 89 136
56 88 131
55 87 129
59 93 148
59 92 147
57 90 134
58 91 137
57 90 137
57 90 135
59 93 145
59 93 142
58 92 139
58 91 139
59 93 131
59 93 149
56 89 130
57 89 129
57 90 137
59 93 142
57 89 135
58 92 140
59 93 147
56 88 120
57 90 136
58 91 139
56 88 132
56 88 134
55 87 124
59 92 143
55 86 123
57 90 135
59 93 147
60 94 145
57 90 128
54 85 123
56 89 131
57 89 139
55 87 118
52 83 102
57 90 136
57 90 116
58 90 134
56 89 129
58 92 134
59 91 132
60 93 145
54 86 115
56 87 119
54 85 112
56 89 134
57 89 130
59 93 146
56 87 134
54 86 118
54 86 123
56 88 122
55 87 128
52 82 107
56 87 124
58 90 138
74 97 84
88 101 0
105 119 0
113 125 0
114 127 0
119 132 0
103 113 0
96 110 0
98 111 0
124 138 0
95 105 0
117 132 0
116 132 0
120 133 0
115 129 0
123 137 0
113 128 0
115 125 0
122 136 0
99 112 0
113 128 0
104 117 0
115 127 0
113 128 0
117 132 0
126 140 0
119 134 0
125 142 0
122 138 0
115 132 0
127 140 0
119 133 0
106 117 0
117 133 0
111 125 0
123 137 0
121 136 0
132 148 0
117 130 0
126 141 0
133 149 0
122 137 0
125 139 0
133 151 0
121 140 0
125 141 0
128 144 0
118 134 0
131 148 0
130 145 0
126 141 0
121 133 0
124 137 0
139 155 0
137 151 0
126 138 0
122 137 0
129 142 0
125 140 0
146 163 0
125 138 0
131 142 0
127 140 0
129 145 0
131 147 0
134 149 0
135 152 0
136 151 0
137 154 0
128 144 0
128 143 0
133 150 0
137 151 0
145 160 0
129 143 0
127 141 0
135 152 0
137 153 0
138 157 0
141 155 0
136 150 0
145 162 0
139 154 0
125 141 0
130 146 0
138 156 0
135 149 0
131 146 0
133 148 0
130 149 0
132 149 0
145 163 0
147 165 0
140 157 0
126 140 0
138 155 0
136 154 0
143 160 0
136 153 0
146 164 0
132 147 0
140 158 0
141 157 0
141 159 0
139 155 0
138 157 0
141 157 0
135 153 0
142 158 0
125 142 0
135 152 0
148 164 0
146 163 0
145 163 0
146 163 0
136 153 0
150 169 0
135 152 0
139 158 0
150 169 0
147 166 0
138 155 0
143 161 0
143 161 0
150 170 0
147 163 0
146 164 0
153 174 72
148 169 80
141 163 62
150 170 62
153 174 62
160 181 80
149 171 72
155 177 102
160 182 95
158 179 80
150 170 36
157 178 95
145 165 36
152 174 62
150 171 72
159 181 95
149 172 88
148 170 62
145 167 51
152 175 102
150 170 36
157 179 62
155 177 88
151 174 80
150 171 51
141 162 51
142 163 51
145 167 51
152 174 72
148 169 62
159 178 95
154 176 88
150 170 80
155 176 80
144 165 62
152 173 95
156 177 108
152 173 80
157 178 95
154 175 125
147 168 80
151 172 88
150 172 80
154 175 80
151 174 88
151 172 72
156 177 102
152 173 95
149 170 51
147 167 80
156 176 120
154 176 102
162 184 114
152 172 102
150 171 88
159 179 102
142 162 80
150 171 88
155 175 102
149 169 102
148 168 108
148 169 80
153 172 102
150 171 102
148 168 95
145 165 80
156 177 102
139 160 80
147 167 80
148 168 95
148 169 102
145 164 72
147 169 88
154 175 102
139 157 72
140 159 80
147 168 80
140 159 88
150 170 80
149 169 102
141 161 51
151 172 102
141 160 80
136 156 72
143 163 62
140 161 88
143 163 72
155 176 80
131 151 62
145 165 72
140 159 88
137 157 62
133 151 88
134 153 80
135 154 0
140 160 72
137 154 80
141 159 51
139 158 36
135 153 80
131 148 36
132 150 80
138 155 51
138 156 72
106 128 125
91 114 130
80 103 114
72 96 96
75 100 119
89 114 142
99 123 143
92 115 127
102 123 141
103 123 140
109 128 148
100 124 147
99 122 146
86 109 115
85 111 137
77 103 126
81 108 137
75 100 118
81 103 106
101 124 135
73 102 135
93 116 122
87 111 141
78 106 158
64 95 142
84 110 153
65 95 148
84 110 155
57 91 153
59 94 149
58 91 144
58 91 136
56 88 138
55 88 129
57 89 133
54 86 125
59 93 151
55 88 135
55 86 128
63 94 136
54 85 118
70 98 129
62 95 151
56 88 132
55 87 128
75 100 99
59 91 132
57 91 136
58 91 141
53 85 120
56 89 133
55 88 131
61 96 138
57 90 135
54 87 136
60 94 146
55 88 140
58 91 137
55 88 131
57 90 138
56 88 130
55 87 134
57 89 135
59 93 141
57 90 132
57 90 142
59 93 147
57 90 140
57 89 134
53 84 114
57 90 139
56 88 124
57 89 134
58 92 137
59 93 147
55 87 127
57 90 134
57 90 139
57 89 131
56 89 139
56 89 129
59 92 146
58 91 146
55 88 132
58 91 138
56 90 130
57 90 137
56 89 131
57 90 134
55 87 134
55 87 124
57 90 142
56 89 126
59 93 139
58 91 136
60 93 152
57 89 129
59 93 152
56 89 129
56 89 132
57 91 137
58 91 135
56 88 127
56 88 134
60 94 152
55 87 130
54 86 122
59 92 141
55 88 130
57 90 136
58 91 139
61 96 147
56 89 130
57 90 129
56 88 127
54 86 119
57 89 131
60 94 148
58 92 142
58 91 138
55 87 133
60 95 153
56 89 133
58 90 136
58 91 142
56 89 137
57 90 130
59 93 142
56 89 135
58 91 139
57 89 136
59 93 140
58 91 125
56 88 135
59 93 147
58 91 140
57 89 132
58 92 140
55 86 116
56 89 117
56 89 130
56 89 125
57 90 128
60 94 151
58 91 138
59 93 145
55 87 128
56 87 133
55 86 120
53 85 116
53 85 117
58 92 140
54 86 120
51 81 92
55 87 120
56 88 124
54 86 118
57 90 132
56 88 118
53 83 104
57 89 125
59 93 138
54 86 116
54 86 123
51 81 101
56 87 129
55 86 124
55 86 110
63 88 78
95 107 0
104 115 0
95 108 0
105 120 0
111 126 0
98 111 0
102 116 0
92 105 0
128 143 0
106 118 0
126 144 0
115 127 0
117 130 0
114 127 0
105 117 0
105 118 0
111 128 0
117 131 0
122 136 0
127 141 0
123 138 0
115 127 0
120 132 0
116 131 0
116 129 0
122 138 0
126 139 0
119 135 0
104 117 0
122 138 0
125 140 0
125 141 0
122 136 0
127 141 0
129 143 0
118 131 0
132 149 0
128 145 0
123 137 0
119 134 0
116 130 0
132 149 0
117 130 0
124 139 0
128 143 0
127 144 0
122 137 0
127 140 0
123 138 0
131 148 0
120 135 0
123 138 0
133 149 0
132 147 0
134 150 0
122 138 0
132 147 0
128 143 0
133 148 0
137 152 0
124 139 0
131 147 0
126 142 0
127 142 0
129 144 0
127 143 0
121 134 0
131 146 0
127 144 0
137 154 0
132 148 0
137 154 0
130 148 0
137 152 0
128 143 0
131 145 0
124 138 0
128 144 0
142 159 0
130 147 0
130 147 0
139 157 0
137 154 0
129 143 0
137 155 0
129 145 0
134 151 0
141 158 0
135 152 0
134 151 0
146 164 0
142 159 0
141 159 0
132 149 0
141 159 0
137 154 0
134 150 0
138 156 0
138 156 0
144 163 0
139 156 0
143 160 0
126 143 0
141 159 0
139 156 0
136 156 0
144 162 0
141 158 0
145 162 0
136 153 0
148 167 0
143 162 0
140 156 0
145 161 0
139 155 0
145 164 0
136 150 0
147 166 0
143 160 0
147 164 0
140 157 0
134 150 0
136 153 0
141 159 0
145 163 0
142 161 0
135 152 0
152 172 0
146 168 62
157 179 102
153 175 51
148 169 72
148 168 62
150 171 51
152 172 62
152 174 72
146 168 36
152 173 36
150 171 51
156 179 88
161 184 114
156 178 80
156 178 62
149 171 72
149 170 80
154 176 88
155 177 95
151 173 80
149 171 80
156 178 88
149 170 62
143 165 80
159 178 36
151 172 51
157 178 102
158 178 88
150 171 72
152 172 88
145 166 62
153 173 72
150 170 102
150 171 62
144 165 80
165 188 135
150 171 95
155 174 62
144 165 36
149 170 88
152 171 80
151 172 72
153 174 102
164 186 120
159 179 125
149 169 88
154 173 95
155 175 108
140 162 80
153 174 108
152 173 72
148 168 62
148 169 102
152 173 114
156 177 130
146 167 88
162 181 125
154 173 108
155 175 108
154 174 108
156 176 102
148 169 88
158 177 120
153 175 114
146 165 88
139 160 72
158 178 95
156 177 135
158 179 108
157 178 102
156 177 125
142 164 88
150 171 95
150 170 102
151 171 95
130 150 51
148 168 80
145 166 80
150 169 95
143 163 102
144 164 80
146 166 72
134 154 80
140 161 36
150 170 72
135 156 51
143 164 80
137 157 72
140 160 80
150 170 80
140 159 62
149 169 95
138 157 36
130 149 51
132 149 36
138 158 62
134 153 51
140 157 80
126 143 36
141 160 51
139 158 51
131 150 80
127 144 51
124 142 89
86 108 98
74 99 125
90 113 126
82 107 122
89 111 132
94 117 137
73 100 128
75 101 124
86 110 131
88 110 130
71 97 131
86 110 122
71 96 131
91 115 125
90 116 139
87 112 122
93 117 129
95 118 119
92 116 124
102 125 157
87 112 138
93 119 131
71 97 132
90 116 169
80 109 163
66 98 152
73 101 148
77 103 140
59 93 152
58 91 148
57 90 141
59 93 149
57 89 128
59 93 147
58 91 138
56 89 126
56 89 136
55 88 134
58 89 128
60 91 133
56 86 118
56 88 130
60 87 110
53 85 127
73 99 106
56 86 120
56 89 135
56 88 128
55 87 117
56 88 129
56 88 133
59 92 153
57 89 135
55 87 127
56 89 128
56 89 125
54 85 125
55 87 123
57 89 127
58 91 141
58 91 137
56 88 137
55 87 119
60 94 150
56 88 125
56 89 135
56 89 133
57 90 133
56 89 139
57 90 134
55 87 128
58 91 134
54 85 122
58 92 146
55 87 124
56 89 132
58 92 137
58 91 139
54 86 114
56 89 127
58 92 148
58 92 139
58 90 141
55 87 127
58 92 148
57 90 135
58 91 126
57 89 123
54 85 130
56 88 129
56 89 130
59 93 145
60 94 145
54 87 128
57 90 136
57 91 137
58 92 139
56 89 131
57 90 139
58 90 134
57 89 130
55 87 137
57 90 130
55 87 124
55 87 129
57 90 134
59 93 146
58 92 141
55 87 127
55 87 127
57 90 133
57 90 122
57 89 139
55 87 126
58 92 137
59 93 143
54 85 117
54 86 122
55 88 125
58 91 142
57 89 129
54 85 122
59 93 132
57 90 134
59 92 149
54 85 120
58 91 134
56 88 120
56 88 127
56 89 127
56 88 133
56 88 130
55 87 130
57 90 138
57 91 134
56 89 135
58 91 142
55 87 130
58 92 136
57 89 132
60 94 147
58 92 141
56 88 122
56 88 131
54 86 118
55 87 118
57 89 135
59 92 134
53 85 120
57 89 134
55 87 125
55 87 121
54 85 115
58 91 137
58 91 129
55 87 122
56 87 129
59 91 131
54 85 115
55 87 121
58 91 136
57 90 130
54 85 111
53 83 107
55 87 123
55 87 118
56 86 115
92 103 0
107 123 0
102 117 0
101 113 0
103 118 0
106 119 0
118 131 0
121 135 0
107 118 0
116 130 0
106 122 0
109 123 0
119 134 0
119 135 0
116 131 0
113 128 0
115 128 0
123 137 0
124 139 0
117 132 0
121 137 0
118 131 0
120 136 0
112 127 0
110 124 0
118 132 0
118 132 0
121 136 0
115 129 0
121 136 0
113 130 0
123 139 0
109 123 0
131 146 0
122 136 0
117 131 0
122 137 0
124 140 0
126 140 0
120 136 0
116 132 0
120 136 0
134 151 0
119 133 0
108 119 0
111 125 0
134 152 0
119 134 0
124 139 0
127 140 0
134 150 0
139 157 0
120 136 0
121 138 0
129 145 0
123 140 0
132 146 0
125 137 0
124 139 0
130 144 0
142 159 0
125 142 0
145 162 0
137 155 0
142 159 0
127 143 0
133 149 0
127 142 0
134 151 0
131 147 0
135 152 0
130 145 0
142 158 0
133 148 0
127 143 0
135 150 0
132 147 0
134 150 0
134 150 0
142 158 0
129 144 0
141 156 0
142 160 0
123 139 0
138 154 0
141 158 0
134 150 0
141 158 0
137 152 0
137 152 0
130 146 0
143 160 0
127 143 0
133 149 0
137 154 0
138 153 0
154 173 0
138 155 0
136 153 0
136 152 0
136 153 0
141 157 0
138 155 0
144 160 0
138 155 0
128 145 0
135 150 0
130 144 0
140 157 0
138 155 0
136 153 0
144 161 0
139 157 0
144 161 0
141 158 0
149 166 0
144 161 0
148 167 0
136 153 0
144 163 0
142 159 0
137 156 0
144 162 0
148 166 0
139 156 0
147 166 0
151 170 0
138 157 0
152 173 36
154 176 102
155 177 88
154 175 62
155 176 80
150 171 36
152 172 36
153 174 95
150 172 62
153 175 80
147 168 62
153 174 80
152 174 88
154 176 88
148 169 80
156 179 108
157 179 72
153 175 80
153 175 88
157 179 95
151 170 51
153 174 51
150 169 36
148 170 88
154 176 102
149 172 88
152 173 80
154 176 80
154 175 72
149 170 0
156 177 72
153 174 102
156 178 80
151 171 88
155 176 102
162 184 108
157 178 88
148 168 36
154 176 108
150 171 102
157 178 114
153 174 95
150 171 102
152 173 72
152 173 102
156 178 108
155 176 114
154 177 120
149 169 114
151 172 72
150 170 95
145 165 88
150 170 72
153 174 108
158 179 114
154 176 120
159 179 114
148 167 95
151 171 108
157 176 108
154 174 102
148 168 72
142 163 80
153 174 125
154 174 125
148 168 102
155 175 72
152 172 88
155 176 120
161 181 95
150 170 102
149 169 88
152 171 80
148 167 102
156 174 102
151 171 51
148 167 102
131 150 51
156 175 108
149 168 108
152 172 88
153 173 120
140 159 80
143 163 72
139 158 95
140 160 88
154 174 114
144 163 80
137 157 51
129 148 72
132 151 51
145 165 62
142 161 51
128 147 51
137 155 62
148 167 62
129 148 72
138 156 36
130 150 62
130 148 62
130 149 51
141 158 72
139 157 95
133 151 72
132 149 72
112 132 101
81 104 113
70 96 118
71 98 121
74 99 117
80 104 119
82 106 122
80 105 130
94 118 133
79 104 130
104 124 134
92 116 130
91 114 132
90 112 116
87 111 122
79 104 119
84 110 155
92 116 131
102 125 131
85 110 125
82 108 134
87 112 128
78 105 131
66 98 155
72 101 154
77 104 144
79 107 157
66 97 151
61 94 142
56 89 128
57 90 142
58 91 147
57 90 133
59 93 144
58 92 151
53 83 117
57 89 139
54 85 126
58 91 145
57 88 130
52 83 120
62 90 129
62 92 127
57 91 140
60 88 99
70 98 120
53 84 113
54 85 124
56 88 131
55 87 130
56 88 132
51 82 109
53 84 122
56 89 135
57 90 148
53 83 104
54 87 118
58 91 137
54 85 125
56 88 131
58 92 147
55 88 128
55 88 129
56 89 138
55 88 129
56 88 130
58 91 140
57 90 139
54 86 130
56 89 136
57 89 137
55 88 128
55 86 124
56 88 124
57 90 142
55 88 132
57 89 129
54 86 129
56 89 134
56 88 124
57 90 134
57 91 141
57 90 137
55 88 132
58 92 144
57 90 134
55 88 128
58 91 134
57 90 141
56 89 134
57 90 139
59 92 139
57 90 142
58 90 141
54 86 128
59 93 145
58 92 141
56 88 132
57 89 131
57 90 134
56 88 127
58 91 131
58 91 139
57 89 136
56 89 131
54 85 118
58 91 142
56 88 132
55 87 122
56 88 130
56 89 137
57 90 135
58 91 144
59 93 146
57 89 127
56 88 124
59 92 148
56 88 127
56 88 127
59 93 146
56 89 130
59 92 144
57 90 132
53 83 101
55 86 124
56 89 130
58 91 145
58 91 141
53 85 110
61 95 157
56 88 117
56 88 130
56 88 133
56 88 113
58 91 140
58 91 138
58 92 148
58 90 132
58 90 135
56 89 128
55 88 125
51 82 105
56 88 128
57 90 129
57 89 131
58 91 133
57 90 138
56 88 128
57 90 132
57 89 130
55 87 119
58 92 136
57 90 132
54 85 112
56 88 129
52 83 106
56 89 131
58 91 138
56 89 126
56 88 119
57 89 126
55 87 122
56 88 130
54 85 109
53 84 114
61 92 127
87 103 53
102 115 0
103 118 0
104 118 0
104 118 0
107 121 0
111 126 0
116 130 0
117 131 0
109 123 0
113 126 0
116 130 0
121 137 0
107 120 0
115 130 0
96 108 0
121 136 0
124 139 0
113 129 0
118 132 0
111 124 0
108 122 0
106 121 0
118 132 0
102 116 0
124 138 0
124 136 0
108 124 0
112 126 0
110 125 0
117 131 0
128 141 0
121 136 0
116 133 0
114 128 0
127 144 0
110 124 0
110 125 0
120 135 0
123 140 0
126 140 0
121 136 0
117 130 0
114 129 0
121 137 0
122 137 0
134 152 0
121 138 0
128 144 0
121 136 0
129 143 0
133 150 0
128 144 0
133 149 0
127 142 0
138 156 0
131 149 0
118 134 0
122 137 0
130 145 0
125 139 0
131 144 0
133 148 0
129 145 0
130 145 0
131 147 0
135 150 0
133 148 0
134 150 0
127 144 0
129 145 0
135 150 0
129 145 0
129 145 0
127 145 0
133 149 0
135 149 0
135 151 0
141 155 0
135 151 0
130 145 0
139 155 0
135 150 0
134 152 0
133 150 0
139 156 0
145 161 0
133 149 0
139 155 0
132 150 0
131 147 0
133 152 0
145 162 0
136 151 0
139 154 0
133 147 0
138 153 0
138 155 0
135 151 0
132 146 0
133 152 0
139 155 0
136 154 0
140 158 0
140 158 0
136 154 0
135 152 0
145 163 0
136 152 0
143 161 0
142 161 0
141 160 0
135 149 0
141 157 0
139 156 0
137 155 0
137 155 0
145 163 0
140 158 0
138 154 0
144 161 0
139 157 0
145 163 0
139 156 0
138 153 0
138 155 0
147 165 0
136 152 0
147 165 0
152 175 88
157 179 95
150 171 62
148 169 62
156 178 88
149 170 62
151 173 95
163 183 88
151 171 72
154 177 114
151 171 62
148 169 51
155 176 62
152 175 114
156 177 80
153 175 80
146 167 51
146 167 51
157 179 88
150 170 80
154 174 72
158 178 95
149 171 72
156 177 95
152 172 72
157 177 88
157 178 80
159 181 102
155 175 88
155 175 72
155 177 108
158 179 102
155 176 102
158 178 114
151 172 88
155 177 102
146 167 88
154 174 102
150 172 95
157 178 102
158 178 102
162 184 140
152 172 95
150 172 108
156 177 114
154 174 108
162 182 102
151 171 72
145 167 88
155 175 62
154 174 95
153 176 125
144 166 80
158 177 88
154 175 88
147 168 102
154 174 95
146 167 95
157 178 88
152 173 102
149 169 80
154 175 95
157 178 125
155 176 102
149 170 102
142 163 72
144 164 88
151 171 95
148 168 88
151 171 108
146 166 88
150 168 102
145 164 88
153 173 114
154 173 108
143 162 72
154 174 108
143 163 95
143 164 102
152 172 95
146 165 80
144 163 88
145 165 80
141 160 88
142 159 80
141 160 80
149 167 102
140 160 80
152 172 102
146 166 72
141 161 51
137 155 72
147 166 114
131 150 36
137 157 62
146 167 102
141 160 95
141 161 72
139 157 88
149 169 80
141 160 80
126 144 51
133 151 88
136 155 88
127 143 102
130 146 98
95 115 118
83 107 104
84 109 124
91 114 109
96 118 133
91 113 121
82 104 108
108 129 150
111 132 137
111 131 134
79 104 133
93 116 136
85 107 128
82 105 106
77 103 125
90 112 122
87 110 106
92 116 123
78 105 125
85 109 128
89 114 137
97 118 129
74 103 150
65 97 151
78 105 149
58 91 144
89 114 153
72 101 135
58 91 139
59 93 151
60 93 132
59 91 137
59 93 144
54 86 128
57 90 140
58 91 143
56 89 129
58 91 143
57 89 132
64 93 117
59 89 117
57 89 126
55 85 108
66 96 127
89 115 131
52 83 111
53 83 115
58 92 153
54 85 123
59 92 145
57 90 136
55 87 127
56 89 140
55 87 131
57 90 136
56 88 133
54 86 117
55 88 131
56 89 127
54 86 126
56 90 137
56 89 136
55 87 128
55 88 134
59 93 138
53 84 124
56 88 125
55 87 123
58 92 142
57 91 135
56 89 136
56 88 130
56 89 130
56 88 133
56 88 127
57 89 132
57 91 138
54 85 117
59 93 149
56 87 136
57 90 137
58 91 141
57 90 137
57 90 137
57 89 129
53 84 110
60 94 148
53 84 116
58 91 141
58 91 138
56 88 132
56 88 122
59 93 145
58 92 151
57 90 141
55 87 130
55 87 121
54 85 120
56 89 135
57 90 137
55 87 126
56 88 129
57 91 142
57 90 125
56 88 127
55 87 132
60 93 145
55 86 122
57 91 133
58 92 135
55 88 130
59 92 143
59 92 144
56 89 130
56 89 130
57 90 136
55 87 120
59 93 148
55 86 125
58 91 144
56 88 126
55 87 124
57 90 128
55 86 119
57 89 134
59 92 149
56 89 124
57 90 131
54 87 120
54 86 125
58 91 141
58 91 133
54 85 114
57 90 138
58 90 135
60 94 148
55 87 129
56 88 115
57 90 134
56 88 125
55 87 124
54 85 116
57 89 126
54 86 120
56 89 130
56 88 124
58 92 142
56 88 130
56 89 133
54 86 116
57 90 127
60 94 149
58 91 135
55 86 118
54 85 103
56 88 124
57 90 129
57 90 120
56 88 124
54 84 115
54 85 115
52 82 103
57 89 128
54 84 114
85 102 76
103 118 0
113 126 0
111 124 0
111 125 0
121 134 0
110 125 0
114 128 0
99 113 0
102 115 0
110 125 0
104 121 0
117 133 0
107 121 0
115 130 0
99 109 0
126 139 0
106 120 0
112 126 0
103 116 0
121 136 0
120 135 0
116 129 0
124 139 0
115 129 0
122 137 0
114 128 0
126 143 0
111 126 0
124 139 0
120 137 0
128 144 0
114 127 0
127 142 0
118 134 0
122 138 0
129 145 0
120 135 0
137 153 0
112 125 0
121 135 0
115 131 0
129 144 0
130 147 0
126 141 0
121 135 0
130 145 0
133 149 0
128 144 0
135 150 0
125 140 0
128 144 0
122 135 0
124 140 0
129 146 0
125 141 0
121 134 0
128 143 0
130 147 0
119 136 0
119 132 0
133 149 0
129 144 0
129 144 0
129 146 0
131 147 0
131 148 0
136 154 0
135 151 0
118 133 0
137 155 0
137 153 0
128 142 0
133 147 0
132 147 0
131 148 0
138 152 0
130 145 0
139 156 0
134 150 0
134 151 0
134 149 0
138 155 0
135 150 0
125 142 0
129 142 0
139 153 0
135 154 0
129 145 0
137 154 0
135 153 0
143 160 0
125 140 0
144 159 0
131 148 0
133 150 0
137 154 0
141 160 0
132 150 0
135 154 0
145 164 0
146 164 0
146 163 0
142 160 0
135 151 0
147 166 0
148 164 0
140 159 0
141 158 0
134 150 0
143 161 0
140 157 0
145 164 0
141 158 0
145 162 0
138 154 0
143 161 0
134 151 0
138 152 0
142 160 0
144 161 0
138 156 0
137 155 0
144 162 0
139 157 0
141 159 0
144 160 0
145 163 0
138 158 0
142 161 0
157 178 88
155 175 62
156 177 88
153 174 62
155 176 80
153 172 72
149 170 62
160 181 80
163 184 95
149 171 62
153 174 51
157 178 72
151 172 51
161 182 62
155 176 51
147 169 62
145 165 36
148 169 72
148 169 72
152 174 95
149 171 72
148 170 95
143 164 51
157 179 72
158 180 102
155 176 72
152 173 88
153 175 88
152 172 88
152 174 95
155 178 108
153 173 72
160 181 120
156 176 102
153 173 95
152 174 72
152 171 80
146 167 72
151 173 120
153 174 108
156 177 102
158 179 102
158 179 95
149 171 72
157 177 120
152 172 102
148 168 88
152 173 102
151 172 125
144 165 102
152 173 95
158 178 125
146 167 72
152 171 95
156 176 114
148 169 88
146 167 72
154 175 102
143 163 51
144 164 88
147 165 72
155 175 95
153 173 95
157 178 102
154 174 114
145 164 95
148 167 80
149 169 102
151 172 95
143 162 88
150 169 72
141 161 80
154 174 88
151 172 102
157 176 135
143 162 102
144 163 80
140 160 80
147 167 80
151 169 102
145 165 95
149 168 80
158 178 102
137 157 88
141 160 88
136 156 72
151 171 108
140 159 102
142 161 80
129 148 80
160 178 125
142 160 98
146 166 72
138 158 95
126 145 72
139 157 51
133 151 62
137 156 88
144 163 108
143 162 80
126 145 0
134 151 80
137 156 88
134 152 72
129 146 51
118 134 51
99 118 62
87 109 116
98 121 122
86 111 136
88 110 124
85 108 128
83 108 121
75 99 104
91 113 117
79 104 133
110 131 140
98 119 130
87 110 123
78 102 128
90 114 122
90 115 140
87 112 146
90 115 129
96 118 107
88 113 125
98 120 123
82 107 128
70 98 133
79 108 157
78 106 149
78 105 143
81 108 153
63 94 142
62 94 131
57 89 135
60 95 159
58 92 148
60 95 159
59 92 146
56 88 134
56 90 134
56 89 136
55 87 119
54 85 114
58 91 142
54 86 129
54 85 122
56 86 115
64 94 127
91 115 99
55 86 124
55 87 130
52 83 122
54 86 126
53 84 115
57 90 140
55 88 127
57 90 136
54 87 125
58 91 140
53 85 120
51 82 99
57 89 131
54 86 123
53 84 120
54 85 120
55 88 131
55 87 120
55 86 125
57 90 143
56 89 133
57 90 130
55 88 134
55 87 127
56 89 145
54 87 126
58 91 136
56 88 130
56 89 136
55 86 122
52 83 112
56 89 130
54 86 119
55 87 124
57 91 133
57 89 132
54 86 122
57 90 140
56 88 124
55 88 130
56 89 127
59 92 142
55 86 123
60 93 141
56 89 137
54 86 122
56 88 126
57 90 134
55 87 118
58 91 142
57 90 127
57 90 135
57 90 140
57 89 137
55 88 122
59 92 134
58 91 137
56 89 133
57 89 137
56 88 129
58 92 137
55 88 132
59 92 146
56 88 124
60 94 148
54 85 123
58 91 140
57 90 137
58 90 137
55 86 127
54 85 117
58 91 139
57 90 129
58 91 137
56 89 125
60 94 152
59 92 140
58 91 132
57 91 131
56 88 121
55 87 116
57 90 120
58 91 140
57 89 128
59 93 143
53 85 109
54 85 121
60 95 148
59 94 144
55 87 124
56 89 129
56 88 125
52 82 117
54 85 122
59 92 138
58 91 133
55 86 123
57 90 132
50 80 99
58 92 136
55 86 121
58 91 133
54 85 118
53 85 114
54 86 122
57 90 133
56 88 114
55 87 111
57 90 130
56 88 126
56 88 109
55 87 113
55 87 124
57 88 126
55 86 117
56 89 122
53 84 112
57 90 123
80 99 69
114 129 0
113 126 0
104 117 0
101 111 0
116 130 0
106 121 0
107 119 0
100 112 0
103 116 0
111 124 0
110 123 0
116 129 0
106 121 0
114 127 0
108 120 0
119 133 0
111 125 0
107 122 0
116 130 0
114 128 0
119 134 0
104 117 0
127 143 0
124 141 0
138 153 0
108 122 0
122 139 0
119 132 0
118 132 0
120 136 0
112 127 0
124 140 0
120 136 0
125 142 0
123 139 0
122 139 0
122 138 0
124 140 0
128 143 0
128 144 0
127 141 0
129 144 0
127 143 0
141 160 0
106 120 0
126 141 0
123 139 0
127 144 0
134 153 0
128 144 0
136 153 0
124 141 0
129 144 0
119 134 0
130 143 0
117 133 0
129 146 0
134 149 0
129 148 0
117 131 0
137 154 0
131 146 0
136 153 0
124 141 0
125 141 0
121 135 0
138 155 0
135 152 0
141 159 0
134 152 0
124 140 0
138 156 0
134 152 0
138 155 0
144 160 0
130 147 0
125 144 0
138 152 0
144 160 0
128 143 0
124 141 0
129 145 0
143 159 0
122 138 0
131 147 0
145 163 0
132 149 0
134 151 0
130 147 0
134 152 0
135 152 0
146 163 0
135 152 0
138 156 0
133 151 0
129 144 0
137 155 0
138 156 0
142 161 0
130 147 0
135 150 0
130 148 0
136 155 0
135 152 0
137 155 0
146 165 0
139 157 0
144 163 0
135 150 0
138 156 0
147 166 0
132 149 0
146 164 0
141 160 0
133 151 0
132 149 0
136 154 0
142 160 0
139 157 0
139 157 0
147 165 0
142 157 0
139 156 0
145 163 0
139 158 0
139 155 0
137 155 0
136 152 0
137 153 0
144 162 0
155 176 51
148 169 80
153 173 72
157 178 80
160 183 114
159 182 114
149 171 88
149 170 102
152 172 51
149 171 72
146 167 62
151 172 72
152 174 80
156 176 51
149 171 80
149 170 51
155 176 62
154 176 95
164 184 95
154 176 80
152 174 80
154 175 80
155 177 88
158 181 130
156 176 72
165 187 130
150 171 88
158 180 114
155 175 95
157 178 102
159 180 108
160 180 102
160 181 108
149 169 95
158 178 88
158 179 114
163 184 120
148 168 62
158 179 114
149 170 80
146 166 72
150 170 114
149 171 95
148 169 80
159 179 140
143 165 88
149 170 88
153 173 88
163 183 120
143 164 72
147 168 95
157 178 108
154 176 108
155 176 102
155 176 125
161 183 130
147 168 95
144 164 72
153 173 125
152 173 95
154 174 80
154 175 102
156 177 125
148 169 114
146 166 72
145 166 102
159 179 125
147 166 95
147 167 51
155 176 88
155 176 114
148 168 88
157 177 108
147 167 95
136 155 80
139 158 80
140 161 88
148 168 108
148 168 114
152 171 120
148 167 80
150 171 80
152 171 108
142 162 80
143 163 72
140 160 88
138 156 62
144 163 95
141 159 88
137 157 62
131 150 62
137 156 80
142 159 102
137 155 80
135 154 80
131 149 51
134 152 62
130 150 0
136 155 62
131 150 51
133 151 62
133 151 72
137 156 72
132 151 0
129 146 80
128 145 95
130 147 80
83 107 121
63 90 90
91 116 130
77 103 116
102 125 137
89 112 127
70 96 109
105 126 134
89 111 130
94 117 132
80 103 123
85 108 118
107 127 139
91 112 124
92 116 125
93 117 132
78 102 117
94 119 134
98 121 130
108 129 140
88 112 137
76 103 121
74 103 156
95 119 161
67 99 152
79 107 145
72 102 142
61 94 151
57 91 138
56 89 133
57 90 142
59 92 149
54 86 123
58 92 144
55 87 132
56 89 139
55 87 127
54 86 119
53 84 123
69 100 142
54 86 119
56 87 116
51 81 111
77 104 130
61 89 100
56 88 129
53 85 122
55 87 121
53 83 115
52 82 114
56 88 133
56 89 137
54 85 115
57 91 146
53 84 120
59 93 143
56 88 128
56 88 129
55 87 132
58 92 141
57 90 133
56 88 125
54 86 112
55 88 134
56 88 131
56 89 139
55 87 127
59 92 149
57 90 137
57 91 142
54 86 120
56 88 128
56 89 133
57 90 134
57 89 131
57 89 140
56 88 129
56 88 137
56 88 127
53 84 120
54 86 124
57 90 132
57 90 118
56 89 135
57 90 135
56 89 128
56 89 135
58 91 137
54 85 124
55 87 126
57 89 137
57 89 137
57 90 137
58 90 139
57 90 137
56 88 127
60 93 148
55 86 129
56 89 135
58 91 139
60 94 149
55 87 116
55 87 124
57 89 124
57 90 137
57 90 134
56 89 127
58 92 140
59 93 128
57 89 132
58 91 130
58 90 136
57 89 133
58 90 137
57 90 128
59 93 142
55 87 122
55 87 122
58 92 140
55 86 122
54 86 120
59 92 134
57 89 130
58 91 140
57 89 124
57 90 135
56 88 128
56 89 128
50 79 95
56 89 138
58 91 138
60 94 151
58 91 142
60 95 148
53 85 117
55 87 118
57 88 124
53 84 115
57 89 131
59 93 144
54 85 115
55 87 131
54 86 115
61 95 148
54 86 116
55 87 122
58 90 138
59 92 135
57 90 142
55 87 122
55 86 116
55 86 116
54 85 108
56 88 122
52 83 99
54 85 118
56 88 124
53 84 109
55 86 107
54 85 119
51 81 95
92 110 64
100 115 0
88 100 0
111 126 0
103 117 0
102 116 0
106 120 0
106 120 0
96 111 0
110 123 0
102 117 0
117 133 0
120 135 0
109 123 0
102 117 0
110 125 0
126 140 0
126 142 0
110 125 0
113 127 0
125 140 0
114 129 0
108 122 0
123 137 0
124 138 0
115 129 0
123 139 0
119 133 0
117 130 0
113 126 0
133 150 0
119 134 0
121 135 0
124 140 0
125 141 0
126 140 0
109 125 0
116 131 0
122 137 0
122 135 0
122 138 0
121 138 0
121 137 0
123 136 0
133 148 0
118 133 0
119 136 0
119 137 0
124 138 0
124 138 0
124 141 0
115 129 0
140 158 0
119 134 0
122 138 0
127 142 0
128 144 0
133 150 0
128 147 0
127 141 0
128 144 0
123 139 0
135 152 0
137 153 0
131 150 0
132 146 0
132 149 0
132 148 0
135 151 0
136 152 0
130 146 0
143 161 0
134 149 0
134 151 0
121 136 0
140 157 0
139 154 0
137 154 0
137 157 0
133 150 0
133 149 0
136 152 0
138 155 0
138 156 0
139 155 0
139 154 0
140 158 0
140 157 0
142 160 0
132 146 0
136 153 0
139 158 0
145 163 0
144 160 0
140 157 0
134 150 0
133 148 0
136 153 0
139 160 0
142 160 0
139 153 0
136 154 0
141 156 0
138 156 0
137 154 0
147 167 0
137 152 0
139 155 0
139 156 0
129 145 0
127 143 0
141 159 0
141 160 0
142 160 0
141 157 0
132 147 0
144 160 0
136 152 0
124 140 0
137 155 0
148 167 0
144 161 0
136 154 0
149 168 0
144 161 0
142 162 0
140 159 0
147 166 0
146 163 0
150 169 0
145 164 0
140 156 0
152 173 72
152 173 80
153 174 80
150 172 95
157 178 95
156 177 88
144 164 62
157 179 102
155 176 80
155 177 102
156 177 62
156 178 88
149 171 72
151 172 88
155 175 95
157 178 88
156 177 72
148 170 95
154 175 102
153 174 102
146 167 80
159 181 88
154 174 62
148 169 62
152 173 95
156 176 120
150 171 88
155 175 95
158 179 102
164 185 120
161 182 120
153 174 95
155 174 95
157 179 130
140 161 72
163 184 125
158 180 135
144 164 80
155 175 95
158 180 130
154 174 102
145 167 95
148 170 108
151 174 102
160 179 130
146 167 62
160 180 102
146 168 88
153 175 114
157 178 114
153 173 80
151 171 88
153 173 95
143 165 80
153 172 88
156 176 114
148 167 80
157 176 102
139 160 88
156 176 114
151 172 114
153 174 108
153 172 88
145 165 88
155 176 102
155 174 95
154 174 114
149 170 72
154 174 108
145 166 114
139 158 72
144 164 108
146 164 102
132 151 72
153 173 95
154 174 95
152 172 102
152 172 95
141 160 95
146 165 88
143 163 95
152 171 108
140 160 80
147 167 88
144 163 102
143 164 95
142 161 62
145 165 88
137 156 88
147 167 88
135 154 36
145 164 95
145 164 114
138 156 72
148 169 88
129 148 62
146 165 72
121 139 51
123 141 88
139 158 108
135 153 95
134 152 72
127 145 36
139 157 88
118 136 62
148 167 72
121 137 51
117 134 62
91 112 125
89 112 109
81 105 123
85 109 121
96 117 125
87 110 101
83 107 112
85 107 122
87 110 121
84 108 133
83 107 133
89 113 132
90 113 138
73 102 130
69 95 106
93 117 119
80 105 132
96 120 139
100 124 151
84 108 124
81 107 139
71 99 137
73 103 161
78 105 145
72 101 151
64 94 120
78 106 118
68 97 131
53 84 108
58 92 138
59 92 135
56 89 135
54 86 127
55 87 132
56 89 132
55 87 124
58 89 135
65 96 131
53 84 121
55 84 105
56 88 139
56 86 115
78 104 103
69 92 86
57 90 132
51 81 109
53 85 124
55 87 111
56 88 134
52 82 119
58 91 144
56 88 133
54 85 122
54 86 118
54 86 117
55 87 118
54 86 125
56 89 140
53 84 117
53 84 122
55 87 125
56 88 133
55 87 125
57 90 131
56 89 138
53 85 126
57 90 143
54 86 119
59 92 143
56 89 139
54 86 128
57 90 128
56 88 132
57 91 135
58 90 137
55 86 125
57 90 135
54 86 125
58 90 137
59 92 150
54 85 122
55 88 130
59 92 147
55 88 128
55 88 127
60 94 147
56 89 125
58 91 133
56 88 126
54 84 115
58 91 142
57 90 127
55 87 127
57 90 132
57 90 128
57 89 129
56 88 127
56 88 137
56 89 135
55 87 122
56 89 135
58 91 135
57 90 137
57 90 141
55 86 122
57 89 132
55 87 125
53 85 112
58 91 139
57 89 125
56 89 132
56 89 119
59 93 147
58 92 145
58 91 141
59 93 142
55 86 111
54 86 118
55 86 122
58 91 133
58 91 147
59 93 148
57 89 135
59 93 144
59 93 141
57 90 138
57 89 131
54 86 121
57 89 136
55 88 131
56 89 134
55 87 126
55 87 124
58 90 127
55 87 119
58 91 143
54 86 118
56 89 127
58 91 129
55 87 121
56 88 128
58 92 144
59 93 145
56 88 127
56 88 131
59 93 140
56 89 130
56 89 124
58 91 128
55 86 114
54 86 116
58 92 137
58 91 136
56 88 129
54 85 116
54 85 104
53 83 104
52 82 111
56 88 118
78 98 73
103 116 0
98 113 0
89 104 0
116 130 0
97 109 0
103 118 0
110 124 0
107 118 0
112 123 0
111 127 0
105 120 0
96 110 0
102 115 0
104 119 0
117 133 0
98 110 0
113 128 0
113 126 0
112 127 0
123 139 0
130 146 0
111 125 0
109 120 0
120 136 0
120 134 0
125 140 0
108 123 0
124 139 0
123 137 0
119 133 0
121 137 0
131 144 0
126 140 0
124 140 0
119 134 0
129 143 0
117 135 0
124 140 0
126 140 0
132 150 0
121 136 0
121 134 0
125 141 0
111 126 0
131 149 0
126 140 0
128 144 0
133 147 0
109 124 0
119 134 0
119 135 0
124 137 0
127 142 0
123 139 0
120 136 0
127 143 0
117 133 0
122 138 0
132 149 0
131 146 0
130 144 0
125 139 0
123 138 0
127 143 0
135 152 0
130 149 0
131 148 0
132 151 0
127 142 0
134 149 0
134 149 0
134 152 0
132 146 0
138 157 0
134 151 0
133 148 0
140 156 0
133 147 0
133 148 0
142 159 0
131 147 0
131 147 0
131 149 0
131 148 0
137 153 0
133 149 0
134 151 0
137 153 0
140 157 0
137 153 0
142 159 0
140 157 0
135 152 0
131 147 0
137 154 0
137 153 0
133 150 0
138 156 0
136 153 0
139 155 0
137 154 0
142 161 0
140 156 0
137 154 0
141 159 0
143 161 0
144 163 0
137 153 0
142 161 0
150 168 0
138 155 0
142 161 0
138 155 0
146 166 0
141 158 0
141 160 0
142 160 0
137 153 0
143 162 0
139 157 0
144 160 0
147 165 0
144 161 0
141 158 0
148 165 0
143 161 0
146 165 0
149 168 0
140 158 0
140 157 0
148 167 0
141 158 0
155 177 95
155 176 80
145 166 62
157 179 88
153 174 51
152 175 102
145 166 36
148 168 62
156 177 62
148 168 51
148 169 51
154 175 62
160 180 120
157 178 95
151 173 88
151 171 80
155 177 80
158 179 95
159 179 72
155 176 108
146 166 36
152 172 80
147 169 88
152 173 62
147 167 80
151 172 80
152 174 114
154 176 95
159 180 88
160 180 95
151 172 88
159 178 95
154 175 102
153 173 80
153 173 95
150 170 72
161 182 108
152 173 88
160 179 102
148 168 80
153 173 62
142 162 62
152 172 95
158 178 108
154 174 88
151 172 95
159 181 130
142 162 80
152 173 120
152 173 80
150 171 114
160 182 130
152 173 88
156 177 108
152 173 95
158 177 108
146 167 102
158 179 88
159 179 117
155 175 108
157 177 88
137 155 72
142 162 72
157 177 108
156 177 130
147 168 88
154 175 102
144 164 108
148 168 114
147 166 80
151 171 95
152 172 114
149 170 80
146 166 108
144 164 88
144 163 80
152 172 95
132 151 72
145 165 102
145 164 88
144 162 108
133 151 72
150 169 108
139 158 62
157 177 125
144 164 102
144 162 95
152 173 114
145 165 88
140 158 72
141 161 72
132 150 80
130 149 72
145 163 108
133 152 62
145 165 98
140 158 72
126 145 62
151 169 108
134 152 62
131 150 51
128 145 51
134 153 62
145 164 80
131 149 80
120 136 36
134 152 72
128 146 88
125 145 106
85 108 119
69 97 113
102 124 142
97 119 142
105 126 144
91 113 128
84 105 105
85 106 123
92 117 141
77 104 120
97 119 139
90 112 122
108 129 130
87 110 119
90 114 129
85 109 120
91 114 101
91 116 135
79 102 114
86 110 101
78 106 156
64 94 147
101 125 171
72 101 148
58 89 118
62 93 142
71 101 146
59 93 149
57 90 138
57 90 140
55 87 126
55 87 134
54 86 134
57 91 130
58 87 116
62 94 134
60 90 132
53 82 99
59 90 129
64 93 120
56 87 118
73 99 109
85 109 95
54 85 125
55 88 114
53 83 114
51 81 110
54 85 120
55 86 130
55 87 125
55 87 127
52 83 119
54 86 127
55 86 120
59 92 129
52 82 102
57 90 136
56 88 123
52 82 117
54 86 123
54 86 120
52 82 112
57 90 138
54 86 118
56 88 130
57 90 134
57 90 138
55 88 121
54 86 120
57 90 130
55 86 122
56 88 124
56 89 136
58 90 143
55 87 125
57 90 133
58 92 147
55 86 116
57 90 135
55 87 128
57 90 136
56 89 130
58 92 142
57 90 128
56 88 119
59 92 139
57 91 138
56 89 130
52 82 99
56 89 122
56 88 137
57 91 137
56 89 132
56 89 133
54 86 117
57 89 137
55 86 130
56 89 131
58 90 135
54 86 125
57 90 135
57 90 132
57 90 137
59 92 134
54 86 118
61 95 149
58 91 137
57 90 132
57 89 128
55 86 122
54 85 120
58 91 137
58 91 140
59 92 142
59 92 140
58 90 137
53 84 112
60 94 151
56 89 129
54 85 118
57 89 131
56 89 131
56 89 134
55 88 131
57 90 131
56 89 131
53 84 120
53 84 106
55 86 126
57 89 126
51 81 109
57 90 138
57 91 137
55 87 131
53 85 113
59 92 142
55 86 117
57 89 125
57 89 134
54 85 118
52 82 107
58 91 132
54 85 116
56 89 129
55 87 116
54 85 115
57 90 137
57 90 128
60 93 139
56 87 118
54 85 112
56 88 128
55 87 121
57 89 122
53 84 117
52 82 103
55 86 118
80 100 83
100 114 0
113 126 0
95 108 0
122 137 0
118 132 0
106 121 0
106 119 0
104 116 0
107 120 0
120 136 0
113 126 0
113 128 0
104 117 0
120 134 0
114 130 0
115 130 0
117 132 0
97 110 0
114 128 0
119 133 0
137 153 0
116 130 0
115 130 0
105 118 0
106 120 0
115 130 0
124 140 0
106 120 0
113 127 0
128 143 0
125 141 0
117 133 0
109 126 0
114 131 0
115 129 0
134 151 0
118 131 0
127 142 0
128 142 0
124 140 0
128 143 0
123 139 0
121 137 0
126 142 0
132 150 0
129 145 0
121 135 0
126 143 0
136 154 0
123 139 0
122 137 0
129 143 0
125 142 0
130 146 0
123 139 0
116 133 0
137 153 0
130 145 0
135 151 0
132 148 0
121 136 0
137 154 0
133 148 0
126 144 0
132 147 0
133 148 0
123 138 0
125 143 0
131 145 0
130 148 0
124 141 0
131 149 0
138 154 0
131 148 0
131 149 0
124 140 0
132 148 0
134 150 0
139 155 0
136 153 0
135 151 0
146 162 0
130 146 0
140 157 0
130 146 0
133 150 0
135 153 0
131 149 0
132 148 0
133 149 0
134 152 0
121 136 0
130 146 0
141 158 0
133 149 0
137 156 0
136 154 0
136 154 0
129 148 0
142 161 0
136 151 0
139 158 0
132 150 0
141 158 0
127 143 0
148 165 0
144 161 0
144 160 0
122 138 0
137 155 0
131 149 0
144 163 0
145 162 0
140 157 0
131 149 0
142 160 0
143 159 0
131 147 0
148 166 0
139 155 0
137 154 0
135 154 0
148 168 0
143 161 0
141 158 0
139 157 0
134 150 0
146 164 0
148 165 0
143 162 0
136 153 0
153 170 0
144 160 0
150 172 95
145 167 62
148 169 62
152 174 72
151 174 80
156 177 88
154 175 72
155 176 36
155 175 51
150 171 51
151 171 80
157 177 95
145 166 72
153 173 62
147 169 102
151 173 62
158 178 88
150 171 72
150 169 51
158 179 95
160 181 125
160 182 88
154 175 80
155 176 95
153 174 62
152 173 80
155 177 102
159 181 102
161 181 125
154 175 108
151 173 80
145 165 36
154 176 88
149 170 80
156 176 108
161 182 95
147 167 80
162 183 130
149 170 88
143 164 62
155 175 95
152 174 102
147 168 88
143 163 62
155 175 108
154 175 102
150 171 62
159 180 125
152 173 108
159 180 114
161 182 114
159 180 102
163 185 130
154 174 102
156 175 80
146 166 102
157 175 120
149 168 102
155 175 102
156 176 108
147 167 102
145 165 62
147 167 95
150 170 108
145 166 67
144 164 62
151 171 102
144 163 80
145 165 88
144 164 95
157 177 130
158 178 102
158 178 108
143 163 95
153 174 114
146 165 72
137 157 72
159 179 120
139 157 80
146 165 108
139 159 80
136 155 80
141 160 95
150 169 108
130 149 62
142 160 102
152 172 102
147 167 102
140 158 88
151 170 102
135 153 36
142 160 72
145 165 72
150 168 95
139 159 88
136 155 80
135 153 62
139 158 72
145 163 95
136 154 62
141 161 72
143 161 80
131 149 88
133 150 80
132 150 95
124 142 36
123 140 62
116 132 51
130 147 62
82 104 112
95 115 112
94 115 123
88 112 129
89 113 134
87 110 120
83 105 116
95 115 126
90 113 111
89 112 135
104 126 133
108 128 130
96 117 126
74 102 108
93 116 125
95 119 125
92 115 115
110 132 141
78 104 134
98 121 136
95 119 148
67 99 155
65 96 145
85 111 147
56 90 132
67 97 133
60 93 145
60 92 136
54 86 129
55 86 136
59 93 152
56 88 131
55 87 130
54 86 131
54 86 132
57 88 124
62 94 140
62 92 128
61 91 123
56 88 133
61 92 133
65 91 84
93 116 98
54 85 112
52 82 102
52 82 110
54 86 116
57 90 132
52 83 109
57 89 141
56 88 138
56 87 130
54 86 115
54 86 125
56 88 126
55 87 127
55 87 128
54 85 121
53 84 119
55 87 130
56 88 130
56 89 122
55 86 120
55 87 128
58 91 136
56 88 122
59 92 142
56 88 126
56 89 134
54 86 126
54 86 133
59 93 147
55 87 125
57 90 145
54 85 109
57 90 136
58 91 140
55 87 129
58 91 135
58 91 128
54 85 111
56 89 132
55 88 135
58 91 136
56 88 128
57 89 137
55 87 120
53 83 106
58 91 137
57 89 124
55 88 125
55 87 120
57 89 130
56 89 122
58 91 142
54 86 126
58 90 132
55 86 127
58 91 132
56 88 134
56 88 128
53 84 114
55 88 122
56 88 125
56 88 134
57 89 133
57 89 119
59 93 143
60 94 149
52 83 118
57 90 135
52 83 109
55 86 113
57 90 138
55 87 126
56 89 127
56 89 125
56 88 127
54 86 120
54 85 117
57 90 131
55 87 125
53 83 99
56 89 129
53 84 119
58 91 136
58 92 133
61 96 152
57 89 129
58 92 139
55 87 118
59 92 131
54 86 115
57 90 133
59 92 141
57 89 128
56 88 125
54 85 115
55 88 120
53 83 104
58 91 133
57 89 118
59 92 141
55 86 118
56 88 128
54 86 119
54 86 120
56 88 123
55 87 118
56 89 125
53 85 116
57 89 133
56 89 124
50 79 93
51 79 106
52 81 110
87 109 103
98 109 0
109 124 0
112 125 0
100 113 0
103 117 0
94 106 0
102 115 0
102 116 0
103 115 0
115 129 0
110 125 0
112 125 0
111 125 0
114 130 0
118 132 0
111 124 0
107 122 0
110 124 0
121 137 0
114 127 0
112 128 0
102 117 0
102 114 0
123 139 0
115 130 0
122 138 0
122 138 0
120 134 0
119 134 0
128 143 0
125 141 0
120 137 0
122 137 0
114 130 0
119 136 0
121 136 0
125 143 0
121 136 0
122 137 0
127 145 0
117 132 0
114 130 0
130 147 0
120 136 0
131 148 0
131 147 0
121 138 0
119 136 0
129 144 0
129 145 0
121 137 0
136 153 0
141 159 0
128 147 0
130 146 0
129 144 0
135 151 0
136 153 0
125 138 0
124 137 0
127 144 0
132 150 0
132 147 0
122 137 0
126 143 0
133 151 0
141 159 0
129 144 0
131 146 0
140 157 0
138 155 0
139 157 0
136 153 0
128 141 0
128 146 0
134 151 0
145 161 0
132 147 0
130 145 0
139 157 0
137 154 0
135 150 0
140 157 0
132 148 0
135 153 0
134 151 0
135 152 0
132 150 0
128 144 0
135 150 0
136 153 0
137 154 0
147 164 0
132 150 0
137 152 0
135 153 0
130 147 0
137 153 0
141 158 0
131 148 0
129 145 0
142 160 0
144 161 0
127 143 0
142 160 0
131 148 0
143 161 0
142 162 0
134 150 0
128 146 0
142 160 0
147 167 0
143 161 0
146 165 0
141 161 0
141 160 0
127 142 0
138 157 0
144 162 0
141 157 0
137 156 0
143 162 0
145 162 0
146 163 0
148 166 0
143 160 0
140 157 0
144 163 0
148 166 0
144 162 0
139 156 0
148 166 0
141 158 0
154 173 0
153 174 80
146 167 62
147 169 51
150 171 80
155 176 51
151 172 62
149 170 62
149 169 51
149 170 62
157 177 62
151 172 95
154 175 95
151 173 72
159 179 102
153 174 80
158 179 102
156 179 108
151 172 72
161 181 95
156 177 95
157 179 135
146 167 95
149 170 72
155 176 108
154 175 108
150 170 102
154 174 88
149 170 108
151 172 102
148 169 80
157 179 102
156 178 120
157 177 95
152 173 88
155 177 108
151 171 72
154 177 120
154 174 102
158 179 114
156 177 120
162 183 135
156 177 114
152 173 80
160 179 88
157 178 102
155 176 102
145 165 72
155 176 114
140 161 72
153 173 102
155 176 114
145 166 102
157 179 88
154 175 88
155 176 108
141 161 62
144 165 95
153 173 102
149 170 102
148 169 95
146 169 95
140 160 84
149 171 95
151 171 102
147 168 72
153 172 102
150 170 95
151 171 95
153 174 88
141 160 80
153 174 95
150 171 114
150 170 120
139 157 80
149 170 95
147 165 80
143 164 88
141 162 80
156 176 114
150 171 102
151 171 108
148 167 80
154 172 125
138 157 88
137 156 36
150 169 125
150 168 102
146 165 95
139 157 95
146 165 114
149 168 95
140 160 88
139 156 72
146 164 102
145 164 95
141 161 62
145 165 80
138 156 102
144 162 72
122 141 62
127 145 72
143 162 120
140 159 80
131 149 62
142 161 62
124 141 62
148 164 114
130 147 72
119 135 80
121 139 92
79 101 103
90 111 117
94 115 129
86 109 128
98 120 141
82 107 124
111 132 155
94 118 136
90 115 135
106 127 134
87 109 119
85 109 129
94 116 121
83 108 121
79 104 107
101 122 132
75 101 101
94 117 110
96 118 142
80 106 134
73 102 151
78 106 149
60 92 134
65 95 129
66 95 118
55 87 134
76 109 134
55 88 135
60 95 148
56 88 124
56 89 137
58 92 145
53 85 119
55 87 134
50 80 109
55 87 129
58 90 134
63 92 117
53 83 112
56 86 115
65 91 92
80 102 99
58 88 116
54 85 123
58 90 135
55 86 113
54 86 121
52 83 116
55 86 116
55 87 129
56 88 130
58 91 143
55 86 121
54 86 119
59 92 138
52 82 113
55 88 124
58 91 146
55 87 138
54 85 118
55 87 123
53 85 121
56 88 123
55 88 126
57 90 137
54 85 118
57 90 126
57 90 138
57 89 133
54 86 120
57 89 135
56 88 128
58 91 137
55 86 122
56 88 125
58 91 135
53 83 109
53 85 121
55 86 128
56 88 117
55 88 131
59 93 149
56 88 121
54 85 122
57 89 125
59 92 146
56 88 128
58 91 137
58 91 135
56 89 133
56 88 125
56 89 131
55 86 125
56 89 133
55 87 123
58 92 138
58 91 141
54 86 120
57 90 132
54 86 108
57 90 135
58 91 132
55 86 119
56 88 131
55 86 121
55 86 125
58 91 133
57 90 135
57 89 132
57 90 138
56 88 122
57 90 139
53 85 114
56 88 128
57 90 133
55 87 127
54 85 118
56 89 134
57 90 134
59 92 135
57 89 131
54 85 118
57 89 125
57 89 131
53 85 113
54 86 120
57 91 134
57 89 137
58 91 144
56 88 124
56 88 125
56 88 120
55 87 125
56 88 128
56 89 121
55 87 124
54 85 112
55 87 122
56 88 124
55 87 114
54 85 115
53 84 105
54 86 120
55 86 135
56 88 129
52 83 108
54 85 117
55 86 117
55 87 133
53 85 113
54 85 113
54 84 113
50 80 108
55 86 117
75 100 82
99 113 0
91 103 0
100 112 0
100 114 0
101 115 0
108 123 0
108 120 0
102 116 0
108 122 0
113 130 0
105 119 0
116 130 0
99 113 0
116 130 0
120 134 0
101 116 0
116 131 0
118 132 0
118 131 0
123 139 0
120 137 0
127 142 0
120 136 0
101 115 0
121 135 0
124 142 0
136 151 0
117 134 0
114 130 0
127 144 0
120 136 0
128 143 0
121 137 0
115 130 0
116 132 0
110 123 0
123 139 0
125 142 0
118 134 0
127 143 0
119 135 0
119 134 0
122 138 0
121 135 0
111 124 0
119 134 0
115 131 0
135 151 0
123 140 0
126 142 0
111 126 0
125 139 0
122 138 0
125 141 0
139 154 0
123 140 0
132 148 0
123 139 0
130 146 0
132 149 0
117 131 0
126 139 0
143 161 0
128 143 0
136 154 0
125 142 0
126 142 0
132 147 0
136 152 0
132 150 0
129 148 0
143 161 0
138 155 0
136 153 0
132 150 0
133 150 0
133 149 0
132 148 0
133 148 0
139 156 0
138 157 0
134 151 0
135 151 0
144 160 0
138 155 0
127 143 0
137 153 0
132 150 0
131 146 0
143 161 0
140 159 0
141 158 0
140 158 0
140 157 0
134 152 0
136 154 0
128 145 0
135 152 0
139 157 0
131 148 0
140 157 0
139 157 0
135 152 0
138 158 0
146 164 0
146 163 0
135 153 0
138 157 0
133 150 0
138 154 0
144 164 0
135 151 0
143 160 0
138 156 0
140 159 0
148 165 0
141 159 0
141 159 0
143 162 0
146 165 0
140 158 0
138 157 0
141 158 0
139 156 0
140 158 0
143 161 0
135 154 0
150 168 0
144 161 0
143 161 0
146 164 0
137 155 0
139 157 0
139 156 0
143 162 0
154 176 88
147 168 51
155 175 72
153 174 80
152 173 51
156 177 80
152 173 62
151 172 80
156 177 88
150 171 36
155 176 95
154 175 114
161 181 88
148 170 72
157 179 102
152 172 88
156 175 95
154 174 102
165 187 125
149 170 95
158 178 102
148 169 51
164 185 130
157 177 80
153 174 114
161 182 135
147 167 80
148 168 95
160 182 108
161 182 120
160 180 102
155 176 95
153 173 80
155 176 72
149 171 114
161 181 114
152 172 80
160 180 114
159 179 102
148 170 80
147 168 88
151 172 80
142 163 80
150 171 72
148 168 88
164 182 102
148 168 72
151 171 95
148 168 72
153 174 102
140 162 88
148 168 95
151 171 114
156 176 125
156 177 114
141 161 88
138 159 98
150 170 108
150 171 120
152 172 108
145 165 99
155 177 119
155 177 102
145 166 72
151 171 99
147 168 117
153 174 88
139 158 88
146 166 72
147 166 102
138 157 80
152 172 88
155 175 125
153 173 95
151 172 120
147 168 114
144 163 108
147 165 88
152 170 125
133 150 51
151 172 102
149 168 88
129 149 72
154 172 80
135 154 88
151 170 102
138 156 72
148 168 102
153 171 125
140 158 88
140 158 95
142 161 102
145 163 95
136 155 88
145 163 95
131 149 72
132 148 80
145 163 108
140 157 108
133 150 51
137 155 80
140 157 62
130 148 51
123 141 36
126 143 51
130 148 72
133 151 80
147 165 88
121 138 51
107 122 51
113 130 99
99 121 138
85 109 126
84 107 125
83 106 110
80 103 126
88 112 125
85 109 111
84 108 132
87 110 125
95 117 129
110 129 138
75 103 109
77 101 102
84 108 116
104 126 138
74 100 116
100 122 122
106 128 132
100 123 138
76 102 141
64 94 134
70 101 147
74 103 136
76 104 135
66 97 131
68 100 127
62 93 123
54 86 119
55 86 126
55 88 131
55 87 122
55 87 124
57 89 127
60 92 129
57 88 117
59 89 111
59 90 125
55 84 112
55 87 116
61 87 100
100 122 92
72 100 132
55 86 118
54 86 121
52 81 99
57 90 131
54 85 122
52 82 104
54 86 121
52 83 113
54 86 127
59 92 144
54 85 114
56 88 130
54 86 128
55 86 128
58 91 120
53 84 121
56 88 123
58 91 136
55 87 128
55 87 125
56 89 129
55 87 131
56 88 130
52 83 110
59 93 147
57 90 129
53 83 111
55 87 114
56 89 133
60 94 143
58 91 140
56 88 124
54 86 123
56 88 126
54 85 118
56 88 133
55 87 123
56 88 125
58 91 134
55 86 120
56 88 128
58 91 136
54 86 130
57 89 122
56 88 127
56 88 128
56 88 129
57 89 132
56 89 121
56 89 131
55 88 121
57 90 138
56 89 130
56 89 135
54 86 120
56 88 120
56 88 130
57 90 134
56 88 121
56 89 131
57 89 125
58 91 140
56 89 128
55 87 129
55 87 121
56 88 119
56 88 128
53 85 121
54 85 116
55 86 114
54 86 120
57 90 136
55 87 126
55 88 129
56 87 126
56 88 123
55 87 125
55 87 107
55 87 120
53 84 111
56 88 122
57 90 128
56 88 129
55 87 118
59 92 143
58 91 136
56 88 126
55 87 117
55 86 125
57 90 135
55 87 125
56 89 125
55 87 119
51 81 104
57 90 131
58 91 143
56 87 115
53 84 105
58 91 142
56 88 123
54 86 119
54 86 117
54 84 117
54 86 114
52 83 112
55 87 120
52 83 113
54 85 121
52 83 109
50 79 108
72 92 80
103 117 0
102 117 0
96 108 0
93 107 0
98 112 0
110 126 0
108 123 0
105 118 0
117 131 0
100 114 0
110 125 0
135 152 0
89 102 0
113 128 0
109 125 0
107 122 0
116 132 0
111 126 0
103 118 0
110 126 0
113 127 0
117 134 0
107 123 0
111 125 0
106 119 0
115 131 0
128 145 0
132 149 0
121 138 0
139 156 0
115 131 0
96 111 0
116 132 0
121 134 0
106 118 0
103 120 0
121 136 0
133 149 0
116 129 0
127 143 0
127 142 0
117 133 0
124 139 0
130 146 0
123 139 0
140 157 0
114 129 0
123 138 0
122 138 0
121 137 0
125 142 0
129 147 0
133 149 0
114 129 0
129 143 0
129 146 0
134 149 0
130 144 0
134 150 0
125 143 0
140 157 0
129 146 0
132 148 0
129 145 0
136 154 0
134 151 0
129 143 0
131 147 0
135 151 0
130 149 0
128 145 0
138 154 0
128 143 0
133 150 0
134 151 0
133 148 0
138 154 0
138 155 0
134 153 0
135 153 0
134 150 0
134 150 0
137 154 0
138 155 0
130 146 0
138 155 0
142 159 0
136 153 0
140 157 0
135 152 0
136 152 0
126 143 0
142 159 0
143 160 0
137 154 0
138 155 0
135 152 0
140 157 0
145 162 0
140 158 0
133 151 0
133 149 0
125 142 0
127 144 0
145 161 0
140 157 0
147 165 0
140 158 0
133 150 0
138 156 0
140 159 0
137 155 0
138 157 0
139 157 0
141 158 0
131 148 0
132 150 0
142 160 0
138 156 0
145 163 0
146 164 0
137 156 0
143 161 0
141 159 0
141 160 0
144 162 0
141 159 0
140 155 0
144 162 0
142 161 0
136 154 0
131 149 0
143 161 0
144 164 0
137 155 0
144 161 0
153 175 88
151 172 72
158 180 80
150 171 80
155 175 72
159 179 88
153 173 36
151 171 80
154 175 72
153 173 72
157 178 88
157 178 102
154 176 88
167 187 108
160 181 108
160 181 102
167 188 125
156 176 114
155 176 114
160 180 114
157 177 102
159 180 88
161 181 120
148 169 72
158 179 108
154 176 102
160 183 130
161 181 120
158 180 120
159 181 102
156 177 88
151 171 95
146 167 80
157 177 102
157 178 135
145 166 80
150 172 72
147 168 72
158 180 140
153 173 108
153 174 80
145 165 80
154 174 102
154 175 95
158 178 88
143 162 72
150 171 95
156 174 72
152 172 88
154 174 95
154 174 102
148 168 72
151 172 102
153 174 88
160 182 125
163 184 140
144 164 92
154 174 114
163 183 125
147 169 102
149 170 108
141 161 95
158 179 130
146 166 92
151 172 108
141 162 108
143 163 72
151 170 108
150 170 88
149 168 108
152 173 108
148 168 88
146 166 102
151 171 95
140 159 88
150 170 102
142 162 80
150 169 102
148 168 102
143 163 88
143 162 95
144 164 95
154 173 125
146 166 108
146 165 102
145 164 80
148 167 80
146 166 102
156 176 114
150 169 102
130 147 51
154 172 114
151 168 114
145 164 88
146 164 108
140 158 88
132 150 88
139 158 80
135 154 62
146 164 102
136 153 95
134 153 95
142 160 62
137 155 80
132 150 80
136 154 80
124 141 72
143 161 88
111 128 51
133 149 80
108 123 62
99 117 103
76 100 105
99 118 122
84 106 112
105 124 130
90 114 118
87 110 109
89 110 129
75 100 122
86 108 102
94 117 145
98 122 125
87 111 102
92 115 120
97 121 131
88 114 146
96 117 109
67 94 120
82 108 127
83 109 141
76 102 136
65 97 142
70 99 129
67 97 134
72 99 115
72 103 153
63 92 122
56 88 126
56 89 124
55 86 126
58 89 128
57 88 119
51 81 106
68 98 133
48 77 94
58 89 128
60 90 119
58 92 140
52 83 111
56 85 116
95 117 85
73 102 125
53 85 124
54 84 120
53 84 116
53 84 116
51 81 102
55 86 123
51 81 92
52 83 119
53 83 116
55 87 131
55 87 122
55 86 129
54 86 123
53 84 113
56 88 127
54 86 126
54 85 121
55 87 123
53 84 108
56 87 125
55 86 123
57 89 131
55 88 127
56 88 133
54 86 123
49 78 97
55 87 123
57 89 125
55 87 120
57 90 128
54 86 121
55 87 118
52 83 111
54 86 120
55 87 123
58 91 141
58 90 135
55 86 117
54 86 117
55 87 118
55 87 122
56 89 128
57 89 129
54 86 120
56 87 130
55 87 127
57 90 128
56 88 125
55 87 131
52 83 109
56 87 123
57 89 128
55 86 117
53 85 118
56 89 125
56 90 135
59 92 141
55 88 128
56 88 130
55 87 128
60 93 144
52 82 109
53 84 120
57 90 131
56 88 123
53 85 121
59 92 142
53 84 118
58 91 140
54 85 117
55 87 127
61 95 149
55 87 119
55 86 126
56 88 132
56 88 118
57 89 128
53 84 115
54 85 108
58 91 133
56 88 134
54 85 116
54 85 104
55 87 122
56 89 125
53 83 105
54 85 119
55 87 118
56 88 127
55 86 112
55 87 118
57 88 129
53 83 107
53 84 116
55 86 121
54 85 112
52 82 109
58 91 137
56 88 127
53 83 109
55 86 128
54 85 110
57 89 127
54 84 112
56 87 118
52 83 118
56 87 117
53 82 115
52 82 105
81 102 87
95 109 0
99 113 0
104 118 0
104 116 0
108 120 0
101 116 0
118 133 0
112 127 0
103 115 0
100 115 0
101 113 0
119 133 0
107 120 0
98 111 0
122 138 0
120 134 0
101 114 0
115 131 0
101 118 0
120 136 0
109 125 0
108 123 0
116 131 0
118 132 0
123 138 0
118 132 0
101 115 0
118 134 0
125 139 0
123 139 0
120 137 0
123 140 0
122 139 0
116 133 0
114 130 0
126 143 0
109 124 0
125 142 0
127 143 0
127 141 0
129 143 0
125 141 0
115 128 0
120 137 0
121 137 0
118 132 0
130 146 0
128 145 0
124 139 0
131 148 0
130 146 0
118 133 0
122 133 0
131 147 0
117 135 0
128 145 0
135 151 0
133 150 0
125 141 0
129 146 0
133 151 0
129 146 0
131 148 0
132 147 0
124 138 0
127 141 0
138 156 0
138 156 0
126 142 0
119 135 0
133 145 0
135 152 0
125 141 0
135 152 0
134 150 0
125 141 0
133 150 0
133 148 0
116 129 0
137 156 0
134 151 0
132 148 0
134 151 0
145 162 0
139 155 0
143 161 0
133 151 0
125 142 0
132 149 0
137 153 0
126 141 0
138 155 0
130 145 0
138 154 0
141 159 0
137 155 0
137 155 0
135 150 0
145 164 0
137 155 0
150 169 0
141 159 0
140 156 0
140 160 0
138 157 0
141 158 0
138 155 0
138 155 0
142 160 0
139 157 0
143 161 0
141 160 0
139 154 0
148 166 0
140 155 0
142 158 0
138 155 0
136 154 0
144 163 0
140 157 0
144 162 0
145 163 0
138 155 0
145 165 0
144 161 0
137 153 0
138 156 0
139 157 0
139 156 0
146 164 0
149 167 0
143 161 0
139 155 0
147 166 0
138 156 0
143 161 0
146 165 0
158 180 88
152 173 62
158 180 80
149 171 51
154 175 80
156 176 88
162 184 102
148 168 36
153 174 62
158 179 88
150 171 72
160 181 88
153 174 95
147 168 72
144 165 72
152 172 80
154 173 95
161 181 88
159 179 102
157 179 114
161 182 130
155 176 102
155 175 95
153 174 95
157 177 95
161 183 120
155 175 102
149 170 80
155 175 102
154 175 108
151 173 108
158 178 102
148 169 95
170 190 125
164 185 108
150 170 80
156 176 108
156 177 120
152 171 72
152 172 95
149 171 102
144 165 51
154 174 95
144 166 88
157 178 108
149 169 72
155 176 95
147 167 72
159 180 120
155 176 102
141 162 62
159 180 114
152 173 108
153 172 95
150 171 108
151 171 95
148 169 88
147 168 117
148 170 88
155 175 88
151 172 80
142 162 76
151 172 88
148 168 88
144 164 88
146 165 80
154 174 117
140 159 67
146 167 92
163 181 140
150 170 114
155 175 122
142 162 88
152 171 84
159 179 102
157 176 114
159 179 130
155 175 95
144 163 114
134 153 62
142 161 88
148 167 108
139 158 80
141 160 72
152 171 114
146 167 120
158 178 88
144 162 114
140 159 88
132 151 72
142 160 88
131 149 72
126 144 72
147 165 102
138 156 102
138 155 88
133 152 72
141 160 72
136 153 88
143 162 108
133 151 72
131 149 80
118 135 51
133 151 72
122 139 36
138 156 80
133 149 80
131 149 72
122 138 62
128 145 72
115 131 72
125 142 96
80 101 107
97 119 114
85 108 104
93 115 121
98 119 124
90 110 123
87 109 114
91 112 124
96 115 115
110 131 145
100 123 129
73 97 105
82 107 117
94 113 102
93 116 108
96 119 113
82 105 114
94 118 144
84 110 151
81 110 146
62 93 126
72 101 133
66 96 129
77 106 129
58 88 122
68 99 131
56 88 130
55 87 126
54 85 119
53 84 116
53 84 116
57 89 132
59 90 124
68 96 132
58 87 110
58 88 117
61 93 134
52 82 115
57 85 97
79 101 81
76 101 106
53 84 110
50 80 97
55 86 123
52 82 108
54 85 122
50 79 103
54 85 119
53 84 115
55 86 129
51 81 100
56 87 112
58 90 128
54 86 124
55 87 124
56 89 127
52 83 105
55 88 130
54 86 122
52 83 116
52 83 113
54 86 103
56 88 131
54 85 119
53 84 109
54 85 119
57 89 117
59 92 148
56 88 131
56 88 129
55 88 128
58 91 136
56 87 134
54 85 120
54 86 121
57 90 126
55 88 126
57 90 137
56 87 122
56 89 128
55 86 117
54 85 113
56 89 129
56 89 128
54 85 106
56 88 125
55 87 120
56 89 131
55 88 125
56 88 128
55 86 117
55 86 116
58 92 141
58 92 133
54 86 124
58 91 135
55 87 124
56 89 129
57 89 131
57 89 135
56 88 128
55 87 126
54 86 114
57 90 131
56 88 134
57 90 134
55 87 120
55 86 122
55 86 116
56 88 126
55 87 120
57 90 140
54 86 120
53 84 118
55 86 117
57 90 123
56 89 131
56 88 129
54 85 119
55 86 124
57 90 139
58 91 137
55 87 115
57 89 127
56 88 129
56 89 124
54 85 125
53 84 110
56 89 128
58 90 127
55 86 120
52 84 115
59 92 140
53 84 99
52 82 101
55 87 128
55 86 126
55 87 116
55 87 127
50 78 104
56 88 127
54 85 113
55 86 126
55 86 120
55 87 125
54 84 115
52 82 98
52 81 110
52 83 103
83 103 73
103 117 0
100 113 0
107 121 0
102 113 0
114 129 0
99 113 0
108 122 0
110 124 0
103 117 0
106 118 0
114 128 0
116 129 0
126 141 0
117 132 0
114 130 0
118 134 0
124 141 0
113 125 0
111 127 0
124 141 0
121 138 0
122 138 0
117 132 0
116 132 0
116 134 0
105 119 0
117 133 0
120 137 0
122 138 0
120 136 0
125 141 0
126 141 0
122 139 0
121 136 0
123 139 0
110 124 0
114 128 0
121 137 0
113 127 0
120 136 0
128 145 0
127 143 0
118 135 0
125 142 0
115 127 0
126 143 0
126 141 0
141 160 0
128 145 0
127 143 0
128 145 0
133 150 0
125 142 0
140 157 0
124 140 0
129 148 0
128 144 0
119 133 0
126 143 0
124 141 0
125 141 0
138 156 0
128 145 0
137 153 0
125 141 0
122 137 0
131 148 0
130 146 0
125 143 0
134 150 0
128 145 0
120 136 0
137 155 0
122 139 0
125 141 0
143 160 0
133 151 0
133 151 0
123 138 0
126 139 0
138 157 0
138 156 0
137 155 0
137 154 0
134 151 0
135 151 0
140 157 0
131 147 0
139 157 0
139 155 0
140 158 0
139 158 0
141 158 0
140 158 0
136 154 0
140 157 0
134 152 0
131 147 0
142 159 0
137 154 0
134 150 0
148 165 0
134 152 0
141 159 0
144 162 0
145 163 0
132 151 0
142 158 0
141 159 0
133 152 0
138 156 0
140 157 0
137 153 0
137 155 0
146 163 0
134 151 0
132 147 0
138 155 0
142 160 0
143 162 0
148 166 0
139 156 0
142 158 0
145 162 0
142 161 0
137 157 0
144 160 0
140 160 0
142 160 0
146 165 0
145 163 0
147 165 0
138 156 0
141 159 0
142 160 0
139 157 0
138 158 0
138 154 0
148 168 72
153 174 62
158 179 102
149 170 51
151 172 62
155 175 108
161 182 72
162 183 95
148 168 80
159 179 102
154 175 80
157 177 88
154 175 88
152 173 95
146 165 51
162 182 114
156 175 102
162 181 108
152 172 88
146 168 80
150 170 72
147 168 62
161 182 95
153 174 88
156 176 120
151 172 80
160 181 88
150 170 72
152 173 102
155 175 108
147 167 62
157 177 102
159 180 125
159 180 114
158 179 95
151 171 102
156 177 114
151 171 88
151 170 95
150 171 102
151 172 88
155 175 88
149 170 80
154 173 95
157 177 80
158 179 95
150 171 102
154 174 80
149 169 95
157 179 114
142 163 72
150 170 102
143 162 62
153 172 95
147 168 108
153 173 88
153 173 88
143 163 62
140 159 72
155 174 102
146 166 95
151 173 108
149 169 102
140 160 88
138 157 92
154 173 88
151 172 114
154 174 108
136 156 80
145 165 95
145 166 88
159 179 130
153 173 95
150 171 111
148 169 80
140 161 62
155 174 120
146 166 95
143 162 95
124 143 51
151 170 108
151 170 102
150 169 95
149 169 95
144 164 62
142 161 72
137 156 102
154 173 130
136 156 80
139 158 62
132 152 95
146 165 102
141 160 80
153 171 120
144 163 95
141 158 72
133 150 80
134 152 80
137 156 62
118 135 51
148 166 72
129 147 62
146 163 102
129 146 62
138 157 80
129 146 72
119 136 62
125 142 95
136 152 80
115 131 72
118 133 95
124 139 72
110 129 104
85 108 115
84 108 126
88 108 112
98 122 135
87 108 100
83 107 124
92 114 122
99 121 121
65 93 111
78 104 115
92 114 124
98 121 107
77 100 103
82 109 132
82 107 119
95 118 138
75 101 117
76 103 130
67 98 148
67 97 126
70 100 138
61 94 122
60 90 129
68 100 150
71 99 111
74 103 124
56 88 134
59 90 118
55 88 133
57 90 130
58 92 141
56 85 115
57 90 136
57 87 126
67 97 128
62 90 104
50 79 90
62 89 85
104 125 67
84 107 93
53 84 111
52 83 111
52 83 108
57 90 129
52 82 105
57 90 128
50 79 103
53 85 119
55 87 126
56 87 119
54 85 116
54 86 119
53 85 125
55 87 122
57 89 132
54 85 123
55 87 129
54 84 118
53 85 120
54 84 119
57 89 132
54 85 119
56 87 127
57 89 129
54 86 115
57 89 130
57 89 126
56 89 127
57 90 131
56 88 124
55 86 115
54 86 118
56 88 129
54 85 115
55 86 115
56 87 114
54 86 119
53 84 110
51 81 102
56 88 124
57 89 137
59 92 141
57 90 126
51 81 110
55 88 127
54 86 119
57 89 130
53 84 103
57 89 138
53 84 115
56 89 132
57 90 136
56 88 125
54 85 122
55 86 113
55 86 117
54 86 118
54 85 122
49 78 92
53 84 114
58 91 137
56 88 129
58 90 132
54 85 114
57 90 135
57 89 128
56 87 128
54 86 120
58 91 131
57 89 133
55 86 118
55 87 123
55 87 121
57 89 130
61 95 152
55 87 125
55 87 124
54 84 121
55 86 112
56 88 130
55 87 116
54 85 113
56 88 127
55 88 128
54 86 111
55 87 123
56 88 129
54 85 116
53 83 113
57 89 122
55 87 122
53 83 104
56 87 121
51 81 104
54 86 114
54 85 105
54 85 108
54 86 112
56 88 121
55 86 119
54 85 121
52 82 102
53 83 110
54 85 118
52 81 99
53 83 93
49 77 91
77 95 70
90 105 0
103 117 0
98 111 0
90 103 0
106 118 0
120 137 0
114 129 0
104 117 0
89 101 0
96 109 0
107 119 0
112 127 0
88 100 0
97 111 0
117 131 0
94 108 0
110 126 0
109 122 0
111 125 0
111 126 0
112 125 0
125 142 0
126 139 0
116 130 0
114 129 0
118 135 0
124 139 0
118 132 0
103 120 0
131 145 0
124 139 0
135 151 0
111 128 0
112 126 0
123 140 0
127 142 0
125 140 0
112 128 0
116 133 0
132 150 0
126 142 0
122 137 0
123 141 0
121 136 0
122 138 0
123 137 0
130 146 0
136 152 0
132 149 0
128 145 0
120 135 0
125 141 0
110 126 0
131 148 0
122 139 0
132 148 0
131 149 0
130 148 0
143 160 0
125 141 0
123 139 0
121 139 0
122 137 0
132 146 0
130 148 0
131 148 0
128 144 0
122 140 0
137 154 0
137 154 0
129 144 0
125 143 0
144 161 0
129 146 0
149 166 0
137 155 0
134 150 0
132 149 0
143 160 0
128 145 0
136 152 0
137 153 0
136 153 0
142 160 0
133 150 0
128 144 0
136 153 0
127 144 0
135 152 0
128 145 0
135 154 0
129 144 0
143 162 0
135 152 0
141 159 0
142 160 0
137 154 0
146 164 0
136 153 0
133 150 0
134 150 0
150 167 0
130 148 0
143 161 0
139 158 0
147 166 0
134 151 0
141 156 0
135 152 0
140 157 0
137 152 0
132 150 0
134 150 0
144 162 0
135 152 0
138 154 0
139 156 0
147 165 0
138 156 0
138 156 0
138 155 0
147 164 0
141 159 0
138 155 0
140 158 0
141 159 0
145 164 0
142 160 0
147 167 0
140 158 0
141 160 0
144 162 0
139 157 0
142 160 0
142 160 0
148 166 0
146 165 0
143 160 0
148 165 0
159 181 95
156 178 102
161 181 88
154 175 88
152 173 51
148 169 62
151 170 51
160 180 114
166 186 108
157 178 102
159 179 108
159 181 125
152 172 80
161 182 114
156 176 102
160 180 88
163 183 102
157 176 80
153 173 72
162 182 125
152 173 88
158 178 114
157 178 125
150 171 80
151 172 72
156 177 125
156 176 80
156 178 114
158 180 102
142 164 95
152 172 80
147 167 72
149 170 95
156 177 108
149 169 80
141 162 72
157 177 102
144 164 72
151 173 114
147 167 95
158 179 114
155 177 102
154 173 88
143 163 62
158 178 80
156 177 130
148 168 88
156 176 114
156 176 95
150 171 114
152 173 72
140 159 72
156 177 72
164 185 140
156 176 108
155 176 125
152 172 88
147 168 88
144 164 72
151 172 108
151 172 95
159 179 114
145 165 62
146 166 51
149 169 80
147 167 111
148 167 105
149 169 80
146 167 80
152 172 80
145 165 108
144 164 92
152 172 72
149 169 88
142 163 88
146 166 72
148 167 95
139 158 62
138 157 88
134 153 95
147 167 95
147 167 95
149 168 102
134 152 95
147 166 108
143 163 80
140 159 72
137 156 80
140 158 88
155 173 114
133 152 72
147 166 95
139 157 95
148 167 102
162 179 140
147 165 88
136 154 88
153 170 140
112 130 0
133 151 88
135 153 88
134 151 102
134 152 62
153 171 95
136 154 95
144 162 72
130 148 62
119 135 72
135 152 62
132 149 80
130 146 72
134 150 95
124 139 95
112 131 128
86 107 116
82 106 127
76 100 114
85 106 116
98 119 119
89 109 106
83 106 125
82 104 109
88 109 102
93 116 124
90 114 125
96 119 131
98 121 115
89 111 101
92 112 118
90 114 130
102 123 133
62 95 146
57 88 122
63 94 127
76 105 137
69 100 136
70 99 116
75 103 124
66 99 141
55 87 132
56 88 127
56 89 133
56 89 130
55 87 125
57 87 118
56 86 118
59 92 139
58 88 109
61 88 96
53 83 103
51 82 103
78 100 89
94 116 85
49 79 97
52 83 115
49 78 95
51 81 100
52 83 117
53 83 96
55 87 118
52 83 108
54 85 109
55 85 121
53 84 125
55 86 106
51 80 107
54 85 120
55 87 124
53 84 118
55 87 111
57 90 132
51 81 108
56 89 128
57 90 121
55 87 125
58 91 137
54 85 112
54 85 112
55 87 129
56 88 124
54 86 125
55 87 119
54 86 132
54 86 127
58 90 130
59 92 138
53 84 112
54 86 124
55 86 115
54 84 105
59 93 140
57 90 123
54 85 114
55 87 126
53 85 123
54 86 118
57 89 121
54 85 121
54 86 114
57 90 128
55 87 121
53 84 115
53 84 111
52 82 107
55 87 131
56 87 130
57 90 137
57 89 123
57 89 129
54 86 121
54 85 117
57 90 120
57 89 131
53 83 115
54 86 118
52 83 117
52 82 102
57 91 135
54 86 124
55 86 121
55 88 127
57 88 128
55 87 115
58 91 131
54 86 115
56 88 122
55 87 127
52 82 111
55 87 119
54 85 116
55 86 115
55 87 120
54 85 110
51 82 99
55 87 127
56 89 126
54 86 115
55 87 121
54 85 111
58 90 134
54 84 110
55 87 116
52 82 108
53 84 112
57 89 136
54 86 115
55 86 124
54 85 108
55 86 110
53 83 107
57 89 131
53 84 115
53 84 109
53 84 105
52 82 99
55 86 112
53 83 111
50 79 103
59 83 84
109 124 37
99 113 0
98 112 0
107 120 0
105 118 0
89 101 0
89 102 0
110 125 0
100 114 0
119 134 0
97 112 0
93 105 0
87 99 0
119 132 0
114 129 0
109 122 0
122 136 0
107 122 0
116 129 0
103 119 0
103 119 0
109 123 0
119 133 0
115 130 0
116 131 0
112 125 0
123 138 0
122 136 0
122 137 0
128 146 0
112 126 0
114 130 0
126 142 0
131 146 0
124 140 0
125 140 0
118 135 0
117 133 0
123 139 0
137 155 0
120 135 0
124 140 0
134 151 0
125 142 0
122 140 0
133 149 0
126 142 0
125 141 0
125 143 0
128 144 0
125 142 0
115 131 0
123 139 0
132 146 0
123 140 0
125 142 0
136 152 0
112 125 0
140 158 0
135 151 0
126 143 0
125 141 0
131 149 0
137 153 0
136 154 0
135 151 0
132 151 0
132 150 0
137 154 0
141 159 0
133 149 0
136 151 0
144 160 0
130 148 0
126 141 0
126 144 0
140 157 0
138 156 0
137 155 0
138 156 0
132 148 0
138 156 0
131 149 0
135 152 0
129 146 0
133 151 0
132 150 0
136 154 0
139 157 0
142 161 0
134 151 0
141 160 0
130 144 0
145 162 0
138 156 0
144 162 0
141 159 0
139 156 0
140 156 0
145 164 0
135 152 0
137 151 0
134 153 0
136 154 0
134 150 0
147 165 0
141 156 0
132 147 0
135 152 0
138 156 0
152 170 0
142 159 0
145 162 0
140 157 0
136 152 0
138 155 0
139 156 0
142 160 0
132 150 0
154 174 0
148 165 0
146 164 0
138 155 0
142 161 0
140 158 0
141 158 0
142 160 0
138 156 0
140 157 0
146 164 0
143 161 0
143 160 0
133 148 0
137 154 0
135 153 0
146 165 0
148 168 0
151 170 0
141 160 0
139 156 0
138 157 0
155 176 80
156 177 88
155 176 88
157 178 88
149 169 51
154 175 88
159 181 102
154 175 108
158 178 120
153 173 80
163 185 125
156 177 88
159 179 108
154 174 88
158 179 80
154 174 95
155 176 95
152 173 72
148 169 62
157 178 108
146 166 62
152 173 108
152 173 80
152 174 114
159 180 125
156 178 102
153 174 80
154 175 102
148 170 108
157 178 114
155 175 95
159 180 108
152 172 114
149 169 88
154 175 62
151 172 108
148 168 80
153 175 95
158 178 80
151 171 88
152 173 80
146 167 108
152 172 88
151 172 80
153 175 108
158 178 108
150 171 120
156 178 130
148 167 102
155 175 108
154 174 80
154 175 88
150 171 102
159 180 114
157 178 95
151 171 111
145 166 95
141 161 72
151 173 102
153 174 80
145 165 72
149 170 108
151 172 105
134 153 72
153 174 114
151 171 92
152 172 88
146 167 95
151 171 80
147 167 62
154 174 95
155 176 108
136 156 80
154 174 95
152 173 125
146 165 80
156 176 130
149 168 72
155 175 114
135 155 72
154 174 102
151 171 102
141 160 102
140 158 88
150 169 95
150 167 95
142 160 102
151 169 95
146 165 95
145 164 114
143 161 95
141 159 102
149 168 102
135 151 88
141 158 108
145 163 114
131 148 72
136 155 95
146 163 80
145 162 114
138 157 80
125 143 80
132 150 80
127 145 72
130 147 80
128 146 72
105 120 51
124 140 72
138 155 80
123 139 72
132 148 95
122 137 62
129 144 72
122 138 85
97 117 119
105 126 132
100 120 117
94 115 123
77 100 108
86 108 116
92 114 130
75 99 110
85 109 107
82 103 89
95 119 132
82 107 117
98 120 126
122 142 131
98 119 122
84 108 122
87 111 130
68 92 88
61 93 133
69 100 140
81 108 122
67 97 125
65 94 121
65 97 142
61 91 116
64 93 114
53 84 120
54 86 125
56 88 132
58 88 122
50 80 96
52 83 113
61 88 90
57 87 121
64 95 132
54 85 118
53 85 117
90 111 72
79 101 89
64 89 94
53 84 110
53 84 106
49 78 91
54 85 118
55 86 122
59 92 134
53 84 109
56 89 110
56 89 130
56 89 127
56 88 127
54 85 119
56 89 133
55 87 120
53 83 107
56 89 129
54 86 117
53 83 106
52 82 108
55 86 128
52 82 110
54 87 122
54 84 112
54 85 113
52 83 110
54 86 116
54 85 113
53 83 115
53 83 109
59 92 145
58 91 131
60 93 145
55 87 126
52 83 109
57 89 138
53 84 106
52 83 115
56 88 125
58 90 136
54 86 118
56 88 125
57 90 137
54 85 115
57 90 136
56 88 129
54 85 120
56 88 126
57 90 123
54 85 117
55 87 124
55 86 121
54 87 121
55 87 121
54 86 124
56 88 131
59 92 145
52 82 109
53 85 122
54 86 121
58 91 138
57 90 134
55 87 117
56 88 128
57 90 129
53 83 117
58 91 134
58 91 136
57 90 133
57 90 136
56 89 127
52 83 103
56 89 133
55 87 120
57 90 122
52 82 100
52 83 108
56 88 128
54 85 115
55 86 119
55 87 127
55 87 119
56 87 121
58 91 131
53 83 115
53 84 112
56 88 130
56 87 122
54 85 115
54 85 117
57 89 130
54 84 119
54 86 119
58 91 131
54 86 111
54 85 118
50 80 111
57 89 127
53 83 118
54 85 117
53 85 118
54 86 121
50 79 92
50 79 90
66 90 88
106 120 0
94 107 0
105 121 0
95 109 0
112 126 0
108 121 0
98 111 0
104 120 0
109 126 0
106 120 0
113 128 0
109 122 0
105 117 0
113 127 0
105 120 0
110 127 0
110 124 0
108 124 0
111 125 0
103 117 0
102 116 0
106 117 0
115 131 0
117 130 0
121 135 0
123 139 0
114 129 0
101 113 0
109 124 0
127 144 0
126 142 0
108 124 0
126 143 0
119 134 0
109 124 0
121 138 0
132 149 0
126 141 0
116 134 0
115 131 0
122 139 0
116 132 0
124 141 0
130 146 0
132 149 0
119 134 0
126 142 0
132 148 0
127 143 0
119 135 0
119 135 0
127 143 0
118 133 0
129 147 0
128 146 0
133 149 0
128 143 0
133 148 0
126 142 0
132 148 0
119 137 0
122 138 0
121 137 0
126 143 0
134 151 0
139 157 0
124 143 0
113 125 0
126 145 0
133 149 0
130 146 0
139 158 0
120 138 0
131 148 0
139 156 0
119 134 0
133 149 0
125 144 0
127 145 0
132 148 0
137 155 0
134 152 0
137 153 0
131 149 0
133 148 0
125 141 0
135 152 0
136 153 0
128 144 0
142 159 0
126 143 0
131 146 0
134 151 0
127 143 0
139 156 0
128 143 0
139 158 0
136 152 0
131 151 0
143 160 0
132 150 0
142 160 0
140 159 0
133 149 0
141 157 0
124 141 0
136 153 0
136 154 0
134 152 0
143 160 0
141 159 0
136 154 0
134 153 0
140 157 0
146 165 0
140 159 0
132 150 0
146 165 0
139 156 0
146 163 0
145 162 0
148 166 0
139 156 0
139 157 0
137 156 0
150 168 0
142 161 0
144 163 0
135 153 0
143 161 0
138 156 0
143 163 0
146 164 0
141 158 0
144 162 0
140 160 0
141 159 0
144 162 0
143 162 0
147 166 0
142 161 0
147 166 0
156 177 88
154 175 72
160 181 108
148 169 62
156 177 95
162 181 102
149 169 62
146 166 0
159 179 102
155 175 88
159 179 102
153 173 88
157 177 102
162 181 120
159 180 102
155 175 88
155 176 114
155 177 114
145 165 102
154 175 102
153 174 88
154 174 108
165 185 114
161 181 120
147 168 95
159 181 135
147 167 72
149 170 95
150 171 95
155 176 102
148 169 95
154 174 95
145 166 88
151 171 95
147 168 72
148 169 72
150 170 114
156 176 88
156 177 95
156 177 114
140 161 80
152 174 108
153 174 120
155 176 95
149 169 95
147 168 95
147 167 80
148 170 95
152 172 102
147 168 95
157 178 80
160 181 120
144 165 88
151 172 95
145 166 99
144 164 84
142 162 76
149 169 95
154 174 108
147 167 72
135 154 62
151 172 108
150 170 95
143 164 67
145 166 88
146 167 92
155 174 108
144 163 72
148 168 88
145 165 95
162 182 140
143 165 111
148 167 85
145 165 102
146 167 102
147 166 120
137 157 62
149 168 102
143 164 80
151 171 114
153 172 114
152 171 102
145 165 80
144 165 95
154 173 108
129 147 62
154 173 120
131 149 51
139 155 108
157 177 125
137 156 80
141 159 80
145 163 108
142 161 62
137 154 72
152 169 120
155 173 114
149 166 120
127 144 51
148 166 120
148 166 62
142 160 108
116 134 62
146 163 102
137 154 95
139 156 80
145 162 95
135 153 72
127 144 72
142 159 102
125 141 51
118 134 72
111 125 80
120 136 80
120 138 99
108 126 128
71 95 91
104 125 131
92 113 132
87 109 111
95 116 126
83 106 114
92 115 100
90 112 106
75 100 108
79 105 112
115 135 126
107 127 132
94 116 132
89 114 114
80 104 115
60 89 117
68 99 140
65 94 124
66 94 124
69 97 112
63 94 133
79 105 123
78 102 114
73 102 132
64 93 122
57 89 137
56 88 136
54 86 125
60 90 120
54 85 120
63 94 134
62 92 129
50 80 97
53 83 104
60 87 89
95 116 89
89 109 81
60 86 95
53 83 108
54 86 113
57 89 130
56 88 121
50 79 113
49 78 98
55 86 118
56 88 118
56 87 125
50 80 108
51 81 98
53 85 114
51 82 109
52 83 103
54 85 109
53 84 109
52 82 104
53 84 110
52 82 107
52 83 113
54 85 121
51 82 103
57 89 132
57 90 129
58 90 134
53 84 107
53 85 120
53 84 118
56 89 127
50 81 108
57 90 133
53 84 111
58 92 136
59 92 144
58 91 139
54 86 116
56 87 123
54 85 121
57 89 127
56 89 128
56 88 126
53 83 118
57 90 134
54 86 122
55 86 121
55 87 124
55 87 125
54 86 115
50 80 107
54 86 121
56 88 137
59 92 140
57 90 135
56 88 131
55 87 127
57 89 123
57 90 134
55 86 121
56 88 125
58 90 136
58 92 130
54 85 103
55 86 120
54 86 118
56 89 128
56 88 128
54 84 109
53 85 113
57 89 129
58 90 140
56 88 132
55 87 122
57 89 137
54 85 106
55 87 127
51 81 106
57 89 129
53 84 114
55 87 122
53 84 110
56 87 120
53 83 104
54 86 114
54 85 115
55 86 122
56 89 134
52 83 108
53 84 113
57 90 140
53 84 113
53 84 114
55 86 116
52 82 103
56 88 125
55 86 115
53 83 104
49 78 91
55 86 117
53 83 106
52 82 107
52 83 105
52 81 103
82 101 52
108 121 0
107 122 0
99 113 0
110 123 0
93 105 0
106 120 0
114 128 0
104 118 0
111 126 0
105 120 0
95 108 0
101 116 0
113 129 0
117 131 0
104 118 0
115 128 0
101 116 0
107 121 0
103 117 0
113 128 0
112 125 0
127 143 0
96 111 0
91 108 0
121 136 0
113 126 0
115 132 0
122 139 0
108 120 0
107 118 0
124 141 0
127 144 0
120 135 0
127 144 0
121 135 0
126 141 0
112 130 0
123 140 0
120 136 0
117 134 0
119 136 0
115 132 0
123 139 0
121 136 0
117 132 0
124 138 0
130 147 0
120 138 0
127 143 0
124 141 0
129 146 0
130 148 0
120 136 0
122 139 0
115 129 0
120 136 0
124 142 0
133 152 0
129 145 0
131 148 0
126 142 0
119 134 0
139 156 0
128 145 0
119 135 0
131 146 0
133 147 0
135 152 0
132 149 0
127 142 0
132 149 0
131 149 0
126 143 0
133 149 0
134 152 0
121 137 0
128 145 0
137 156 0
134 151 0
133 151 0
133 150 0
125 140 0
141 159 0
132 149 0
136 155 0
122 138 0
138 156 0
137 155 0
140 158 0
141 160 0
137 155 0
140 159 0
133 150 0
139 158 0
138 155 0
137 153 0
138 157 0
146 165 0
136 156 0
135 151 0
140 157 0
131 148 0
145 162 0
139 156 0
142 162 0
146 164 0
141 156 0
134 152 0
147 164 0
137 154 0
137 155 0
136 153 0
142 159 0
138 156 0
140 157 0
132 148 0
141 159 0
145 163 0
144 163 0
130 149 0
141 159 0
145 164 0
133 148 0
143 163 0
135 152 0
138 156 0
141 158 0
146 166 0
141 160 0
135 153 0
142 159 0
139 158 0
137 153 0
142 161 0
137 155 0
149 167 0
134 150 0
140 158 0
139 156 0
141 159 0
139 156 0
142 160 0
145 163 0
162 183 120
153 175 80
152 173 95
160 181 95
156 178 95
160 181 114
149 170 72
156 177 95
155 175 95
147 168 80
155 175 102
150 169 88
161 182 125
158 178 125
160 180 88
161 181 120
152 171 102
158 178 88
158 178 108
156 177 95
152 172 114
156 176 102
146 166 88
157 177 88
151 172 114
152 173 108
154 176 95
152 172 88
154 175 102
157 179 114
151 173 88
142 163 62
159 180 120
158 179 108
157 178 120
144 164 72
151 172 102
155 176 95
148 169 95
147 167 80
157 179 108
151 171 80
148 169 108
149 169 62
154 174 72
163 184 120
144 165 95
148 169 88
147 167 51
149 171 102
145 166 88
151 173 108
155 176 125
142 162 105
150 172 108
140 161 111
147 169 108
152 173 102
142 163 76
149 170 108
136 156 80
158 178 108
157 178 114
153 174 98
148 169 114
153 175 120
151 172 114
147 167 95
146 165 88
144 164 102
151 172 114
143 163 80
143 163 102
156 177 108
154 174 102
144 163 80
143 161 80
139 159 80
154 174 120
143 163 114
142 162 80
146 166 108
147 166 88
141 160 95
145 164 120
132 151 95
151 170 108
145 164 95
139 158 80
153 171 114
136 153 88
140 159 108
122 141 95
136 154 80
150 168 102
149 167 80
136 155 80
137 154 102
142 160 102
135 153 72
139 157 80
142 159 88
134 150 95
133 151 95
142 159 102
118 135 62
129 146 62
136 154 88
120 138 62
138 154 88
132 150 72
124 140 51
120 136 95
127 140 95
102 117 51
91 108 82
86 108 94
87 108 117
85 107 117
96 116 117
90 111 129
78 101 99
88 109 104
66 91 104
74 98 96
88 112 115
82 106 122
109 129 136
95 118 93
87 109 112
69 96 95
75 104 128
64 95 125
73 102 135
62 92 119
74 101 114
69 99 132
64 93 109
72 100 128
64 94 125
73 100 119
57 89 132
56 88 124
53 84 106
53 83 117
59 86 98
50 79 102
61 91 115
56 89 131
65 94 121
53 83 103
83 105 98
81 103 86
76 100 97
52 82 99
52 83 117
56 88 122
54 85 108
52 82 111
54 85 122
52 83 115
49 79 103
53 84 117
49 78 102
52 81 102
54 86 120
54 84 122
55 86 122
54 85 116
53 84 117
53 84 109
53 85 122
56 88 130
56 89 124
55 87 117
56 88 131
56 89 130
51 82 97
55 87 116
54 85 110
57 90 127
56 88 129
56 88 122
56 88 125
53 84 107
54 85 115
53 84 107
55 87 125
55 87 118
56 88 126
54 86 115
54 86 119
56 88 127
53 84 116
54 86 112
55 87 127
53 84 108
56 88 120
54 86 113
57 91 143
51 81 104
57 90 130
53 84 116
53 83 103
54 85 108
56 88 124
57 89 127
57 90 130
54 86 101
57 89 126
55 87 126
52 82 113
54 85 109
59 92 146
54 86 127
59 92 141
57 89 120
53 84 111
58 91 136
54 85 119
56 88 129
54 86 117
60 93 146
54 86 119
53 84 108
55 86 112
56 88 124
53 84 109
56 87 123
56 89 126
55 87 122
56 88 129
57 89 119
56 88 126
56 88 128
53 84 108
54 85 116
55 87 125
51 81 98
54 84 111
54 86 112
54 85 107
51 81 108
53 85 119
59 92 131
56 88 122
55 86 122
53 83 106
52 82 103
54 85 111
54 85 120
53 83 110
55 86 113
52 83 99
71 100 107
91 105 47
95 109 0
120 134 0
85 99 0
106 120 0
114 129 0
92 106 0
108 122 0
115 129 0
117 132 0
93 106 0
113 129 0
108 122 0
107 122 0
105 122 0
116 129 0
103 119 0
116 131 0
108 122 0
99 112 0
109 123 0
103 118 0
116 131 0
114 129 0
125 140 0
119 134 0
105 120 0
126 143 0
116 132 0
124 141 0
119 134 0
114 128 0
113 128 0
112 128 0
121 136 0
120 136 0
126 143 0
112 127 0
129 145 0
122 137 0
130 148 0
125 141 0
125 141 0
116 132 0
135 152 0
121 137 0
114 131 0
129 144 0
125 142 0
123 138 0
125 141 0
142 158 0
122 139 0
123 140 0
136 155 0
111 128 0
124 139 0
121 136 0
130 148 0
130 147 0
124 142 0
135 152 0
127 144 0
133 151 0
134 150 0
134 151 0
127 144 0
128 146 0
133 149 0
124 140 0
128 144 0
135 152 0
126 142 0
118 135 0
131 148 0
136 153 0
134 150 0
130 146 0
134 149 0
131 147 0
130 145 0
128 144 0
137 155 0
142 160 0
132 149 0
137 155 0
132 151 0
128 145 0
144 161 0
138 156 0
134 153 0
121 137 0
142 159 0
125 144 0
137 153 0
145 163 0
135 153 0
140 158 0
133 150 0
129 147 0
141 158 0
130 146 0
136 154 0
139 157 0
138 156 0
137 155 0
143 162 0
142 156 0
137 155 0
130 147 0
138 154 0
139 156 0
142 159 0
135 153 0
142 161 0
144 162 0
138 156 0
142 161 0
140 157 0
147 165 0
144 162 0
143 160 0
131 148 0
146 163 0
145 164 0
146 165 0
138 157 0
147 165 0
137 155 0
139 157 0
139 159 0
132 150 0
146 165 0
138 155 0
141 161 0
140 158 0
149 168 0
139 157 0
145 164 0
138 158 0
146 163 0
141 159 0
137 156 0
148 167 0
138 156 0
150 171 72
157 178 102
157 177 80
157 176 102
158 179 102
153 173 62
152 172 102
158 178 108
162 183 120
153 174 88
159 180 125
155 176 108
165 184 114
161 182 114
155 177 95
146 167 80
156 176 114
162 183 120
157 176 102
153 174 95
159 181 108
158 179 95
154 175 95
155 176 80
150 172 80
153 175 108
154 175 88
154 175 95
161 181 120
159 179 108
151 171 95
153 174 80
150 171 80
157 178 114
143 163 62
152 173 95
150 171 88
148 168 72
143 164 95
149 169 102
151 172 102
150 172 88
147 167 95
155 175 95
149 170 80
152 172 80
147 167 95
150 169 88
155 177 125
149 170 88
154 174 88
153 174 88
152 171 72
146 167 88
146 165 92
138 159 76
148 169 114
155 175 120
141 161 72
158 178 108
150 169 56
155 175 125
146 167 95
144 164 102
157 178 135
148 169 92
150 169 84
148 169 95
151 170 114
151 170 120
150 171 102
152 171 102
149 170 95
137 156 102
153 173 111
147 166 62
147 166 95
143 162 95
139 159 80
151 171 114
149 167 102
142 161 108
146 165 88
135 153 102
149 169 95
137 155 88
140 159 114
143 161 95
141 159 95
145 164 102
140 159 95
137 156 72
156 175 120
138 156 72
149 166 95
149 166 125
127 145 80
148 166 95
152 170 114
153 170 125
148 165 102
137 154 120
137 155 72
136 154 72
133 149 62
147 165 108
134 150 102
126 142 51
128 144 88
115 132 36
127 144 80
129 145 51
119 137 36
129 145 80
105 119 51
123 138 80
95 117 115
84 105 99
107 126 134
74 97 83
85 106 115
93 114 104
74 97 101
88 110 105
86 109 129
70 96 104
91 114 115
115 134 95
103 124 123
100 122 117
83 108 138
77 103 114
67 97 130
68 99 139
59 89 123
71 99 126
56 89 134
71 98 110
63 95 135
64 94 121
69 97 120
62 91 122
57 89 129
52 82 108
56 84 103
54 85 118
54 85 119
56 88 134
51 80 93
53 83 105
57 85 94
98 118 79
97 118 92
76 103 99
49 77 84
53 83 118
54 85 118
52 82 115
51 81 99
48 76 86
52 82 105
56 88 123
54 84 117
50 79 108
52 82 101
55 87 120
52 82 104
52 82 114
54 85 115
55 87 125
54 85 124
56 87 124
54 85 115
55 87 124
54 85 117
55 86 109
51 81 97
56 88 126
53 84 112
52 82 100
56 88 130
55 86 106
52 83 107
53 84 101
56 89 117
57 89 132
55 87 124
55 88 122
57 90 132
52 82 106
54 86 112
56 88 118
54 86 119
54 86 109
56 88 118
53 85 116
58 91 142
53 84 106
55 87 119
54 86 112
56 88 133
57 89 132
56 89 123
53 84 112
56 88 133
57 91 135
55 87 132
55 87 125
52 83 113
51 81 89
56 87 126
57 89 129
54 84 119
58 90 123
56 89 128
52 82 107
55 87 122
56 89 119
54 85 118
54 85 110
57 90 121
54 86 114
56 88 120
53 85 116
55 87 120
52 82 102
51 81 114
54 86 110
54 85 117
54 85 123
51 82 101
55 86 116
56 88 125
53 84 113
53 83 108
58 90 133
52 83 104
55 86 111
57 90 121
57 89 129
57 89 129
55 87 116
58 91 135
53 84 115
56 88 127
54 85 121
55 87 120
53 84 116
52 82 111
53 83 105
53 84 115
53 84 112
52 81 102
65 87 82
104 118 0
91 105 0
102 115 0
109 123 0
109 124 0
100 113 0
103 115 0
89 101 0
106 117 0
85 100 0
103 118 0
111 125 0
103 118 0
114 128 0
98 110 0
100 114 0
102 117 0
121 135 0
111 127 0
115 131 0
102 117 0
109 126 0
116 130 0
101 115 0
102 115 0
118 133 0
118 133 0
115 131 0
114 130 0
116 130 0
115 129 0
127 144 0
112 129 0
128 145 0
104 117 0
114 130 0
120 136 0
130 145 0
109 125 0
119 135 0
123 140 0
126 143 0
112 127 0
127 144 0
124 139 0
135 152 0
129 147 0
123 140 0
122 138 0
125 139 0
125 141 0
117 132 0
132 148 0
127 142 0
125 139 0
135 152 0
133 149 0
134 150 0
120 137 0
130 147 0
130 147 0
136 153 0
140 157 0
132 148 0
127 140 0
127 145 0
133 150 0
132 149 0
127 143 0
137 153 0
125 142 0
131 146 0
127 143 0
138 154 0
124 141 0
135 151 0
134 151 0
132 150 0
131 148 0
132 151 0
124 140 0
136 154 0
123 140 0
124 138 0
133 150 0
131 148 0
139 157 0
130 145 0
133 149 0
133 151 0
128 145 0
134 150 0
135 152 0
138 157 0
139 159 0
128 145 0
139 159 0
138 156 0
138 155 0
141 159 0
140 161 0
141 157 0
139 156 0
139 156 0
134 150 0
145 163 0
143 161 0
140 159 0
143 160 0
131 149 0
128 145 0
136 155 0
139 157 0
140 158 0
142 160 0
133 149 0
137 156 0
137 156 0
132 149 0
141 160 0
135 150 0
135 153 0
137 154 0
139 157 0
145 164 0
139 158 0
141 159 0
132 148 0
137 157 0
134 150 0
148 168 0
140 158 0
143 161 0
143 162 0
144 163 0
137 156 0
141 159 0
138 156 0
141 157 0
133 153 0
143 162 0
137 156 0
139 156 0
137 155 0
136 155 0
145 164 0
156 177 88
159 179 114
154 175 80
153 173 80
155 175 125
151 172 102
168 188 120
161 181 108
160 179 108
154 175 95
150 170 80
165 185 114
149 170 102
155 175 80
146 167 80
157 178 108
151 172 108
163 185 135
161 181 125
159 178 102
166 187 125
166 186 114
150 171 80
146 167 102
153 173 88
155 176 80
151 172 88
152 172 88
155 176 88
165 186 140
157 178 102
147 168 88
148 169 80
161 181 120
146 167 95
158 178 88
156 177 88
154 175 108
150 169 72
160 181 108
158 179 114
153 174 95
155 175 108
158 179 114
154 176 114
149 170 88
153 172 80
147 168 108
160 181 120
142 162 62
148 167 72
140 160 80
149 171 95
154 175 108
155 176 88
147 168 80
144 164 95
150 170 117
143 164 80
152 171 88
144 166 88
148 169 80
132 151 36
152 172 95
143 163 95
152 172 95
148 170 108
148 167 114
150 171 88
151 173 95
145 165 88
146 166 80
144 163 108
148 168 105
145 164 72
148 167 102
145 164 102
146 166 95
153 174 102
141 160 95
145 164 102
142 162 62
145 165 102
139 158 72
147 166 102
147 167 95
143 162 102
141 160 95
153 172 108
145 164 88
135 153 80
143 162 80
148 166 95
146 164 95
144 162 102
142 159 102
143 161 114
139 156 102
136 155 108
129 146 95
131 149 95
144 162 108
140 157 95
122 139 62
132 149 88
127 144 51
129 146 95
124 140 62
127 143 62
126 142 72
145 163 88
111 126 72
136 151 108
109 124 80
122 137 72
126 141 88
106 122 69
88 110 113
64 88 91
101 122 124
74 97 106
91 115 106
93 116 118
66 93 94
108 129 127
76 99 104
103 124 124
103 124 115
94 117 117
77 103 119
69 94 111
73 100 107
68 97 128
66 98 146
71 100 118
61 89 102
58 89 107
61 93 133
67 97 135
59 89 124
61 92 130
60 90 127
56 89 125
56 88 124
64 93 121
64 91 120
51 81 97
51 82 105
62 94 133
66 91 95
56 86 119
80 102 73
90 109 72
85 108 96
54 84 112
52 82 89
51 81 103
54 85 124
52 83 114
51 80 99
55 87 107
50 80 99
56 87 125
58 91 144
55 87 127
51 81 106
52 82 122
51 81 99
55 86 123
53 85 109
56 87 116
53 84 117
51 81 117
52 82 108
55 87 125
55 87 112
54 85 114
53 83 101
54 85 100
52 83 111
52 83 113
54 85 122
53 83 103
51 80 100
55 87 128
51 82 113
54 86 117
54 86 117
56 88 123
52 83 120
53 83 106
56 87 123
55 87 121
54 86 119
50 79 103
54 86 116
51 81 97
54 85 113
56 88 127
55 87 119
57 89 129
57 89 132
52 83 110
51 81 114
52 82 104
53 84 116
54 85 121
55 86 121
57 89 129
57 89 130
51 82 93
57 90 137
55 86 100
55 86 124
56 89 119
53 84 110
56 88 125
54 86 113
55 86 113
54 86 119
55 86 119
52 82 102
62 97 112
56 87 128
55 87 109
55 86 121
54 86 119
53 83 121
55 88 123
53 85 115
57 90 129
54 84 111
54 85 117
51 81 95
54 85 116
49 79 91
53 85 119
54 85 116
51 81 112
55 87 124
51 80 104
57 90 123
57 90 126
54 85 123
55 86 114
50 79 107
55 86 118
51 81 104
57 89 125
50 80 103
53 84 107
51 80 96
74 89 47
96 108 0
99 113 0
74 85 0
93 105 0
109 123 0
91 103 0
90 103 0
99 115 0
113 127 0
108 122 0
103 117 0
99 112 0
103 118 0
106 121 0
114 130 0
115 130 0
110 124 0
121 136 0
112 128 0
103 116 0
124 140 0
118 135 0
102 117 0
115 131 0
109 124 0
116 131 0
104 120 0
114 131 0
108 124 0
114 130 0
118 132 0
123 140 0
119 134 0
117 134 0
107 124 0
123 139 0
124 140 0
131 148 0
118 135 0
129 146 0
123 140 0
124 143 0
118 134 0
128 146 0
134 151 0
115 132 0
128 145 0
121 138 0
114 130 0
119 137 0
129 147 0
113 130 0
125 141 0
122 139 0
124 141 0
127 142 0
129 144 0
130 148 0
129 146 0
129 146 0
131 148 0
138 153 0
138 154 0
119 135 0
131 150 0
134 150 0
130 147 0
116 133 0
131 148 0
126 144 0
137 155 0
134 150 0
122 140 0
132 151 0
136 153 0
130 146 0
131 149 0
139 156 0
131 149 0
137 154 0
130 147 0
137 155 0
126 143 0
131 149 0
130 144 0
125 142 0
127 145 0
137 155 0
131 147 0
138 154 0
128 145 0
134 152 0
133 150 0
130 146 0
135 153 0
131 148 0
140 159 0
141 158 0
130 147 0
137 155 0
131 148 0
139 158 0
148 167 0
139 157 0
141 159 0
136 155 0
130 147 0
129 146 0
134 152 0
142 160 0
137 155 0
138 156 0
141 161 0
139 156 0
137 155 0
140 158 0
147 166 0
137 157 0
140 158 0
136 153 0
152 170 0
146 164 0
134 150 0
152 171 0
135 153 0
149 167 0
141 159 0
139 159 0
139 155 0
146 166 0
139 157 0
141 160 0
139 156 0
147 166 0
145 163 0
142 159 0
140 158 0
140 159 0
143 161 0
136 153 0
144 161 0
148 166 0
148 168 0
144 163 0
138 155 0
149 168 0
141 159 0
166 185 135
158 179 102
159 180 108
156 176 102
162 182 95
156 176 88
148 169 80
156 177 102
160 181 108
156 176 102
147 166 80
159 180 108
150 170 102
159 179 95
145 166 51
153 173 80
160 180 95
152 174 102
154 174 102
160 180 102
153 173 51
152 173 108
154 176 95
145 166 72
152 173 102
155 175 95
144 165 72
150 171 102
152 174 95
152 172 88
152 173 95
158 179 130
167 189 130
148 169 102
149 168 51
154 175 108
154 175 80
141 160 36
156 177 125
149 170 108
154 175 95
150 170 72
153 175 108
157 177 102
149 169 72
159 180 114
150 172 88
153 174 88
150 171 114
145 165 88
154 174 108
154 175 108
152 173 95
156 177 102
150 170 80
145 166 72
149 169 80
148 168 80
153 173 102
151 171 108
154 175 120
158 178 130
142 163 88
146 166 88
145 166 102
140 161 62
144 164 72
156 178 114
153 173 108
149 169 108
160 181 125
158 179 120
138 157 102
146 166 108
153 173 108
157 177 108
146 165 108
148 168 102
145 165 95
152 171 102
143 162 95
154 174 108
150 169 108
146 164 95
136 156 72
145 163 88
135 154 95
146 165 95
137 156 88
145 164 114
149 168 125
148 167 102
132 149 51
140 158 88
134 153 95
143 161 114
138 155 114
147 164 102
134 150 80
123 139 88
128 144 95
135 153 80
143 159 108
124 140 80
140 158 72
133 151 72
133 151 95
123 140 72
120 136 80
119 135 51
117 134 51
130 146 80
122 139 72
113 130 72
119 134 51
122 137 72
126 141 80
116 130 85
103 123 117
103 120 119
87 110 100
92 114 117
65 89 102
69 94 105
78 101 86
88 109 113
101 122 102
95 117 98
109 128 126
104 123 129
83 106 77
99 122 97
65 95 125
68 98 134
62 95 139
81 108 128
62 93 134
70 100 138
65 94 125
63 94 128
59 91 121
65 93 109
62 89 96
54 85 112
58 87 118
54 83 101
51 81 94
56 88 124
61 91 100
60 88 98
49 77 98
85 104 59
92 114 93
87 110 101
52 82 95
54 84 119
55 86 110
53 83 97
50 79 96
48 77 85
47 76 88
52 82 99
51 81 95
51 80 92
50 79 94
52 82 92
51 82 109
54 84 112
52 83 115
54 85 119
55 87 120
53 83 116
54 85 119
52 82 98
53 84 105
50 80 94
58 91 135
52 83 104
52 82 105
56 87 130
51 80 96
50 80 111
55 87 126
54 85 113
53 84 104
55 86 116
57 89 131
54 85 104
54 86 117
55 86 125
52 83 113
56 87 124
57 88 123
57 89 124
56 89 125
56 88 122
56 89 125
54 85 113
56 88 129
55 87 119
56 88 127
55 87 116
56 88 127
59 91 134
57 90 127
54 85 116
53 83 105
52 82 100
54 84 112
57 90 132
53 84 109
48 77 101
52 82 97
56 87 123
54 85 121
54 84 118
52 83 108
57 90 131
55 88 126
51 81 95
55 86 119
53 84 110
55 86 117
57 90 131
50 79 94
54 86 111
55 87 126
55 87 116
59 92 133
53 84 112
52 82 97
54 86 116
55 87 110
53 84 110
54 84 113
56 88 127
53 84 110
52 83 112
51 81 107
50 80 91
50 80 91
54 85 111
50 79 91
54 85 103
52 82 96
58 90 131
51 80 95
54 85 115
49 79 91
49 78 99
62 86 74
105 121 36
116 131 0
104 118 0
91 105 0
98 111 0
86 96 0
91 104 0
91 106 0
116 130 0
97 109 0
120 135 0
111 126 0
127 143 0
116 131 0
105 121 0
102 117 0
102 117 0
112 127 0
125 141 0
122 139 0
93 108 0
121 138 0
119 135 0
109 124 0
114 129 0
109 123 0
121 136 0
108 122 0
126 142 0
102 116 0
115 131 0
111 127 0
117 134 0
98 114 0
126 143 0
133 148 0
109 125 0
113 128 0
130 146 0
136 153 0
118 133 0
127 141 0
112 128 0
127 143 0
106 120 0
115 130 0
119 135 0
106 121 0
122 138 0
117 134 0
136 151 0
125 140 0
125 142 0
127 143 0
111 128 0
121 136 0
125 145 0
123 139 0
139 156 0
129 146 0
133 149 0
114 129 0
129 146 0
129 146 0
140 159 0
126 141 0
122 138 0
139 157 0
129 147 0
135 154 0
121 138 0
127 142 0
130 145 0
124 141 0
127 143 0
141 157 0
128 145 0
144 161 0
131 145 0
131 149 0
123 140 0
136 152 0
136 154 0
132 149 0
129 146 0
142 160 0
130 147 0
128 146 0
137 156 0
143 161 0
135 153 0
135 152 0
127 146 0
146 163 0
122 138 0
140 158 0
135 153 0
140 161 0
138 156 0
140 156 0
137 154 0
135 152 0
141 159 0
140 158 0
137 155 0
143 161 0
138 155 0
134 151 0
138 156 0
137 155 0
137 154 0
138 156 0
131 149 0
135 152 0
143 161 0
147 165 0
143 162 0
140 158 0
132 150 0
144 163 0
142 160 0
141 158 0
132 150 0
140 158 0
146 164 0
138 157 0
132 149 0
138 156 0
148 167 0
135 153 0
143 161 0
135 154 0
144 163 0
132 150 0
142 161 0
133 151 0
142 160 0
140 158 0
138 156 0
140 158 0
141 160 0
144 164 0
142 159 0
134 152 0
140 160 0
141 160 0
137 155 0
146 166 0
140 158 0
155 176 80
157 178 95
157 178 108
160 180 95
160 180 108
154 175 95
157 177 95
163 183 114
151 171 72
158 178 102
152 174 108
154 175 108
152 173 80
159 180 114
150 170 72
160 181 114
154 175 95
150 170 80
156 177 95
153 172 108
158 179 95
155 176 95
154 174 80
154 175 102
156 176 72
151 172 88
161 182 120
151 173 88
154 174 102
162 182 95
149 169 88
157 178 114
150 170 102
157 178 108
144 164 88
155 175 80
149 170 80
153 174 95
148 168 88
161 182 125
147 168 114
156 178 95
151 172 88
149 170 80
149 169 102
152 173 102
154 175 102
150 171 95
146 166 95
154 174 72
146 166 80
142 163 102
149 170 95
144 164 85
145 165 88
151 172 95
149 170 108
140 160 80
149 170 95
152 172 84
148 169 88
139 158 51
149 169 102
159 180 108
153 173 102
157 178 114
151 171 98
147 166 102
150 169 51
139 158 88
162 182 114
148 168 102
147 167 88
152 172 120
150 170 120
151 172 102
133 152 72
157 177 114
151 170 102
133 152 80
150 169 120
142 161 108
137 156 80
149 168 114
156 175 130
142 161 80
149 168 120
133 151 88
142 162 102
145 163 102
145 164 114
142 160 95
132 149 80
155 173 125
155 173 114
139 156 125
155 172 130
149 166 120
141 159 95
143 161 88
135 152 108
133 149 80
140 157 88
140 157 88
143 160 88
131 149 72
132 150 72
141 158 80
142 159 95
118 135 62
126 142 62
114 131 36
129 145 88
130 146 80
126 140 80
109 123 62
122 137 95
105 119 62
106 124 107
105 124 111
103 123 111
93 116 129
83 105 105
99 119 115
79 103 110
97 119 129
96 118 117
94 118 94
103 126 118
93 116 110
77 101 96
78 103 112
60 90 116
64 92 111
57 90 145
54 84 105
72 100 116
62 91 109
53 85 121
63 94 121
64 91 96
68 98 128
58 86 111
60 90 124
63 92 109
55 86 121
60 88 111
62 92 118
56 86 115
65 92 102
58 84 74
92 110 59
94 115 86
88 109 69
50 79 94
51 81 93
51 81 91
52 83 108
53 83 93
50 79 97
53 84 118
51 81 96
53 83 116
53 84 101
49 78 91
52 82 113
51 80 97
54 85 109
50 80 102
53 84 117
50 80 96
52 83 106
54 85 114
53 83 108
52 82 101
54 84 110
47 76 94
53 84 105
51 81 101
53 84 120
53 83 110
52 82 113
53 85 121
57 90 131
55 87 122
53 83 110
53 84 112
49 78 94
54 85 116
53 84 111
54 85 116
56 87 127
51 81 107
56 87 131
50 80 90
54 86 113
54 85 100
57 89 109
54 85 110
51 82 102
52 82 94
51 81 108
57 90 133
52 83 114
55 87 122
54 85 116
55 87 129
55 87 120
56 88 124
55 86 124
57 90 135
55 87 116
54 85 113
55 88 123
55 86 116
54 84 116
52 82 100
56 88 128
54 85 107
55 86 125
55 87 110
56 89 125
53 83 113
51 80 101
52 83 106
56 88 120
52 83 111
57 89 128
55 87 115
54 84 117
55 87 114
60 94 146
55 86 120
57 90 135
57 89 131
53 84 113
55 87 117
51 81 96
55 87 120
49 79 106
55 86 123
55 87 121
53 84 106
53 84 112
49 78 100
47 74 84
49 77 83
52 82 111
57 80 73
73 89 46
91 106 0
95 109 0
101 114 0
97 112 0
84 96 0
91 104 0
102 117 0
102 116 0
112 127 0
99 112 0
107 119 0
105 120 0
104 118 0
105 118 0
114 130 0
104 120 0
117 132 0
107 122 0
95 107 0
114 129 0
106 122 0
110 125 0
112 126 0
114 126 0
118 133 0
108 124 0
105 119 0
126 143 0
123 141 0
117 132 0
117 132 0
110 126 0
121 138 0
114 130 0
128 146 0
107 124 0
128 146 0
116 133 0
113 129 0
117 132 0
130 149 0
130 146 0
113 127 0
133 148 0
129 145 0
110 127 0
115 132 0
123 138 0
130 148 0
130 147 0
125 143 0
112 127 0
118 134 0
124 141 0
113 128 0
128 144 0
122 140 0
134 152 0
129 146 0
131 149 0
121 138 0
124 141 0
134 152 0
123 139 0
119 136 0
129 144 0
124 143 0
125 140 0
124 141 0
127 143 0
131 147 0
137 155 0
123 141 0
127 143 0
123 139 0
120 136 0
117 135 0
139 158 0
130 148 0
136 156 0
130 146 0
137 154 0
120 138 0
135 155 0
140 159 0
135 154 0
139 156 0
141 160 0
131 148 0
138 154 0
133 153 0
122 139 0
142 161 0
141 158 0
134 153 0
131 149 0
135 153 0
143 159 0
137 153 0
140 159 0
128 146 0
133 150 0
138 156 0
145 163 0
136 155 0
139 157 0
135 154 0
137 155 0
140 157 0
140 159 0
134 151 0
138 155 0
137 154 0
140 160 0
141 160 0
138 156 0
140 158 0
131 147 0
135 151 0
140 159 0
135 153 0
145 162 0
142 160 0
141 160 0
139 157 0
139 156 0
139 157 0
140 156 0
142 161 0
143 161 0
139 158 0
135 152 0
146 166 0
140 160 0
146 166 0
143 161 0
143 161 0
138 155 0
141 160 0
142 160 0
142 159 0
141 159 0
141 158 0
148 165 0
143 161 0
143 162 0
140 160 0
151 169 0
142 160 0
142 160 0
164 184 114
149 170 80
155 175 80
162 182 120
157 178 108
157 177 102
165 185 114
151 172 88
157 178 120
166 187 144
155 176 72
149 171 80
157 177 120
153 174 95
153 174 80
153 173 62
156 177 95
158 179 108
151 171 88
162 183 108
154 175 88
140 161 80
156 177 95
149 170 80
151 172 72
157 177 95
155 175 88
153 172 95
143 162 80
160 180 95
147 168 95
151 172 72
155 177 114
159 180 108
151 171 80
150 171 88
149 170 114
145 166 80
147 168 72
147 168 62
156 177 102
157 177 80
155 176 102
157 178 114
145 165 95
153 173 144
153 172 72
148 170 80
142 162 95
147 167 72
152 173 88
150 171 88
155 176 108
141 161 88
150 170 108
140 160 88
150 171 80
145 166 88
150 171 108
148 169 117
138 158 80
145 166 122
148 168 95
150 171 111
146 166 114
158 178 108
150 170 102
141 161 80
149 170 95
150 170 120
155 176 125
141 161 88
147 167 72
145 165 111
145 165 88
142 161 95
142 161 80
161 181 135
149 168 102
148 168 102
150 169 95
148 168 102
153 173 125
142 162 80
141 160 88
145 164 114
143 162 95
151 170 120
152 172 120
135 153 36
146 165 88
143 161 95
149 169 80
147 165 108
150 168 120
134 152 95
143 160 108
148 165 125
131 149 95
142 160 88
138 155 95
134 152 72
137 154 80
136 151 114
150 167 102
137 154 88
133 149 102
135 152 102
126 143 62
139 155 120
125 142 51
142 159 80
123 138 88
117 132 72
114 128 62
114 128 72
125 141 102
110 123 72
112 126 51
79 99 63
69 97 104
78 98 76
98 119 104
106 127 123
86 111 118
72 98 101
84 106 86
93 114 116
94 117 100
97 120 118
90 112 68
95 119 97
78 104 110
61 91 114
71 99 120
60 91 130
67 96 127
58 88 107
72 98 108
75 97 89
74 102 125
70 96 120
58 86 102
64 92 118
59 87 99
53 84 117
51 82 111
60 89 113
54 85 113
63 91 111
62 87 84
87 106 77
99 118 52
80 102 75
56 85 98
46 73 74
53 83 85
47 75 89
50 79 104
51 79 91
46 74 76
52 82 95
53 84 116
51 82 100
53 83 97
53 83 110
53 82 110
53 84 110
52 82 115
52 82 115
52 83 106
55 86 123
57 89 128
52 83 112
51 80 100
51 80 102
52 83 113
52 83 113
56 87 109
57 89 132
55 86 119
52 82 107
53 85 116
54 85 108
52 83 111
53 83 93
52 82 105
56 87 122
54 85 119
53 83 107
54 86 120
52 83 104
53 85 118
53 83 116
52 83 107
56 87 124
55 86 115
55 86 116
50 80 97
55 88 126
53 84 120
55 86 109
51 81 103
58 91 138
56 89 122
56 89 123
53 84 101
55 87 116
57 90 131
57 89 122
53 85 120
54 85 114
55 87 125
55 87 120
52 82 98
53 84 113
54 85 112
54 85 117
56 88 130
54 85 117
52 83 112
53 83 114
56 89 124
53 85 116
53 83 103
54 85 103
55 87 114
51 81 110
55 86 117
52 82 108
56 88 124
54 84 100
54 85 116
51 80 106
53 84 108
52 81 103
56 88 125
52 83 105
48 77 75
53 84 111
53 82 108
54 85 115
55 87 114
52 82 112
51 80 101
54 84 107
50 76 67
74 93 83
99 113 0
101 114 0
85 100 0
91 104 0
81 94 0
120 131 0
101 112 0
96 110 0
104 119 0
113 128 0
106 121 0
111 124 0
111 126 0
107 122 0
118 134 0
99 113 0
105 118 0
100 114 0
107 122 0
115 131 0
110 126 0
120 136 0
117 134 0
118 132 0
117 132 0
121 135 0
116 132 0
108 124 0
116 130 0
107 124 0
118 133 0
107 123 0
119 136 0
128 144 0
116 129 0
115 131 0
129 144 0
121 138 0
115 129 0
122 138 0
118 134 0
111 129 0
120 137 0
123 139 0
114 131 0
111 126 0
114 130 0
131 149 0
120 135 0
126 144 0
138 156 0
134 151 0
114 133 0
135 153 0
124 138 0
138 155 0
125 141 0
126 143 0
123 140 0
131 148 0
124 141 0
125 142 0
127 145 0
128 145 0
131 148 0
121 137 0
124 141 0
127 144 0
124 140 0
135 152 0
136 153 0
124 140 0
128 144 0
132 149 0
133 150 0
130 150 0
130 148 0
125 141 0
136 153 0
131 148 0
125 144 0
126 144 0
123 139 0
121 137 0
134 151 0
139 156 0
132 150 0
142 157 0
127 144 0
119 135 0
138 155 0
133 150 0
129 145 0
134 152 0
131 147 0
133 150 0
132 149 0
129 145 0
131 149 0
135 153 0
137 155 0
136 155 0
137 155 0
140 157 0
137 156 0
134 151 0
126 141 0
136 155 0
138 155 0
135 151 0
137 154 0
145 164 0
142 160 0
139 158 0
134 153 0
133 150 0
144 162 0
139 158 0
149 168 0
144 163 0
141 160 0
140 157 0
147 165 0
143 161 0
129 147 0
139 159 0
136 154 0
144 162 0
142 159 0
141 160 0
141 160 0
134 152 0
132 151 0
139 156 0
145 163 0
142 160 0
139 158 0
153 169 0
134 153 0
145 162 0
150 169 0
140 158 0
145 163 0
140 159 0
145 163 0
149 167 0
138 157 0
138 155 0
145 164 0
146 165 0
147 167 0
155 174 0
160 181 108
157 177 102
149 170 88
159 179 102
156 177 102
146 165 62
153 174 80
163 184 108
152 172 88
159 179 125
157 177 102
156 177 95
155 175 108
150 171 88
156 177 102
155 175 72
160 180 102
160 180 114
152 173 102
147 168 62
153 173 88
156 177 95
149 170 95
162 182 88
152 173 88
154 174 102
154 175 114
151 171 108
157 178 95
147 168 62
158 179 114
155 176 102
149 170 80
155 176 114
157 178 114
151 172 102
157 178 108
148 169 88
157 178 102
159 179 130
144 165 95
153 174 102
157 178 102
152 173 95
147 168 95
143 164 51
141 161 72
140 161 120
146 165 95
146 166 88
157 177 80
143 165 72
142 163 102
158 179 108
151 171 95
150 171 72
150 171 102
153 173 108
157 177 114
148 170 95
145 165 102
153 174 108
148 169 108
147 167 92
140 160 74
151 171 114
144 165 95
149 170 88
155 174 120
146 167 127
150 170 117
142 161 62
137 156 88
146 166 92
156 177 125
144 164 72
150 170 120
145 164 88
138 156 62
149 168 80
156 175 88
136 155 88
144 163 95
146 165 80
148 167 108
136 153 88
145 163 102
136 156 80
139 156 88
153 172 120
145 164 95
139 157 95
121 139 36
145 163 88
148 166 120
134 151 62
136 153 102
138 157 88
145 164 102
156 174 108
153 171 130
145 163 114
140 158 88
137 153 102
127 144 88
128 144 80
123 140 80
134 151 88
146 163 114
136 153 102
127 141 95
131 146 72
123 140 51
120 136 51
111 126 72
123 138 72
125 141 62
119 132 80
72 86 36
105 121 77
73 95 70
89 110 99
72 96 99
81 106 134
103 123 107
88 111 104
104 124 113
83 105 86
95 117 115
86 110 109
83 104 89
86 108 104
75 102 113
57 87 113
56 90 135
63 94 130
59 88 108
53 84 108
62 91 113
63 93 121
66 95 125
66 97 128
62 89 103
65 89 103
59 88 110
67 95 111
54 86 120
59 90 119
50 79 92
55 85 104
65 87 75
104 121 45
80 101 63
79 101 77
69 90 77
45 72 76
48 76 76
51 81 92
51 80 102
52 82 106
50 78 88
48 76 89
48 76 94
53 84 113
49 78 94
51 81 109
52 83 108
51 81 98
49 78 84
54 85 110
52 82 110
55 87 121
53 83 115
52 83 96
51 81 90
54 85 115
51 81 99
52 83 110
50 79 96
52 82 94
54 86 123
51 81 98
56 87 119
54 84 108
50 79 91
52 83 109
51 81 104
50 79 92
53 83 117
51 82 113
53 83 104
51 81 94
53 84 108
54 86 114
55 87 117
53 84 111
50 80 94
57 89 122
53 84 120
54 85 101
54 85 111
55 88 127
55 87 125
55 87 130
56 88 133
53 83 117
56 88 127
58 91 135
50 80 103
54 85 106
56 89 120
53 83 109
56 88 129
52 82 111
50 80 101
54 86 119
54 86 119
53 84 117
53 83 118
54 85 111
53 83 98
54 85 115
52 82 103
58 91 130
52 82 108
56 87 122
55 86 118
55 87 119
53 84 102
52 82 102
58 91 136
51 82 109
52 83 117
57 89 126
54 86 111
54 85 107
51 81 99
52 82 110
56 88 119
52 82 108
48 76 97
53 84 112
51 82 112
51 80 95
47 74 60
68 88 77
86 99 0
105 120 0
88 102 0
93 107 0
82 97 0
101 114 0
95 109 0
97 112 0
100 115 0
93 106 0
85 99 0
110 125 0
101 116 0
88 103 0
99 113 0
105 119 0
106 120 0
93 106 0
111 126 0
114 130 0
102 119 0
117 133 0
121 135 0
110 125 0
103 118 0
115 132 0
106 119 0
109 124 0
114 130 0
105 120 0
110 126 0
112 128 0
117 131 0
116 133 0
115 131 0
121 139 0
117 131 0
121 136 0
111 127 0
109 125 0
122 139 0
125 142 0
115 131 0
128 146 0
122 139 0
135 151 0
127 144 0
134 152 0
121 137 0
118 134 0
122 137 0
120 136 0
129 145 0
117 129 0
112 127 0
131 149 0
113 129 0
123 139 0
127 143 0
129 146 0
129 147 0
118 135 0
128 147 0
120 137 0
128 144 0
139 158 0
126 142 0
121 138 0
133 152 0
113 130 0
145 163 0
131 147 0
131 149 0
129 147 0
130 148 0
127 145 0
139 155 0
128 144 0
130 148 0
130 147 0
124 140 0
122 139 0
130 146 0
138 157 0
127 142 0
138 155 0
136 153 0
131 150 0
147 165 0
138 154 0
131 149 0
136 154 0
129 146 0
127 144 0
135 153 0
133 149 0
129 147 0
124 142 0
144 161 0
133 151 0
132 150 0
140 157 0
138 157 0
132 148 0
134 150 0
137 155 0
140 160 0
140 159 0
128 146 0
141 159 0
134 152 0
141 158 0
141 159 0
148 165 0
143 163 0
146 166 0
133 149 0
137 155 0
129 147 0
147 165 0
134 153 0
139 156 0
129 146 0
133 151 0
143 161 0
140 157 0
134 154 0
135 152 0
142 160 0
150 170 0
143 162 0
145 165 0
142 160 0
139 157 0
136 154 0
141 159 0
147 165 0
141 161 0
137 155 0
148 168 0
137 155 0
137 157 0
136 154 0
141 159 0
138 158 0
141 159 0
141 158 0
144 163 0
144 162 0
144 164 0
142 161 0
143 163 0
141 160 0
150 168 0
149 169 80
152 172 95
151 171 88
152 172 108
161 182 108
160 181 120
162 184 125
159 179 88
151 172 95
158 179 95
158 179 88
154 173 95
151 170 62
161 182 114
153 173 88
151 171 108
156 176 108
155 176 88
154 174 95
159 178 95
149 170 95
156 177 95
153 175 102
158 178 125
152 172 108
143 164 80
152 173 80
152 173 95
157 178 108
164 185 120
154 175 95
159 179 114
153 173 88
151 173 108
153 174 88
160 181 108
151 172 102
155 176 108
148 169 51
143 163 72
144 164 72
143 163 72
158 178 108
152 171 80
154 175 102
145 165 88
150 171 108
155 176 120
153 174 102
150 172 114
151 171 95
150 170 95
146 166 95
150 171 120
154 175 120
147 167 108
153 174 95
155 175 80
141 162 72
154 174 95
158 179 114
155 175 108
144 164 88
147 167 108
146 165 84
140 161 95
156 176 102
151 172 108
141 161 72
135 155 72
149 168 95
142 162 80
148 167 80
148 169 108
144 163 95
150 169 88
140 159 80
155 175 108
153 173 130
156 175 130
147 166 108
141 159 72
132 152 72
150 168 95
137 155 80
149 167 108
144 163 80
147 165 102
153 172 120
139 157 80
150 169 80
149 166 114
137 155 72
134 152 80
144 163 95
143 162 88
126 144 36
153 172 114
138 155 80
135 151 88
146 164 114
149 166 120
139 155 80
135 151 102
136 152 62
139 157 95
128 143 80
136 153 80
129 144 102
134 149 88
127 143 88
118 135 36
123 139 72
135 152 95
123 138 80
125 141 51
116 130 80
113 127 51
108 124 62
114 129 51
107 124 71
77 101 100
85 104 101
88 109 97
76 98 102
78 101 125
76 100 83
104 123 114
92 113 99
100 121 86
93 114 74
75 99 85
100 123 96
56 85 96
57 87 109
60 91 121
57 89 129
60 90 109
60 89 109
64 93 113
57 86 112
67 97 128
70 96 104
83 105 83
68 95 113
56 84 105
54 82 90
62 89 99
52 81 93
56 83 88
69 94 98
100 120 68
86 107 81
85 106 78
90 104 26
79 94 37
67 86 54
49 77 100
47 74 88
52 82 114
51 81 102
52 82 102
46 74 86
51 80 94
50 79 90
50 79 101
50 79 95
53 84 113
55 86 117
54 84 114
49 78 95
48 77 90
50 80 85
54 84 113
55 86 122
52 82 101
51 80 102
53 82 108
55 87 124
51 80 102
55 86 113
54 85 117
50 79 105
52 82 112
53 83 107
54 85 117
53 84 113
55 87 121
51 81 109
53 84 114
54 85 109
51 81 108
59 93 146
50 80 101
55 87 121
56 88 123
49 78 98
55 86 117
54 85 119
54 86 111
53 84 123
53 84 110
55 86 113
51 81 102
55 87 124
56 88 124
53 84 114
54 85 113
52 83 105
53 84 111
54 85 113
53 83 111
57 89 129
55 86 121
52 82 105
53 84 109
54 86 115
53 83 98
53 85 122
55 86 128
55 86 129
52 82 107
50 80 102
55 86 123
54 86 118
49 78 95
50 80 99
53 83 102
51 81 109
56 88 124
54 85 106
50 80 105
57 89 131
56 88 121
54 85 110
52 83 109
52 82 106
50 80 93
56 88 124
52 82 113
53 83 99
50 79 99
44 70 75
47 70 61
76 91 39
107 121 0
80 93 0
90 103 0
93 107 0
98 111 0
100 114 0
101 114 0
106 120 0
93 106 0
111 124 0
92 105 0
85 98 0
86 99 0
93 107 0
112 127 0
95 108 0
109 124 0
106 120 0
107 123 0
114 129 0
100 115 0
117 132 0
115 131 0
114 129 0
107 122 0
120 135 0
115 128 0
101 115 0
112 126 0
102 118 0
117 132 0
113 129 0
127 144 0
110 128 0
114 129 0
107 123 0
117 134 0
111 126 0
119 134 0
110 125 0
123 139 0
113 129 0
121 138 0
116 133 0
112 128 0
113 131 0
128 145 0
115 130 0
124 139 0
129 147 0
117 134 0
132 150 0
119 136 0
139 157 0
140 158 0
129 146 0
119 136 0
115 131 0
120 136 0
128 145 0
128 145 0
132 148 0
131 148 0
140 158 0
132 149 0
136 153 0
139 158 0
130 148 0
121 136 0
133 150 0
121 137 0
119 138 0
129 147 0
120 136 0
136 155 0
139 155 0
140 156 0
134 151 0
127 143 0
137 156 0
132 150 0
134 152 0
131 149 0
132 150 0
136 154 0
131 148 0
139 156 0
136 153 0
140 158 0
121 136 0
143 162 0
132 151 0
137 157 0
123 140 0
137 153 0
142 160 0
145 163 0
128 146 0
144 161 0
143 161 0
134 151 0
141 161 0
135 153 0
136 156 0
142 161 0
131 148 0
138 158 0
137 157 0
133 151 0
137 154 0
141 159 0
146 165 0
134 153 0
144 163 0
131 150 0
132 151 0
142 162 0
142 159 0
138 153 0
145 164 0
143 161 0
139 157 0
139 158 0
143 161 0
131 147 0
139 158 0
144 163 0
144 163 0
137 155 0
143 162 0
140 159 0
146 166 0
142 160 0
135 154 0
140 160 0
144 163 0
141 160 0
139 157 0
138 157 0
144 163 0
142 161 0
148 166 0
145 164 0
136 155 0
140 158 0
143 162 0
138 156 0
152 172 0
141 158 0
142 161 0
150 170 0
144 162 0
149 168 0
143 163 0
139 157 0
158 177 95
157 177 80
156 176 80
155 175 80
153 173 88
157 178 102
152 172 88
159 178 95
161 182 114
159 180 95
162 180 102
155 175 108
154 174 95
150 170 80
162 183 108
154 175 95
156 177 80
156 176 102
155 175 51
150 171 72
155 176 80
153 173 80
166 187 120
150 170 80
152 172 88
143 164 72
154 175 108
154 175 95
148 169 72
148 169 72
158 179 114
146 167 72
151 171 102
148 169 88
151 173 95
157 178 130
155 176 108
149 170 95
143 165 80
152 175 108
152 173 88
149 168 80
151 171 102
149 171 114
164 186 140
153 174 95
147 167 80
144 164 72
155 175 95
152 172 114
156 177 108
149 170 80
141 161 88
150 171 120
148 169 102
144 165 80
148 168 95
151 172 108
148 169 92
157 178 102
142 162 88
140 160 51
143 163 95
150 170 102
150 170 88
145 165 88
139 159 72
143 163 72
135 154 80
142 161 102
147 167 72
149 169 127
150 169 88
139 159 80
159 179 114
147 167 102
133 152 95
137 156 80
140 160 51
148 167 102
146 165 95
154 175 102
141 160 88
141 160 80
144 163 108
146 164 95
148 167 125
147 166 114
143 161 80
139 157 80
136 154 88
152 171 125
138 156 80
142 160 102
134 152 95
148 166 120
145 162 102
139 157 72
148 166 88
134 150 95
138 156 102
147 163 125
130 147 62
142 159 72
154 169 135
129 145 88
130 148 72
125 141 62
120 136 72
134 149 88
128 143 51
120 135 51
121 138 51
121 137 36
127 141 80
138 153 108
116 131 80
93 109 36
106 120 62
105 118 62
92 104 51
102 119 64
80 101 91
97 115 90
96 118 103
70 94 84
90 109 90
99 120 97
83 107 98
93 118 113
85 109 95
79 102 97
108 125 58
89 111 96
63 93 119
76 105 124
61 92 126
56 86 118
61 92 124
72 98 101
61 92 122
72 97 109
69 92 99
72 95 91
68 98 120
63 90 111
52 82 110
70 98 115
57 88 117
57 84 91
75 95 69
93 112 74
97 116 74
83 104 83
91 107 46
97 112 0
101 115 0
70 86 47
59 85 92
52 83 97
46 73 73
51 81 99
46 74 70
53 84 99
49 79 89
50 79 94
52 82 100
55 86 99
55 86 116
51 81 109
50 79 89
51 81 99
49 77 87
56 89 124
52 83 95
53 84 119
50 79 102
53 83 116
51 80 101
51 82 92
50 79 99
54 85 116
56 89 129
53 83 114
51 82 103
50 80 99
54 85 114
50 80 96
55 86 115
54 85 107
52 82 103
50 79 97
49 78 91
54 85 120
49 78 99
51 81 109
51 80 98
52 83 112
54 86 105
57 90 133
53 84 122
54 85 109
54 86 123
52 81 97
51 81 95
53 83 101
52 82 111
53 84 105
52 82 103
53 84 103
52 81 103
53 84 111
56 88 133
56 89 120
54 85 109
50 79 102
52 82 86
50 79 97
56 88 124
53 84 112
49 78 91
52 83 92
51 81 104
53 83 112
53 83 108
53 84 102
52 82 112
49 78 99
51 81 111
55 87 122
51 81 116
55 86 115
51 81 100
53 84 119
49 78 85
51 81 102
53 83 110
50 80 92
54 85 118
52 81 96
54 85 103
56 80 84
81 98 48
89 102 0
98 112 0
99 113 0
84 95 0
89 102 0
104 118 0
96 110 0
96 110 0
85 98 0
109 123 0
112 126 0
83 96 0
95 108 0
88 103 0
112 128 0
101 113 0
95 109 0
110 124 0
104 119 0
114 128 0
132 149 0
112 126 0
116 133 0
101 117 0
111 126 0
106 122 0
113 129 0
128 142 0
117 133 0
105 120 0
119 134 0
105 120 0
106 120 0
129 146 0
113 129 0
107 123 0
130 148 0
112 126 0
117 133 0
117 133 0
106 120 0
125 141 0
117 134 0
122 140 0
131 149 0
120 136 0
119 134 0
135 151 0
116 132 0
125 142 0
130 146 0
124 142 0
128 145 0
112 129 0
112 128 0
119 137 0
131 149 0
117 133 0
113 128 0
133 148 0
120 136 0
124 140 0
133 150 0
120 136 0
133 151 0
136 153 0
127 144 0
137 156 0
125 142 0
128 143 0
143 160 0
120 136 0
140 159 0
119 135 0
123 139 0
127 145 0
133 150 0
142 161 0
130 147 0
130 149 0
127 143 0
140 158 0
122 138 0
139 158 0
136 153 0
137 152 0
137 155 0
125 143 0
130 148 0
128 144 0
135 153 0
131 149 0
131 149 0
126 142 0
132 149 0
140 159 0
138 157 0
135 153 0
135 152 0
130 147 0
136 154 0
142 161 0
140 159 0
138 157 0
137 154 0
137 154 0
137 156 0
136 154 0
140 159 0
128 146 0
146 165 0
143 163 0
145 164 0
129 147 0
136 155 0
138 157 0
140 156 0
132 149 0
140 158 0
142 161 0
137 155 0
132 152 0
142 160 0
136 156 0
140 158 0
138 155 0
148 167 0
139 158 0
141 159 0
138 155 0
139 159 0
139 158 0
141 161 0
141 159 0
144 163 0
144 165 0
137 156 0
138 155 0
142 159 0
142 161 0
140 158 0
137 156 0
133 150 0
146 166 0
144 161 0
143 161 0
147 165 0
146 164 0
143 161 0
139 159 0
140 159 0
136 155 0
139 157 0
145 163 0
150 169 0
140 157 0
142 161 0
165 186 130
157 177 95
162 183 114
154 173 88
159 179 114
153 173 80
157 178 88
152 174 72
164 185 130
158 178 102
154 174 88
157 177 108
150 170 62
156 176 95
156 177 114
158 180 108
152 171 95
158 179 88
160 181 130
157 178 95
157 177 80
150 171 130
153 173 108
152 173 72
152 174 102
157 178 114
160 181 114
156 178 95
158 179 120
150 170 62
153 174 95
146 166 95
153 175 108
146 168 88
151 172 88
150 171 88
149 170 88
155 176 108
147 168 80
147 167 72
154 175 108
150 170 72
149 169 88
147 167 88
155 175 102
155 175 108
141 161 80
162 183 135
151 171 95
148 169 80
147 168 95
141 161 88
151 172 130
149 169 72
152 173 102
147 167 80
155 177 108
148 168 105
148 169 114
151 171 102
155 175 114
143 162 80
143 164 102
139 159 88
140 160 80
157 178 125
143 162 62
141 162 102
145 164 88
146 165 80
143 163 108
137 157 51
154 174 120
138 158 68
151 171 95
149 169 80
144 162 88
152 171 114
139 158 88
130 148 62
138 156 95
145 164 62
136 155 88
139 158 80
154 174 114
151 170 102
139 158 88
149 168 108
146 165 108
145 164 114
149 167 88
144 162 95
140 159 88
138 156 62
136 154 72
152 170 88
140 159 102
149 167 102
142 159 114
134 150 88
139 156 95
153 170 135
140 158 80
137 155 80
143 160 108
149 165 120
126 145 62
146 162 108
126 142 95
139 155 80
133 148 108
134 149 72
141 158 102
142 159 72
125 140 62
112 126 72
134 149 80
127 142 62
107 122 36
101 114 0
108 121 72
114 126 72
90 109 83
96 115 122
85 106 96
99 120 104
83 107 99
88 110 98
93 115 93
97 119 88
82 105 97
85 106 73
120 137 46
130 149 0
82 106 103
66 96 124
58 89 121
69 97 122
68 95 115
60 91 114
61 90 118
65 93 117
72 98 94
67 92 82
80 105 112
69 97 120
59 90 125
50 79 96
57 86 111
52 82 94
84 103 92
110 128 58
100 118 68
95 115 81
90 106 55
103 117 0
114 128 0
86 100 0
99 114 0
81 97 37
56 79 72
51 81 108
54 84 118
47 75 83
48 77 94
47 75 76
48 76 90
49 78 102
50 79 97
48 77 84
50 80 100
50 79 97
49 78 93
49 78 103
50 79 96
49 78 83
51 81 87
52 82 110
55 86 121
52 82 102
51 81 94
57 90 124
51 81 90
55 87 119
51 81 91
49 79 96
52 82 100
54 84 112
53 84 115
54 84 117
51 82 101
53 85 105
56 89 124
53 85 110
51 80 96
52 82 113
53 84 102
54 86 122
55 87 112
47 76 88
53 84 119
56 88 126
54 85 118
53 85 119
55 86 118
54 84 118
51 81 102
52 82 105
57 89 126
54 85 118
53 84 113
56 87 131
59 92 120
51 81 104
53 83 105
53 84 114
56 87 124
54 85 110
51 81 96
47 76 87
55 87 130
53 83 110
54 85 106
51 80 99
57 90 119
52 82 99
53 84 116
51 81 92
52 83 103
55 86 119
50 80 102
52 82 98
49 77 96
53 83 98
51 81 95
54 86 113
54 84 102
48 76 88
45 71 80
62 84 75
89 105 47
79 91 0
98 111 0
95 108 0
95 110 0
95 107 0
83 96 0
70 84 0
97 108 0
101 115 0
94 108 0
106 119 0
100 114 0
105 119 0
100 115 0
91 104 0
101 112 0
108 123 0
117 131 0
90 102 0
120 135 0
112 125 0
107 122 0
99 116 0
114 129 0
102 117 0
106 120 0
121 138 0
114 129 0
124 139 0
125 141 0
112 129 0
122 137 0
108 124 0
108 125 0
112 127 0
119 135 0
109 125 0
114 132 0
110 125 0
116 132 0
121 137 0
127 144 0
105 119 0
124 142 0
131 147 0
116 132 0
123 139 0
119 135 0
129 145 0
118 136 0
114 131 0
132 148 0
110 126 0
123 142 0
131 148 0
124 140 0
134 151 0
131 148 0
125 142 0
122 138 0
135 153 0
121 136 0
118 134 0
120 136 0
119 134 0
134 150 0
124 139 0
126 142 0
125 141 0
123 139 0
130 147 0
131 149 0
132 149 0
126 143 0
135 153 0
140 158 0
120 137 0
133 152 0
128 144 0
132 149 0
129 146 0
130 145 0
123 138 0
139 158 0
126 144 0
128 146 0
130 146 0
125 141 0
131 150 0
128 147 0
131 149 0
129 146 0
128 146 0
134 151 0
132 150 0
142 162 0
134 151 0
136 155 0
139 156 0
139 157 0
145 162 0
134 152 0
130 149 0
129 145 0
135 154 0
138 156 0
146 165 0
137 153 0
141 157 0
139 157 0
141 159 0
136 156 0
143 161 0
142 160 0
128 147 0
133 151 0
131 149 0
138 156 0
140 159 0
135 154 0
144 164 0
139 155 0
138 156 0
145 164 0
138 157 0
136 155 0
139 157 0
141 160 0
145 165 0
145 164 0
141 159 0
144 162 0
144 161 0
142 160 0
138 156 0
137 154 0
139 156 0
134 151 0
143 162 0
132 149 0
144 163 0
141 158 0
151 170 0
142 158 0
140 159 0
141 158 0
145 163 0
139 159 0
134 152 0
146 166 0
141 159 0
145 165 0
138 155 0
142 161 0
135 152 0
143 160 0
147 165 0
143 163 0
141 159 0
158 178 114
153 173 95
152 173 88
151 172 62
156 175 102
153 174 108
152 172 72
156 177 95
152 171 80
155 176 88
158 178 102
151 172 95
167 187 120
148 168 72
153 174 95
158 178 102
152 172 72
152 172 102
151 172 95
154 176 95
155 176 108
153 174 95
157 177 88
152 173 120
157 178 95
150 170 80
150 170 95
157 177 88
152 173 88
147 167 108
148 168 62
150 171 95
152 173 102
154 176 114
151 173 120
148 168 51
155 176 95
154 175 95
150 172 95
148 169 80
156 179 125
146 166 80
151 172 108
155 177 125
150 170 114
156 176 114
160 180 120
148 169 95
155 175 102
149 169 102
145 166 114
154 174 95
139 158 72
139 160 108
146 167 95
144 164 102
141 160 88
143 163 95
143 164 72
151 171 95
149 170 80
143 163 72
152 173 108
144 165 102
150 170 102
154 175 88
136 155 72
149 169 102
139 159 95
141 161 95
147 167 95
147 168 108
148 169 95
148 168 102
165 185 120
141 160 108
145 165 108
149 168 80
158 177 108
141 159 88
148 167 102
140 159 88
155 175 120
135 154 80
145 164 88
142 161 102
154 173 135
145 163 102
143 161 102
143 162 95
135 154 62
143 161 102
135 154 62
151 168 108
135 154 95
143 161 95
144 163 62
139 157 88
126 144 62
142 160 88
131 149 102
139 157 88
134 151 80
133 150 88
122 138 72
157 173 130
148 164 102
135 150 102
138 154 88
146 162 108
134 150 95
121 137 72
114 129 62
127 141 88
127 142 88
132 147 95
127 142 80
128 144 51
121 136 72
120 135 80
110 124 51
121 137 51
94 108 51
65 86 72
95 115 89
94 115 92
88 108 95
83 104 90
77 98 80
91 113 88
90 110 91
98 120 95
105 124 77
153 172 25
108 126 64
73 99 113
62 92 118
63 93 112
71 100 124
64 92 100
60 87 86
66 92 101
74 97 83
63 90 110
75 99 105
67 94 101
55 82 92
52 81 104
60 87 102
53 82 92
96 112 52
89 105 36
89 108 26
93 113 66
103 120 47
97 112 0
93 106 0
87 101 0
89 101 0
88 101 0
96 109 0
83 98 53
69 89 65
49 77 81
47 75 75
50 79 87
52 81 99
48 77 78
49 78 85
46 73 75
48 76 81
54 85 108
52 83 106
50 79 102
52 82 93
47 74 82
51 81 97
51 80 102
49 78 84
50 79 88
51 81 96
55 86 113
55 86 113
53 82 104
52 83 109
45 72 72
56 88 112
52 83 105
51 81 102
50 79 92
49 77 87
50 80 100
52 82 106
53 83 103
51 82 106
55 86 112
53 83 83
53 83 106
52 82 105
52 83 112
55 86 119
51 81 91
53 84 109
55 86 108
52 82 102
56 89 134
57 90 136
54 84 111
53 83 110
50 79 87
54 86 115
55 87 118
53 83 110
56 88 112
53 84 103
54 84 111
55 87 126
49 78 95
49 78 97
52 82 106
52 82 107
49 78 96
53 84 112
55 86 109
53 84 120
52 83 100
52 82 105
50 79 102
51 81 99
51 80 103
53 83 114
54 85 108
50 79 103
51 80 94
53 83 106
51 81 103
51 80 103
67 90 89
87 100 39
88 99 0
103 116 0
89 102 0
90 104 0
79 92 0
97 110 0
98 111 0
96 109 0
108 120 0
104 118 0
93 108 0
105 118 0
93 107 0
102 117 0
102 115 0
105 120 0
110 125 0
107 120 0
108 124 0
96 110 0
105 120 0
108 124 0
97 112 0
111 124 0
101 116 0
103 119 0
108 124 0
102 118 0
126 142 0
119 137 0
110 126 0
121 136 0
102 118 0
120 135 0
120 135 0
114 131 0
121 138 0
114 129 0
123 141 0
121 138 0
119 135 0
111 126 0
112 126 0
120 135 0
110 125 0
124 139 0
134 152 0
117 131 0
130 147 0
136 154 0
126 144 0
119 136 0
123 141 0
130 146 0
125 143 0
112 129 0
130 150 0
133 148 0
123 139 0
119 136 0
117 132 0
115 131 0
127 143 0
120 137 0
122 140 0
127 144 0
134 151 0
132 149 0
124 141 0
123 139 0
135 153 0
136 154 0
126 143 0
126 143 0
136 154 0
132 151 0
131 149 0
134 152 0
135 152 0
134 152 0
139 156 0
139 157 0
135 154 0
133 150 0
130 146 0
135 151 0
126 144 0
121 136 0
135 153 0
136 154 0
134 151 0
141 159 0
141 160 0
139 157 0
138 157 0
133 150 0
131 148 0
138 153 0
131 150 0
138 155 0
134 151 0
136 155 0
139 156 0
142 158 0
131 149 0
131 149 0
139 158 0
137 156 0
135 154 0
145 164 0
135 152 0
145 162 0
133 151 0
137 155 0
146 164 0
137 155 0
131 149 0
137 155 0
133 149 0
142 161 0
135 154 0
137 155 0
143 160 0
138 155 0
140 159 0
137 154 0
132 149 0
131 150 0
134 153 0
133 150 0
151 170 0
143 162 0
145 163 0
137 156 0
132 149 0
130 149 0
150 169 0
143 163 0
148 167 0
140 158 0
137 155 0
140 158 0
139 158 0
138 157 0
144 162 0
144 162 0
146 166 0
135 154 0
139 156 0
143 161 0
138 157 0
141 159 0
139 158 0
129 148 0
143 163 0
146 163 0
139 157 0
149 168 0
141 160 0
140 158 0
141 161 0
159 180 102
156 177 102
145 166 72
157 177 102
155 174 114
154 175 80
158 178 108
163 183 108
155 175 88
150 169 95
149 168 80
155 176 114
167 188 130
163 184 125
144 164 88
160 181 114
158 179 114
156 177 95
155 176 108
160 181 114
156 177 114
151 172 80
155 175 80
152 174 120
159 179 88
151 172 95
152 173 95
149 170 88
156 177 108
153 173 80
150 171 88
149 170 80
150 170 80
153 174 102
146 167 80
155 176 108
151 171 102
148 169 95
149 170 95
145 166 80
161 182 130
155 176 114
153 174 108
144 165 62
149 169 80
159 181 114
148 168 72
153 173 95
154 175 95
147 168 108
146 166 95
148 168 51
149 170 130
145 166 95
147 168 72
145 166 95
140 160 80
146 166 80
141 161 72
149 170 80
137 157 72
154 175 114
154 174 108
151 171 114
148 167 80
147 168 105
158 177 95
146 165 88
145 164 80
147 167 102
153 173 95
134 154 95
147 167 80
147 167 105
145 165 102
155 175 140
137 157 80
150 169 95
143 161 102
142 161 88
150 170 95
151 171 102
139 159 88
130 149 62
152 170 114
138 156 88
138 156 80
144 162 114
152 171 108
147 166 102
158 177 120
144 162 88
151 170 108
149 168 88
145 162 114
131 150 36
142 159 95
146 164 114
128 147 62
157 173 114
136 154 88
137 153 102
146 162 135
146 163 102
143 159 125
149 164 125
130 145 62
135 152 95
131 146 80
140 156 102
118 134 62
138 154 95
143 159 88
130 147 80
133 148 51
124 139 72
120 136 51
107 122 51
129 144 80
121 135 72
116 130 72
120 135 62
109 122 51
100 115 69
81 103 111
96 116 101
93 113 91
76 97 55
89 112 75
88 110 70
90 112 87
92 115 82
109 129 67
138 156 0
138 157 24
109 128 63
58 86 99
72 100 117
61 91 119
51 81 103
61 90 108
69 94 105
72 99 108
64 92 115
64 92 101
67 91 82
68 93 92
54 81 85
54 83 98
56 75 45
95 111 36
81 100 63
79 101 85
88 108 55
100 114 0
100 113 0
107 122 0
94 108 0
97 111 0
81 94 0
89 102 0
99 111 0
93 106 0
99 114 39
83 100 57
52 79 76
50 80 104
50 80 87
52 82 104
45 72 84
48 75 81
50 80 102
52 81 99
48 77 89
51 81 108
54 85 111
50 79 85
53 84 106
51 81 107
50 79 93
50 80 86
48 77 81
49 77 92
49 77 90
54 85 109
48 77 89
53 84 116
55 86 118
51 82 101
53 84 107
55 87 114
53 83 113
50 79 88
50 80 91
53 84 104
53 83 116
50 80 100
54 86 105
53 83 99
53 83 113
58 91 115
52 81 108
53 83 105
52 82 101
53 84 114
51 81 102
50 79 91
53 83 114
54 85 112
52 81 102
50 80 102
53 83 101
51 81 99
52 83 107
51 80 103
52 82 92
52 82 94
51 81 99
52 81 90
49 77 91
49 78 79
51 80 88
51 81 95
54 85 116
53 84 114
55 88 101
51 81 97
55 86 125
51 81 90
53 83 113
47 75 80
49 77 98
49 77 85
50 79 103
57 81 80
64 85 74
79 93 26
81 94 0
72 84 0
103 116 0
93 107 0
93 106 0
112 128 0
96 107 0
101 113 0
97 111 0
95 108 0
106 119 0
102 117 0
98 112 0
96 109 0
110 125 0
99 114 0
86 100 0
117 132 0
108 124 0
104 117 0
113 128 0
105 119 0
106 119 0
102 117 0
117 134 0
105 121 0
110 124 0
85 99 0
111 126 0
122 138 0
120 136 0
112 128 0
116 132 0
126 142 0
106 123 0
117 134 0
122 139 0
110 124 0
118 134 0
118 135 0
116 132 0
121 137 0
116 131 0
127 145 0
108 124 0
129 146 0
120 136 0
125 140 0
123 139 0
117 133 0
129 146 0
131 150 0
122 139 0
121 137 0
133 149 0
119 134 0
128 145 0
136 155 0
122 139 0
119 137 0
123 139 0
113 130 0
125 142 0
129 147 0
126 142 0
136 153 0
125 143 0
132 149 0
125 143 0
132 148 0
130 148 0
121 137 0
131 149 0
137 156 0
139 157 0
130 147 0
123 142 0
131 147 0
130 148 0
133 152 0
140 156 0
141 159 0
140 158 0
132 148 0
134 152 0
143 162 0
132 150 0
112 127 0
131 148 0
120 137 0
141 159 0
140 158 0
135 152 0
139 156 0
136 155 0
137 156 0
132 150 0
136 154 0
126 143 0
128 148 0
140 158 0
125 142 0
139 156 0
137 155 0
125 142 0
134 151 0
132 150 0
136 154 0
140 158 0
134 154 0
135 155 0
137 154 0
147 165 0
144 163 0
142 158 0
133 150 0
139 155 0
141 159 0
131 149 0
141 161 0
144 162 0
135 152 0
142 159 0
143 162 0
150 169 0
141 159 0
139 157 0
140 157 0
139 156 0
133 151 0
134 149 0
149 169 0
150 169 0
135 155 0
141 161 0
145 163 0
148 167 0
132 150 0
136 155 0
144 163 0
138 156 0
144 163 0
142 162 0
138 155 0
139 158 0
139 156 0
142 161 0
139 157 0
136 154 0
136 153 0
139 158 0
138 158 0
142 158 0
143 162 0
141 158 0
141 160 0
140 158 0
148 168 0
140 160 0
141 160 0
146 165 0
152 172 0
143 160 0
150 171 80
155 175 88
159 179 95
160 179 114
155 175 80
147 168 72
156 176 95
156 177 120
160 180 108
153 173 80
152 173 95
155 175 120
150 170 95
151 171 80
161 182 125
160 181 80
159 179 114
149 169 102
147 167 88
155 177 125
155 176 108
152 172 80
148 169 88
146 167 72
151 172 80
150 170 95
158 179 120
157 177 102
152 172 80
158 179 120
151 172 88
150 170 88
152 174 95
163 184 120
146 166 62
155 176 125
154 175 114
149 170 80
151 171 88
153 174 88
138 159 88
157 178 95
156 177 120
145 166 88
141 162 62
148 168 88
150 170 114
144 164 102
149 169 108
152 173 108
154 174 95
152 173 102
149 170 102
144 164 88
141 162 88
152 173 80
144 165 114
142 162 80
151 171 102
147 168 88
133 153 57
153 173 88
138 158 108
148 167 76
149 169 95
148 168 95
147 168 108
127 147 51
153 173 114
150 171 102
144 163 80
151 171 125
147 167 102
143 163 95
142 161 62
130 149 36
142 162 108
141 161 95
146 166 108
145 165 108
144 162 88
151 171 108
140 160 95
144 162 88
145 164 80
137 155 95
140 158 102
141 159 72
152 172 120
141 159 108
152 170 108
142 159 80
155 173 120
133 151 51
149 168 125
127 144 72
144 162 108
141 158 114
133 149 88
140 157 108
141 158 120
135 152 102
137 153 95
143 160 95
133 149 95
137 153 102
147 163 120
138 154 80
138 154 95
134 151 72
132 148 80
129 147 80
121 136 80
116 131 62
123 138 62
112 128 62
127 143 72
130 145 51
111 125 36
126 140 51
116 132 51
109 124 36
105 118 72
90 102 51
103 117 85
90 110 99
72 95 88
69 94 76
109 129 92
98 119 82
88 112 102
99 120 75
97 116 52
129 147 0
122 139 26
123 143 0
96 117 77
64 91 114
62 89 101
64 94 114
62 90 101
64 91 111
69 95 108
74 100 107
53 80 87
73 97 88
63 87 88
58 85 99
51 77 65
68 84 47
86 102 44
84 102 66
92 111 71
90 111 81
94 109 27
102 117 0
94 108 0
88 102 0
103 117 0
103 117 0
90 103 0
93 106 0
113 128 0
92 106 0
93 107 0
87 101 0
78 95 37
63 85 80
49 78 92
52 81 101
49 78 72
54 85 117
50 79 92
50 80 103
48 77 84
47 75 82
54 86 119
52 83 93
51 81 104
49 78 95
47 74 84
53 83 103
48 77 80
51 81 100
52 82 100
51 80 98
51 81 89
49 77 78
50 80 101
53 82 110
54 85 96
49 77 90
52 82 106
55 86 121
51 81 97
52 81 112
50 79 106
52 83 111
50 79 94
52 82 105
55 87 120
54 85 119
53 83 109
55 86 120
50 79 94
53 83 106
50 79 95
56 88 122
50 80 103
50 80 97
52 82 100
51 80 107
56 88 131
47 75 89
53 84 111
51 80 104
50 80 104
53 84 106
53 83 113
55 87 115
53 83 106
51 81 102
51 80 100
52 82 106
52 83 107
47 74 80
52 82 108
54 85 115
48 76 99
48 76 89
49 78 95
50 79 74
73 94 87
73 90 68
86 100 0
63 74 0
92 106 0
86 98 0
101 115 0
107 120 0
98 111 0
88 102 0
104 118 0
98 112 0
105 119 0
105 118 0
91 104 0
110 125 0
102 116 0
79 92 0
86 99 0
95 109 0
114 128 0
111 127 0
96 111 0
101 114 0
118 133 0
99 114 0
103 119 0
113 128 0
93 108 0
105 120 0
116 131 0
98 114 0
110 125 0
116 131 0
117 132 0
111 127 0
111 127 0
123 139 0
108 124 0
114 132 0
105 121 0
112 128 0
112 126 0
110 126 0
129 147 0
115 132 0
116 132 0
117 133 0
123 140 0
125 141 0
123 140 0
121 139 0
132 147 0
132 149 0
125 142 0
120 138 0
124 139 0
116 132 0
115 133 0
127 143 0
122 139 0
104 120 0
130 149 0
128 146 0
117 134 0
124 140 0
124 143 0
128 146 0
128 145 0
128 145 0
117 134 0
132 151 0
127 145 0
128 145 0
126 143 0
133 149 0
129 148 0
124 143 0
131 147 0
132 148 0
126 143 0
125 143 0
137 154 0
137 155 0
134 152 0
137 153 0
126 143 0
132 150 0
136 153 0
136 154 0
132 149 0
132 149 0
121 136 0
130 149 0
128 147 0
133 151 0
133 148 0
132 150 0
139 157 0
128 146 0
129 148 0
138 156 0
135 154 0
121 139 0
134 152 0
132 147 0
142 158 0
124 142 0
142 160 0
134 152 0
139 157 0
135 153 0
138 157 0
144 163 0
128 146 0
140 158 0
138 155 0
142 160 0
127 146 0
141 160 0
135 153 0
137 156 0
131 148 0
137 156 0
143 164 0
146 165 0
137 156 0
141 161 0
131 148 0
147 167 0
136 152 0
141 159 0
136 153 0
142 159 0
145 164 0
138 156 0
142 161 0
144 162 0
142 159 0
141 162 0
136 157 0
142 160 0
139 158 0
136 153 0
142 159 0
141 160 0
134 153 0
145 164 0
145 165 0
141 159 0
138 157 0
147 166 0
138 158 0
145 165 0
154 173 0
133 149 0
140 159 0
147 167 0
148 164 0
148 167 0
144 164 0
147 167 0
145 164 0
142 162 0
140 160 0
146 164 0
137 156 0
145 163 0
157 177 108
160 179 95
158 179 102
152 172 80
155 176 108
155 174 102
157 177 95
152 172 88
164 185 114
159 179 88
155 176 95
155 175 88
156 175 88
156 177 88
154 174 102
161 181 88
149 170 88
157 178 102
149 171 72
143 162 80
159 180 108
157 178 102
154 175 80
146 167 72
147 169 95
147 165 51
157 178 114
150 171 102
151 171 80
156 177 108
154 175 95
147 168 80
154 175 102
150 171 95
146 167 114
148 168 88
150 171 108
157 177 95
150 169 88
154 175 108
156 176 95
153 173 95
147 168 88
154 174 95
148 168 95
154 175 114
147 168 80
141 160 51
154 175 72
156 177 108
146 167 95
145 165 80
146 166 72
141 161 80
147 166 102
144 164 95
148 169 108
143 164 80
150 171 108
151 172 95
144 164 88
146 166 51
146 167 108
154 174 114
150 171 114
136 156 88
148 168 102
155 174 80
141 160 68
147 167 80
146 166 102
147 167 114
152 173 108
139 158 88
152 171 95
138 157 95
141 161 72
161 180 120
138 158 88
129 147 72
147 167 88
144 163 80
139 157 72
149 167 114
144 163 108
147 166 95
139 157 51
140 159 114
142 162 80
126 143 72
146 164 95
139 157 88
139 157 95
138 156 72
126 143 72
143 161 114
160 179 144
134 151 88
122 140 72
143 160 102
149 166 120
146 162 102
133 150 88
141 158 95
133 149 88
146 161 114
158 174 130
136 154 72
150 168 72
135 152 88
130 147 80
129 146 62
133 148 95
125 139 80
124 141 62
117 132 62
115 130 51
106 120 36
121 137 62
113 127 51
131 147 62
128 144 72
102 115 51
130 144 95
109 123 62
89 104 73
92 111 67
72 94 79
76 97 66
77 99 46
91 114 75
82 103 59
118 135 57
123 141 25
125 141 0
119 136 27
115 130 26
82 102 82
66 95 110
63 89 94
59 86 92
55 84 106
58 84 77
59 87 97
64 89 81
66 90 66
71 95 88
71 94 82
71 90 61
88 102 27
86 104 68
93 110 46
84 104 76
88 106 68
92 107 37
110 123 0
102 117 0
98 113 0
94 107 0
95 109 0
99 113 0
90 104 0
111 125 0
86 98 0
93 106 0
106 120 0
99 112 0
76 88 0
94 106 0
91 108 55
60 84 73
54 84 112
51 80 93
50 80 84
50 78 82
52 83 109
52 83 113
49 78 98
43 70 58
50 79 93
47 75 64
44 70 71
47 74 89
46 73 89
49 77 87
55 86 109
53 84 103
52 82 107
52 82 103
54 85 120
53 83 100
52 83 103
53 84 92
53 83 111
54 84 108
55 87 126
56 88 129
52 82 103
48 77 93
52 82 91
55 87 111
52 82 92
53 84 110
50 80 96
51 81 102
52 83 108
49 78 97
49 78 92
50 79 86
53 84 108
50 79 102
51 80 103
53 83 105
53 83 106
52 82 107
54 85 116
50 80 108
57 90 129
51 81 89
52 82 104
54 84 103
51 80 109
51 80 97
53 82 110
48 77 77
49 78 102
52 81 93
50 80 95
49 78 91
57 82 93
61 77 52
92 106 0
101 114 0
112 125 0
95 107 0
92 105 0
94 107 0
104 117 0
82 94 0
81 95 0
101 113 0
94 106 0
88 100 0
96 110 0
93 107 0
92 107 0
105 119 0
93 107 0
87 101 0
81 93 0
104 119 0
106 121 0
90 105 0
111 126 0
103 118 0
105 121 0
94 109 0
114 129 0
91 105 0
115 129 0
93 107 0
100 114 0
96 112 0
115 129 0
99 114 0
113 129 0
110 126 0
110 126 0
99 113 0
111 129 0
110 125 0
115 129 0
118 134 0
131 148 0
94 110 0
115 129 0
125 138 0
113 129 0
115 131 0
112 126 0
128 144 0
121 137 0
126 145 0
122 138 0
129 145 0
117 133 0
120 138 0
119 135 0
124 142 0
110 126 0
125 143 0
130 146 0
125 143 0
120 136 0
127 144 0
109 126 0
117 132 0
124 142 0
137 155 0
130 147 0
127 144 0
119 135 0
125 142 0
124 140 0
129 147 0
119 136 0
130 148 0
126 142 0
130 148 0
128 146 0
127 143 0
141 160 0
127 146 0
126 143 0
136 154 0
129 148 0
124 141 0
124 140 0
128 145 0
124 141 0
131 148 0
128 147 0
132 150 0
139 157 0
131 150 0
138 157 0
127 146 0
129 147 0
133 150 0
127 146 0
133 151 0
140 158 0
127 145 0
135 152 0
134 151 0
138 157 0
135 152 0
126 143 0
136 155 0
138 156 0
132 147 0
138 156 0
142 161 0
144 162 0
139 157 0
146 165 0
135 152 0
140 158 0
142 160 0
144 163 0
135 152 0
140 159 0
137 156 0
129 147 0
148 166 0
137 155 0
139 158 0
139 158 0
142 161 0
128 146 0
139 157 0
146 165 0
142 162 0
146 167 0
139 159 0
134 153 0
136 154 0
139 157 0
140 157 0
139 157 0
143 162 0
147 167 0
141 160 0
143 161 0
139 157 0
151 168 0
141 158 0
142 160 0
138 155 0
137 155 0
138 156 0
139 157 0
140 158 0
145 164 0
137 157 0
142 160 0
144 162 0
136 153 0
135 153 0
143 162 0
141 159 0
145 164 0
136 155 0
141 160 0
140 160 0
132 148 0
140 159 0
147 166 0
142 162 0
146 165 0
156 176 114
168 188 140
157 177 102
153 173 95
151 171 62
164 186 120
154 175 88
156 175 88
152 173 95
156 175 88
158 178 108
153 174 88
155 176 114
158 180 108
159 179 120
148 168 80
150 171 88
163 183 125
148 169 102
156 176 102
154 174 108
151 171 72
154 174 80
156 176 95
146 168 88
149 169 62
157 177 102
147 167 95
149 168 80
155 176 102
148 168 88
153 173 102
149 171 80
149 170 80
147 169 95
150 171 95
155 176 125
154 175 102
150 171 51
155 175 88
147 168 88
144 165 88
154 175 95
142 162 80
150 170 88
154 174 114
151 173 95
143 163 88
145 166 62
154 174 102
145 164 88
136 156 51
148 169 108
145 165 80
149 169 95
152 171 88
142 163 84
151 171 80
147 168 102
151 171 88
150 171 102
149 168 88
153 174 95
144 165 95
138 158 102
151 172 102
142 162 88
143 161 98
149 170 95
149 170 108
158 178 120
155 175 95
140 160 102
150 170 95
136 156 95
155 174 108
152 172 108
148 168 108
135 155 72
157 177 120
137 157 102
146 165 102
138 157 62
143 161 102
142 161 95
165 185 140
145 164 80
136 154 95
136 154 88
155 173 114
147 165 102
156 175 108
148 166 108
142 160 102
153 171 125
140 158 88
144 162 108
143 161 95
148 166 95
148 167 102
137 155 114
157 175 125
145 162 102
136 153 88
130 147 72
145 162 114
146 162 114
132 149 72
140 155 120
128 144 62
127 144 88
133 148 108
123 137 72
125 141 80
137 151 80
124 140 72
103 119 36
120 135 36
109 123 51
117 132 51
105 119 51
116 131 62
83 97 36
114 127 80
110 123 51
98 110 51
85 108 96
85 105 55
83 107 92
87 109 96
85 105 38
92 112 64
113 130 45
145 164 27
126 146 0
129 148 0
119 136 0
118 133 0
76 98 72
55 84 100
54 81 99
56 85 90
66 92 91
64 92 100
59 86 94
59 85 85
56 80 70
67 89 73
98 113 26
87 101 0
100 118 69
84 100 54
97 117 84
88 107 61
101 116 0
109 124 0
110 124 0
112 126 0
111 125 0
97 112 0
116 131 0
87 98 0
98 112 0
78 91 0
88 102 0
89 103 0
90 102 0
85 98 0
79 90 0
78 91 0
95 109 0
88 101 0
67 86 82
58 81 73
43 68 67
44 71 73
50 80 99
55 86 116
51 81 96
45 72 90
48 77 94
46 74 87
48 76 72
45 72 80
55 87 113
52 82 96
47 75 81
53 84 115
53 84 112
54 85 110
47 75 76
52 82 98
47 75 84
51 81 104
47 76 86
49 78 102
49 78 97
49 78 91
54 85 114
50 79 85
52 82 108
50 80 97
56 88 117
51 80 100
54 85 107
49 78 97
50 79 88
49 78 93
51 81 92
52 83 106
49 78 90
47 74 70
53 84 112
51 81 111
47 74 82
49 78 89
53 84 102
53 83 106
41 66 37
53 83 108
48 77 97
49 77 96
50 79 100
54 85 112
48 77 100
49 77 88
44 63 26
63 81 76
101 114 25
77 90 0
80 92 0
98 111 0
70 81 0
85 97 0
99 114 0
90 103 0
100 113 0
88 100 0
105 118 0
97 109 0
93 106 0
97 111 0
113 127 0
106 119 0
104 118 0
98 113 0
107 121 0
86 99 0
100 116 0
109 124 0
100 114 0
95 112 0
109 124 0
119 135 0
111 125 0
103 119 0
106 122 0
111 125 0
114 128 0
110 124 0
102 116 0
93 108 0
118 133 0
115 130 0
109 124 0
111 128 0
109 125 0
104 118 0
112 128 0
127 144 0
115 131 0
106 121 0
100 117 0
115 130 0
120 136 0
122 139 0
128 145 0
107 122 0
117 133 0
108 124 0
134 150 0
119 137 0
113 129 0
127 143 0
107 123 0
125 141 0
118 134 0
130 147 0
126 144 0
115 132 0
122 139 0
117 133 0
129 145 0
125 141 0
134 151 0
112 129 0
114 131 0
140 155 0
125 141 0
123 139 0
127 145 0
132 149 0
128 143 0
130 148 0
121 139 0
134 151 0
122 138 0
116 133 0
127 145 0
125 144 0
130 148 0
132 149 0
134 152 0
142 161 0
142 160 0
129 148 0
119 134 0
127 144 0
116 132 0
135 154 0
133 151 0
136 154 0
134 152 0
130 149 0
141 160 0
144 164 0
130 149 0
134 152 0
135 151 0
137 155 0
139 157 0
125 142 0
128 144 0
136 154 0
142 160 0
135 154 0
138 156 0
123 142 0
136 154 0
144 163 0
132 150 0
133 150 0
142 161 0
133 151 0
146 165 0
138 157 0
141 161 0
125 141 0
138 157 0
136 157 0
140 157 0
137 155 0
147 167 0
143 163 0
135 154 0
143 160 0
141 158 0
150 168 0
134 150 0
141 162 0
133 153 0
147 164 0
143 163 0
140 160 0
139 159 0
140 156 0
144 163 0
143 162 0
134 153 0
145 163 0
142 162 0
134 152 0
137 156 0
145 163 0
150 170 0
142 161 0
143 162 0
147 167 0
148 166 0
138 156 0
141 161 0
137 156 0
139 157 0
136 153 0
134 153 0
139 158 0
137 155 0
143 161 0
145 163 0
138 156 0
138 154 0
142 161 0
144 163 0
143 163 0
144 162 0
140 159 0
146 164 0
140 160 0
144 163 0
143 161 0
156 176 114
161 182 114
155 175 80
161 181 108
151 173 102
159 179 114
151 172 95
155 175 95
159 179 108
161 183 125
156 176 72
153 174 95
152 173 102
153 173 88
160 180 108
153 174 102
152 172 62
152 174 108
146 168 80
157 177 102
154 175 88
153 174 108
153 174 95
156 177 108
156 177 108
156 177 102
149 170 102
156 177 102
147 168 88
153 173 95
156 177 120
155 176 114
145 166 80
146 168 80
151 172 102
155 175 95
148 168 88
151 172 102
151 171 95
147 168 95
148 169 95
151 172 88
155 175 108
148 169 102
153 173 108
145 165 80
149 170 88
145 166 88
150 171 95
144 164 102
133 154 72
150 171 102
154 176 95
142 161 72
150 171 102
142 162 62
158 179 125
150 170 88
149 170 114
139 159 80
152 172 125
141 161 95
151 172 108
146 166 102
145 166 108
145 165 108
147 167 95
150 169 80
139 158 99
153 173 130
154 174 117
151 171 108
153 174 135
139 159 95
149 167 108
140 160 88
151 171 102
148 168 125
141 160 51
147 168 95
142 161 102
135 154 88
156 175 108
151 171 88
139 157 88
135 154 95
129 148 62
152 171 130
143 162 102
135 153 88
134 153 95
134 152 95
132 150 102
135 153 95
150 168 102
136 153 108
138 156 95
145 164 88
143 161 95
126 143 95
146 162 95
155 172 140
146 164 102
139 156 88
146 162 108
140 158 80
121 137 95
146 162 108
148 164 108
140 156 80
126 143 72
147 164 80
156 171 125
112 129 51
118 135 51
131 148 36
124 140 36
117 134 36
108 124 0
122 136 80
111 126 62
109 123 36
135 149 80
106 119 36
122 138 36
94 107 0
106 120 36
89 105 64
102 121 73
83 103 67
110 128 58
96 116 64
111 130 40
140 159 0
132 149 0
116 135 0
119 134 0
128 147 0
117 134 0
75 94 79
80 105 92
65 94 107
69 93 78
68 95 105
50 77 81
67 91 78
76 96 63
73 93 62
109 122 0
100 114 0
84 102 73
94 114 59
87 106 55
87 107 72
99 114 0
110 125 0
88 102 0
105 120 0
90 103 0
92 105 0
91 104 0
102 116 0
96 109 0
81 93 0
95 110 0
98 111 0
92 105 0
102 116 0
101 115 0
88 100 0
82 93 0
94 108 0
100 113 0
98 111 0
92 105 0
82 97 39
56 72 53
65 87 72
46 74 73
50 79 89
51 80 103
47 75 71
48 76 85
47 75 80
47 75 79
49 78 94
46 74 73
55 86 114
52 81 99
56 87 115
52 82 105
48 76 91
46 73 78
46 73 74
51 80 96
49 78 87
51 80 102
50 79 101
49 77 91
55 87 115
48 76 81
54 84 107
45 72 77
49 77 96
50 80 100
50 80 97
50 79 89
51 81 104
50 80 104
55 87 117
50 79 101
53 84 99
51 81 96
50 78 93
51 80 104
48 76 88
48 76 91
54 85 114
49 78 99
51 81 95
50 78 104
48 76 77
49 70 70
75 95 82
56 71 38
90 104 0
100 113 0
91 103 0
72 85 0
83 95 0
82 94 0
92 106 0
83 96 0
103 117 0
103 116 0
88 102 0
90 103 0
89 102 0
93 106 0
91 104 0
89 103 0
92 105 0
109 124 0
71 86 0
103 117 0
98 113 0
99 112 0
114 130 0
101 113 0
91 105 0
99 112 0
108 123 0
97 111 0
88 102 0
98 113 0
108 123 0
106 123 0
96 110 0
100 115 0
98 115 0
113 127 0
120 136 0
103 119 0
114 129 0
115 131 0
101 116 0
93 109 0
119 134 0
119 134 0
113 129 0
122 139 0
110 126 0
110 127 0
112 126 0
121 138 0
118 135 0
121 136 0
131 147 0
128 146 0
115 131 0
123 140 0
123 140 0
122 138 0
111 129 0
126 143 0
121 138 0
121 138 0
126 144 0
130 148 0
130 148 0
122 139 0
125 142 0
127 145 0
130 147 0
128 145 0
120 137 0
129 147 0
128 146 0
128 142 0
126 146 0
126 143 0
131 148 0
114 132 0
125 143 0
130 148 0
136 155 0
135 152 0
136 153 0
128 145 0
131 148 0
135 151 0
125 143 0
131 147 0
121 138 0
131 150 0
131 147 0
133 149 0
129 145 0
134 152 0
138 156 0
143 161 0
132 148 0
129 148 0
143 161 0
145 164 0
140 157 0
132 150 0
130 147 0
133 152 0
132 152 0
133 152 0
127 143 0
132 151 0
133 149 0
132 150 0
139 158 0
136 156 0
136 155 0
136 153 0
130 146 0
138 157 0
139 157 0
136 155 0
142 159 0
133 153 0
140 157 0
141 159 0
137 155 0
135 154 0
132 148 0
126 144 0
142 161 0
142 161 0
137 154 0
140 160 0
138 158 0
145 165 0
137 156 0
141 160 0
136 155 0
139 158 0
145 166 0
143 162 0
146 164 0
137 156 0
145 164 0
135 153 0
135 154 0
138 156 0
135 154 0
141 160 0
147 164 0
133 152 0
144 164 0
144 162 0
134 151 0
138 156 0
145 164 0
134 152 0
144 163 0
145 164 0
143 162 0
145 164 0
143 160 0
149 169 0
140 161 0
150 168 0
142 161 0
135 153 0
136 153 0
146 165 0
143 162 0
146 166 0
146 164 0
146 163 0
141 158 0
143 161 0
144 163 0
144 165 0
139 158 0
153 173 72
156 176 114
161 181 114
162 183 114
150 171 95
156 175 62
153 172 80
161 182 120
161 183 114
150 170 95
155 176 62
160 181 102
155 176 108
162 183 114
158 178 108
154 173 95
152 172 80
160 181 114
156 177 102
149 170 95
155 176 80
153 173 88
150 171 72
161 182 130
156 176 88
153 173 88
152 172 72
151 171 80
161 183 130
153 173 80
150 170 80
145 165 72
159 180 102
153 174 80
163 184 120
154 174 95
155 176 95
155 175 102
158 178 88
155 177 120
148 169 51
150 170 95
148 168 80
154 175 102
152 174 80
152 172 80
152 172 108
155 176 120
154 175 114
147 166 80
147 166 80
151 171 102
139 159 72
145 166 72
144 164 102
156 177 114
157 178 114
147 168 102
150 170 114
151 170 88
142 163 102
145 165 80
134 153 72
143 163 62
135 154 36
147 166 95
150 170 114
153 174 135
157 178 120
141 160 95
138 157 36
149 169 80
152 172 120
146 167 108
142 161 108
149 169 95
147 166 72
146 166 114
153 173 120
152 172 114
148 167 88
146 165 95
140 159 62
149 167 95
139 158 88
122 141 72
148 167 120
141 159 95
144 162 88
142 159 95
135 153 72
135 153 72
135 152 80
149 167 108
153 172 95
142 158 95
129 147 88
138 157 72
158 177 125
130 147 62
139 157 95
134 151 88
136 153 80
154 170 130
131 148 72
141 158 108
137 154 88
149 166 125
144 161 88
137 154 88
128 145 80
138 155 72
132 149 62
144 160 95
128 143 88
111 128 36
123 139 62
112 128 62
111 127 51
118 135 62
131 145 95
131 148 72
114 128 72
121 137 51
97 111 36
103 116 51
104 119 36
98 112 36
109 127 64
88 109 61
80 100 58
103 123 81
110 127 0
126 144 24
130 148 27
129 147 25
115 132 0
111 126 25
105 121 0
102 116 0
81 95 27
73 95 70
64 89 79
61 86 86
59 81 46
71 93 77
73 93 49
102 116 0
81 94 0
92 106 0
89 106 55
89 107 61
109 128 46
88 103 26
123 138 0
88 103 0
113 129 0
106 120 0
94 108 0
99 113 0
82 95 0
93 107 0
94 106 0
95 109 0
79 93 0
103 117 0
95 107 0
81 94 0
94 107 0
85 98 0
84 97 0
84 95 0
85 98 0
76 87 0
92 104 0
94 107 0
85 99 0
78 88 0
91 104 27
81 95 47
74 92 47
66 87 63
49 74 71
50 79 86
46 73 80
45 72 60
47 74 87
48 76 92
46 74 77
44 71 61
46 73 72
49 78 94
51 80 106
48 75 94
51 80 95
49 78 76
46 73 79
50 79 101
48 76 93
51 81 101
46 73 69
51 81 109
52 82 101
47 74 74
49 77 82
48 76 75
50 80 101
50 79 85
49 78 81
50 78 89
50 80 87
51 80 94
53 83 117
49 77 95
52 83 105
46 73 82
51 80 110
47 75 85
48 69 66
63 80 54
84 99 49
89 102 0
87 99 0
95 108 0
100 114 0
81 93 0
85 97 0
90 103 0
88 100 0
83 95 0
85 98 0
95 110 0
97 109 0
100 114 0
83 95 0
95 108 0
87 100 0
92 106 0
100 115 0
98 111 0
95 109 0
120 134 0
100 114 0
91 103 0
102 116 0
99 114 0
101 115 0
102 119 0
107 123 0
83 97 0
118 133 0
106 120 0
110 124 0
121 136 0
98 113 0
95 111 0
102 119 0
103 117 0
113 128 0
113 129 0
100 115 0
105 119 0
112 127 0
109 123 0
103 118 0
115 132 0
117 132 0
101 115 0
116 131 0
111 127 0
117 131 0
115 132 0
110 126 0
123 141 0
120 137 0
119 136 0
130 148 0
114 131 0
104 119 0
118 135 0
122 139 0
110 126 0
137 155 0
116 130 0
115 131 0
127 145 0
129 147 0
124 141 0
129 148 0
125 142 0
124 139 0
133 151 0
124 140 0
114 132 0
122 140 0
134 152 0
118 135 0
135 153 0
131 148 0
137 153 0
129 146 0
136 156 0
127 143 0
130 146 0
137 156 0
129 148 0
129 146 0
130 146 0
122 139 0
121 139 0
134 152 0
125 143 0
138 156 0
133 149 0
133 152 0
135 153 0
132 151 0
125 142 0
133 152 0
133 151 0
131 149 0
138 156 0
131 148 0
123 140 0
142 160 0
129 147 0
127 144 0
141 159 0
125 144 0
139 157 0
132 149 0
133 151 0
138 157 0
131 149 0
133 151 0
136 154 0
132 149 0
134 153 0
139 156 0
130 147 0
138 156 0
133 151 0
134 154 0
138 156 0
134 151 0
137 156 0
140 159 0
133 152 0
137 155 0
134 154 0
138 156 0
143 162 0
142 160 0
141 161 0
138 158 0
136 155 0
145 166 0
144 162 0
143 162 0
139 158 0
139 160 0
135 154 0
129 148 0
141 159 0
144 163 0
139 157 0
131 150 0
148 168 0
143 162 0
142 161 0
138 155 0
132 149 0
140 157 0
139 158 0
142 162 0
141 159 0
139 158 0
135 152 0
143 161 0
147 166 0
147 165 0
146 165 0
152 172 0
143 161 0
140 160 0
140 158 0
146 165 0
139 158 0
138 158 0
142 159 0
138 155 0
140 160 0
143 163 0
134 153 0
148 167 0
147 167 0
147 166 0
150 170 0
150 169 0
154 173 0
145 166 62
157 178 102
160 180 80
151 171 72
157 178 102
148 168 72
152 172 102
157 178 88
163 184 120
153 173 80
159 180 108
152 172 88
160 180 114
153 174 102
158 179 120
160 180 95
155 175 102
151 171 95
154 174 108
158 178 80
150 170 88
155 176 114
159 180 125
156 177 95
162 184 144
149 169 95
155 175 108
150 171 95
153 174 95
154 174 88
157 177 95
157 178 125
146 167 88
156 178 130
141 160 36
154 175 95
144 164 95
148 169 95
152 172 95
152 173 114
153 175 120
133 153 36
148 167 80
155 176 125
149 171 108
152 173 114
155 176 114
154 175 125
152 173 114
142 163 62
156 176 108
150 170 120
151 172 102
148 167 80
146 166 62
144 164 88
147 167 120
137 157 51
140 160 72
147 167 80
153 174 88
155 175 114
143 163 72
145 166 102
143 162 102
155 175 102
145 165 95
147 168 80
148 167 88
144 164 102
160 180 125
140 159 72
147 167 114
145 164 72
140 159 102
141 162 95
130 148 80
148 167 114
145 164 88
157 177 114
148 168 108
147 167 114
146 165 95
146 165 95
140 160 95
142 160 102
151 170 88
135 153 108
141 160 108
154 172 108
146 164 95
134 152 102
148 166 102
146 164 102
142 160 88
127 144 51
146 164 95
129 146 80
141 159 95
150 168 114
150 167 120
128 145 62
132 149 72
130 147 88
144 162 108
155 172 120
143 158 125
135 152 72
135 151 102
140 155 120
125 142 62
140 156 88
138 155 72
132 149 72
136 151 72
116 131 51
122 138 36
135 152 62
115 131 0
126 142 62
115 130 0
119 135 36
123 138 72
113 128 36
116 131 51
117 133 0
109 123 36
114 130 0
104 118 51
113 129 53
105 121 62
107 122 36
118 134 0
131 150 0
131 150 0
114 129 0
122 138 0
114 131 0
86 100 0
113 128 0
104 118 0
104 118 0
92 108 55
80 99 73
83 100 50
77 91 49
90 100 0
77 90 0
99 113 0
106 120 0
107 122 0
95 111 37
91 109 45
107 122 0
98 113 0
113 128 0
82 95 0
97 112 0
96 111 0
101 116 0
98 111 0
94 106 0
103 119 0
89 101 0
83 95 0
91 105 0
96 110 0
104 118 0
105 119 0
82 96 0
103 117 0
76 88 0
86 99 0
84 97 0
80 92 0
71 83 0
101 115 0
107 119 0
81 92 0
82 93 0
92 103 0
91 102 0
78 89 0
75 87 28
75 89 60
61 79 56
76 91 46
58 82 79
59 81 76
53 77 81
49 78 104
47 76 65
49 78 91
47 74 76
47 75 86
44 70 86
51 80 92
46 73 90
44 71 77
48 76 87
46 72 88
48 76 77
40 65 42
51 81 89
50 79 90
52 81 93
49 77 85
54 85 104
50 80 91
50 79 93
57 81 83
58 80 67
52 75 79
55 75 68
57 74 53
76 91 54
95 108 0
84 95 0
83 94 0
90 101 0
84 96 0
81 92 0
84 95 0
80 92 0
94 106 0
87 101 0
90 102 0
101 115 0
95 108 0
95 108 0
71 82 0
116 130 0
94 107 0
107 121 0
90 103 0
87 100 0
95 108 0
92 103 0
108 123 0
85 97 0
96 109 0
90 103 0
103 116 0
97 111 0
127 144 0
93 106 0
101 116 0
91 105 0
94 109 0
105 120 0
96 110 0
107 123 0
107 123 0
125 141 0
112 126 0
123 139 0
110 126 0
112 127 0
126 142 0
101 117 0
113 129 0
103 118 0
126 142 0
110 125 0
118 134 0
106 123 0
105 123 0
111 128 0
118 133 0
115 132 0
114 130 0
129 145 0
118 133 0
115 129 0
109 127 0
128 145 0
121 137 0
117 135 0
118 135 0
116 130 0
125 141 0
130 146 0
127 144 0
122 139 0
124 140 0
122 139 0
120 136 0
126 142 0
117 134 0
110 126 0
126 144 0
118 134 0
120 136 0
122 140 0
129 146 0
127 146 0
130 147 0
118 136 0
128 145 0
123 139 0
130 148 0
133 150 0
133 153 0
131 150 0
114 130 0
120 137 0
144 162 0
131 149 0
127 145 0
122 140 0
137 154 0
138 156 0
131 149 0
133 150 0
120 136 0
134 152 0
130 146 0
133 153 0
135 155 0
132 150 0
135 153 0
125 143 0
132 149 0
139 158 0
148 166 0
126 142 0
150 169 0
127 145 0
140 157 0
141 161 0
132 149 0
132 151 0
128 146 0
132 149 0
138 157 0
135 153 0
137 155 0
142 160 0
137 155 0
137 155 0
141 159 0
135 153 0
143 162 0
126 141 0
133 149 0
134 153 0
135 152 0
131 150 0
132 150 0
121 138 0
146 165 0
143 163 0
142 161 0
131 149 0
134 152 0
140 158 0
132 149 0
140 159 0
136 154 0
136 155 0
128 146 0
140 158 0
139 158 0
135 154 0
138 157 0
141 158 0
141 160 0
138 157 0
140 160 0
145 164 0
130 149 0
135 152 0
146 166 0
143 160 0
142 160 0
140 159 0
144 164 0
150 171 0
140 159 0
149 169 0
142 161 0
143 160 0
137 156 0
144 162 0
141 157 0
144 164 0
142 161 0
142 160 0
144 163 0
147 166 0
137 156 0
142 162 0
145 164 0
135 152 0
141 160 0
145 164 0
146 165 0
151 170 0
149 169 0
151 169 0
165 185 130
153 173 72
153 173 80
160 181 108
147 167 88
156 177 108
156 177 102
154 174 80
160 181 88
150 171 72
157 178 108
148 168 88
157 178 108
156 177 108
163 183 102
156 176 102
157 177 95
158 180 108
151 171 88
151 172 120
160 181 130
157 178 95
148 169 102
155 176 114
157 176 102
149 169 72
146 167 80
145 166 72
150 171 102
153 173 62
166 187 120
154 174 72
149 170 108
149 169 80
151 171 120
158 178 102
152 172 80
152 171 108
152 172 95
150 170 88
153 174 108
137 156 72
141 161 108
149 170 88
150 171 95
149 170 62
148 169 88
154 175 114
153 173 108
149 170 95
152 173 108
146 166 80
149 170 88
145 165 72
148 168 80
143 163 80
145 166 95
142 161 80
152 172 95
156 177 108
151 171 114
152 172 102
152 173 125
157 178 114
152 172 108
153 173 102
146 165 72
138 158 88
150 170 72
136 155 88
142 163 95
142 161 72
155 174 95
136 155 51
143 163 102
145 164 88
150 169 114
151 170 95
149 169 102
142 161 88
149 167 102
145 164 114
139 157 102
144 162 80
130 149 62
145 164 80
150 168 102
152 171 102
141 160 95
141 159 88
145 163 102
148 166 114
146 163 108
142 161 72
154 173 108
147 165 95
152 171 102
138 156 80
149 167 88
146 164 102
152 168 114
154 170 144
141 157 108
146 163 114
143 160 72
134 152 62
154 171 102
139 156 80
145 161 120
141 156 114
140 157 95
140 156 95
142 159 80
131 147 72
129 145 36
119 134 62
120 138 36
130 146 62
131 147 62
125 141 36
123 138 36
126 141 72
105 120 36
119 134 0
113 127 36
111 126 0
111 126 0
101 115 36
117 132 0
103 118 0
98 112 0
101 117 36
118 135 0
135 154 0
127 146 0
120 138 0
121 137 0
112 128 0
100 116 0
97 112 0
94 108 0
107 121 0
97 111 0
91 104 0
89 102 0
89 102 0
92 104 0
107 121 0
98 112 0
108 123 0
112 128 0
109 124 0
97 111 0
108 124 0
98 110 0
108 122 0
111 126 0
95 109 0
110 125 0
100 113 0
93 109 0
91 105 0
90 105 0
96 110 0
109 122 0
80 94 0
104 121 0
97 110 0
83 97 0
89 104 0
92 106 0
75 87 0
96 110 0
106 119 0
82 94 0
87 98 0
103 115 0
82 94 0
97 111 0
93 105 0
102 117 0
86 98 0
79 91 0
76 89 0
84 97 0
83 95 0
92 104 0
93 105 0
72 83 0
68 79 0
96 108 0
85 98 39
87 102 55
62 76 26
86 101 54
64 81 54
73 91 66
44 63 38
73 93 72
59 80 72
65 83 60
52 71 61
60 79 73
64 81 67
65 82 48
52 69 64
89 103 0
71 88 72
67 80 39
101 115 43
79 92 0
78 89 0
86 97 0
89 102 0
103 115 0
90 101 0
73 85 0
96 109 0
78 89 0
87 98 0
83 96 0
98 111 0
74 85 0
92 104 0
110 124 0
91 104 0
95 107 0
108 121 0
109 123 0
107 119 0
96 110 0
100 114 0
95 110 0
96 109 0
107 121 0
97 110 0
86 101 0
90 105 0
109 124 0
92 106 0
99 113 0
97 111 0
120 136 0
117 132 0
107 122 0
115 130 0
99 114 0
96 112 0
113 129 0
108 122 0
108 122 0
107 123 0
110 124 0
112 127 0
108 124 0
103 119 0
116 131 0
89 103 0
100 116 0
108 124 0
99 115 0
119 135 0
102 117 0
111 127 0
124 142 0
111 126 0
113 129 0
119 137 0
115 130 0
119 135 0
96 110 0
127 145 0
120 137 0
117 134 0
110 126 0
125 140 0
114 133 0
115 131 0
123 140 0
131 150 0
117 135 0
120 138 0
118 136 0
131 149 0
123 141 0
104 119 0
126 143 0
118 135 0
128 145 0
109 123 0
121 138 0
128 145 0
127 146 0
121 138 0
122 140 0
131 148 0
130 146 0
123 140 0
128 146 0
119 138 0
130 146 0
132 150 0
139 157 0
136 155 0
134 152 0
141 159 0
129 146 0
122 139 0
121 137 0
133 153 0
118 135 0
121 139 0
138 157 0
140 159 0
128 145 0
138 157 0
132 149 0
132 149 0
135 153 0
136 154 0
129 147 0
131 150 0
139 156 0
135 153 0
135 152 0
124 140 0
134 151 0
133 150 0
134 152 0
139 159 0
131 148 0
141 159 0
127 144 0
134 152 0
138 157 0
140 158 0
141 158 0
144 163 0
132 151 0
132 149 0
133 151 0
127 144 0
140 159 0
141 159 0
137 157 0
132 151 0
143 160 0
138 156 0
142 161 0
143 162 0
148 167 0
138 158 0
135 155 0
125 142 0
151 171 0
144 162 0
143 162 0
145 164 0
137 156 0
135 153 0
137 156 0
135 153 0
137 153 0
142 161 0
143 161 0
138 157 0
144 163 0
134 152 0
137 156 0
150 169 0
138 156 0
138 156 0
137 156 0
145 164 0
140 160 0
135 153 0
149 168 0
138 158 0
147 167 0
149 169 0
148 167 0
135 154 0
143 162 0
136 155 0
145 163 0
147 165 0
143 162 0
137 156 0
139 156 0
136 156 0
135 153 0
137 156 0
137 156 0
142 159 0
142 161 0
144 163 0
149 169 0
138 157 0
144 165 0
142 161 0
154 174 95
157 178 80
153 172 72
155 176 88
157 177 102
154 174 108
163 184 120
153 172 51
153 173 88
158 179 108
156 176 88
155 175 95
157 176 62
158 179 108
150 170 72
152 173 72
156 177 95
149 170 80
148 168 62
160 182 130
155 175 80
157 177 95
144 164 51
157 177 95
163 184 108
156 176 95
151 171 95
147 167 72
149 169 95
146 166 51
157 178 130
139 158 62
149 169 80
151 172 120
146 166 95
152 172 95
137 157 88
153 175 95
157 177 102
149 169 95
151 172 95
150 171 108
149 171 95
152 174 125
148 168 80
152 172 102
144 166 72
146 166 102
148 169 80
148 169 95
147 167 80
151 171 95
134 154 95
147 169 95
147 167 72
158 179 108
155 176 95
156 177 95
158 178 95
143 163 72
148 167 80
145 166 80
153 173 95
136 156 62
155 175 125
152 173 102
150 171 114
146 166 102
154 173 95
148 167 102
152 170 95
145 165 102
155 175 108
141 161 95
147 165 88
132 151 95
150 169 120
143 162 80
151 169 102
148 167 108
143 161 80
140 158 88
134 152 88
140 158 80
148 167 95
142 160 88
161 181 130
143 161 80
138 156 80
126 143 51
143 161 102
138 156 72
139 157 108
135 152 95
140 158 102
146 164 102
145 161 108
134 151 80
132 148 95
146 162 102
129 146 95
147 165 80
158 175 114
130 147 88
145 161 114
139 156 80
141 158 95
139 155 114
144 161 95
129 145 88
135 151 72
136 153 80
123 139 62
137 156 80
125 142 62
152 167 102
115 130 62
131 148 51
119 136 36
117 131 51
110 125 62
116 133 62
99 115 0
117 133 36
100 113 36
90 105 0
107 123 0
105 119 0
116 132 36
106 120 0
110 124 0
110 125 0
126 145 0
138 156 0
120 138 0
124 142 0
121 138 0
105 121 0
119 135 0
93 107 0
100 114 0
109 124 0
74 88 0
102 117 0
105 119 0
99 113 0
89 101 0
95 108 0
96 110 0
100 114 0
109 123 0
101 116 0
91 106 0
103 117 0
103 117 0
98 114 0
113 128 0
105 120 0
118 134 0
109 124 0
95 110 0
99 113 0
103 118 0
93 107 0
102 116 0
92 105 0
92 105 0
101 116 0
100 115 0
103 118 0
88 102 0
94 107 0
96 108 0
84 98 0
111 125 0
106 120 0
87 99 0
80 93 0
82 94 0
81 93 0
96 109 0
71 83 0
83 96 0
84 96 0
94 106 0
80 91 0
77 88 0
68 79 0
77 89 0
83 94 0
74 86 0
91 102 0
83 94 0
79 90 0
91 104 0
92 104 0
85 97 0
77 88 0
61 73 0
63 73 0
61 73 0
75 84 0
82 94 0
85 97 0
86 97 0
76 87 0
102 115 0
82 94 0
90 102 0
74 83 0
88 101 0
63 74 0
99 112 0
86 98 0
85 97 0
85 98 0
77 88 0
86 98 0
70 82 0
88 100 0
97 110 0
98 109 0
86 100 0
81 92 0
98 111 0
84 98 0
107 121 0
90 101 0
91 102 0
103 116 0
89 104 0
85 99 0
80 93 0
105 120 0
92 106 0
84 97 0
106 120 0
79 92 0
95 110 0
115 129 0
83 96 0
114 131 0
115 130 0
108 124 0
107 121 0
109 124 0
114 130 0
104 118 0
102 116 0
109 125 0
97 111 0
98 112 0
93 107 0
119 134 0
116 130 0
112 128 0
124 141 0
103 118 0
102 119 0
124 141 0
92 106 0
108 125 0
126 142 0
110 125 0
102 118 0
99 114 0
110 125 0
114 128 0
119 135 0
108 124 0
124 141 0
130 146 0
118 136 0
123 139 0
115 131 0
120 138 0
119 136 0
124 140 0
97 114 0
115 131 0
128 145 0
138 154 0
127 145 0
128 144 0
129 147 0
136 153 0
121 138 0
127 145 0
123 140 0
117 132 0
120 138 0
117 134 0
129 147 0
123 139 0
124 143 0
136 154 0
137 156 0
127 145 0
133 151 0
129 145 0
135 153 0
137 156 0
128 144 0
125 141 0
124 141 0
134 153 0
124 143 0
122 138 0
140 159 0
141 158 0
130 149 0
137 155 0
131 148 0
142 162 0
140 158 0
138 156 0
135 154 0
118 136 0
126 144 0
133 152 0
121 141 0
129 147 0
138 155 0
139 155 0
130 148 0
116 133 0
132 151 0
136 155 0
132 151 0
129 147 0
135 155 0
130 148 0
135 154 0
130 148 0
144 163 0
130 150 0
133 150 0
129 147 0
139 158 0
141 159 0
146 164 0
135 153 0
139 158 0
139 158 0
135 152 0
135 155 0
136 154 0
142 159 0
138 157 0
126 145 0
143 162 0
135 152 0
141 161 0
140 158 0
138 155 0
134 154 0
138 157 0
136 153 0
131 148 0
146 164 0
140 158 0
139 156 0
143 160 0
143 162 0
141 161 0
142 161 0
142 163 0
131 150 0
142 162 0
145 164 0
138 155 0
142 160 0
138 155 0
140 159 0
143 163 0
145 163 0
132 150 0
133 152 0
137 157 0
147 166 0
136 155 0
137 155 0
147 167 0
135 154 0
143 162 0
142 160 0
145 163 0
145 164 0
142 162 0
139 159 0
143 163 0
143 159 0
142 161 0
147 165 0
135 152 0
143 163 0
137 155 0
142 161 0
146 166 0
141 159 0
161 182 102
157 177 95
158 178 114
149 170 80
150 170 88
158 178 114
152 172 72
160 181 108
144 164 80
148 168 72
156 177 114
154 175 88
162 181 114
156 176 102
152 172 108
149 170 88
152 172 108
152 172 108
152 173 95
154 173 80
156 177 102
146 165 72
153 173 80
150 170 72
152 173 88
150 170 102
143 163 80
155 176 95
152 172 102
151 171 108
148 168 80
154 176 102
145 165 88
158 179 114
151 173 114
153 175 135
149 169 102
156 176 114
156 176 125
149 169 88
154 175 88
148 169 114
152 173 88
153 174 95
143 163 72
145 165 95
149 170 95
150 171 102
153 172 62
151 172 88
133 153 80
150 171 102
143 163 95
145 165 95
151 171 80
155 176 120
151 171 95
148 169 108
146 166 80
149 169 80
149 169 108
144 163 80
142 162 95
154 175 108
155 175 130
133 152 72
151 171 102
149 170 114
150 170 114
138 158 72
155 175 102
149 168 114
147 167 114
148 168 62
142 161 88
149 169 95
150 169 88
149 169 102
144 163 72
149 167 88
142 160 72
142 162 88
148 168 88
140 159 88
147 166 120
151 170 125
145 164 120
145 165 80
146 164 95
135 152 88
146 165 80
144 162 108
150 168 108
150 168 114
153 172 120
152 170 135
143 162 95
144 162 108
146 163 80
145 162 102
158 176 120
134 151 80
139 156 95
141 157 108
130 146 80
128 145 88
138 156 80
142 158 102
147 163 108
131 147 88
128 145 72
132 149 62
131 146 88
122 138 51
128 144 88
120 136 51
128 145 62
119 136 51
126 140 62
131 146 80
123 138 88
103 118 36
109 123 0
117 132 0
77 90 36
119 135 0
122 139 36
126 141 36
103 117 0
121 138 36
141 157 51
113 128 36
110 127 0
134 153 0
126 143 0
121 138 0
117 135 0
112 128 0
125 143 0
121 137 0
112 127 0
105 119 0
80 93 0
91 104 0
114 128 0
105 119 0
108 122 0
89 102 0
100 114 0
101 116 0
96 111 0
93 107 0
110 126 0
99 113 0
110 126 0
98 113 0
105 120 0
90 105 0
126 141 0
109 124 0
98 113 0
112 128 0
94 107 0
106 121 0
96 112 0
102 118 0
100 115 0
100 113 0
94 108 0
112 127 0
94 108 0
99 113 0
102 116 0
111 125 0
82 96 0
89 101 0
115 129 0
88 100 0
96 109 0
94 106 0
86 98 0
83 96 0
94 107 0
73 84 0
93 105 0
97 111 0
100 114 0
91 103 0
100 113 0
88 100 0
94 106 0
77 89 0
58 71 0
96 108 0
68 79 0
92 105 0
77 89 0
95 108 0
82 93 0
84 95 0
93 104 0
83 96 0
94 108 0
79 92 0
112 125 0
75 85 0
83 95 0
99 112 0
96 109 0
98 112 0
91 102 0
98 110 0
77 89 0
82 95 0
92 104 0
72 84 0
107 121 0
84 95 0
79 94 0
97 111 0
110 124 0
89 102 0
78 92 0
91 105 0
83 96 0
95 108 0
97 111 0
80 93 0
105 120 0
97 111 0
113 127 0
100 114 0
86 99 0
103 118 0
96 109 0
96 110 0
108 123 0
85 99 0
99 113 0
103 118 0
110 125 0
112 127 0
110 123 0
117 135 0
104 118 0
103 117 0
113 128 0
112 128 0
106 119 0
94 109 0
108 124 0
114 129 0
94 109 0
113 128 0
105 122 0
108 123 0
109 124 0
92 107 0
107 123 0
117 133 0
116 133 0
100 114 0
103 120 0
114 128 0
106 122 0
115 130 0
104 120 0
122 139 0
98 113 0
127 143 0
105 120 0
116 132 0
118 134 0
125 143 0
120 137 0
128 147 0
122 139 0
136 155 0
122 138 0
122 137 0
115 132 0
121 138 0
117 134 0
113 131 0
111 127 0
132 150 0
122 139 0
127 144 0
126 143 0
129 146 0
123 138 0
119 137 0
124 139 0
126 143 0
121 138 0
124 143 0
139 157 0
124 140 0
139 157 0
129 146 0
133 149 0
126 144 0
127 145 0
133 152 0
134 152 0
126 143 0
137 154 0
129 147 0
128 146 0
134 154 0
132 150 0
125 144 0
135 152 0
116 134 0
135 154 0
130 148 0
130 148 0
139 157 0
135 155 0
131 149 0
136 154 0
122 140 0
139 158 0
140 160 0
131 150 0
133 150 0
127 146 0
130 146 0
137 155 0
136 156 0
132 151 0
130 149 0
131 149 0
137 155 0
141 160 0
136 154 0
133 150 0
132 148 0
137 155 0
140 160 0
129 148 0
130 148 0
138 157 0
123 142 0
137 155 0
137 155 0
136 152 0
139 158 0
139 157 0
138 157 0
140 160 0
152 172 0
143 162 0
143 162 0
137 156 0
137 155 0
136 154 0
136 155 0
135 154 0
139 157 0
139 158 0
133 152 0
140 159 0
135 152 0
139 156 0
144 163 0
145 164 0
138 158 0
136 155 0
137 157 0
144 162 0
130 149 0
139 157 0
142 160 0
145 163 0
135 155 0
144 164 0
146 164 0
143 162 0
137 155 0
142 160 0
142 161 0
145 164 0
138 157 0
138 158 0
145 165 0
133 151 0
144 162 0
145 164 0
148 167 0
148 167 0
144 161 0
142 162 0
147 167 0
146 165 0
144 164 0
142 161 0
148 166 0
138 158 0
145 164 0
159 179 120
157 177 95
147 168 72
156 176 95
161 181 108
158 178 108
159 180 120
158 178 102
162 182 108
152 172 72
157 177 108
156 176 102
152 173 88
155 175 108
154 174 88
159 179 80
139 159 88
159 180 120
154 175 114
156 176 114
157 178 108
154 175 99
147 167 80
144 164 72
152 173 102
151 172 102
150 171 88
162 183 125
146 167 88
153 174 80
150 171 95
153 175 120
156 177 125
157 178 108
154 175 108
156 176 108
140 159 62
154 175 114
153 173 88
149 169 80
138 159 88
135 154 62
141 161 80
154 174 95
152 174 120
153 174 114
149 169 72
153 174 80
142 162 51
143 162 80
150 171 120
149 170 114
156 176 125
150 170 88
141 160 62
142 163 80
145 165 95
150 171 95
151 172 125
148 168 80
145 165 80
146 166 95
145 164 95
148 167 80
146 166 95
141 160 72
149 168 72
152 172 108
141 161 102
142 162 88
147 167 102
143 163 80
134 153 72
153 173 114
146 166 72
150 170 95
142 160 80
151 171 88
144 162 80
153 172 130
154 174 114
142 161 102
139 157 80
152 172 102
147 166 80
140 158 88
140 159 62
143 161 108
146 166 88
157 177 125
141 159 102
158 176 120
147 165 88
151 170 102
149 168 108
144 161 108
136 154 80
144 163 102
144 162 102
138 155 80
149 167 108
127 144 102
149 167 102
141 157 102
152 169 125
126 143 62
149 165 125
139 156 72
140 155 102
134 150 95
144 159 114
135 151 88
146 162 88
128 143 80
126 142 51
125 140 80
137 154 72
132 148 72
124 140 51
127 143 62
120 136 0
132 149 0
108 125 0
101 117 0
133 150 36
120 137 36
114 130 0
108 122 36
102 116 0
124 140 36
106 120 51
123 140 0
139 159 0
133 152 0
136 156 0
114 132 0
118 135 0
114 132 0
118 133 0
108 124 0
98 113 0
113 129 0
92 106 0
95 109 0
81 93 0
96 109 0
90 103 0
117 133 0
102 116 0
98 113 0
102 116 0
111 128 0
124 140 0
117 132 36
112 127 0
121 136 0
94 109 0
88 102 0
112 127 0
107 122 0
112 128 0
111 126 0
96 111 0
109 123 0
101 115 0
93 107 0
102 117 0
94 109 0
89 102 0
99 114 0
95 108 0
98 112 0
102 116 0
79 93 0
93 107 0
82 96 0
98 112 0
93 106 0
79 92 0
98 111 0
91 104 0
109 124 0
88 100 0
101 114 0
78 90 0
96 109 0
98 111 0
91 104 0
102 114 0
75 87 0
82 93 0
97 110 0
92 105 0
85 98 0
92 105 0
77 89 0
63 73 0
100 113 0
82 94 0
75 88 0
62 73 0
82 92 0
79 90 0
95 108 0
87 100 0
91 104 0
93 105 0
86 98 0
95 106 0
85 97 0
95 107 0
88 100 0
89 100 0
111 124 0
119 133 0
105 119 0
90 103 0
75 87 0
95 107 0
94 107 0
83 94 0
102 116 0
84 97 0
101 114 0
98 110 0
91 104 0
95 108 0
101 115 0
95 108 0
108 122 0
74 86 0
105 118 0
105 120 0
114 130 0
91 105 0
91 103 0
102 117 0
93 107 0
111 126 0
107 121 0
89 104 0
114 129 0
113 128 0
100 115 0
107 122 0
104 119 0
100 114 0
96 110 0
98 114 0
100 114 0
93 109 0
111 127 0
117 134 0
114 132 0
138 155 0
108 124 0
99 114 0
107 120 0
112 130 0
106 124 0
115 131 0
123 139 0
114 131 0
119 136 0
117 133 0
113 129 0
125 143 0
116 132 0
119 137 0
128 145 0
115 131 0
110 126 0
113 130 0
107 122 0
111 127 0
123 140 0
107 124 0
123 139 0
115 132 0
118 135 0
128 145 0
127 145 0
124 142 0
125 142 0
134 151 0
122 136 0
134 150 0
131 150 0
118 135 0
115 133 0
115 131 0
128 147 0
116 133 0
115 131 0
122 138 0
123 139 0
128 147 0
128 147 0
135 155 0
140 159 0
121 137 0
136 155 0
119 136 0
128 145 0
140 159 0
125 143 0
134 150 0
129 147 0
124 142 0
128 144 0
123 140 0
135 151 0
130 146 0
132 153 0
131 148 0
141 160 0
135 153 0
131 150 0
141 160 0
127 145 0
132 151 0
129 148 0
129 146 0
135 153 0
131 150 0
140 159 0
134 152 0
133 152 0
128 145 0
136 154 0
136 155 0
143 162 0
137 155 0
140 159 0
141 160 0
130 147 0
135 154 0
145 165 0
136 155 0
142 161 0
131 150 0
139 157 0
134 153 0
135 154 0
140 159 0
142 161 0
142 160 0
136 155 0
138 157 0
130 146 0
141 158 0
144 161 0
133 151 0
142 162 0
142 160 0
143 162 0
144 162 0
143 161 0
130 148 0
143 162 0
146 164 0
140 160 0
141 159 0
148 167 0
136 156 0
145 164 0
140 158 0
147 165 0
140 158 0
138 157 0
139 158 0
142 162 0
146 166 0
138 156 0
148 167 0
143 161 0
127 143 0
141 160 0
141 159 0
145 164 0
139 157 0
145 163 0
143 162 0
142 161 0
143 162 0
141 158 0
142 161 0
143 163 0
151 170 0
139 158 0
151 171 0
144 165 0
145 165 0
143 162 0
140 160 0
144 164 0
144 160 0
135 153 0
144 163 0
140 159 0
161 181 102
163 184 120
158 178 108
154 175 95
162 182 114
158 179 120
156 176 108
153 173 80
154 174 102
159 179 125
153 174 80
152 173 102
151 172 80
152 174 108
152 172 72
153 174 102
155 176 95
155 175 80
149 169 72
151 171 80
158 178 95
152 174 114
157 177 95
152 172 80
160 181 125
155 174 88
158 179 130
150 171 102
148 169 108
151 171 88
155 175 95
158 178 88
149 169 62
149 170 95
152 173 88
152 172 108
152 172 95
156 177 114
160 181 120
155 175 108
154 174 95
150 170 95
151 170 72
148 168 62
148 168 72
148 169 88
153 174 102
151 172 108
149 170 102
155 176 108
150 170 88
144 166 102
145 166 88
148 168 80
141 161 62
150 170 95
150 170 102
139 159 36
150 170 102
143 163 102
138 158 88
137 157 62
139 159 80
145 164 88
156 176 108
156 176 120
150 171 80
143 163 62
139 159 88
141 161 80
145 165 108
141 161 72
149 170 95
142 162 88
137 156 51
144 162 114
151 171 95
151 171 102
145 164 102
150 170 108
143 162 72
138 156 95
148 166 114
147 166 95
149 169 80
146 166 72
142 160 102
147 166 114
136 154 80
146 164 120
145 164 108
138 155 102
149 167 88
144 162 108
144 162 95
140 158 102
144 162 95
147 165 108
153 170 120
125 142 72
138 155 108
146 164 102
141 158 95
136 152 72
143 159 72
154 170 125
132 149 88
143 160 108
130 147 88
130 146 95
155 173 108
134 150 72
131 147 62
134 151 80
126 141 80
120 136 62
137 155 80
113 128 36
121 136 72
123 139 62
121 137 36
127 144 51
122 139 36
120 136 51
111 126 0
121 137 0
129 146 51
85 99 0
125 141 36
97 111 36
108 123 0
122 140 0
126 144 36
122 140 0
127 144 0
128 146 0
126 144 0
123 141 0
106 124 0
109 122 0
117 133 0
108 123 0
103 118 0
115 130 0
88 101 0
96 112 0
88 100 0
103 118 0
88 101 0
103 118 0
114 131 0
103 119 0
106 121 0
107 123 0
116 133 0
93 107 0
121 137 0
104 120 0
109 125 0
115 130 0
112 127 0
119 135 0
92 106 0
104 119 0
105 119 0
106 121 0
99 114 0
116 131 0
106 121 0
89 104 0
100 114 0
101 115 0
110 125 0
113 129 0
95 108 0
76 90 0
109 124 0
91 105 0
94 108 0
100 114 0
76 87 0
98 112 0
101 114 0
92 104 0
82 94 0
87 100 0
85 97 0
81 94 0
85 98 0
95 106 0
92 105 0
94 107 0
95 109 0
103 116 0
100 113 0
80 92 0
97 110 0
78 90 0
91 102 0
89 101 0
95 109 0
92 107 0
88 101 0
96 108 0
98 111 0
100 114 0
85 97 0
104 117 0
87 99 0
106 119 0
87 100 0
85 96 0
85 97 0
91 104 0
89 101 0
83 96 0
95 107 0
71 83 0
107 123 0
101 115 0
101 115 0
96 110 0
95 108 0
115 130 0
103 115 0
89 103 0
93 107 0
88 101 0
98 111 0
93 106 0
100 115 0
81 95 0
90 104 0
96 110 0
117 131 0
96 110 0
97 109 0
98 113 0
102 116 0
110 126 0
97 112 0
98 113 0
103 116 0
104 120 0
95 109 0
96 111 0
116 131 0
109 123 0
124 140 0
108 123 0
109 123 0
109 123 0
106 121 0
102 118 0
115 132 0
112 128 0
111 127 0
125 142 0
110 126 0
127 144 0
98 114 0
114 127 0
121 135 0
118 136 0
103 117 0
122 140 0
108 122 0
125 141 0
116 133 0
130 147 0
106 121 0
119 137 0
121 140 0
119 136 0
113 129 0
128 143 0
130 146 0
132 147 0
122 140 0
108 125 0
137 155 0
126 142 0
127 144 0
130 147 0
120 136 0
121 139 0
130 149 0
121 136 0
133 150 0
129 147 0
130 146 0
131 148 0
121 140 0
126 143 0
117 134 0
121 139 0
127 144 0
137 156 0
135 153 0
126 145 0
132 151 0
123 142 0
131 148 0
131 149 0
122 139 0
136 153 0
123 141 0
134 152 0
136 155 0
132 152 0
136 154 0
126 143 0
128 147 0
136 154 0
130 146 0
128 147 0
124 138 0
129 146 0
133 153 0
126 143 0
135 152 0
137 156 0
132 150 0
131 148 0
139 156 0
132 151 0
130 148 0
134 153 0
139 157 0
132 150 0
137 155 0
128 146 0
138 156 0
140 159 0
136 154 0
131 149 0
140 158 0
126 144 0
144 163 0
135 154 0
134 152 0
142 161 0
135 152 0
144 162 0
137 153 0
133 151 0
140 158 0
134 151 0
144 162 0
134 151 0
137 155 0
130 148 0
143 163 0
135 153 0
137 157 0
137 156 0
143 162 0
141 160 0
148 168 0
140 159 0
144 164 0
133 153 0
136 154 0
136 155 0
137 155 0
136 153 0
139 158 0
147 165 0
147 165 0
140 159 0
135 152 0
141 160 0
147 167 0
145 165 0
143 162 0
144 163 0
143 163 0
150 169 0
143 162 0
134 151 0
144 162 0
150 170 0
147 167 0
143 162 0
147 166 0
142 161 0
141 160 0
148 167 0
139 158 0
143 162 0
131 148 0
143 162 0
137 156 0
138 158 0
148 166 0
143 161 0
143 161 0
140 159 0
138 159 0
145 165 0
154 174 95
154 174 108
164 184 114
156 176 80
153 172 72
161 181 125
152 172 80
158 178 88
153 174 102
160 179 108
156 177 95
155 176 88
158 178 95
150 171 72
150 171 88
153 173 108
153 172 88
161 182 125
156 176 88
149 170 88
158 179 114
155 175 114
146 167 95
155 176 120
145 166 80
147 168 95
154 174 95
143 164 88
157 178 120
152 171 72
150 170 72
152 172 102
147 168 88
152 172 102
149 169 95
150 171 114
147 167 72
138 158 72
146 167 88
159 181 120
160 181 120
147 168 95
148 168 80
148 168 80
154 175 88
150 171 120
144 164 51
139 159 88
146 166 95
148 168 108
147 168 95
143 164 88
153 174 108
147 168 114
154 174 108
142 161 80
148 168 88
142 162 80
147 167 95
152 172 80
143 164 102
145 165 108
148 168 95
145 165 95
153 173 108
137 156 62
151 171 114
147 166 95
160 180 114
156 175 108
155 175 108
145 165 108
132 151 80
157 176 114
133 150 88
142 160 88
151 170 102
150 170 95
141 160 88
144 163 114
144 163 80
133 152 95
141 161 72
143 161 95
143 161 95
147 166 95
151 169 108
142 160 102
136 155 80
154 173 125
148 167 108
141 159 62
124 142 51
154 172 135
155 173 120
130 148 62
147 164 102
148 165 114
127 144 95
133 149 95
143 161 95
147 164 95
154 172 102
150 168 108
144 160 102
150 167 102
150 166 114
125 141 72
137 154 80
131 147 72
141 158 95
125 143 51
136 153 62
139 155 72
129 145 80
153 169 88
131 146 72
127 142 51
122 139 51
120 137 36
125 141 51
123 140 51
116 133 0
93 108 36
118 135 0
108 124 0
115 132 0
119 135 36
105 120 0
112 128 36
113 128 36
103 118 0
125 143 0
147 165 0
123 142 0
120 138 0
127 145 0
108 124 0
122 141 0
118 135 0
111 127 0
120 137 0
108 123 0
99 114 0
122 137 0
110 125 0
105 120 0
117 132 0
97 111 0
96 110 0
109 125 0
115 130 0
112 128 0
113 128 0
102 117 0
103 118 0
108 122 0
98 112 0
95 109 0
104 119 0
96 112 0
101 115 0
110 125 0
119 134 0
109 124 0
104 119 0
98 111 0
102 116 0
115 130 0
98 112 0
97 110 0
107 121 0
75 88 0
117 132 0
87 100 0
88 101 0
84 98 0
87 101 0
65 78 0
99 112 0
89 102 0
84 98 0
88 101 0
74 86 0
111 125 0
93 106 0
102 115 0
108 121 0
76 88 0
107 121 0
88 101 0
87 100 0
83 94 0
81 94 0
84 96 0
93 104 0
95 108 0
78 91 0
95 109 0
97 110 0
91 104 0
102 115 0
88 100 0
84 95 0
96 109 0
108 122 0
95 108 0
82 94 0
90 103 0
77 91 0
95 109 0
87 99 0
94 107 0
104 118 0
110 125 0
89 101 0
114 128 0
87 100 0
95 108 0
95 107 0
89 100 0
97 109 0
102 115 0
95 108 0
106 121 0
102 115 0
105 120 0
87 99 0
110 126 0
91 106 0
97 111 0
90 104 0
118 132 0
103 118 0
112 128 0
114 131 0
114 129 0
73 87 0
104 119 0
93 107 0
101 115 0
99 116 0
105 120 0
114 129 0
118 133 0
111 127 0
107 123 0
107 121 0
110 124 0
106 121 0
120 136 0
103 118 0
109 126 0
112 127 0
104 119 0
116 131 0
115 131 0
115 131 0
108 124 0
118 135 0
121 138 0
110 126 0
120 138 0
119 137 0
123 141 0
128 146 0
108 124 0
120 135 0
103 118 0
126 142 0
118 134 0
110 125 0
106 122 0
127 146 0
129 147 0
118 135 0
125 143 0
131 148 0
124 140 0
120 137 0
119 138 0
121 138 0
122 139 0
123 141 0
122 139 0
121 138 0
117 135 0
120 137 0
131 149 0
121 136 0
129 147 0
124 141 0
127 146 0
136 154 0
130 148 0
136 155 0
129 146 0
130 147 0
128 145 0
138 155 0
120 138 0
134 151 0
125 143 0
129 147 0
125 142 0
132 149 0
131 149 0
138 157 0
124 142 0
125 142 0
133 154 0
135 153 0
126 144 0
140 158 0
133 151 0
141 160 0
129 148 0
149 168 0
139 159 0
131 150 0
130 148 0
129 148 0
136 153 0
131 149 0
126 144 0
132 151 0
127 144 0
136 155 0
135 153 0
137 154 0
134 152 0
137 156 0
138 156 0
133 151 0
130 148 0
137 156 0
134 151 0
133 150 0
138 157 0
146 163 0
127 144 0
144 164 0
133 150 0
145 164 0
141 162 0
136 155 0
143 162 0
132 150 0
144 163 0
136 155 0
137 155 0
141 161 0
142 160 0
141 158 0
136 155 0
141 160 0
138 157 0
145 164 0
140 157 0
139 158 0
143 163 0
135 154 0
132 151 0
142 162 0
135 153 0
151 169 0
144 165 0
143 161 0
138 156 0
147 165 0
139 158 0
145 165 0
134 152 0
145 163 0
140 160 0
143 162 0
142 161 0
141 160 0
141 160 0
149 169 0
131 149 0
144 162 0
150 170 0
150 170 0
139 157 0
142 160 0
138 157 0
139 159 0
139 158 0
143 162 0
147 165 0
138 158 0
152 171 0
146 163 0
143 163 0
145 164 0
147 165 0
152 172 0
141 160 0
146 165 0
154 174 80
160 181 108
159 180 108
149 170 80
149 170 72
147 166 95
145 164 72
142 162 51
157 176 88
156 176 95
155 176 95
159 179 95
152 172 62
150 171 88
157 177 88
159 180 114
156 176 102
158 178 108
156 176 114
154 175 105
141 162 62
155 176 114
147 168 72
156 177 125
150 169 72
162 183 120
157 179 125
159 180 125
161 183 135
144 163 72
150 171 88
148 169 95
153 173 108
150 170 72
143 163 80
154 175 95
148 168 62
149 169 95
143 161 0
158 179 120
158 179 120
145 166 88
149 168 88
158 179 114
150 171 95
138 157 72
149 169 114
156 177 95
146 167 88
143 162 95
143 163 72
143 162 88
155 175 80
151 171 88
146 166 102
141 161 95
152 171 102
151 170 72
154 174 102
144 164 108
158 180 149
151 171 114
154 175 130
148 168 95
141 160 102
139 159 62
151 172 108
146 165 108
142 162 88
152 172 102
143 162 88
143 163 95
144 165 80
143 161 88
152 171 95
155 175 125
146 166 88
137 156 88
146 165 80
142 162 108
142 160 102
155 175 120
144 163 102
147 165 95
141 158 72
153 172 108
141 159 95
147 167 108
151 169 114
147 166 102
140 158 88
141 160 80
145 164 95
147 164 80
134 151 72
150 168 120
156 174 120
142 159 88
146 163 114
137 154 88
137 154 102
142 159 102
141 159 80
146 163 114
144 162 62
148 164 114
134 149 95
134 149 88
146 164 72
136 153 88
149 167 108
144 160 102
140 157 88
125 141 72
139 157 80
130 147 62
132 148 80
127 144 51
136 153 62
131 150 36
127 145 36
108 125 0
122 138 36
120 136 36
123 139 0
112 127 0
120 136 36
118 133 36
121 139 0
113 130 0
133 149 36
122 138 36
135 154 0
116 132 0
136 154 0
119 139 0
125 143 0
117 134 0
118 135 0
121 137 0
107 123 0
107 123 0
108 124 0
109 125 0
105 119 0
97 112 0
102 116 0
99 113 0
103 118 0
88 102 0
121 136 0
110 126 0
119 135 0
97 111 0
106 120 0
108 122 0
106 120 0
107 123 0
88 104 0
116 131 0
122 138 0
103 118 0
100 114 0
102 116 0
95 110 0
120 137 0
101 117 0
101 115 0
93 107 0
107 121 0
102 117 0
112 127 0
112 127 0
91 105 0
96 110 0
103 118 0
105 118 0
98 112 0
96 111 0
105 119 0
102 116 0
76 87 0
80 93 0
78 91 0
97 110 0
108 121 0
80 94 0
96 108 0
79 92 0
94 106 0
95 107 0
94 107 0
94 106 0
90 103 0
115 130 0
80 93 0
98 112 0
107 119 0
76 88 0
73 87 0
93 105 0
87 99 0
88 101 0
113 127 0
102 117 0
64 75 0
85 96 0
100 114 0
79 91 0
106 121 0
86 99 0
90 104 0
101 115 0
112 127 0
95 107 0
94 108 0
99 112 0
74 86 0
91 104 0
109 123 0
79 92 0
101 114 0
99 114 0
113 128 0
92 106 0
90 104 0
91 106 0
102 115 0
105 119 0
112 127 0
96 112 0
97 112 0
110 124 0
96 110 0
106 121 0
105 121 0
103 119 0
96 109 0
98 113 0
106 120 0
107 122 0
105 120 0
106 122 0
78 93 0
115 131 0
104 120 0
117 132 0
94 109 0
110 125 0
102 118 0
111 127 0
107 123 0
104 119 0
107 125 0
115 131 0
117 131 0
112 128 0
123 140 0
107 125 0
98 113 0
112 129 0
111 127 0
118 134 0
123 140 0
105 122 0
125 142 0
116 132 0
130 148 0
128 146 0
117 133 0
121 138 0
117 134 0
118 134 0
110 126 0
123 140 0
128 145 0
123 140 0
102 119 0
122 139 0
128 146 0
131 146 0
121 137 0
115 133 0
103 119 0
138 156 0
123 140 0
121 138 0
116 134 0
121 138 0
123 140 0
136 155 0
133 149 0
123 141 0
130 148 0
123 141 0
126 143 0
128 146 0
121 139 0
124 142 0
121 140 0
124 142 0
124 142 0
118 134 0
127 144 0
128 146 0
120 138 0
134 151 0
132 150 0
140 160 0
139 158 0
133 152 0
133 151 0
139 157 0
135 152 0
141 160 0
134 153 0
128 146 0
133 150 0
141 160 0
137 156 0
138 157 0
131 150 0
133 150 0
128 148 0
127 144 0
137 155 0
142 163 0
133 150 0
128 146 0
136 155 0
133 152 0
134 151 0
127 146 0
130 148 0
142 159 0
137 156 0
133 151 0
139 158 0
130 148 0
138 155 0
142 160 0
140 158 0
136 155 0
136 153 0
136 156 0
135 151 0
133 149 0
136 155 0
137 155 0
141 158 0
143 163 0
147 167 0
139 157 0
137 155 0
135 155 0
142 161 0
140 159 0
138 156 0
141 160 0
147 167 0
140 158 0
136 154 0
140 159 0
139 158 0
138 157 0
139 158 0
142 161 0
146 165 0
146 164 0
142 162 0
146 165 0
143 162 0
138 157 0
139 157 0
140 158 0
139 160 0
141 160 0
138 155 0
143 161 0
134 152 0
140 158 0
141 159 0
137 157 0
148 167 0
137 156 0
139 158 0
150 170 0
139 159 0
147 167 0
143 162 0
138 157 0
144 162 0
144 163 0
140 158 0
150 169 0
151 171 0
149 170 0
148 167 0
142 162 0
147 166 0
158 178 95
163 183 102
155 175 95
163 184 135
153 172 72
152 173 95
159 180 114
157 177 108
159 180 114
159 178 102
156 176 88
154 175 102
156 177 108
161 181 120
155 175 102
150 170 95
155 176 114
152 171 72
153 173 114
159 180 102
149 170 67
151 171 72
147 167 72
157 179 125
147 167 80
158 179 108
152 172 88
155 175 114
151 172 102
151 172 95
150 171 102
146 167 88
155 175 88
158 178 108
154 174 88
147 168 88
151 171 88
150 170 108
149 170 88
153 174 108
151 173 114
147 168 80
150 169 80
155 175 102
138 158 80
150 170 114
155 175 95
147 167 95
153 173 88
154 175 125
156 176 95
149 169 95
142 162 88
144 163 88
139 158 62
147 168 88
154 176 108
152 172 120
145 164 120
151 170 114
139 159 62
143 163 95
141 161 72
139 159 72
139 159 88
159 179 120
144 164 80
145 165 95
158 177 95
146 165 80
154 173 95
154 173 95
145 163 88
152 171 102
146 167 130
138 158 88
144 161 80
160 179 125
144 163 88
152 172 114
150 169 88
145 164 80
142 161 72
161 180 120
146 165 95
149 168 102
148 166 95
145 163 102
143 161 108
146 164 95
144 163 88
144 161 102
144 163 102
142 160 80
135 152 80
134 151 80
153 170 108
135 152 80
138 154 88
139 156 80
152 169 114
148 166 88
142 159 102
149 165 120
135 152 95
138 156 72
155 172 114
143 160 88
142 160 72
141 156 95
144 161 95
127 144 72
147 164 72
142 157 95
132 149 62
129 145 88
134 151 72
116 131 36
135 153 0
128 144 0
126 143 36
122 138 36
103 118 36
132 150 0
112 128 0
114 130 36
129 146 36
129 146 0
122 139 0
112 128 0
119 136 0
120 137 0
132 151 0
131 149 0
132 149 0
126 143 0
131 150 0
111 126 0
118 135 0
105 120 0
114 130 0
115 131 0
113 129 0
102 116 0
113 129 0
107 122 0
104 118 0
109 125 0
94 109 0
113 128 0
103 119 0
112 127 0
105 120 0
115 130 0
101 116 0
112 128 0
104 119 0
129 145 0
109 125 0
104 117 0
119 135 0
104 120 0
92 106 0
102 117 0
100 115 0
110 125 0
103 118 0
102 117 0
109 123 0
102 117 0
109 123 0
100 115 0
101 116 0
114 129 0
93 106 0
110 125 0
94 107 0
92 106 0
98 114 0
97 111 0
98 112 0
89 102 0
95 110 0
77 90 0
107 122 0
84 96 0
108 122 0
77 89 0
103 118 0
76 88 0
101 114 0
86 101 0
85 98 0
108 122 0
93 107 0
111 126 0
94 106 0
95 108 0
82 96 0
94 108 0
92 106 0
111 127 0
92 106 0
113 126 0
85 98 0
107 120 0
105 118 0
99 113 0
101 115 0
86 99 0
96 109 0
90 104 0
101 116 0
107 121 0
99 112 0
96 109 0
96 110 0
104 118 0
97 112 0
92 104 0
117 131 0
108 122 0
98 112 0
82 96 0
95 108 0
91 106 0
75 89 0
98 111 0
93 107 0
97 110 0
114 130 0
106 121 0
92 106 0
107 121 0
105 118 0
106 121 0
85 100 0
102 119 0
113 129 0
107 122 0
101 116 0
103 118 0
104 118 0
113 129 0
117 133 0
99 115 0
102 117 0
114 130 0
123 140 0
122 137 0
109 125 0
98 115 0
119 136 0
115 130 0
118 135 0
107 123 0
121 139 0
119 135 0
118 134 0
120 137 0
110 125 0
106 121 0
118 135 0
112 127 0
105 121 0
96 113 0
111 129 0
121 136 0
124 142 0
113 130 0
122 139 0
128 145 0
121 138 0
131 150 0
112 129 0
121 139 0
130 146 0
121 138 0
117 134 0
107 124 0
131 149 0
135 154 0
119 136 0
136 154 0
125 142 0
120 137 0
116 132 0
117 134 0
125 142 0
140 160 0
120 139 0
119 136 0
127 144 0
132 149 0
130 147 0
129 147 0
125 144 0
135 153 0
133 151 0
126 143 0
128 145 0
128 145 0
123 142 0
123 140 0
131 148 0
129 148 0
130 149 0
127 145 0
130 147 0
131 149 0
133 152 0
131 150 0
131 149 0
140 159 0
132 151 0
142 161 0
147 166 0
140 157 0
145 163 0
136 154 0
132 151 0
132 151 0
128 146 0
131 150 0
134 153 0
135 153 0
129 148 0
127 145 0
144 163 0
141 161 0
129 147 0
139 157 0
140 158 0
139 158 0
131 150 0
136 154 0
138 157 0
137 156 0
138 157 0
132 151 0
136 155 0
134 152 0
146 164 0
141 159 0
136 154 0
131 148 0
134 153 0
138 155 0
133 152 0
139 156 0
145 164 0
146 165 0
135 153 0
134 152 0
136 154 0
138 155 0
146 166 0
142 161 0
145 164 0
138 157 0
142 163 0
139 158 0
141 160 0
142 159 0
135 152 0
140 159 0
136 156 0
139 159 0
142 160 0
142 160 0
137 155 0
138 154 0
149 168 0
138 156 0
146 164 0
143 161 0
136 154 0
143 163 0
143 163 0
138 156 0
137 155 0
144 163 0
147 167 0
142 161 0
133 151 0
141 161 0
140 161 0
138 156 0
142 160 0
153 172 0
143 161 0
146 166 0
143 163 0
143 163 0
146 165 0
138 156 0
132 150 0
145 163 0
150 168 0
138 156 0
159 179 95
144 164 62
153 173 80
153 173 108
157 177 120
156 176 95
160 181 114
154 174 88
159 180 88
151 171 95
153 173 80
149 169 62
158 179 114
147 167 80
162 183 102
160 181 108
162 182 102
157 178 108
146 165 72
150 171 88
155 175 114
157 178 125
144 165 102
149 169 80
147 167 80
149 169 88
149 169 72
154 174 102
151 170 72
150 170 88
162 182 120
154 175 108
152 172 88
153 174 114
146 166 72
159 182 140
155 174 88
152 172 88
155 175 108
149 170 72
147 167 80
151 172 102
140 158 36
154 174 108
158 178 120
150 171 88
150 170 102
151 172 114
149 168 80
141 160 72
150 170 95
148 167 62
148 169 114
149 169 88
150 170 95
159 179 114
150 171 102
146 166 108
149 170 88
146 165 102
143 165 102
134 153 72
160 180 114
153 173 114
146 166 102
140 159 72
137 157 80
155 174 114
137 155 72
140 158 80
138 157 80
141 162 80
154 173 125
151 171 120
150 169 102
148 166 80
142 162 62
145 165 108
156 175 108
137 155 80
154 174 120
156 175 125
152 171 114
152 171 95
138 157 95
135 154 72
144 163 108
140 158 102
140 158 62
144 162 102
139 157 95
145 163 80
135 153 80
149 166 88
155 173 114
137 154 95
141 159 88
145 162 88
149 166 108
141 157 102
148 165 95
143 161 95
137 153 88
135 152 72
144 162 80
147 166 88
131 148 62
137 153 72
125 142 51
131 148 72
153 169 114
144 161 95
135 151 80
131 147 51
122 138 72
131 148 51
132 148 80
130 147 51
110 127 0
113 130 0
133 151 36
126 143 0
120 137 0
115 132 0
115 132 0
124 140 0
117 135 36
120 136 36
112 129 0
131 148 0
128 146 51
127 145 0
144 163 0
129 148 0
126 144 0
124 141 0
122 140 0
128 147 0
122 139 0
105 122 0
108 124 0
115 131 0
101 117 0
119 136 0
90 103 0
110 125 0
113 127 0
98 113 0
109 125 0
120 136 0
109 123 0
114 130 0
109 125 0
112 126 0
123 140 0
107 124 0
114 129 0
129 145 0
114 130 0
97 112 0
106 121 0
113 128 0
100 115 0
107 123 0
117 133 0
92 106 0
111 127 0
101 116 0
104 118 0
107 121 0
97 111 0
106 119 0
110 125 0
104 118 0
99 114 0
104 118 0
96 110 0
98 113 0
89 102 0
75 88 0
89 103 0
102 116 0
105 118 0
93 105 0
114 129 0
94 108 0
105 121 0
95 108 0
89 103 0
86 99 0
89 101 0
81 93 0
93 106 0
97 110 0
101 114 0
82 97 0
103 117 0
89 102 0
89 102 0
96 108 0
89 101 0
112 126 0
92 105 0
87 99 0
99 114 0
96 109 0
99 113 0
94 108 0
97 111 0
97 110 0
114 129 0
93 107 0
90 103 0
96 111 0
93 108 0
97 111 0
92 106 0
94 107 0
95 110 0
111 127 0
86 100 0
97 111 0
107 121 0
106 120 0
107 122 0
108 122 0
86 98 0
102 115 0
90 104 0
101 115 0
113 129 0
120 136 0
95 110 0
106 121 0
100 115 0
105 121 0
107 122 0
110 125 0
99 114 0
98 113 0
94 109 0
95 110 0
120 137 0
98 113 0
116 132 0
112 127 0
111 128 0
106 121 0
110 126 0
121 136 0
122 139 0
111 127 0
106 122 0
117 135 0
124 139 0
112 129 0
112 129 0
115 130 0
124 142 0
109 125 0
118 136 0
112 127 0
110 127 0
96 113 0
109 126 0
119 137 0
121 138 0
126 143 0
128 145 0
119 136 0
119 137 0
129 145 0
117 134 0
110 128 0
114 129 0
120 138 0
125 142 0
122 140 0
124 142 0
133 151 0
123 140 0
111 128 0
124 141 0
122 139 0
123 141 0
131 147 0
130 146 0
135 152 0
130 148 0
132 148 0
129 148 0
124 143 0
112 128 0
129 147 0
130 148 0
131 148 0
127 143 0
126 145 0
125 143 0
135 154 0
127 145 0
135 153 0
128 145 0
128 146 0
130 147 0
135 154 0
128 147 0
125 143 0
133 153 0
135 154 0
133 150 0
129 146 0
132 151 0
131 150 0
135 155 0
136 154 0
134 152 0
135 152 0
128 147 0
141 160 0
131 148 0
138 156 0
126 144 0
129 146 0
143 162 0
142 161 0
130 148 0
139 159 0
132 151 0
138 156 0
142 160 0
134 151 0
144 163 0
132 151 0
126 145 0
144 164 0
128 146 0
145 163 0
131 146 0
138 158 0
138 155 0
140 159 0
137 155 0
129 148 0
133 153 0
147 166 0
141 159 0
135 154 0
135 154 0
140 159 0
137 155 0
138 157 0
138 156 0
138 157 0
139 159 0
135 153 0
134 154 0
146 166 0
145 163 0
136 155 0
135 150 0
139 158 0
138 156 0
144 162 0
149 168 0
134 154 0
134 154 0
139 159 0
145 165 0
143 162 0
150 168 0
135 153 0
139 158 0
133 152 0
133 153 0
147 167 0
132 151 0
144 162 0
142 161 0
147 165 0
133 152 0
152 172 0
143 160 0
140 160 0
154 172 0
132 151 0
142 160 0
146 162 0
146 166 0
142 161 0
146 166 0
140 158 0
145 164 0
138 156 0
137 157 0
143 162 0
147 166 0
146 165 0
143 161 0
147 166 0
163 182 102
164 184 125
163 184 108
156 176 95
160 180 125
156 176 88
155 175 114
152 173 95
160 181 125
147 168 80
152 172 72
154 174 88
154 174 88
148 168 95
154 174 102
156 176 95
149 169 62
148 169 102
163 183 102
154 173 95
154 174 108
153 173 80
150 168 62
154 174 88
152 172 62
146 166 95
149 170 80
156 177 114
147 167 80
154 175 108
150 171 108
157 177 114
151 172 95
151 170 72
155 176 102
154 175 114
154 174 88
146 167 95
149 169 102
147 167 95
148 168 102
146 166 80
139 159 80
147 168 95
157 177 108
151 171 102
155 174 108
153 174 108
143 162 88
165 185 120
146 166 102
142 161 72
136 156 72
153 173 95
153 173 80
150 169 88
147 167 102
147 166 80
141 160 62
152 172 108
145 163 80
151 171 102
149 168 108
136 155 80
144 165 120
151 170 125
148 168 95
154 174 95
132 151 88
147 165 88
146 164 80
145 166 114
153 174 95
147 167 88
143 163 95
144 162 72
143 162 95
155 174 108
152 171 114
158 177 95
143 161 72
147 164 120
158 177 120
144 162 88
142 160 108
148 166 120
151 170 102
130 148 72
158 177 114
142 160 80
140 159 72
153 172 102
138 157 95
137 155 88
144 162 102
139 156 88
149 165 114
146 163 114
143 162 95
138 156 80
147 164 108
149 166 102
152 168 108
133 150 72
153 169 114
138 155 62
142 159 80
128 144 72
147 164 108
142 158 108
140 157 95
136 153 80
128 144 62
119 135 0
135 152 80
138 155 80
127 143 51
128 146 0
126 145 36
128 146 36
115 131 36
117 134 51
115 132 0
113 129 36
127 143 36
113 129 36
118 135 0
128 144 0
119 135 0
114 131 36
120 135 0
133 150 0
129 148 0
134 153 0
130 147 0
130 148 0
137 155 0
112 130 0
108 125 0
120 137 0
115 131 0
115 132 0
112 129 0
111 125 0
111 128 0
90 105 0
108 122 0
107 123 0
102 118 0
107 123 0
108 124 0
127 144 0
117 135 0
101 117 0
115 131 0
112 128 0
119 135 0
107 123 0
102 117 0
120 136 0
95 111 0
120 137 0
98 114 0
103 118 0
114 130 0
102 117 0
104 120 0
105 119 0
104 119 0
91 105 0
90 105 0
101 115 0
92 107 0
99 114 0
103 118 0
105 120 0
92 107 0
100 116 0
109 124 0
92 106 0
88 102 0
88 102 0
104 118 0
84 97 0
86 101 0
98 113 0
93 109 0
110 125 0
89 102 0
94 107 0
95 109 0
88 102 0
107 122 0
81 93 0
88 102 0
109 124 0
88 100 0
100 115 0
106 119 0
75 88 0
83 97 0
87 99 0
117 132 0
103 118 0
83 94 0
96 109 0
74 88 0
100 115 0
120 136 0
114 129 0
103 117 0
96 111 0
94 107 0
116 132 0
89 104 0
115 129 0
103 118 0
92 106 0
86 100 0
104 119 0
95 109 0
107 122 0
98 112 0
96 111 0
99 113 0
109 124 0
116 131 0
91 105 0
110 125 0
101 115 0
110 125 0
102 117 0
110 123 0
99 112 0
114 129 0
95 110 0
94 109 0
100 115 0
108 124 0
104 119 0
120 135 0
118 135 0
119 136 0
128 144 0
111 128 0
94 109 0
103 118 0
108 124 0
121 138 0
116 132 0
123 140 0
107 122 0
120 135 0
114 130 0
128 144 0
110 125 0
120 137 0
101 117 0
120 137 0
118 134 0
110 127 0
122 140 0
101 117 0
118 135 0
109 125 0
132 150 0
127 142 0
128 147 0
111 128 0
127 144 0
122 139 0
123 139 0
118 134 0
123 140 0
122 137 0
138 156 0
115 132 0
117 134 0
128 145 0
130 149 0
109 126 0
116 134 0
132 150 0
128 145 0
135 151 0
126 144 0
133 151 0
129 148 0
114 132 0
130 149 0
132 150 0
135 153 0
126 143 0
125 143 0
129 146 0
134 153 0
131 150 0
130 147 0
124 141 0
129 148 0
126 141 0
122 141 0
134 151 0
129 144 0
121 137 0
141 158 0
118 136 0
127 144 0
132 151 0
137 155 0
137 154 0
130 148 0
127 145 0
130 147 0
139 156 0
129 146 0
130 148 0
131 149 0
132 149 0
140 157 0
137 155 0
129 146 0
128 146 0
143 161 0
139 157 0
121 138 0
121 140 0
127 144 0
131 149 0
133 151 0
130 148 0
130 148 0
140 158 0
134 151 0
137 155 0
139 160 0
133 151 0
139 156 0
123 141 0
148 167 0
130 149 0
139 157 0
142 162 0
140 158 0
132 150 0
138 156 0
136 154 0
137 156 0
140 158 0
142 160 0
142 160 0
141 160 0
139 157 0
141 159 0
142 159 0
144 162 0
133 152 0
145 164 0
145 164 0
132 150 0
148 167 0
139 158 0
137 156 0
144 163 0
146 164 0
145 165 0
147 167 0
147 166 0
141 160 0
150 168 0
141 160 0
140 159 0
147 166 0
146 164 0
143 163 0
136 155 0
144 164 0
136 153 0
138 156 0
141 160 0
140 161 0
137 156 0
154 174 0
143 163 0
143 162 0
146 166 0
142 162 0
143 163 0
143 163 0
134 152 0
139 156 0
145 163 0
149 169 0
147 166 0
149 168 0
145 165 0
149 169 0
149 169 0
146 165 0
143 163 0
148 169 88
153 172 95
155 175 88
152 172 95
147 167 88
159 180 88
156 176 88
155 175 114
154 174 72
165 185 114
157 176 108
148 168 72
158 178 114
151 171 62
154 175 80
154 175 95
145 165 88
163 183 108
155 175 108
149 169 88
155 176 95
155 175 80
153 172 88
143 163 72
155 176 88
154 175 88
149 169 80
142 161 51
148 168 72
147 167 95
149 169 95
149 169 80
149 169 88
152 172 102
150 170 102
147 168 62
144 164 72
140 159 72
153 173 102
152 172 88
155 175 114
157 178 125
156 178 108
145 164 72
146 166 80
140 160 80
149 168 108
153 174 102
147 168 80
142 161 80
143 163 80
149 170 108
139 159 51
131 149 36
147 167 95
139 159 36
146 165 72
145 165 102
152 172 88
150 170 114
147 167 72
148 167 88
145 164 95
140 160 72
141 160 88
150 169 108
149 168 114
147 166 102
146 165 95
154 173 102
145 164 80
143 163 72
136 155 80
152 173 125
143 161 72
152 170 95
155 174 125
151 170 114
144 162 72
148 167 95
148 166 80
145 164 102
128 145 51
154 172 140
159 178 102
164 183 135
144 161 95
138 156 95
141 158 95
153 171 108
154 172 125
144 161 95
134 151 80
153 172 125
142 159 95
150 169 120
150 168 120
145 163 88
149 166 125
140 157 88
135 153 72
140 156 108
138 155 88
143 160 102
144 161 95
151 168 88
139 156 102
145 162 80
145 162 95
143 159 88
134 150 80
144 161 88
132 149 72
132 149 51
140 157 62
133 149 72
125 142 62
124 140 0
142 159 0
125 142 0
116 133 0
122 139 0
129 147 36
125 142 0
118 134 36
118 135 51
127 142 36
117 132 0
123 141 51
119 135 0
125 143 36
125 144 0
137 156 0
131 149 0
130 148 0
127 145 0
127 146 0
138 155 0
111 130 0
122 140 0
115 130 0
105 120 0
118 134 0
104 120 0
108 123 0
120 136 0
116 133 0
109 126 0
114 129 0
95 110 0
119 135 0
123 139 0
109 126 0
113 130 0
119 134 0
105 120 0
119 136 0
120 136 0
107 121 0
128 146 0
113 130 0
122 138 0
106 121 0
110 126 0
103 117 0
93 109 0
115 131 0
105 120 0
99 114 0
98 112 0
100 114 0
96 110 0
88 102 0
112 128 0
94 110 0
97 111 0
115 131 0
99 112 0
102 117 0
106 121 0
85 99 0
92 107 0
88 102 0
102 118 0
116 131 0
94 107 0
97 111 0
104 117 0
101 114 0
107 122 0
101 117 0
75 87 0
110 124 0
85 99 0
104 117 0
102 115 0
94 108 0
89 103 0
99 113 0
100 114 0
113 128 0
89 101 0
89 102 0
100 114 0
92 104 0
101 115 0
95 110 0
96 109 0
105 118 0
101 117 0
101 116 0
92 107 0
101 114 0
105 120 0
93 106 0
100 115 0
105 121 0
92 107 0
108 123 0
100 116 0
111 124 0
100 115 0
102 116 0
108 123 0
102 118 0
100 115 0
106 120 0
120 136 0
103 120 0
102 116 0
102 117 0
98 113 0
116 133 0
112 128 0
95 110 0
108 123 0
121 137 0
110 125 0
92 107 0
104 119 0
117 133 0
110 124 0
116 132 0
118 135 0
104 119 0
116 133 0
132 149 0
128 145 0
115 132 0
120 136 0
126 143 0
118 135 0
116 132 0
122 138 0
123 140 0
109 125 0
103 119 0
119 136 0
117 134 0
121 138 0
117 134 0
115 132 0
129 148 0
122 140 0
117 134 0
122 138 0
122 137 0
122 140 0
121 138 0
130 148 0
118 134 0
112 130 0
116 132 0
119 135 0
117 134 0
124 142 0
124 140 0
122 139 0
123 139 0
119 137 0
130 148 0
126 143 0
125 144 0
122 139 0
121 138 0
118 135 0
133 152 0
118 135 0
137 157 0
131 149 0
129 147 0
127 144 0
132 150 0
128 146 0
123 141 0
129 146 0
126 145 0
124 142 0
125 142 0
122 141 0
119 139 0
135 153 0
124 142 0
130 148 0
126 143 0
126 143 0
130 148 0
115 133 0
130 148 0
130 147 0
138 156 0
142 158 0
138 155 0
139 158 0
132 150 0
144 162 0
132 150 0
134 152 0
141 161 0
138 156 0
137 154 0
133 152 0
137 155 0
135 153 0
136 155 0
138 158 0
135 153 0
141 159 0
137 157 0
136 155 0
141 161 0
121 139 0
132 151 0
139 158 0
135 154 0
137 157 0
129 149 0
134 153 0
138 157 0
138 156 0
138 156 0
140 159 0
144 163 0
137 156 0
141 161 0
137 157 0
146 164 0
137 157 0
141 162 0
138 156 0
140 159 0
144 161 0
140 159 0
139 158 0
139 157 0
145 166 0
140 159 0
145 165 0
139 158 0
142 160 0
129 147 0
140 157 0
138 156 0
141 160 0
134 153 0
145 164 0
137 155 0
144 163 0
145 165 0
146 167 0
133 152 0
142 160 0
139 159 0
140 158 0
149 169 0
146 165 0
143 162 0
145 166 0
148 165 0
148 167 0
141 159 0
141 160 0
144 162 0
141 159 0
143 162 0
142 162 0
143 161 0
138 156 0
144 162 0
140 157 0
145 163 0
141 161 0
127 147 0
147 165 0
145 164 0
144 163 0
152 173 0
148 166 0
145 167 0
146 167 0
157 177 80
158 179 108
157 176 88
160 180 95
156 176 95
161 180 95
154 174 80
149 170 88
159 180 114
164 184 114
155 175 88
155 176 95
158 178 102
156 176 95
154 175 88
142 162 62
154 174 95
154 175 102
146 168 72
157 177 102
148 168 72
156 176 114
151 172 88
158 179 102
153 173 102
149 168 102
155 175 88
150 171 95
152 172 120
151 171 102
145 165 114
143 164 95
153 173 114
150 170 114
154 174 120
150 170 80
154 175 88
154 175 114
155 175 88
136 156 62
139 159 51
151 172 114
143 162 72
146 166 108
148 169 80
148 167 95
154 175 114
154 173 80
147 168 120
144 162 72
153 173 102
144 164 80
156 177 120
154 175 88
149 169 95
155 175 125
148 167 72
153 172 80
147 168 120
139 159 80
146 166 120
151 170 108
156 176 120
144 162 88
154 172 80
151 172 114
140 160 88
145 164 72
146 164 80
134 154 80
142 161 80
143 163 72
155 174 140
160 180 108
131 149 80
144 163 88
153 173 120
141 160 88
157 177 125
142 161 62
145 166 88
148 166 114
138 157 102
153 171 125
153 171 125
150 168 108
148 166 80
146 164 108
142 161 88
135 153 36
140 158 80
151 169 114
161 180 130
144 162 80
131 149 88
147 165 95
143 160 72
138 156 72
158 176 125
153 170 114
153 171 108
151 166 102
142 159 102
130 147 80
135 153 80
144 162 80
137 154 62
139 156 95
141 156 102
137 155 95
137 152 80
137 154 51
137 153 95
137 154 80
136 152 62
140 159 72
124 141 36
133 151 36
120 138 0
136 153 36
127 146 51
140 158 51
132 149 0
147 164 51
121 137 0
127 144 36
123 140 36
127 145 0
129 146 36
117 133 0
120 137 0
105 120 0
131 150 0
126 145 0
131 149 0
124 142 0
128 146 0
115 133 0
113 130 0
130 147 0
121 138 0
109 127 0
120 135 0
119 135 0
101 117 0
111 127 0
118 135 0
113 129 0
122 138 0
107 123 0
114 131 0
113 128 0
119 137 0
114 130 0
118 134 0
124 141 0
121 137 0
114 130 0
101 116 0
113 130 0
112 127 0
104 119 0
105 120 0
106 122 0
109 124 0
116 132 0
97 110 0
101 115 0
107 121 0
97 112 0
112 128 0
116 132 0
127 143 0
111 127 0
94 109 0
109 125 0
112 127 0
99 114 0
112 128 0
114 130 0
94 107 0
97 111 0
107 122 0
86 99 0
96 111 0
96 110 0
117 133 0
102 118 0
97 111 0
117 131 0
82 96 0
96 111 0
93 108 0
119 133 0
89 101 0
112 127 0
93 107 0
101 115 0
109 124 0
113 128 0
95 110 0
89 104 0
107 120 0
102 116 0
103 117 0
103 118 0
92 107 0
106 122 0
107 122 0
97 110 0
113 128 0
98 111 0
94 108 0
86 100 0
87 101 0
110 126 0
105 120 0
109 123 0
99 114 0
85 98 0
104 118 0
110 126 0
116 132 0
100 116 0
101 116 0
116 132 0
101 115 0
103 119 0
99 113 0
89 102 0
108 123 0
104 119 0
104 119 0
105 120 0
111 128 0
102 117 0
106 122 0
105 120 0
102 117 0
113 128 0
117 132 0
114 130 0
109 125 0
100 116 0
110 126 0
122 138 0
119 136 0
115 132 0
132 149 0
115 131 0
123 140 0
107 122 0
114 129 0
108 125 0
120 137 0
134 152 0
123 138 0
118 136 0
114 129 0
111 127 0
123 140 0
116 132 0
116 134 0
119 137 0
122 137 0
128 148 0
120 137 0
118 137 0
120 137 0
106 123 0
122 138 0
107 124 0
136 155 0
123 141 0
124 142 0
122 139 0
122 139 0
129 145 0
123 141 0
120 138 0
126 143 0
128 144 0
130 148 0
131 149 0
121 138 0
131 148 0
133 151 0
138 156 0
117 134 0
130 149 0
128 146 0
121 138 0
137 156 0
124 141 0
132 148 0
120 137 0
138 155 0
140 157 0
129 147 0
124 140 0
137 156 0
124 143 0
138 157 0
128 147 0
133 152 0
121 139 0
131 150 0
123 141 0
140 158 0
138 156 0
130 148 0
136 154 0
140 160 0
129 148 0
129 148 0
132 151 0
135 154 0
125 142 0
134 152 0
135 153 0
139 157 0
141 160 0
136 152 0
134 150 0
131 150 0
142 161 0
134 152 0
133 152 0
136 152 0
137 156 0
136 154 0
129 145 0
128 147 0
128 146 0
137 155 0
139 158 0
142 162 0
144 164 0
139 159 0
143 160 0
143 162 0
144 163 0
139 158 0
140 158 0
143 160 0
139 159 0
139 158 0
135 155 0
137 155 0
144 164 0
139 158 0
133 152 0
136 152 0
131 148 0
137 157 0
143 163 0
136 154 0
148 167 0
145 163 0
143 162 0
151 170 0
133 150 0
135 155 0
139 158 0
139 157 0
142 160 0
143 162 0
138 157 0
133 150 0
138 158 0
147 167 0
142 161 0
137 155 0
148 169 0
140 159 0
154 173 0
145 164 0
148 168 0
142 161 0
132 150 0
140 158 0
139 157 0
140 158 0
148 166 0
135 154 0
133 151 0
141 160 0
139 157 0
140 159 0
150 170 0
139 159 0
144 162 0
143 162 0
137 157 0
144 163 0
151 169 0
141 159 0
147 166 0
147 167 0
144 163 0
151 171 95
153 172 108
158 179 88
154 174 88
165 185 125
157 176 108
154 175 95
150 170 95
163 183 125
152 172 114
148 167 80
154 173 108
152 171 88
158 178 102
156 176 95
151 171 95
156 176 88
150 170 88
153 174 114
156 176 88
155 174 114
156 176 108
153 172 95
152 174 102
154 173 114
160 180 108
156 177 108
149 169 88
151 172 95
144 163 80
153 173 114
155 174 102
147 166 80
153 174 108
146 166 88
151 173 95
150 171 102
154 175 102
143 164 80
153 174 108
150 170 80
147 166 72
149 169 102
156 176 95
148 168 108
154 175 108
146 167 102
152 173 120
151 171 88
156 176 114
147 166 80
149 169 95
148 168 80
152 172 114
145 165 88
161 182 108
152 174 125
155 174 108
146 164 80
156 176 125
138 157 72
148 169 108
137 157 95
143 161 95
150 170 114
138 158 88
149 167 72
141 160 80
152 172 120
152 172 125
140 161 80
148 167 72
145 164 102
144 164 88
148 167 108
139 158 80
152 171 114
142 161 95
148 166 72
145 164 88
142 160 88
142 159 80
149 168 95
142 161 95
146 164 102
143 160 80
158 177 140
143 160 72
144 161 80
152 170 120
136 155 95
150 168 108
141 160 72
135 153 80
151 169 95
156 174 95
144 162 102
154 171 114
142 158 114
140 157 102
128 146 62
146 163 114
155 173 125
143 160 80
136 152 72
134 151 88
136 154 102
131 148 72
144 161 88
141 157 80
150 167 102
147 164 62
142 160 72
140 157 80
139 158 0
127 144 0
141 159 36
113 129 0
125 142 36
125 143 0
125 143 36
129 147 62
123 141 0
121 138 51
125 143 0
129 146 51
118 135 0
137 153 62
120 136 51
131 149 0
124 142 0
125 142 0
119 137 0
126 144 0
119 137 0
127 146 0
130 148 0
116 133 0
123 141 0
127 145 0
111 127 0
110 126 0
92 108 0
121 139 0
121 140 0
112 128 0
107 123 0
118 134 0
111 128 0
124 140 0
118 135 0
113 130 0
115 133 0
110 125 0
89 104 0
118 135 0
115 130 0
103 117 0
100 115 0
110 126 0
110 126 0
117 132 0
101 116 0
103 119 0
106 122 0
97 111 0
117 133 0
98 112 0
106 121 0
111 127 0
104 119 0
105 121 0
106 121 0
101 117 0
108 123 0
115 131 0
104 119 0
105 118 0
110 124 0
107 122 0
106 121 0
110 125 0
113 129 0
102 117 0
84 98 0
106 121 0
96 111 0
105 120 0
108 123 0
100 114 0
105 120 0
98 113 0
104 118 0
82 97 0
115 133 0
102 115 0
102 116 0
98 111 0
106 122 0
95 110 0
94 109 0
94 109 0
95 109 0
110 126 0
98 112 0
105 118 0
91 106 0
111 126 0
91 104 0
99 112 0
126 141 0
104 118 0
91 105 0
110 125 0
94 109 0
112 127 0
97 112 0
119 134 0
104 119 0
99 114 0
113 128 0
107 123 0
110 125 0
118 134 0
107 123 0
97 111 0
119 135 0
109 126 0
107 123 0
113 128 0
99 115 0
115 131 0
114 130 0
106 123 0
118 134 0
97 111 0
106 123 0
129 147 0
100 116 0
100 115 0
108 124 0
117 134 0
111 127 0
116 132 0
122 139 0
112 128 0
102 117 0
127 143 0
100 115 0
116 132 0
96 113 0
115 132 0
128 143 0
127 145 0
121 138 0
118 135 0
115 131 0
116 133 0
113 130 0
111 127 0
119 136 0
119 138 0
126 143 0
129 145 0
124 141 0
123 139 0
114 131 0
120 137 0
123 139 0
122 139 0
123 139 0
127 144 0
107 124 0
123 140 0
123 138 0
137 156 0
115 132 0
121 138 0
126 144 0
125 141 0
128 146 0
130 147 0
116 134 0
114 130 0
134 152 0
118 136 0
120 139 0
128 146 0
127 144 0
123 141 0
136 156 0
136 155 0
123 141 0
131 150 0
124 141 0
129 145 0
129 148 0
124 142 0
127 144 0
135 154 0
135 153 0
133 151 0
136 155 0
127 145 0
128 145 0
134 153 0
137 156 0
135 154 0
127 145 0
135 152 0
135 153 0
129 148 0
127 144 0
125 144 0
137 155 0
127 145 0
135 155 0
136 154 0
131 148 0
137 155 0
132 151 0
142 161 0
124 142 0
134 153 0
138 158 0
141 161 0
129 148 0
143 160 0
135 153 0
130 148 0
133 151 0
148 167 0
133 150 0
130 149 0
134 152 0
141 158 0
131 149 0
137 155 0
144 161 0
144 163 0
143 162 0
141 159 0
136 154 0
139 158 0
141 162 0
131 150 0
139 159 0
137 155 0
135 155 0
145 164 0
144 162 0
140 160 0
129 147 0
141 161 0
145 165 0
135 155 0
138 156 0
145 166 0
137 156 0
131 151 0
136 156 0
137 154 0
146 164 0
141 159 0
144 162 0
140 158 0
146 165 0
142 160 0
138 158 0
145 164 0
144 164 0
143 162 0
142 161 0
135 154 0
146 165 0
133 152 0
145 164 0
137 156 0
144 162 0
146 165 0
137 158 0
142 161 0
139 159 0
151 172 0
134 153 0
144 163 0
146 165 0
144 163 0
143 162 0
147 166 0
145 164 0
134 151 0
142 161 0
138 157 0
141 160 0
144 164 0
144 163 0
149 168 0
145 164 0
142 160 0
155 176 98
155 174 95
156 176 88
150 170 72
158 178 114
161 181 125
150 170 80
157 177 80
146 167 80
154 174 102
156 176 108
153 172 102
150 170 62
156 177 108
156 177 108
156 177 114
160 180 114
153 173 95
150 170 80
159 180 114
150 170 88
149 170 95
152 172 88
156 176 114
156 177 95
156 177 114
149 169 80
151 171 62
149 170 95
154 175 88
148 168 88
162 182 120
156 177 108
159 179 95
145 166 72
147 167 102
146 166 88
154 175 88
152 172 102
151 172 88
157 177 80
147 167 80
147 166 72
151 169 72
162 183 125
145 165 95
149 168 95
144 164 72
144 164 80
141 160 80
150 169 88
151 171 88
156 176 120
144 164 95
149 168 72
148 168 51
143 162 80
148 166 80
149 167 72
147 166 88
151 170 88
156 175 114
153 173 125
148 168 108
151 171 80
150 168 102
145 164 114
134 153 88
151 169 88
144 163 108
143 163 102
143 162 88
142 162 95
150 170 88
142 161 95
140 159 80
145 165 88
139 158 95
146 164 88
144 162 102
144 164 95
150 168 108
152 171 102
144 163 88
134 152 62
150 168 80
142 161 95
149 166 95
133 151 88
142 159 95
143 160 62
149 164 108
141 159 80
136 154 72
146 164 88
154 172 88
135 153 95
146 164 120
146 164 95
141 158 88
128 145 62
129 144 72
136 154 88
136 154 95
137 154 51
138 155 72
161 179 108
142 159 80
138 156 72
145 162 108
139 156 88
140 158 95
135 154 51
145 163 72
133 152 51
123 141 51
133 151 36
133 150 51
121 139 36
116 134 0
127 145 51
121 137 0
110 127 51
130 147 0
116 133 0
112 129 0
114 130 0
122 139 0
106 123 0
114 132 0
135 152 36
125 143 0
133 152 0
137 156 0
119 138 0
134 153 0
130 149 0
122 138 0
124 141 0
121 137 0
121 138 0
110 126 0
108 125 0
121 137 0
113 130 0
116 132 0
116 133 0
112 128 0
122 138 0
114 132 0
119 137 0
122 140 0
127 143 0
120 137 0
118 135 0
126 144 0
115 131 0
100 117 0
121 139 0
115 131 0
118 134 0
109 125 0
99 115 0
112 130 0
117 133 0
113 128 0
102 118 0
120 135 0
119 135 0
113 129 0
115 130 0
116 131 0
121 136 0
120 137 0
104 118 0
114 130 0
103 118 0
124 139 0
119 134 0
109 125 0
110 125 0
100 116 0
106 120 0
100 114 0
102 117 0
91 105 0
106 121 0
117 132 0
70 84 0
105 121 0
102 116 0
101 115 0
90 104 0
92 107 0
109 124 0
95 110 0
95 111 0
97 112 0
98 112 0
85 99 0
102 117 0
107 121 0
106 121 0
102 117 0
101 115 0
103 118 0
120 135 0
103 117 0
119 133 0
105 120 0
94 109 0
87 102 0
103 118 0
101 117 0
122 138 0
106 120 0
108 124 0
90 105 0
106 121 0
105 122 0
100 115 0
108 123 0
93 108 0
99 114 0
123 140 0
114 130 0
93 109 0
113 130 0
104 119 0
104 119 0
102 119 0
107 123 0
126 143 0
108 124 0
116 132 0
120 138 0
105 121 0
109 125 0
122 139 0
116 131 0
117 134 0
113 130 0
123 139 0
106 121 0
121 137 0
104 119 0
100 116 0
114 131 0
115 133 0
113 130 0
119 137 0
107 122 0
106 121 0
120 137 0
123 140 0
107 123 0
115 131 0
117 135 0
117 133 0
117 132 0
125 142 0
124 141 0
114 131 0
112 128 0
111 128 0
119 137 0
130 149 0
109 124 0
125 142 0
121 140 0
130 149 0
127 146 0
125 143 0
132 150 0
124 143 0
130 148 0
116 133 0
125 143 0
136 154 0
124 141 0
124 142 0
124 140 0
128 144 0
114 133 0
131 151 0
124 142 0
122 138 0
125 144 0
129 147 0
127 145 0
127 145 0
132 150 0
121 137 0
133 149 0
115 132 0
126 144 0
129 148 0
137 156 0
126 143 0
127 145 0
124 143 0
130 149 0
134 153 0
126 145 0
124 143 0
143 160 0
140 159 0
131 150 0
136 152 0
136 154 0
136 154 0
135 152 0
123 140 0
119 137 0
135 153 0
137 156 0
138 157 0
130 149 0
136 155 0
131 151 0
137 157 0
133 152 0
141 159 0
130 148 0
128 146 0
128 144 0
137 156 0
136 154 0
131 151 0
127 146 0
126 145 0
145 164 0
132 151 0
130 150 0
149 168 0
133 152 0
132 151 0
143 162 0
140 160 0
144 163 0
140 159 0
130 149 0
140 158 0
143 163 0
143 161 0
142 161 0
138 156 0
138 157 0
142 160 0
135 154 0
142 162 0
135 154 0
131 149 0
141 160 0
144 164 0
137 157 0
141 159 0
148 169 0
139 157 0
143 161 0
138 156 0
142 161 0
142 161 0
144 164 0
141 161 0
143 162 0
132 150 0
137 156 0
141 159 0
142 164 0
139 159 0
136 154 0
143 162 0
148 168 0
147 165 0
141 162 0
131 151 0
140 159 0
133 153 0
147 166 0
139 156 0
138 156 0
150 171 0
139 156 0
139 157 0
145 164 0
138 157 0
136 155 0
140 159 0
143 163 0
150 170 0
140 158 0
142 161 0
139 157 0
145 164 0
136 156 0
150 169 0
148 167 0
144 163 0
143 162 0
147 167 67
152 171 51
160 180 102
155 175 95
158 178 88
164 184 108
152 172 72
153 172 80
157 177 95
157 177 102
160 180 114
157 177 102
151 172 95
158 178 95
159 179 102
151 170 88
151 171 88
156 176 95
156 176 95
153 172 102
161 181 114
161 181 114
148 167 88
149 169 88
158 178 125
141 162 62
156 178 114
151 171 72
153 173 80
160 179 135
151 171 88
159 180 120
149 169 80
146 165 88
155 176 88
148 168 72
146 165 62
149 169 95
151 170 80
151 172 114
153 172 88
152 172 114
150 169 80
149 169 95
146 166 102
153 173 95
148 169 102
157 176 72
155 175 120
151 170 102
159 180 125
148 168 88
142 161 80
150 170 108
149 170 130
139 158 80
146 164 88
145 164 95
149 170 120
139 157 80
149 168 108
147 165 102
139 157 80
148 168 88
155 175 108
153 173 102
153 173 102
142 163 114
140 160 95
135 153 95
153 173 120
149 169 114
147 166 88
145 166 102
149 168 108
138 156 62
149 168 114
146 165 95
136 155 72
151 170 80
151 169 95
138 156 80
152 170 102
132 151 62
144 163 88
140 158 72
154 172 120
140 159 88
135 154 88
150 168 102
150 168 120
162 180 135
148 166 108
150 167 108
133 151 95
138 156 62
148 165 95
138 154 95
143 161 95
150 168 88
144 162 95
152 170 72
140 156 88
145 163 95
140 157 51
136 152 95
144 162 95
134 151 62
146 163 80
138 154 108
136 152 62
126 143 72
127 145 36
134 152 72
131 150 36
126 144 51
137 154 51
121 139 0
115 131 0
139 156 36
126 143 0
128 145 36
122 140 51
129 146 0
120 139 0
126 145 0
132 149 36
110 126 0
118 134 0
136 154 36
131 150 0
129 146 0
127 145 0
125 142 0
140 160 0
120 139 0
121 139 0
118 137 0
119 137 0
118 135 0
127 146 0
117 134 0
124 141 0
119 136 0
118 135 0
112 129 0
125 141 0
114 129 0
115 131 0
120 136 0
128 145 0
109 125 0
104 120 0
112 129 0
118 134 0
115 131 0
113 130 0
110 126 0
106 122 0
125 142 0
117 135 0
112 128 0
115 131 0
121 137 0
99 114 0
107 122 0
106 121 0
99 115 0
120 134 0
114 130 0
100 116 0
114 129 0
122 138 0
97 114 0
107 120 0
101 115 0
116 131 0
106 121 0
118 133 0
109 124 0
115 132 0
87 102 0
101 117 0
89 104 0
114 130 0
103 118 0
98 112 0
109 124 0
119 135 0
104 118 0
104 119 0
101 117 0
104 119 0
112 129 0
98 112 0
89 105 0
92 107 0
106 120 0
82 95 0
108 123 0
91 104 0
101 116 0
94 108 0
93 107 0
97 112 0
97 112 0
102 117 0
118 134 0
107 122 0
111 127 0
102 117 0
85 99 0
90 105 0
101 116 0
119 135 0
94 110 0
98 112 0
114 130 0
92 105 0
101 116 0
121 137 0
109 123 0
101 115 0
108 125 0
94 110 0
104 120 0
92 106 0
106 122 0
112 127 0
109 125 0
107 121 0
109 126 0
121 138 0
107 123 0
119 135 0
116 132 0
110 125 0
116 132 0
113 129 0
108 124 0
116 132 0
103 120 0
117 134 0
97 111 0
110 126 0
131 148 0
115 130 0
108 125 0
123 140 0
116 133 0
120 137 0
112 127 0
113 130 0
129 147 0
120 135 0
118 134 0
115 131 0
121 137 0
116 131 0
118 134 0
137 156 0
119 137 0
116 135 0
114 130 0
126 144 0
124 140 0
131 149 0
120 137 0
121 139 0
119 139 0
129 145 0
129 145 0
123 141 0
128 148 0
122 139 0
124 141 0
128 146 0
136 155 0
128 144 0
114 133 0
142 160 0
130 149 0
140 158 0
134 152 0
129 147 0
140 158 0
127 146 0
123 141 0
132 150 0
141 159 0
129 148 0
126 143 0
134 152 0
132 149 0
117 133 0
128 145 0
132 152 0
130 148 0
129 147 0
132 150 0
131 149 0
123 140 0
141 159 0
133 151 0
128 146 0
121 138 0
130 148 0
137 156 0
120 138 0
144 162 0
129 148 0
128 145 0
130 148 0
129 149 0
134 153 0
132 151 0
135 154 0
126 144 0
132 152 0
135 154 0
134 152 0
134 152 0
131 150 0
133 151 0
137 155 0
144 162 0
146 165 0
135 154 0
142 161 0
138 157 0
130 147 0
137 157 0
133 154 0
138 156 0
138 156 0
130 149 0
132 151 0
139 159 0
145 163 0
142 160 0
143 163 0
133 149 0
139 158 0
147 165 0
144 164 0
139 158 0
133 152 0
141 160 0
140 160 0
140 159 0
146 166 0
144 162 0
138 157 0
153 170 0
137 156 0
143 161 0
141 160 0
134 153 0
141 158 0
134 153 0
141 161 0
134 154 0
142 160 0
147 167 0
144 163 0
143 162 0
140 159 0
130 149 0
148 168 0
141 159 0
144 165 0
140 159 0
139 159 0
147 167 0
149 166 0
145 165 0
142 159 0
140 159 0
144 164 0
139 157 0
141 159 0
141 160 0
142 162 0
141 160 0
144 163 0
140 158 0
138 157 0
141 161 0
139 158 0
134 152 0
149 167 0
139 157 0
143 162 0
136 155 0
142 161 0
146 166 0
147 167 0
140 158 0
144 163 0
139 160 0
148 169 51
151 172 84
159 178 102
155 176 80
154 174 95
153 172 88
162 182 102
151 171 88
150 170 72
158 177 108
156 176 88
145 164 72
150 169 88
156 177 102
152 172 95
148 168 88
152 172 108
148 168 88
157 176 95
150 170 72
153 173 95
155 175 114
152 171 80
153 173 88
150 170 95
149 169 72
155 175 114
151 171 95
146 166 80
151 170 95
151 171 72
154 174 102
152 171 102
149 170 72
146 166 88
152 172 108
160 180 125
158 180 114
150 170 72
145 165 88
145 165 51
146 165 62
149 170 95
155 176 114
148 168 95
148 168 80
156 176 120
145 165 88
149 169 72
156 176 95
152 171 108
153 172 95
154 174 102
154 174 102
148 166 95
152 172 114
147 167 80
154 173 102
154 174 102
141 161 102
146 166 102
143 162 62
147 166 102
140 159 51
147 166 102
142 161 80
151 171 95
145 164 108
138 158 108
154 172 88
140 159 72
151 170 114
146 167 114
158 176 130
148 167 72
150 169 114
149 167 88
147 166 88
145 164 102
147 165 108
156 175 95
151 169 95
146 164 88
148 167 102
145 163 108
143 161 80
146 164 88
144 162 80
146 164 102
158 177 130
150 168 95
144 161 88
143 161 95
132 148 102
137 155 80
153 170 114
144 162 108
147 164 102
130 146 80
141 158 72
141 158 95
147 165 108
132 149 51
139 155 62
141 158 88
150 166 80
125 141 80
134 152 72
132 149 62
149 166 108
145 161 80
130 146 51
135 152 51
132 150 51
143 163 72
119 136 36
135 152 51
126 143 36
127 144 0
135 154 36
124 142 0
134 150 51
125 142 36
118 135 0
132 151 36
134 152 36
132 149 36
126 143 0
127 143 0
120 138 0
129 147 0
133 153 0
134 154 0
136 153 0
116 133 0
114 132 0
126 145 0
123 140 0
121 137 0
110 127 0
121 137 0
128 144 0
111 128 0
118 135 0
118 135 0
117 133 0
103 119 0
115 132 0
113 130 0
113 130 0
112 128 0
113 128 0
127 144 0
97 112 0
123 139 0
124 139 0
111 126 0
110 126 0
118 136 0
112 127 0
113 129 0
99 114 0
119 136 0
122 138 0
107 123 0
107 124 0
112 128 0
105 122 0
123 139 0
108 121 0
116 132 0
116 132 0
116 133 0
123 138 0
111 127 0
111 127 0
104 119 0
106 121 0
114 130 0
100 114 0
99 113 0
107 121 0
97 111 0
88 104 0
112 129 0
109 125 0
119 134 0
119 134 0
109 125 0
97 111 0
121 137 0
94 110 0
113 128 0
94 109 0
123 139 0
105 120 0
111 126 0
120 136 0
116 133 0
119 133 0
104 119 0
97 113 0
122 138 0
95 109 0
100 115 0
106 122 0
101 116 0
101 117 0
108 124 0
112 129 0
104 120 0
92 107 0
92 108 0
106 121 0
112 128 0
90 105 0
113 129 0
111 126 0
99 114 0
100 115 0
102 116 0
112 127 0
109 125 0
108 125 0
99 114 0
106 121 0
105 121 0
107 122 0
120 135 0
118 135 0
125 141 0
103 119 0
113 129 0
119 134 0
118 135 0
112 128 0
121 136 0
107 122 0
112 130 0
105 122 0
108 124 0
119 135 0
113 130 0
115 132 0
125 143 0
110 127 0
121 136 0
113 129 0
115 132 0
120 136 0
114 129 0
123 141 0
125 142 0
116 133 0
107 124 0
122 139 0
131 148 0
126 143 0
118 135 0
112 129 0
114 132 0
109 126 0
130 146 0
132 150 0
122 140 0
133 152 0
128 146 0
119 136 0
124 140 0
113 131 0
129 147 0
121 138 0
119 138 0
130 148 0
122 141 0
128 146 0
127 146 0
128 146 0
129 145 0
139 158 0
118 136 0
127 146 0
127 147 0
130 147 0
125 144 0
121 138 0
122 140 0
122 138 0
135 153 0
117 135 0
132 150 0
130 149 0
123 141 0
132 150 0
141 160 0
124 141 0
128 147 0
136 155 0
135 153 0
129 148 0
127 146 0
132 151 0
134 153 0
125 144 0
124 142 0
131 150 0
138 157 0
131 149 0
132 151 0
130 148 0
135 154 0
139 158 0
134 154 0
125 143 0
129 148 0
133 151 0
131 150 0
138 157 0
128 146 0
130 150 0
127 145 0
132 151 0
135 154 0
142 160 0
138 158 0
133 151 0
139 158 0
133 152 0
138 158 0
126 145 0
138 155 0
133 152 0
134 152 0
133 151 0
136 155 0
141 159 0
132 151 0
135 154 0
127 145 0
136 154 0
137 156 0
134 154 0
145 163 0
138 156 0
145 164 0
140 160 0
139 158 0
144 162 0
136 154 0
129 148 0
136 154 0
142 160 0
134 153 0
147 167 0
142 161 0
150 169 0
140 158 0
141 160 0
133 150 0
140 157 0
136 154 0
142 160 0
131 148 0
139 157 0
142 160 0
140 159 0
138 158 0
146 166 0
149 170 0
134 155 0
147 168 0
144 164 0
149 168 0
137 156 0
151 170 0
143 163 0
146 165 0
149 168 0
145 163 0
142 161 0
141 160 0
136 156 0
138 156 0
147 166 0
146 166 0
141 161 0
145 165 0
142 162 0
146 165 0
138 155 0
144 165 0
143 163 0
151 170 0
142 159 0
142 161 0
148 168 0
144 162 0
144 161 0
147 166 0
139 160 0
146 165 67
156 177 111
163 184 120
162 182 135
149 169 95
159 180 120
150 169 72
155 176 108
163 184 125
160 180 108
153 173 80
162 182 120
155 175 120
157 176 88
151 171 95
147 167 62
150 169 108
152 172 80
158 179 108
159 180 114
144 164 62
153 173 88
149 169 76
155 176 95
152 171 88
155 175 88
155 175 95
150 171 88
155 175 88
149 167 72
153 174 114
154 174 102
152 172 80
152 172 62
152 172 95
156 176 114
159 180 102
156 176 108
149 169 108
145 164 72
163 184 130
147 166 62
149 169 102
139 159 95
142 163 95
136 156 72
146 167 95
141 160 80
150 169 95
154 173 102
145 164 72
148 169 102
155 175 88
146 166 80
144 164 88
158 179 120
149 169 108
153 173 88
144 163 88
144 164 80
136 153 80
145 165 95
155 175 95
143 163 95
148 167 102
150 170 114
134 154 88
147 165 88
150 169 108
150 169 108
143 162 72
148 167 102
144 162 88
146 165 95
140 160 102
150 170 95
149 167 88
154 173 108
135 153 80
149 167 102
150 170 114
150 170 102
151 169 95
135 153 80
148 167 102
143 161 102
141 158 108
155 174 120
149 166 80
145 162 80
137 155 88
135 152 88
148 166 114
148 166 102
139 156 95
152 170 102
147 164 102
141 158 95
137 155 80
138 154 102
139 157 72
140 157 95
151 168 80
142 160 88
140 158 80
138 155 72
131 147 51
131 148 62
141 158 80
152 168 120
120 137 51
134 151 80
116 133 36
131 147 62
138 156 36
129 147 0
131 146 51
132 150 0
136 155 0
135 152 0
123 142 0
124 141 0
136 155 0
128 146 0
131 150 62
132 150 0
116 133 0
125 142 0
131 149 36
128 146 51
140 158 0
135 152 0
133 152 0
129 148 0
118 136 0
122 140 0
110 128 0
124 142 0
125 143 0
124 141 0
126 142 0
116 133 0
120 137 0
117 133 0
108 124 0
108 123 0
120 136 0
106 123 0
117 135 0
117 134 0
127 143 0
125 142 0
131 148 0
111 128 0
121 136 0
117 133 0
128 145 0
121 137 0
114 130 0
120 138 0
115 131 0
111 128 0
114 130 0
107 124 0
99 115 0
103 118 0
116 131 0
129 146 0
115 130 0
112 128 0
116 132 0
99 115 0
120 137 0
106 122 0
109 124 0
98 113 0
110 127 0
118 133 0
125 141 0
105 121 0
105 120 0
105 120 0
103 118 0
122 138 0
112 128 0
103 117 0
109 125 0
111 127 0
109 124 0
105 120 0
116 131 0
107 123 0
108 124 0
115 131 0
103 118 0
110 125 0
117 133 0
118 133 0
110 125 0
114 129 0
109 125 0
117 132 0
117 132 0
108 122 0
92 107 0
95 110 0
103 119 0
94 108 0
107 122 0
106 121 0
117 133 0
97 113 0
98 113 0
111 128 0
106 121 0
109 125 0
108 123 0
113 129 0
124 141 0
113 128 0
112 127 0
97 112 0
123 140 0
111 127 0
95 110 0
117 132 0
102 117 0
114 130 0
109 124 0
103 118 0
99 115 0
111 127 0
110 126 0
106 121 0
100 115 0
101 116 0
114 129 0
103 119 0
120 137 0
125 143 0
105 122 0
115 132 0
118 134 0
111 128 0
113 129 0
107 123 0
104 120 0
117 133 0
117 134 0
117 133 0
112 126 0
124 140 0
116 133 0
112 127 0
133 150 0
124 141 0
120 138 0
120 137 0
123 139 0
118 135 0
122 140 0
120 136 0
113 129 0
119 136 0
122 139 0
118 136 0
116 134 0
121 138 0
128 147 0
121 138 0
114 132 0
115 131 0
136 154 0
118 134 0
122 141 0
126 145 0
125 142 0
129 147 0
119 136 0
140 158 0
118 137 0
129 148 0
127 144 0
128 146 0
119 136 0
126 144 0
124 142 0
128 146 0
129 146 0
131 149 0
116 133 0
133 150 0
126 144 0
122 140 0
132 151 0
130 147 0
130 148 0
139 157 0
129 147 0
137 156 0
136 155 0
134 153 0
124 142 0
135 154 0
123 141 0
138 158 0
125 143 0
139 159 0
126 146 0
140 159 0
146 166 0
134 153 0
134 152 0
142 161 0
138 157 0
137 156 0
138 155 0
136 156 0
132 149 0
132 151 0
138 157 0
136 154 0
139 159 0
137 156 0
142 161 0
137 155 0
139 159 0
135 153 0
136 154 0
140 160 0
129 148 0
140 160 0
133 152 0
139 158 0
136 154 0
133 152 0
135 154 0
139 158 0
140 161 0
138 155 0
145 166 0
142 163 0
145 164 0
140 158 0
142 161 0
139 160 0
130 148 0
141 159 0
135 154 0
136 156 0
137 156 0
132 149 0
142 160 0
154 173 0
144 163 0
138 154 0
141 161 0
144 164 0
132 150 0
136 154 0
138 158 0
137 155 0
143 162 0
144 164 0
138 158 0
144 163 0
133 150 0
136 154 0
142 161 0
143 162 0
140 160 0
136 154 0
140 158 0
146 164 0
142 162 0
141 159 0
137 156 0
145 164 0
147 166 0
142 162 0
142 161 0
135 155 0
126 144 0
139 157 0
148 168 0
148 168 0
135 153 0
141 160 0
151 170 0
142 162 0
138 157 0
145 163 0
140 159 0
147 166 0
142 160 0
142 161 0
137 157 0
147 166 0
143 162 0
147 167 0
148 168 72
156 176 127
158 178 125
155 175 95
153 173 108
158 178 125
158 178 108
153 172 72
148 168 80
141 161 51
158 178 114
153 174 88
150 171 72
156 176 120
152 172 88
151 170 95
159 179 114
150 171 95
152 173 108
157 178 102
146 166 88
161 180 88
152 171 88
152 173 88
152 172 108
151 170 88
154 174 95
149 168 88
155 175 108
156 177 114
154 173 102
147 168 80
156 175 108
149 170 88
144 163 72
156 174 62
153 174 130
155 174 80
155 175 102
145 164 72
157 176 95
152 171 120
150 170 95
156 177 102
150 169 95
156 178 114
153 172 95
155 174 95
148 168 95
142 161 80
149 168 95
138 159 95
147 167 95
148 168 80
133 152 72
154 174 114
146 165 62
150 172 114
141 159 62
144 163 102
151 170 95
147 165 80
137 156 80
147 166 95
146 167 120
139 157 62
143 163 95
138 157 62
153 173 120
148 166 102
149 168 102
153 173 114
145 163 80
150 171 125
149 168 114
144 163 62
144 164 102
160 178 114
144 161 80
158 175 114
142 160 95
145 165 108
145 162 114
129 147 72
144 163 95
148 167 125
156 175 102
142 160 88
138 156 80
143 159 95
144 162 108
154 173 88
147 166 95
146 164 88
154 171 102
146 164 80
150 168 88
144 161 95
145 163 95
154 172 108
147 166 72
157 174 120
146 164 102
153 171 108
138 156 0
128 145 36
139 156 95
146 163 88
148 165 80
133 150 88
144 162 72
133 149 72
131 149 36
129 146 51
127 145 0
126 142 72
127 146 36
132 150 36
129 147 36
119 137 0
123 140 51
111 129 0
130 147 51
127 145 36
116 133 0
121 139 36
128 147 36
115 133 0
124 141 0
132 149 51
128 147 0
140 159 0
127 146 0
129 147 0
141 160 0
139 159 0
120 138 0
114 130 0
131 149 0
123 141 0
120 138 0
127 146 0
123 141 0
113 130 0
109 126 0
116 133 0
120 137 0
113 130 0
122 140 0
121 137 0
113 129 0
102 116 0
108 124 0
120 138 0
121 138 0
116 132 0
110 127 0
114 130 0
110 126 0
100 117 0
110 125 0
108 125 0
103 119 0
117 132 0
124 142 0
110 126 0
110 126 0
127 144 0
125 142 0
113 129 0
116 133 0
112 128 0
108 123 0
121 138 0
108 125 0
115 131 0
119 136 0
114 131 0
126 144 0
113 128 0
111 126 0
112 127 0
99 115 0
98 113 0
107 123 0
111 127 0
109 124 0
107 122 0
105 121 0
109 124 0
89 103 0
129 146 0
114 130 0
106 121 0
112 128 0
102 117 0
115 131 0
106 120 0
100 116 0
109 126 0
119 136 0
115 130 0
106 122 0
116 134 0
111 126 0
103 118 0
115 131 0
102 118 0
116 131 0
114 130 0
128 146 0
107 121 0
115 132 0
118 134 0
101 116 0
116 132 0
116 132 0
108 124 0
116 130 0
106 121 0
107 123 0
98 113 0
103 119 0
110 126 0
115 131 0
120 137 0
115 132 0
112 128 0
106 121 0
115 131 0
119 135 0
96 111 0
117 133 0
110 126 0
111 127 0
113 129 0
135 152 0
112 130 0
122 139 0
132 149 0
112 129 0
122 138 0
112 130 0
114 131 0
108 124 0
117 134 0
122 138 0
124 143 0
130 147 0
120 139 0
123 139 0
123 140 0
128 145 0
123 141 0
126 144 0
122 139 0
127 144 0
136 155 0
112 130 0
120 138 0
113 131 0
121 138 0
128 145 0
129 147 0
123 141 0
123 141 0
130 149 0
107 124 0
123 141 0
126 144 0
119 136 0
122 140 0
112 130 0
140 159 0
130 149 0
138 155 0
117 134 0
123 140 0
123 141 0
115 132 0
120 137 0
135 154 0
134 152 0
126 143 0
133 152 0
127 146 0
131 148 0
137 156 0
132 148 0
125 142 0
129 146 0
125 145 0
138 158 0
120 138 0
132 150 0
121 137 0
134 154 0
130 149 0
143 162 0
130 148 0
136 155 0
128 148 0
133 152 0
133 152 0
136 154 0
143 161 0
136 155 0
132 151 0
141 160 0
132 149 0
141 158 0
135 154 0
141 158 0
129 147 0
129 147 0
124 144 0
152 170 0
133 152 0
140 158 0
133 151 0
144 161 0
122 139 0
140 160 0
135 154 0
137 156 0
136 152 0
145 164 0
136 155 0
134 152 0
126 144 0
139 157 0
143 163 0
139 157 0
143 161 0
139 156 0
146 164 0
141 161 0
140 160 0
141 160 0
141 160 0
131 150 0
138 157 0
136 155 0
139 159 0
140 158 0
139 158 0
141 159 0
136 156 0
136 156 0
146 166 0
141 160 0
139 159 0
139 158 0
139 157 0
139 157 0
141 160 0
139 157 0
142 161 0
138 156 0
138 156 0
140 159 0
143 161 0
141 160 0
144 163 0
138 157 0
143 161 0
141 161 0
145 164 0
138 157 0
143 161 0
146 165 0
143 162 0
145 165 0
146 165 0
136 155 0
141 160 0
141 161 0
149 168 0
137 157 0
142 161 0
149 168 0
146 167 0
142 160 0
142 160 0
141 160 0
145 165 0
145 163 0
142 162 0
146 165 0
143 162 0
147 166 0
139 159 0
139 159 0
142 162 0
140 159 0
146 166 0
148 167 0
140 159 0
138 158 0
141 161 0
156 175 95
157 178 121
150 169 88
143 164 51
154 174 88
153 173 80
154 174 102
155 175 80
149 169 80
157 177 95
152 172 62
158 177 102
144 163 62
160 180 108
147 168 88
148 167 72
152 172 88
148 169 80
155 175 108
159 179 72
147 167 88
149 168 62
151 172 102
136 155 51
150 171 88
154 174 80
150 170 102
150 171 80
145 166 88
150 171 114
154 174 102
143 162 72
153 173 88
156 176 108
148 167 80
142 161 51
154 173 108
164 184 135
153 174 95
146 164 72
152 172 102
154 173 95
146 165 80
148 167 102
150 170 88
157 178 108
149 168 80
151 170 95
153 172 88
147 168 72
146 164 62
143 162 88
156 176 120
155 175 108
157 178 114
149 168 62
142 162 80
150 169 95
143 163 95
146 164 88
140 160 88
150 169 72
147 166 72
152 171 80
139 158 72
152 171 102
155 174 108
157 176 108
157 177 102
149 167 102
148 167 108
157 176 114
140 160 72
145 164 95
145 165 108
153 172 114
149 168 88
148 167 95
147 167 114
155 174 108
152 170 108
136 155 72
141 158 88
155 173 114
145 164 102
151 171 72
151 169 120
150 166 114
142 159 102
150 168 108
139 155 88
145 162 95
150 168 120
140 156 102
150 168 108
143 162 80
137 155 62
150 168 114
141 160 88
142 159 88
128 146 62
142 159 72
133 151 72
147 164 80
141 158 80
148 165 95
145 161 95
138 154 80
149 165 108
135 152 51
137 156 51
141 159 51
128 147 36
131 149 36
136 153 51
119 137 36
137 154 36
126 143 0
127 145 0
120 138 51
131 150 0
139 157 0
133 151 51
121 137 0
116 134 36
131 148 0
126 143 51
129 148 36
128 147 36
133 152 0
128 146 0
129 149 0
135 154 0
126 144 0
133 152 0
135 154 0
144 163 0
129 146 0
126 142 0
122 141 0
117 134 0
123 142 0
111 127 0
114 130 0
122 139 0
97 113 0
115 132 0
118 136 0
114 131 0
128 145 0
120 138 0
113 129 0
129 146 0
117 135 0
130 147 0
120 137 0
122 139 0
123 140 0
126 144 0
132 149 0
124 141 0
107 123 0
119 136 0
119 134 0
113 130 0
106 123 0
111 126 0
122 139 0
121 137 0
120 137 0
102 118 0
107 123 0
110 126 0
118 136 0
113 128 0
108 123 0
100 115 0
110 127 0
117 133 0
117 132 0
105 121 0
110 126 0
121 138 0
121 137 0
115 132 0
111 128 0
119 136 0
114 130 0
100 115 0
117 133 0
115 131 0
110 126 0
112 127 0
124 142 0
111 128 0
118 135 0
115 131 0
119 137 0
93 108 0
98 115 0
114 130 0
107 123 0
129 145 0
110 126 0
118 135 0
115 129 0
97 111 0
97 112 0
125 141 0
115 131 0
121 137 0
123 138 0
111 127 0
114 131 0
109 125 0
105 120 0
103 119 0
117 133 0
109 124 0
113 128 0
106 122 0
109 124 0
108 122 0
125 142 0
112 128 0
110 124 0
103 119 0
104 120 0
107 124 0
110 127 0
108 124 0
101 117 0
109 125 0
116 133 0
129 146 0
120 137 0
112 129 0
104 119 0
116 133 0
109 124 0
119 137 0
123 140 0
118 134 0
113 130 0
94 110 0
112 128 0
109 126 0
118 137 0
117 133 0
134 152 0
130 146 0
125 142 0
116 135 0
122 140 0
126 143 0
123 140 0
119 137 0
119 137 0
124 141 0
113 130 0
125 144 0
114 131 0
138 156 0
136 154 0
127 145 0
132 150 0
118 135 0
122 139 0
120 137 0
117 134 0
124 142 0
127 145 0
114 130 0
124 142 0
128 145 0
136 153 0
127 144 0
126 143 0
131 151 0
133 151 0
136 154 0
126 144 0
138 157 0
129 147 0
125 144 0
127 144 0
130 149 0
131 150 0
120 138 0
128 146 0
124 142 0
123 141 0
136 154 0
123 143 0
127 144 0
122 141 0
128 148 0
124 142 0
138 158 0
135 154 0
133 150 0
129 148 0
125 145 0
126 145 0
133 151 0
139 156 0
139 157 0
123 142 0
140 159 0
131 149 0
133 152 0
131 149 0
126 143 0
133 151 0
140 159 0
135 154 0
139 158 0
143 162 0
138 157 0
143 163 0
136 155 0
133 152 0
142 160 0
142 160 0
135 153 0
137 156 0
140 159 0
131 150 0
139 158 0
141 160 0
141 161 0
136 155 0
145 163 0
144 163 0
138 157 0
138 158 0
124 144 0
144 164 0
136 155 0
138 156 0
133 150 0
137 155 0
140 160 0
139 156 0
136 154 0
140 158 0
139 157 0
140 160 0
142 160 0
135 154 0
143 163 0
138 156 0
143 163 0
150 168 0
142 162 0
137 155 0
143 163 0
155 174 0
142 158 0
151 169 0
140 158 0
135 155 0
154 175 0
141 161 0
144 162 0
150 170 0
144 165 0
143 161 0
133 151 0
140 159 0
140 159 0
144 163 0
142 160 0
143 163 0
143 162 0
138 157 0
141 159 0
138 157 0
141 162 0
143 162 0
143 164 0
138 157 0
145 165 0
147 166 0
137 156 0
142 161 0
137 156 0
143 163 0
141 160 0
143 163 0
137 156 0
136 153 0
146 166 0
141 161 0
143 162 0
145 164 0
146 164 0
141 159 0
141 161 0
141 161 0
147 166 84
149 169 84
150 170 80
153 173 80
158 177 102
161 182 108
153 173 88
153 173 114
155 175 108
153 173 102
158 178 102
158 178 102
163 182 120
150 170 62
156 176 102
147 167 62
156 175 114
157 177 95
145 165 95
160 180 120
162 181 120
150 170 108
145 165 80
150 170 88
154 174 95
159 178 88
158 177 95
158 177 102
158 180 108
149 169 102
152 171 72
158 178 95
151 171 95
151 170 80
155 176 130
150 171 114
152 172 95
155 175 120
149 168 95
141 160 72
147 167 95
146 167 95
151 173 88
151 170 88
154 174 108
142 161 72
152 173 125
153 174 88
149 168 88
151 171 125
154 174 108
160 181 130
145 166 114
153 171 72
144 163 62
149 169 102
146 164 95
143 162 72
153 171 80
148 167 95
139 158 62
144 163 88
145 164 62
144 162 95
140 161 108
145 163 95
140 158 88
149 168 88
151 168 95
162 180 130
135 154 80
137 155 88
152 172 95
147 165 88
146 164 80
151 169 88
141 159 88
142 161 72
142 160 62
149 168 102
136 154 72
147 164 108
149 169 102
143 161 95
145 163 102
146 163 95
145 162 80
150 168 102
147 164 120
151 169 80
153 171 102
134 151 88
155 173 108
147 164 88
141 160 72
155 174 102
150 169 95
137 156 62
143 160 102
151 168 88
141 158 72
127 145 36
150 166 95
138 156 62
137 154 80
134 151 62
138 156 62
141 159 36
131 149 36
143 159 88
133 151 62
128 146 36
142 160 62
127 143 51
130 148 36
136 153 36
126 143 36
130 149 36
131 149 51
132 150 51
138 156 51
129 147 36
127 145 36
133 150 62
124 142 36
126 142 51
131 149 51
120 137 0
127 145 0
122 139 36
141 161 0
125 145 0
127 145 0
129 147 0
137 156 0
124 143 0
131 149 0
136 155 0
123 140 0
120 138 0
126 143 0
115 132 0
124 140 0
133 152 0
110 126 0
115 132 0
126 143 0
123 140 0
118 135 0
134 152 0
120 136 0
118 135 0
133 150 0
132 150 0
112 129 0
114 130 0
115 131 0
114 131 0
111 126 0
100 117 0
116 133 0
113 130 0
127 143 0
117 134 0
111 129 0
110 127 0
111 128 0
119 135 0
108 124 0
115 133 0
113 129 0
141 158 0
119 135 0
113 129 0
112 130 0
106 123 0
108 124 0
115 133 0
115 132 0
108 123 0
111 126 0
120 136 0
111 127 0
121 137 0
117 134 0
110 126 0
121 136 0
103 120 0
115 131 0
121 138 0
109 125 0
110 126 0
117 134 0
105 120 0
122 139 0
104 121 0
117 133 0
106 123 0
115 130 0
103 117 0
104 119 0
104 119 0
106 123 0
104 121 0
105 121 0
107 123 0
118 135 0
100 115 0
123 140 0
110 126 0
115 131 0
110 126 0
129 147 0
103 119 0
112 128 0
102 116 0
117 133 0
113 128 0
80 95 0
121 137 0
105 121 0
102 118 0
113 128 0
114 130 0
123 140 0
116 132 0
123 139 0
115 131 0
106 122 0
103 119 0
98 114 0
105 120 0
119 138 0
107 123 0
126 144 0
117 133 0
111 128 0
121 137 0
133 151 0
107 124 0
126 142 0
107 122 0
109 124 0
117 134 0
126 143 0
119 137 0
123 140 0
124 141 0
117 133 0
130 148 0
121 139 0
105 122 0
109 127 0
127 146 0
121 137 0
134 152 0
126 144 0
108 125 0
129 146 0
122 139 0
129 146 0
135 152 0
126 142 0
119 137 0
125 143 0
120 138 0
130 149 0
127 146 0
118 134 0
117 135 0
121 138 0
136 155 0
121 139 0
111 127 0
138 156 0
129 146 0
133 152 0
127 147 0
124 140 0
133 152 0
129 146 0
134 152 0
136 153 0
128 145 0
113 132 0
132 149 0
132 151 0
135 153 0
126 145 0
133 152 0
129 148 0
131 149 0
129 147 0
128 146 0
131 148 0
121 139 0
130 150 0
129 146 0
139 158 0
128 146 0
140 159 0
132 152 0
123 140 0
134 152 0
131 149 0
141 160 0
143 162 0
134 152 0
135 154 0
130 148 0
132 150 0
136 154 0
129 148 0
135 155 0
134 152 0
129 146 0
139 158 0
136 153 0
131 149 0
138 157 0
138 157 0
135 155 0
139 157 0
142 161 0
129 148 0
129 147 0
144 163 0
137 156 0
136 155 0
139 158 0
142 161 0
133 153 0
136 155 0
133 153 0
135 153 0
127 145 0
137 154 0
134 152 0
131 149 0
140 160 0
141 160 0
129 150 0
134 153 0
140 160 0
137 156 0
138 158 0
139 158 0
143 162 0
140 160 0
139 158 0
141 160 0
140 159 0
146 166 0
149 169 0
140 157 0
140 159 0
134 153 0
144 164 0
148 168 0
145 164 0
134 154 0
149 168 0
143 161 0
141 160 0
142 163 0
146 164 0
142 161 0
142 161 0
143 163 0
150 170 0
144 164 0
149 168 0
149 168 0
141 160 0
145 164 0
136 156 0
134 153 0
143 162 0
136 154 0
144 163 0
146 164 0
138 156 0
150 169 0
144 164 0
139 159 0
136 155 0
140 159 0
145 163 0
147 167 0
142 162 0
140 159 0
147 166 0
143 163 0
148 167 0
145 165 0
142 161 0
151 170 0
140 160 0
135 155 0
144 163 0
