P3
400 225
255
174 198 0
174 197 0
173 196 0
173 197 0
176 198 0
173 196 0
172 196 0
174 198 0
172 195 0
175 198 0
173 197 0
175 198 0
175 198 0
172 196 0
174 197 0
173 197 0
174 198 0
172 197 0
175 198 0
176 198 0
175 198 0
173 197 0
173 197 0
169 193 0
174 198 0
172 197 0
176 199 0
174 197 0
173 196 0
173 196 0
175 198 0
174 198 0
176 199 0
171 195 0
175 198 0
175 197 0
175 198 0
174 198 0
176 199 0
176 198 0
173 197 0
174 198 0
174 198 0
175 198 0
175 198 0
175 198 0
177 199 0
174 197 0
172 197 0
174 197 0
173 197 0
173 196 0
174 198 0
170 194 0
175 197 0
176 198 0
172 196 0
174 197 0
175 198 0
172 197 0
172 197 0
173 197 0
176 198 0
173 196 0
173 197 0
173 197 0
172 197 0
174 197 0
175 198 0
171 195 0
176 198 0
173 195 0
175 198 0
172 196 0
172 196 0
174 198 0
172 197 0
176 198 0
176 199 0
173 197 0
176 198 0
171 195 0
174 197 0
171 196 0
170 196 0
175 198 0
175 198 0
172 195 0
172 196 0
175 198 0
173 197 0
174 197 0
173 196 0
173 197 0
172 196 0
176 199 0
174 198 0
176 199 0
171 195 0
174 198 0
174 197 0
173 197 0
173 197 0
171 194 0
173 197 0
172 196 0
173 197 0
172 195 0
172 196 0
176 198 0
172 196 0
172 196 0
173 197 0
173 197 0
175 198 0
175 198 0
174 198 0
173 196 0
172 196 0
171 195 0
176 199 0
174 198 0
172 195 0
175 198 0
174 198 0
173 196 0
175 198 0
174 198 0
174 198 0
172 196 0
173 197 0
172 196 0
177 199 0
175 198 0
175 196 0
170 195 0
174 198 0
170 193 0
176 199 0
172 196 0
174 198 0
174 197 0
172 197 0
169 191 0
172 196 0
176 199 0
172 195 0
175 198 0
173 196 0
174 197 0
171 195 0
175 197 0
175 197 0
173 197 0
172 196 0
174 197 0
174 197 0
174 196 0
172 197 0
172 197 0
174 197 0
172 195 0
173 197 0
173 197 0
173 197 0
170 194 0
174 198 0
173 197 0
175 198 0
171 194 0
175 198 0
175 198 0
172 195 0
173 197 0
176 199 0
172 195 0
174 197 0
172 196 0
175 197 0
176 198 0
174 198 0
173 197 0
169 194 0
174 197 0
174 197 0
172 196 0
173 196 0
174 197 0
173 197 0
172 197 0
173 197 0
169 193 0
173 197 0
175 197 0
174 197 0
173 196 0
173 197 0
174 196 0
171 195 0
174 197 0
173 197 0
172 195 0
171 195 0
172 196 0
170 194 0
177 199 0
173 196 0
174 198 0
176 199 0
172 195 0
174 197 0
174 198 0
175 198 0
173 196 0
171 195 0
173 196 0
172 196 0
172 196 0
171 195 0
175 198 0
174 198 0
172 195 0
172 196 0
174 197 0
172 194 0
175 197 0
170 194 0
174 197 0
172 197 0
174 197 0
176 199 0
175 198 0
176 199 0
171 195 0
173 197 0
175 198 0
173 196 0
171 195 0
174 197 0
174 198 0
175 197 0
174 197 0
174 198 0
174 197 0
176 198 0
173 194 0
173 195 0
170 195 0
154 167 39
137 131 70
125 119 64
138 132 75
143 138 75
155 148 82
156 149 88
156 148 82
146 141 87
146 141 79
146 140 82
151 145 87
151 146 91
149 143 82
165 159 99
161 155 94
159 153 95
165 160 104
158 153 97
157 152 97
160 155 97
157 153 95
164 158 98
160 155 99
160 156 99
169 164 104
155 151 98
157 152 97
156 152 98
150 147 95
160 158 102
159 155 101
171 166 109
155 152 101
168 164 106
160 155 101
158 154 102
164 161 108
156 153 100
172 169 112
165 161 106
164 161 107
164 160 106
158 156 104
165 160 106
164 162 109
167 163 108
166 161 106
166 164 109
167 164 108
165 162 108
165 162 108
162 160 108
163 160 107
164 161 107
163 159 106
162 159 106
156 153 102
159 156 104
161 158 106
167 165 110
156 154 103
161 158 106
171 168 112
168 164 109
165 162 108
156 154 103
164 161 107
162 161 108
165 163 109
164 162 108
165 162 108
154 152 102
167 165 110
164 162 108
168 166 110
167 165 110
167 165 110
165 163 109
163 161 108
158 155 103
167 165 110
162 159 106
165 162 108
161 158 106
159 156 103
171 168 112
168 164 109
165 162 107
163 158 104
161 158 106
155 153 101
170 167 112
163 160 107
165 161 107
159 155 103
165 163 109
163 161 107
156 154 103
153 149 99
163 158 104
162 157 102
153 149 98
168 164 107
163 158 104
158 153 101
166 161 106
160 156 102
158 154 102
153 148 97
161 155 99
158 154 98
149 145 93
157 153 94
145 140 87
160 155 101
149 146 91
155 149 95
157 151 93
163 156 98
155 149 93
153 145 87
151 145 90
149 142 85
141 135 82
158 152 91
136 132 79
142 135 79
146 139 80
145 139 84
131 126 72
131 133 53
172 195 0
173 195 0
175 198 0
175 198 0
173 197 0
175 198 0
173 197 0
174 197 0
172 196 0
172 195 0
173 197 0
174 197 0
173 197 0
176 199 0
172 197 0
173 197 0
174 198 0
174 197 0
174 198 0
171 196 0
175 197 0
172 196 0
173 196 0
175 198 0
171 194 0
173 197 0
175 198 0
174 197 0
172 197 0
174 198 0
173 197 0
172 196 0
173 197 0
173 197 0
174 198 0
172 197 0
177 199 0
173 196 0
174 198 0
170 195 0
175 197 0
174 197 0
176 198 0
175 198 0
173 196 0
173 197 0
173 196 0
173 197 0
173 197 0
175 198 0
173 197 0
175 198 0
175 197 0
173 197 0
171 193 0
174 197 0
176 198 0
176 199 0
174 198 0
169 193 0
172 196 0
168 191 0
173 197 0
176 198 0
174 197 0
174 197 0
176 199 0
175 198 0
174 197 0
175 197 0
173 197 0
174 197 0
176 199 0
175 198 0
174 198 0
174 197 0
173 197 0
177 199 0
173 196 0
176 198 0
172 196 0
175 198 0
176 199 0
172 196 0
175 198 0
176 198 0
175 198 0
175 197 0
172 196 0
175 198 0
174 198 0
171 196 0
174 198 0
175 198 0
174 197 0
173 196 0
171 195 0
174 197 0
175 198 0
173 197 0
175 198 0
171 195 0
173 197 0
176 199 0
172 197 0
176 199 0
171 195 0
171 194 0
174 198 0
171 195 0
172 197 0
175 197 0
173 197 0
174 198 0
172 196 0
172 195 0
176 198 0
174 198 0
172 196 0
172 196 0
173 197 0
174 197 0
175 198 0
174 198 0
174 198 0
172 196 0
171 195 0
172 196 0
174 197 0
173 197 0
173 197 0
174 197 0
175 198 0
174 197 0
171 195 0
172 196 0
174 198 0
173 196 0
170 194 0
171 194 0
173 196 0
177 199 0
174 197 0
172 197 0
173 197 0
174 197 0
171 195 0
175 198 0
172 196 0
173 197 0
173 196 0
173 195 0
173 197 0
174 196 0
175 198 0
170 195 0
172 197 0
174 197 0
172 197 0
172 195 0
174 197 0
173 197 0
174 198 0
173 195 0
175 198 0
171 195 0
174 196 0
174 198 0
173 197 0
174 197 0
174 198 0
170 194 0
176 198 0
174 197 0
173 197 0
174 197 0
170 196 0
171 194 0
175 198 0
174 197 0
176 199 0
174 197 0
170 193 0
171 195 0
173 197 0
173 197 0
168 192 0
172 197 0
173 196 0
174 196 0
176 199 0
173 196 0
173 197 0
175 198 0
174 197 0
173 197 0
172 196 0
169 193 0
175 198 0
176 198 0
170 194 0
177 199 0
172 196 0
173 195 0
174 197 0
177 199 0
172 195 0
175 198 0
173 196 0
171 194 0
172 196 0
171 194 0
172 194 0
175 197 0
170 194 0
175 198 0
175 198 0
176 198 0
171 195 0
172 196 0
172 196 0
173 196 0
171 194 0
175 198 0
176 198 0
174 198 0
175 198 0
171 195 0
172 195 0
173 197 0
171 194 0
172 195 0
176 198 0
174 196 0
174 198 0
175 198 0
173 197 0
174 198 0
173 197 0
176 198 0
175 198 0
175 197 0
174 197 0
173 197 0
175 198 0
172 193 0
173 196 0
174 197 0
173 197 0
172 195 0
173 196 0
172 195 0
174 197 0
172 196 0
173 196 0
172 196 0
175 198 0
169 193 0
175 197 0
174 197 0
172 195 0
173 196 0
176 198 0
173 195 0
173 195 0
173 195 0
174 197 0
169 185 42
144 139 68
147 141 80
137 131 70
139 134 84
133 127 68
151 145 77
148 144 90
138 134 80
141 136 82
151 146 88
144 139 82
152 148 90
136 130 79
150 146 87
152 146 91
137 132 79
166 161 106
155 151 96
171 164 103
158 152 93
160 154 95
148 144 94
153 148 95
154 148 95
172 167 109
166 161 103
156 154 99
160 156 104
153 150 97
157 153 99
174 169 110
170 165 107
160 157 102
173 169 112
165 161 103
146 144 90
162 159 105
164 160 103
167 163 109
170 165 109
166 162 107
162 159 104
164 160 103
162 159 106
167 164 109
170 166 109
167 164 109
164 161 107
164 162 107
159 156 104
166 163 108
155 153 102
171 169 113
163 160 107
166 163 108
163 161 108
173 170 113
170 166 110
163 161 107
153 151 101
160 159 108
166 164 109
163 160 107
163 161 108
165 162 108
170 169 113
158 156 104
168 166 110
166 164 109
168 166 110
167 164 109
163 160 107
160 158 106
168 166 110
167 165 110
162 160 107
170 165 109
155 153 102
164 161 107
167 165 110
165 162 108
166 163 108
167 163 108
162 159 106
158 156 104
167 163 108
162 160 107
164 160 106
168 165 109
166 162 107
160 157 104
163 159 106
161 157 104
157 153 102
151 149 98
159 157 104
157 152 99
161 158 106
156 153 102
163 160 106
153 151 99
160 157 104
149 146 95
158 155 102
159 156 103
150 145 95
165 161 104
165 161 106
161 156 101
168 163 104
160 155 102
160 157 102
161 156 99
156 151 95
159 154 99
151 147 91
159 154 102
157 152 97
151 145 91
163 158 98
155 150 95
138 134 82
156 151 91
143 139 80
145 140 87
134 130 72
141 138 85
144 138 80
135 130 84
151 145 85
140 135 68
112 107 58
144 152 45
172 197 0
173 197 0
175 198 0
174 198 0
171 194 0
172 196 0
170 193 0
172 194 0
175 198 0
174 198 0
175 198 0
174 198 0
173 197 0
175 197 0
174 197 0
173 197 0
176 199 0
173 196 0
175 198 0
173 196 0
175 197 0
175 198 0
170 195 0
173 196 0
174 197 0
174 198 0
175 198 0
175 198 0
170 193 0
175 198 0
172 195 0
174 198 0
176 198 0
174 198 0
175 198 0
173 197 0
171 196 0
176 199 0
173 196 0
172 197 0
173 196 0
175 198 0
172 196 0
174 197 0
173 197 0
174 197 0
174 197 0
174 198 0
177 199 0
174 198 0
177 199 0
172 197 0
172 195 0
174 197 0
174 198 0
175 198 0
174 198 0
176 199 0
174 198 0
174 198 0
171 195 0
174 197 0
174 198 0
175 197 0
176 198 0
172 196 0
176 198 0
174 197 0
175 198 0
174 197 0
175 198 0
173 197 0
176 199 0
173 196 0
175 198 0
175 198 0
173 197 0
174 197 0
175 198 0
170 193 0
172 196 0
171 195 0
175 198 0
171 195 0
175 198 0
172 197 0
174 196 0
174 197 0
173 197 0
177 199 0
174 198 0
174 198 0
172 195 0
170 193 0
174 198 0
175 198 0
173 197 0
175 198 0
174 197 0
172 196 0
173 196 0
176 199 0
176 198 0
173 196 0
175 198 0
173 196 0
171 194 0
175 198 0
174 196 0
174 197 0
174 197 0
174 198 0
172 195 0
172 196 0
174 198 0
173 197 0
175 198 0
172 196 0
172 195 0
170 195 0
174 197 0
173 196 0
172 196 0
173 197 0
172 196 0
173 196 0
174 197 0
173 196 0
174 197 0
172 196 0
173 197 0
173 196 0
172 195 0
174 198 0
174 198 0
172 195 0
174 198 0
176 198 0
172 197 0
174 197 0
173 197 0
174 197 0
172 196 0
174 197 0
173 196 0
171 195 0
172 196 0
174 197 0
172 196 0
169 192 0
176 198 0
175 198 0
172 195 0
171 195 0
174 197 0
174 197 0
173 197 0
174 197 0
174 197 0
174 197 0
173 197 0
172 195 0
178 200 0
168 193 0
173 196 0
176 199 0
173 197 0
173 197 0
172 196 0
174 198 0
174 197 0
171 194 0
172 195 0
173 197 0
174 198 0
167 190 0
173 196 0
174 196 0
169 192 0
171 193 0
172 196 0
172 196 0
172 195 0
174 197 0
172 196 0
170 193 0
173 196 0
172 195 0
175 198 0
171 194 0
177 199 0
169 191 0
172 196 0
174 197 0
174 196 0
172 195 0
173 197 0
174 197 0
174 197 0
174 198 0
173 197 0
175 197 0
171 194 0
168 192 0
173 196 0
171 193 0
172 195 0
171 195 0
171 195 0
173 197 0
175 197 0
171 195 0
172 197 0
173 197 0
174 197 0
174 196 0
173 197 0
172 195 0
174 196 0
173 197 0
177 198 0
172 196 0
171 195 0
174 197 0
173 196 0
174 197 0
174 197 0
172 195 0
175 197 0
174 196 0
171 195 0
169 194 0
175 197 0
176 198 0
175 198 0
172 195 0
172 196 0
174 197 0
174 197 0
174 198 0
175 197 0
172 196 0
174 196 0
173 197 0
173 196 0
172 196 0
173 197 0
173 196 0
173 196 0
174 198 0
173 196 0
174 197 0
173 197 0
173 196 0
172 195 0
176 197 0
174 198 0
174 198 0
175 198 0
173 196 0
175 198 0
175 198 0
172 194 0
171 195 0
175 198 0
169 190 28
140 139 66
145 139 72
142 137 74
152 146 82
132 127 70
136 130 79
146 141 82
131 126 72
150 144 87
158 152 98
157 150 88
152 146 85
158 152 93
155 149 87
157 150 93
158 154 97
164 158 99
166 160 99
171 164 104
151 146 95
161 157 99
158 152 95
157 152 94
148 144 93
153 148 97
158 153 97
160 157 101
165 158 103
161 157 103
161 157 103
170 164 106
162 157 101
159 154 97
152 148 97
156 152 99
156 153 101
158 153 101
152 149 99
163 160 106
155 151 99
167 162 106
165 161 107
164 161 107
169 165 109
157 155 102
162 160 106
166 163 108
166 163 108
166 165 110
164 162 107
171 168 112
164 161 107
165 162 108
165 162 108
164 161 107
165 162 108
161 160 108
172 168 112
167 165 110
169 167 112
171 168 112
164 161 107
161 160 107
159 156 104
171 168 112
164 162 108
161 158 106
167 164 109
162 160 107
164 162 108
167 164 109
167 165 110
168 166 110
164 162 108
165 162 108
169 167 112
167 165 110
167 165 110
170 167 112
163 161 108
164 162 108
161 159 106
163 160 107
160 158 106
164 161 107
162 160 107
162 159 106
168 165 109
163 161 108
156 154 103
167 164 109
166 162 107
164 161 106
163 160 107
167 164 109
155 151 101
165 161 107
170 165 109
162 159 104
166 162 106
168 165 108
151 148 98
161 157 103
162 157 103
170 165 109
149 147 98
155 152 99
160 156 102
156 152 101
159 154 98
165 161 106
159 155 99
169 163 104
160 155 102
158 152 94
149 145 94
172 166 104
150 146 97
158 152 94
158 153 95
162 155 97
148 143 90
167 160 102
143 138 87
166 158 95
144 137 85
141 136 75
145 140 85
137 131 74
145 139 82
140 134 77
136 130 70
147 140 77
124 119 70
167 183 36
173 196 0
172 196 0
174 197 0
175 198 0
174 198 0
174 197 0
173 197 0
174 197 0
176 198 0
175 198 0
173 197 0
175 198 0
175 198 0
172 197 0
174 196 0
176 199 0
173 196 0
174 197 0
172 196 0
174 198 0
174 198 0
172 197 0
173 197 0
172 196 0
173 197 0
173 197 0
175 198 0
175 198 0
173 196 0
174 197 0
175 198 0
173 197 0
171 195 0
175 196 0
176 199 0
176 198 0
173 196 0
172 195 0
177 199 0
174 198 0
174 197 0
172 196 0
173 196 0
171 195 0
174 198 0
173 196 0
176 199 0
173 197 0
174 197 0
174 197 0
173 197 0
173 197 0
173 197 0
174 198 0
174 197 0
175 197 0
173 197 0
171 195 0
175 198 0
174 197 0
175 198 0
172 195 0
173 197 0
174 197 0
175 198 0
174 197 0
172 196 0
173 197 0
173 197 0
173 195 0
174 198 0
177 198 0
173 197 0
173 197 0
175 198 0
173 197 0
172 197 0
176 198 0
174 198 0
174 198 0
171 194 0
174 198 0
170 194 0
173 195 0
172 195 0
177 199 0
173 197 0
174 197 0
172 196 0
175 198 0
173 197 0
172 197 0
174 197 0
175 197 0
173 197 0
175 198 0
175 198 0
172 196 0
171 195 0
172 196 0
175 197 0
174 197 0
173 195 0
172 196 0
170 193 0
171 194 0
172 195 0
175 198 0
174 197 0
170 194 0
173 196 0
172 195 0
171 195 0
177 199 0
173 197 0
173 196 0
174 198 0
171 195 0
170 193 0
173 196 0
173 197 0
174 198 0
174 197 0
170 194 0
173 197 0
174 197 0
176 199 0
171 195 0
174 197 0
174 197 0
173 197 0
173 197 0
170 194 0
174 198 0
175 196 0
173 197 0
172 196 0
172 195 0
171 194 0
174 198 0
174 197 0
175 198 0
168 192 0
173 197 0
174 198 0
174 198 0
172 196 0
174 198 0
173 197 0
171 194 0
172 196 0
171 195 0
175 198 0
174 198 0
171 195 0
175 198 0
173 197 0
173 197 0
174 197 0
174 198 0
174 197 0
173 196 0
172 197 0
169 193 0
173 197 0
175 197 0
172 194 0
170 193 0
173 196 0
172 196 0
175 196 0
172 196 0
173 196 0
174 197 0
172 196 0
173 196 0
171 194 0
171 195 0
174 197 0
172 196 0
172 196 0
174 197 0
172 196 0
169 192 0
174 197 0
173 196 0
170 193 0
173 194 0
176 198 0
174 198 0
174 198 0
174 196 0
175 197 0
175 198 0
173 195 0
175 198 0
176 199 0
173 197 0
175 198 0
172 197 0
173 195 0
172 196 0
178 200 0
175 198 0
174 197 0
173 197 0
170 192 0
172 195 0
173 197 0
173 197 0
175 198 0
172 196 0
173 197 0
174 197 0
172 195 0
173 197 0
172 196 0
172 195 0
174 198 0
172 196 0
172 195 0
168 191 0
172 194 0
173 196 0
172 197 0
175 198 0
173 194 0
173 196 0
175 197 0
171 195 0
177 198 0
172 195 0
173 197 0
172 195 0
174 196 0
172 195 0
173 197 0
168 191 0
173 197 0
176 198 0
171 193 0
174 198 0
174 196 0
176 198 0
172 196 0
174 198 0
171 196 0
175 197 0
173 196 0
170 194 0
175 198 0
169 191 0
172 195 0
171 195 0
170 192 0
170 193 0
168 192 0
169 193 0
175 198 0
174 197 0
174 197 0
172 197 0
173 195 0
174 196 0
158 171 42
127 121 70
146 141 75
144 138 74
130 126 70
141 134 84
144 139 80
149 143 84
149 143 80
160 154 88
143 138 82
152 147 93
155 150 93
161 155 97
154 148 90
154 149 95
154 150 94
158 153 95
157 150 92
149 143 85
159 154 97
148 144 89
159 154 100
156 152 94
164 159 103
151 146 93
150 147 97
150 147 96
157 154 101
164 160 103
152 148 97
151 148 99
160 155 98
159 156 101
156 153 101
167 162 108
150 148 98
156 154 103
166 163 106
172 167 110
163 161 105
163 159 105
169 166 110
165 161 106
168 164 109
160 158 105
163 160 106
168 166 112
164 161 107
171 168 112
164 162 109
164 160 105
162 160 107
156 153 103
170 166 110
165 162 107
167 163 108
162 160 107
169 166 110
169 167 112
170 168 112
168 165 109
165 162 108
170 167 112
156 154 104
167 164 109
170 168 112
168 165 110
159 158 106
172 170 114
162 159 106
162 160 107
168 166 110
167 165 110
166 164 109
164 162 108
162 160 107
167 165 110
161 159 107
170 167 112
156 154 103
167 163 108
167 163 108
168 166 110
162 159 106
159 156 104
168 165 110
166 162 108
172 169 112
162 159 106
160 157 104
165 162 108
171 166 108
166 162 107
163 160 107
159 155 103
160 157 104
173 168 110
164 161 107
163 159 104
166 163 108
166 162 107
161 158 104
168 162 104
159 155 102
155 151 97
166 161 104
167 162 107
153 150 99
166 160 104
163 159 103
149 144 95
155 152 98
160 156 101
152 148 91
156 153 99
162 157 101
164 158 99
156 151 97
161 157 99
166 158 101
149 144 90
161 155 90
150 144 91
156 150 95
153 147 90
144 140 84
148 142 88
131 127 82
145 140 85
135 130 74
139 132 80
134 129 62
133 128 70
131 125 72
131 133 53
172 192 22
175 197 0
174 198 0
173 197 0
175 198 0
177 199 0
174 197 0
173 197 0
173 196 0
172 196 0
174 197 0
173 197 0
173 196 0
174 198 0
176 198 0
176 199 0
175 197 0
174 198 0
174 197 0
174 198 0
173 197 0
174 197 0
173 196 0
174 197 0
175 198 0
176 199 0
172 197 0
175 198 0
173 196 0
175 198 0
176 199 0
170 194 0
174 198 0
172 197 0
173 197 0
170 194 0
175 198 0
172 197 0
171 195 0
176 199 0
175 198 0
173 195 0
173 197 0
174 198 0
175 198 0
173 197 0
173 197 0
173 196 0
174 198 0
176 198 0
171 195 0
174 198 0
174 198 0
172 196 0
172 196 0
174 197 0
176 199 0
174 198 0
171 196 0
173 197 0
175 197 0
175 198 0
173 197 0
171 194 0
174 197 0
172 195 0
175 198 0
173 197 0
175 198 0
178 200 0
171 195 0
175 198 0
170 195 0
175 198 0
173 197 0
173 197 0
173 197 0
175 198 0
174 198 0
172 195 0
169 193 0
174 197 0
174 198 0
176 199 0
174 198 0
172 196 0
175 198 0
175 198 0
175 198 0
173 195 0
172 196 0
176 198 0
174 198 0
172 196 0
173 196 0
171 194 0
172 196 0
174 198 0
175 198 0
174 198 0
174 197 0
174 197 0
174 198 0
174 197 0
171 194 0
172 195 0
173 196 0
173 197 0
176 198 0
174 198 0
173 197 0
173 197 0
172 195 0
172 197 0
174 197 0
175 198 0
173 197 0
170 193 0
171 195 0
174 198 0
173 197 0
173 196 0
172 196 0
171 196 0
172 196 0
173 197 0
174 197 0
170 194 0
173 195 0
175 197 0
175 198 0
174 198 0
170 195 0
172 196 0
176 198 0
173 195 0
172 196 0
174 196 0
173 196 0
168 192 0
169 192 0
173 197 0
172 196 0
172 195 0
172 196 0
171 194 0
174 198 0
174 198 0
174 197 0
175 198 0
175 197 0
170 195 0
173 196 0
172 197 0
175 198 0
175 198 0
171 194 0
173 197 0
175 198 0
177 199 0
172 194 0
173 196 0
174 198 0
173 197 0
172 196 0
172 195 0
173 197 0
174 196 0
175 198 0
172 195 0
175 198 0
174 198 0
174 196 0
173 197 0
172 195 0
174 198 0
171 194 0
171 195 0
168 190 0
172 195 0
173 196 0
173 197 0
175 198 0
174 198 0
172 196 0
174 196 0
173 196 0
173 196 0
174 196 0
175 197 0
168 191 0
172 195 0
171 196 0
173 196 0
174 197 0
173 196 0
174 197 0
175 198 0
172 196 0
174 198 0
170 194 0
173 197 0
175 198 0
172 195 0
171 195 0
175 197 0
176 198 0
173 196 0
175 197 0
172 196 0
173 195 0
173 197 0
174 198 0
174 197 0
174 197 0
174 198 0
173 196 0
170 193 0
171 193 0
175 196 0
175 198 0
176 198 0
176 198 0
174 198 0
174 197 0
174 197 0
174 198 0
175 196 0
172 196 0
176 199 0
174 197 0
174 198 0
169 193 0
171 195 0
171 195 0
177 198 0
175 198 0
174 197 0
175 197 0
175 198 0
174 195 0
172 195 0
173 196 0
174 198 0
174 196 0
173 196 0
174 198 0
171 194 0
171 196 0
174 197 0
174 197 0
171 195 0
173 196 0
172 196 0
173 197 0
172 197 0
172 196 0
173 195 0
178 199 0
172 195 0
174 197 0
175 198 0
175 197 0
163 180 39
139 133 68
127 121 70
143 137 80
146 140 77
140 136 72
142 135 80
141 136 84
162 155 91
149 143 82
144 138 75
148 142 85
153 147 90
160 153 90
153 149 88
148 143 89
161 156 98
158 152 97
155 149 93
165 160 100
156 151 93
167 160 102
150 144 93
154 149 95
155 151 97
153 149 95
160 156 101
165 162 108
157 154 101
162 158 105
156 152 99
163 158 102
166 162 105
157 152 97
167 163 108
157 154 99
168 163 107
171 166 108
169 165 108
156 154 103
168 163 108
161 157 103
159 157 104
154 151 100
165 162 107
157 154 101
169 165 109
166 163 109
166 163 108
169 165 110
160 157 105
161 158 106
166 161 106
161 159 106
166 162 108
165 163 107
164 163 109
164 161 107
164 162 108
163 162 109
170 168 112
163 161 108
162 160 107
169 167 112
171 169 113
166 164 109
167 164 109
169 166 110
167 164 110
161 158 106
171 168 112
167 165 110
169 167 112
167 165 110
166 163 108
162 159 106
171 168 112
163 161 108
167 164 109
163 160 107
167 164 109
170 167 112
166 164 109
165 162 108
169 166 110
169 167 112
163 161 108
168 164 109
164 163 109
165 161 106
162 159 106
161 159 106
164 161 107
166 162 106
168 164 108
166 162 107
167 163 107
166 164 108
168 165 109
165 160 106
160 157 104
169 165 109
166 161 104
165 160 104
165 159 104
161 157 102
165 162 107
157 155 102
161 157 102
162 158 102
152 147 95
164 159 102
150 147 97
165 160 103
154 150 97
171 165 107
158 153 97
149 144 90
169 163 104
143 139 90
160 154 97
156 151 95
154 149 88
160 154 97
159 152 93
153 149 91
148 142 88
133 127 80
154 149 90
148 141 85
135 129 77
141 137 85
141 135 82
148 141 80
144 138 75
135 130 70
134 128 77
156 168 48
173 197 0
173 197 0
172 195 0
171 196 0
175 198 0
172 196 0
175 197 0
173 197 0
174 196 0
173 196 0
173 197 0
175 198 0
174 197 0
174 197 0
175 198 0
174 197 0
176 198 0
175 197 0
174 197 0
174 198 0
174 198 0
174 198 0
173 197 0
174 198 0
174 197 0
175 198 0
176 199 0
170 193 0
175 197 0
173 194 0
175 198 0
174 198 0
175 198 0
176 199 0
173 197 0
170 195 0
175 198 0
176 199 0
174 198 0
175 197 0
172 196 0
175 198 0
171 195 0
174 198 0
174 197 0
173 197 0
173 197 0
170 194 0
176 198 0
174 197 0
173 197 0
173 197 0
174 197 0
174 197 0
177 199 0
173 197 0
174 197 0
174 198 0
170 194 0
174 197 0
174 197 0
172 195 0
170 193 0
171 196 0
172 197 0
174 196 0
173 196 0
174 198 0
170 194 0
175 198 0
175 198 0
174 197 0
175 198 0
176 199 0
172 195 0
174 197 0
173 196 0
175 198 0
173 197 0
174 198 0
175 198 0
174 198 0
172 196 0
175 197 0
173 196 0
175 198 0
173 197 0
176 199 0
173 197 0
172 194 0
173 197 0
174 198 0
173 197 0
176 199 0
174 197 0
172 196 0
174 198 0
174 197 0
174 198 0
172 196 0
172 194 0
168 192 0
174 198 0
175 198 0
175 198 0
172 196 0
175 198 0
176 198 0
174 197 0
174 197 0
175 197 0
173 196 0
171 194 0
172 196 0
171 195 0
173 196 0
173 196 0
174 197 0
173 196 0
175 198 0
174 197 0
173 197 0
176 198 0
173 197 0
173 196 0
172 195 0
174 198 0
174 197 0
174 198 0
175 197 0
174 198 0
170 193 0
172 196 0
173 196 0
172 196 0
173 196 0
173 197 0
174 197 0
173 197 0
174 197 0
170 194 0
171 195 0
174 197 0
175 198 0
175 198 0
171 194 0
173 196 0
173 197 0
172 196 0
172 197 0
175 198 0
173 197 0
174 198 0
174 197 0
176 199 0
173 197 0
170 192 0
176 199 0
174 197 0
170 193 0
174 197 0
173 197 0
175 198 0
173 196 0
172 196 0
172 196 0
176 198 0
174 198 0
174 196 0
173 197 0
172 196 0
176 199 0
173 197 0
174 198 0
173 195 0
172 195 0
171 195 0
171 195 0
175 198 0
171 194 0
175 198 0
175 198 0
174 197 0
175 197 0
171 195 0
174 198 0
176 198 0
173 197 0
170 193 0
171 195 0
173 196 0
175 198 0
173 197 0
172 195 0
174 198 0
173 195 0
173 196 0
173 197 0
173 197 0
176 198 0
173 196 0
175 198 0
173 197 0
173 197 0
171 195 0
174 196 0
173 197 0
174 197 0
171 195 0
174 197 0
173 197 0
170 194 0
172 196 0
174 197 0
173 196 0
175 197 0
171 195 0
175 197 0
173 196 0
174 198 0
170 193 0
173 197 0
172 195 0
173 196 0
171 195 0
175 198 0
171 193 0
173 197 0
172 195 0
173 196 0
173 196 0
175 198 0
175 197 0
170 193 0
172 196 0
168 192 0
172 196 0
172 194 0
170 195 0
175 198 0
176 198 0
174 197 0
172 197 0
172 196 0
174 196 0
171 195 0
173 196 0
173 195 0
173 197 0
173 197 0
175 198 0
174 197 0
169 192 0
170 193 0
174 198 0
176 199 0
172 196 0
171 195 0
174 197 0
174 197 0
174 197 0
174 198 0
134 133 53
132 125 66
140 134 80
148 142 79
143 137 75
137 130 75
148 144 79
138 132 74
145 140 80
124 120 66
153 146 85
147 143 88
154 147 92
154 149 90
155 149 91
146 140 84
165 159 98
153 148 93
154 149 94
157 151 95
160 154 98
161 155 97
158 153 95
159 154 97
146 142 93
155 151 95
162 157 99
162 157 101
153 149 95
159 156 101
162 157 99
150 145 95
166 163 106
164 159 105
160 156 102
164 161 106
160 157 105
165 161 106
161 158 104
166 162 107
168 165 110
161 158 104
164 161 108
169 165 109
161 159 105
161 158 105
168 165 109
163 159 106
165 162 108
168 166 110
168 166 110
170 166 110
155 153 103
167 163 108
165 163 109
170 167 110
166 163 108
166 163 108
167 164 109
166 164 109
165 162 108
166 164 109
170 167 112
162 160 107
166 165 110
170 167 112
169 165 109
170 167 112
166 164 109
167 164 109
161 159 106
161 159 106
161 159 107
167 165 110
167 165 110
166 164 109
172 168 112
170 168 113
171 168 112
158 155 103
167 163 108
163 160 107
165 162 108
166 163 108
169 166 110
170 167 112
167 165 110
170 167 112
166 163 107
172 168 112
170 166 110
162 158 103
164 160 106
173 169 112
167 163 107
162 159 106
162 159 106
166 161 107
161 159 106
164 162 107
169 164 106
154 151 101
174 170 112
168 163 107
161 158 103
167 163 107
168 163 107
154 152 97
168 162 104
148 145 93
170 165 108
162 158 103
161 156 101
158 153 98
162 157 98
162 157 102
158 154 95
158 153 97
156 152 98
160 153 98
164 159 102
161 154 94
158 154 99
154 148 91
165 159 101
153 147 88
142 138 91
154 147 87
151 145 88
150 144 90
155 147 90
148 141 84
142 137 75
141 135 74
148 141 82
131 125 66
143 137 79
127 123 58
168 189 22
174 196 0
173 197 0
173 197 0
172 196 0
173 197 0
174 194 0
174 197 0
174 197 0
175 197 0
176 199 0
173 196 0
174 198 0
176 199 0
176 198 0
171 195 0
172 197 0
174 197 0
174 198 0
175 198 0
173 196 0
173 197 0
174 198 0
175 197 0
173 197 0
176 198 0
175 197 0
176 199 0
172 196 0
173 196 0
172 195 0
174 198 0
176 199 0
176 199 0
172 196 0
175 197 0
175 198 0
174 197 0
175 198 0
176 198 0
174 198 0
173 197 0
174 197 0
172 196 0
174 197 0
172 197 0
174 197 0
174 198 0
173 197 0
177 198 0
176 198 0
173 196 0
173 197 0
176 199 0
172 194 0
173 197 0
175 198 0
176 199 0
173 196 0
174 197 0
174 197 0
175 198 0
173 197 0
173 197 0
174 197 0
176 199 0
174 198 0
175 198 0
175 198 0
169 192 0
176 198 0
170 194 0
169 194 0
174 196 0
173 196 0
170 194 0
173 196 0
174 198 0
174 198 0
175 198 0
176 199 0
174 198 0
175 198 0
175 198 0
174 198 0
175 198 0
173 196 0
171 194 0
175 198 0
176 198 0
174 197 0
171 195 0
175 198 0
174 198 0
175 198 0
174 198 0
172 195 0
175 198 0
175 197 0
173 197 0
172 196 0
174 198 0
175 198 0
172 196 0
173 197 0
174 198 0
175 196 0
174 198 0
175 198 0
169 192 0
175 198 0
174 198 0
173 197 0
176 198 0
175 198 0
174 198 0
170 193 0
173 196 0
174 198 0
175 198 0
175 196 0
173 197 0
171 196 0
173 195 0
171 195 0
175 198 0
174 198 0
172 197 0
172 197 0
172 197 0
175 198 0
171 193 0
171 195 0
167 192 0
173 196 0
175 198 0
174 198 0
175 198 0
175 197 0
173 197 0
174 198 0
173 197 0
175 198 0
172 195 0
175 198 0
173 197 0
172 196 0
175 197 0
176 198 0
175 198 0
171 195 0
174 198 0
172 196 0
173 197 0
174 197 0
174 198 0
174 197 0
169 193 0
172 195 0
174 197 0
173 195 0
173 196 0
172 196 0
176 198 0
173 195 0
174 198 0
172 196 0
174 197 0
173 196 0
171 196 0
173 195 0
172 196 0
173 196 0
173 196 0
173 197 0
173 197 0
172 196 0
174 197 0
171 195 0
176 199 0
172 196 0
174 198 0
171 195 0
173 196 0
177 199 0
173 196 0
170 194 0
169 192 0
172 195 0
175 198 0
174 197 0
174 197 0
173 197 0
176 198 0
173 197 0
174 197 0
173 197 0
175 197 0
173 196 0
174 197 0
172 196 0
172 195 0
169 193 0
173 195 0
174 196 0
174 196 0
172 196 0
169 193 0
170 194 0
170 194 0
175 197 0
173 195 0
174 197 0
174 198 0
173 196 0
171 195 0
173 196 0
174 197 0
174 197 0
174 197 0
171 195 0
174 196 0
175 197 0
173 196 0
175 198 0
174 198 0
173 196 0
172 197 0
172 195 0
173 196 0
175 198 0
174 198 0
175 198 0
175 198 0
167 190 0
175 197 0
175 197 0
170 194 0
174 196 0
173 196 0
175 198 0
173 196 0
174 197 0
175 197 0
173 196 0
172 196 0
171 193 0
174 197 0
170 193 0
174 198 0
175 197 0
171 195 0
173 196 0
173 196 0
173 196 0
173 196 0
173 195 0
174 198 0
174 197 0
174 197 0
174 197 0
151 158 48
134 130 62
128 124 62
131 125 64
135 130 64
142 137 75
153 147 84
141 138 75
153 147 87
162 155 87
136 130 73
150 145 84
143 138 86
156 149 93
154 150 90
150 144 83
151 147 88
169 162 98
162 156 98
150 145 87
168 160 100
163 158 101
153 149 94
156 151 95
159 155 99
163 157 97
159 154 98
163 158 103
152 148 97
158 155 99
165 159 105
171 166 109
158 154 97
160 157 100
167 164 109
165 161 106
162 157 103
158 155 103
161 157 103
162 157 104
160 157 103
170 166 108
164 161 108
160 156 103
166 162 108
155 154 103
158 157 105
162 160 107
169 165 109
166 162 107
163 159 105
158 156 102
175 171 114
166 164 110
169 166 111
169 167 112
162 160 107
162 159 106
165 162 108
159 156 104
164 160 106
162 161 108
159 157 105
170 166 110
169 165 109
166 164 109
168 165 109
163 161 108
166 164 109
166 165 110
165 162 108
169 168 113
164 163 109
167 164 109
170 166 110
168 165 110
168 167 112
172 169 113
169 166 110
165 163 109
166 163 108
175 172 114
171 168 112
172 168 112
164 162 108
166 164 110
170 166 110
168 163 108
170 166 109
166 163 108
168 164 108
170 168 112
171 168 112
169 165 109
156 154 102
158 156 104
167 164 109
163 159 104
162 159 106
165 161 103
165 161 107
162 159 104
163 161 107
164 160 106
163 160 106
165 162 106
156 153 101
168 163 107
160 157 103
156 152 98
170 166 109
159 154 101
167 162 106
160 158 103
158 151 97
155 151 95
160 155 101
167 162 103
160 155 102
156 152 98
152 148 91
153 148 90
151 145 88
156 151 95
159 153 95
154 149 91
148 142 91
149 143 88
157 150 95
147 142 88
155 150 93
150 146 87
149 144 82
140 133 77
153 147 88
118 114 66
135 130 62
146 140 80
133 127 70
142 150 45
172 196 0
176 198 0
176 196 0
174 197 0
172 196 0
174 196 0
174 197 0
174 198 0
172 197 0
171 195 0
175 198 0
176 198 0
173 196 0
176 199 0
177 199 0
174 197 0
174 197 0
172 197 0
175 197 0
173 197 0
173 197 0
171 195 0
175 198 0
174 197 0
173 196 0
175 198 0
175 198 0
174 197 0
174 198 0
173 197 0
175 198 0
173 196 0
176 199 0
174 198 0
173 197 0
176 198 0
175 198 0
175 198 0
171 195 0
172 197 0
173 197 0
173 197 0
175 198 0
175 198 0
174 197 0
174 198 0
173 197 0
175 198 0
176 199 0
172 196 0
176 198 0
174 197 0
175 198 0
175 198 0
174 198 0
175 198 0
172 196 0
175 198 0
173 197 0
171 195 0
175 198 0
172 195 0
173 196 0
174 197 0
174 198 0
174 198 0
175 198 0
175 197 0
174 198 0
174 198 0
171 196 0
175 198 0
174 198 0
176 199 0
174 198 0
174 198 0
174 197 0
172 196 0
176 199 0
174 198 0
175 198 0
173 197 0
175 198 0
175 198 0
174 197 0
174 197 0
175 198 0
171 196 0
174 197 0
174 197 0
175 198 0
171 195 0
171 195 0
175 198 0
174 198 0
172 196 0
177 199 0
174 198 0
173 196 0
175 198 0
174 198 0
174 196 0
171 195 0
172 193 0
174 197 0
175 197 0
175 198 0
174 197 0
175 198 0
176 199 0
172 196 0
174 198 0
175 198 0
174 197 0
173 197 0
174 197 0
176 198 0
174 197 0
172 196 0
171 195 0
172 196 0
176 199 0
175 198 0
174 197 0
172 196 0
174 197 0
174 197 0
174 197 0
175 198 0
172 196 0
174 196 0
176 199 0
172 195 0
171 195 0
170 193 0
173 197 0
174 197 0
170 194 0
174 197 0
172 197 0
173 196 0
175 198 0
174 198 0
174 197 0
173 197 0
175 198 0
170 193 0
171 195 0
172 196 0
175 197 0
174 197 0
173 196 0
171 195 0
174 197 0
172 197 0
175 197 0
177 199 0
174 197 0
174 198 0
174 197 0
176 199 0
173 197 0
174 197 0
173 196 0
171 194 0
175 197 0
172 194 0
173 196 0
171 194 0
171 195 0
173 196 0
171 196 0
176 199 0
174 198 0
175 198 0
175 198 0
174 198 0
174 198 0
171 194 0
175 198 0
175 198 0
169 191 0
174 198 0
175 197 0
175 198 0
174 197 0
171 194 0
170 195 0
174 198 0
172 197 0
174 198 0
172 194 0
172 194 0
171 195 0
173 195 0
173 196 0
171 194 0
174 196 0
174 197 0
174 197 0
168 193 0
171 194 0
174 197 0
172 195 0
173 196 0
173 197 0
173 196 0
173 196 0
173 195 0
174 197 0
171 194 0
174 197 0
174 198 0
172 196 0
172 196 0
172 195 0
174 198 0
172 197 0
174 197 0
174 197 0
168 190 0
172 196 0
171 193 0
173 197 0
175 198 0
173 196 0
173 195 0
171 194 0
173 196 0
172 195 0
170 193 0
173 196 0
175 197 0
176 199 0
174 196 0
173 196 0
175 197 0
173 197 0
174 196 0
175 197 0
171 195 0
172 195 0
171 195 0
172 195 0
170 194 0
173 197 0
174 197 0
170 192 0
171 195 0
174 197 0
168 192 0
173 197 0
175 197 0
172 195 0
174 198 0
169 192 0
175 198 0
170 194 0
173 193 0
167 187 28
129 126 56
128 124 58
125 120 60
154 148 87
137 133 74
141 135 80
152 146 84
148 142 85
157 150 88
153 146 85
148 143 87
152 147 82
146 141 81
157 151 93
153 149 93
161 154 97
157 150 92
157 151 95
148 143 92
167 161 103
150 146 89
151 148 93
158 154 98
163 158 103
151 148 95
158 154 97
152 148 96
164 159 104
165 162 106
152 148 96
168 163 104
156 152 99
162 158 103
161 157 102
165 161 104
160 155 103
166 162 105
169 165 107
165 162 106
170 165 108
157 154 103
163 160 105
156 152 101
162 160 106
155 152 103
170 166 109
167 163 108
157 154 101
170 168 112
161 159 105
164 162 108
165 162 109
173 171 113
163 161 107
163 162 109
168 165 110
169 167 112
170 168 112
165 163 109
164 162 109
170 167 112
170 167 112
168 166 111
173 170 113
167 164 109
164 162 109
169 166 110
167 165 110
166 164 109
163 162 108
168 165 110
166 164 110
167 164 109
165 162 108
167 164 109
168 167 112
167 163 108
168 165 109
171 168 112
169 166 110
171 168 112
166 164 109
163 162 108
159 156 103
173 169 112
160 158 104
165 162 108
166 162 107
165 163 109
155 153 102
172 168 110
166 164 109
165 162 106
167 164 109
163 158 104
176 171 113
165 161 106
161 158 104
165 163 109
162 158 104
163 159 104
172 168 110
162 158 104
167 163 107
170 166 108
149 146 95
166 162 106
166 162 106
161 157 102
168 163 106
157 153 99
164 160 102
154 150 99
165 161 101
162 158 101
175 170 112
158 153 99
163 158 99
166 158 101
155 151 97
155 151 94
153 150 94
157 153 98
157 152 99
154 149 94
163 157 90
146 141 87
159 153 97
158 153 94
158 151 93
153 147 82
165 158 98
155 149 94
139 133 75
143 137 79
151 144 82
136 130 72
140 135 74
132 127 72
148 142 77
159 177 32
174 198 0
175 198 0
174 197 0
175 198 0
173 197 0
175 198 0
173 197 0
175 198 0
175 198 0
175 198 0
172 197 0
172 195 0
176 198 0
174 197 0
174 198 0
174 198 0
175 198 0
174 198 0
174 198 0
174 197 0
175 198 0
173 197 0
174 197 0
174 197 0
172 196 0
176 198 0
175 197 0
174 197 0
173 197 0
174 197 0
172 197 0
169 193 0
174 198 0
172 196 0
174 197 0
175 198 0
174 197 0
171 195 0
172 196 0
173 197 0
174 198 0
174 197 0
175 198 0
173 197 0
173 197 0
171 195 0
173 195 0
172 197 0
172 196 0
172 196 0
172 195 0
173 197 0
170 195 0
174 197 0
175 198 0
171 196 0
175 198 0
173 197 0
175 198 0
175 198 0
177 199 0
175 197 0
176 199 0
175 198 0
173 197 0
173 197 0
173 196 0
174 197 0
176 199 0
173 196 0
173 196 0
175 198 0
173 196 0
176 199 0
175 197 0
171 194 0
175 198 0
175 198 0
176 199 0
175 198 0
174 198 0
171 195 0
175 198 0
175 198 0
176 198 0
174 198 0
173 196 0
174 198 0
171 194 0
175 198 0
171 195 0
174 198 0
176 198 0
173 197 0
174 198 0
174 198 0
175 198 0
176 199 0
171 195 0
172 195 0
175 198 0
174 198 0
171 194 0
171 194 0
175 197 0
175 198 0
172 196 0
176 199 0
170 195 0
172 196 0
174 197 0
173 197 0
174 198 0
172 195 0
175 197 0
171 194 0
173 197 0
173 195 0
175 198 0
173 196 0
170 194 0
175 198 0
174 196 0
172 196 0
173 197 0
174 197 0
169 194 0
176 199 0
170 195 0
173 197 0
173 196 0
171 195 0
174 197 0
171 195 0
173 196 0
172 196 0
173 196 0
171 195 0
174 198 0
172 195 0
173 197 0
171 195 0
173 195 0
173 195 0
175 197 0
169 193 0
173 197 0
172 196 0
172 195 0
175 198 0
176 198 0
175 198 0
172 196 0
174 198 0
171 195 0
176 199 0
174 198 0
172 196 0
171 195 0
175 197 0
172 196 0
175 198 0
174 198 0
174 197 0
175 198 0
174 198 0
174 197 0
172 197 0
174 197 0
174 197 0
172 196 0
171 195 0
173 195 0
173 196 0
171 195 0
171 195 0
173 196 0
170 193 0
173 197 0
172 194 0
174 198 0
174 197 0
175 198 0
173 195 0
172 196 0
174 196 0
172 196 0
172 196 0
171 194 0
172 195 0
173 196 0
171 195 0
173 196 0
173 196 0
174 198 0
175 198 0
174 198 0
176 199 0
174 196 0
172 196 0
174 196 0
176 198 0
175 198 0
175 197 0
175 198 0
173 196 0
172 195 0
172 195 0
170 194 0
171 195 0
175 197 0
174 197 0
169 193 0
174 197 0
170 194 0
173 196 0
172 194 0
170 193 0
173 195 0
173 195 0
171 195 0
171 195 0
173 196 0
175 197 0
174 197 0
175 198 0
170 193 0
174 197 0
170 193 0
173 195 0
175 197 0
173 197 0
173 195 0
176 199 0
174 196 0
171 194 0
171 194 0
170 194 0
170 193 0
171 194 0
172 196 0
172 195 0
174 197 0
175 198 0
170 193 0
175 198 0
170 192 0
172 195 0
174 198 0
172 196 0
175 198 0
172 195 0
170 192 0
171 194 0
173 197 0
173 196 0
174 197 0
172 196 0
140 142 58
138 131 74
133 129 64
152 144 85
149 142 74
143 136 79
142 136 79
144 138 75
151 145 80
144 138 79
159 151 88
156 149 84
143 139 79
155 150 91
160 154 97
150 145 90
159 154 92
157 152 93
159 154 91
155 150 93
161 156 102
164 157 101
150 146 93
149 146 93
158 153 96
162 156 99
154 150 97
159 155 99
166 160 104
158 156 103
161 157 103
158 155 103
153 148 97
163 159 102
163 158 101
160 157 104
167 163 108
165 162 106
154 151 98
163 160 106
166 163 108
173 167 108
163 159 105
169 166 110
169 165 110
171 166 110
163 161 108
161 160 109
166 164 109
166 162 108
167 163 109
172 168 110
163 160 107
170 166 110
159 158 106
164 161 108
174 170 113
162 160 108
162 160 108
169 166 111
168 166 111
168 165 109
168 164 109
168 166 110
166 164 110
171 168 112
170 167 111
167 165 110
166 164 109
167 165 110
171 168 112
161 159 106
171 168 112
163 160 107
166 164 109
173 171 114
169 166 110
166 163 109
169 166 110
169 166 110
170 167 110
170 167 112
171 167 110
167 165 110
170 168 112
164 162 108
166 163 108
166 164 109
165 162 108
174 170 113
169 167 112
167 164 108
165 162 107
172 169 113
167 164 109
167 165 109
160 156 103
163 160 107
169 164 108
161 157 103
163 158 103
169 167 110
171 166 109
155 152 101
159 154 99
167 163 108
165 161 106
169 164 108
156 152 101
162 158 101
154 150 98
162 158 103
167 161 103
170 164 107
158 153 98
165 160 102
151 146 91
165 159 103
156 152 97
151 146 93
157 154 97
159 154 95
155 150 91
163 157 102
162 156 101
148 144 85
161 155 99
155 150 95
156 150 93
158 152 93
152 147 88
153 147 87
159 151 88
137 133 72
143 136 79
145 140 80
151 145 84
137 132 70
143 137 80
149 144 84
143 136 79
142 140 66
174 198 0
174 198 0
174 197 0
173 197 0
174 197 0
174 197 0
176 198 0
173 196 0
173 197 0
174 198 0
173 197 0
176 199 0
170 194 0
173 196 0
173 196 0
173 197 0
170 194 0
174 198 0
174 198 0
171 194 0
172 195 0
172 195 0
175 198 0
175 198 0
173 197 0
172 194 0
177 199 0
176 199 0
173 197 0
175 198 0
176 198 0
175 198 0
171 195 0
173 196 0
176 199 0
174 198 0
174 198 0
174 198 0
173 197 0
173 196 0
175 198 0
173 196 0
176 199 0
171 194 0
175 198 0
171 195 0
173 197 0
174 198 0
174 198 0
173 197 0
174 198 0
174 198 0
174 198 0
173 197 0
175 198 0
174 198 0
174 198 0
175 198 0
175 198 0
173 197 0
175 198 0
171 195 0
172 196 0
171 195 0
174 198 0
174 198 0
171 195 0
172 197 0
173 197 0
175 198 0
174 197 0
174 196 0
171 195 0
172 195 0
174 198 0
174 196 0
174 197 0
174 197 0
172 196 0
174 198 0
174 197 0
171 193 0
173 197 0
175 198 0
173 197 0
173 196 0
172 195 0
177 199 0
172 196 0
174 197 0
172 195 0
172 195 0
173 197 0
172 197 0
171 195 0
175 198 0
174 198 0
174 197 0
175 197 0
172 196 0
173 197 0
174 197 0
173 196 0
173 197 0
173 196 0
174 198 0
174 197 0
171 194 0
175 198 0
172 197 0
168 193 0
170 194 0
170 194 0
171 195 0
174 198 0
173 197 0
173 196 0
174 198 0
173 197 0
176 198 0
172 196 0
173 196 0
173 196 0
173 196 0
175 198 0
173 196 0
174 196 0
172 195 0
172 196 0
172 195 0
173 197 0
172 197 0
176 199 0
174 197 0
174 198 0
171 194 0
172 194 0
172 197 0
175 198 0
173 196 0
174 197 0
171 196 0
169 194 0
174 197 0
174 197 0
174 198 0
173 197 0
172 195 0
173 197 0
171 195 0
174 197 0
172 196 0
173 196 0
173 197 0
173 197 0
173 197 0
171 195 0
174 197 0
167 189 0
174 197 0
174 198 0
172 195 0
173 197 0
173 196 0
175 198 0
169 193 0
175 198 0
174 198 0
174 198 0
172 195 0
174 197 0
170 194 0
176 198 0
171 194 0
174 198 0
173 196 0
169 192 0
174 196 0
173 196 0
177 199 0
174 197 0
173 197 0
174 196 0
171 194 0
172 196 0
172 196 0
174 197 0
169 192 0
172 196 0
170 195 0
170 194 0
171 194 0
173 196 0
172 196 0
174 198 0
175 197 0
175 198 0
174 195 0
174 197 0
175 198 0
174 197 0
175 197 0
175 198 0
172 195 0
173 196 0
172 195 0
170 194 0
171 195 0
173 196 0
174 197 0
172 194 0
173 196 0
174 197 0
175 196 0
173 196 0
171 194 0
172 196 0
174 197 0
172 195 0
174 197 0
174 195 0
170 193 0
173 196 0
172 194 0
175 197 0
172 195 0
174 196 0
174 198 0
170 193 0
172 194 0
177 199 0
171 194 0
173 197 0
171 195 0
175 197 0
170 193 0
174 198 0
172 194 0
170 194 0
174 196 0
174 198 0
173 196 0
172 195 0
172 196 0
169 193 0
172 196 0
168 192 0
173 196 0
170 194 0
171 195 0
175 197 0
175 198 0
174 196 0
173 194 0
174 195 0
173 197 0
172 197 0
156 173 36
125 120 58
138 133 72
151 145 79
140 136 70
137 132 70
145 140 85
150 144 82
150 144 79
143 135 84
154 150 88
147 141 80
149 144 84
147 140 84
147 141 83
161 155 90
154 149 87
148 142 79
159 154 95
166 159 100
168 162 101
156 151 94
148 144 91
155 150 99
155 151 96
161 156 101
148 144 90
161 156 102
161 157 102
153 150 97
151 148 96
166 161 103
167 162 106
167 163 106
150 146 97
164 159 103
162 159 106
172 167 107
162 159 106
164 161 106
162 159 106
153 150 101
167 164 109
171 167 108
171 167 110
161 158 103
165 161 108
167 164 109
169 165 110
162 159 105
173 169 112
171 169 113
165 161 108
163 162 109
157 154 103
170 167 110
163 161 108
161 159 106
172 168 112
164 162 109
169 165 109
165 163 109
167 163 108
161 159 107
168 165 110
170 168 112
167 164 109
169 167 112
168 166 111
172 169 113
162 160 108
167 164 109
170 167 112
167 164 109
165 163 109
170 167 112
166 163 108
164 162 108
159 157 104
171 168 112
172 168 112
170 167 112
171 168 112
165 163 109
168 166 110
169 166 110
171 168 112
162 160 107
169 166 110
171 169 113
175 170 113
166 163 108
161 158 106
163 160 106
166 164 108
170 167 112
170 167 112
162 159 106
167 165 109
166 162 106
161 158 106
166 162 107
171 169 110
165 162 106
161 157 104
169 165 108
159 156 102
167 165 110
163 159 104
170 164 106
162 157 103
166 160 104
164 160 103
162 157 103
159 155 101
151 147 91
158 154 98
171 165 106
170 165 103
165 160 104
155 152 99
155 150 98
167 161 102
163 159 101
158 152 94
161 156 98
157 151 94
148 143 91
140 136 87
166 160 98
148 143 85
143 137 84
156 150 97
149 143 85
146 140 88
152 147 88
153 146 90
135 129 72
134 130 77
142 138 74
147 140 82
123 118 66
126 120 58
161 176 42
174 197 0
175 198 0
174 197 0
174 197 0
174 198 0
171 194 0
175 198 0
175 197 0
175 196 0
174 198 0
173 197 0
172 195 0
175 198 0
173 197 0
177 199 0
175 198 0
173 197 0
175 198 0
174 197 0
174 198 0
174 198 0
174 197 0
175 198 0
172 195 0
171 195 0
172 196 0
173 197 0
173 196 0
176 198 0
173 197 0
172 197 0
173 196 0
175 198 0
174 197 0
174 197 0
172 196 0
171 193 0
173 197 0
172 195 0
174 198 0
171 195 0
175 198 0
174 198 0
174 197 0
175 198 0
173 197 0
176 199 0
175 197 0
172 195 0
174 197 0
173 197 0
173 196 0
175 198 0
173 196 0
171 195 0
169 192 0
175 198 0
173 196 0
175 198 0
173 196 0
175 198 0
173 197 0
172 196 0
175 198 0
172 196 0
172 195 0
170 194 0
175 198 0
173 196 0
173 197 0
175 198 0
175 197 0
175 197 0
172 196 0
170 194 0
171 194 0
173 195 0
174 197 0
173 196 0
174 197 0
173 196 0
173 197 0
174 197 0
174 196 0
174 197 0
172 197 0
173 196 0
175 197 0
175 198 0
170 194 0
174 197 0
174 197 0
173 196 0
174 197 0
173 196 0
173 196 0
174 198 0
174 196 0
174 197 0
174 197 0
175 197 0
172 197 0
175 198 0
173 195 0
172 197 0
171 195 0
174 198 0
173 197 0
173 197 0
173 197 0
174 197 0
177 199 0
174 196 0
172 196 0
173 195 0
172 196 0
173 196 0
169 194 0
174 197 0
175 198 0
174 196 0
170 193 0
174 196 0
170 193 0
171 194 0
172 194 0
171 194 0
173 197 0
174 198 0
174 197 0
173 196 0
174 198 0
172 195 0
173 197 0
172 196 0
169 192 0
175 198 0
171 194 0
176 198 0
173 197 0
174 197 0
175 197 0
174 198 0
174 197 0
173 196 0
174 196 0
173 197 0
175 198 0
174 197 0
172 195 0
176 199 0
173 196 0
176 199 0
174 197 0
174 198 0
174 197 0
175 198 0
171 194 0
172 195 0
171 194 0
173 196 0
173 197 0
173 196 0
174 198 0
171 195 0
174 197 0
174 198 0
169 193 0
171 194 0
174 198 0
173 196 0
173 195 0
174 198 0
173 196 0
172 196 0
171 193 0
171 195 0
171 193 0
173 197 0
170 195 0
172 196 0
173 197 0
172 195 0
169 192 0
174 197 0
175 197 0
174 198 0
172 195 0
175 197 0
175 198 0
174 197 0
173 196 0
175 198 0
174 198 0
174 197 0
172 197 0
172 197 0
176 199 0
174 197 0
172 196 0
170 194 0
172 195 0
171 195 0
173 196 0
171 195 0
171 194 0
170 195 0
167 191 0
173 196 0
173 196 0
169 194 0
172 195 0
174 195 0
173 197 0
169 194 0
170 193 0
174 197 0
174 195 0
172 194 0
172 195 0
175 197 0
174 196 0
174 197 0
175 197 0
170 192 0
168 191 0
173 197 0
171 194 0
172 197 0
176 199 0
172 196 0
171 195 0
171 195 0
174 198 0
174 194 0
174 198 0
172 195 0
173 196 0
175 198 0
172 195 0
170 193 0
172 197 0
177 198 0
174 198 0
174 196 0
171 195 0
177 199 0
167 191 0
176 198 0
171 195 0
172 195 0
171 194 0
170 193 0
167 192 0
171 196 0
168 192 0
133 135 53
150 143 84
138 133 66
141 135 79
141 134 77
148 143 79
138 132 75
132 125 71
158 152 82
148 143 77
148 142 80
155 148 90
145 139 83
159 152 91
152 147 92
164 158 101
150 145 87
150 145 94
161 155 96
167 161 103
156 151 96
162 158 95
148 145 92
160 156 99
166 161 104
167 160 99
156 152 96
163 158 102
146 143 92
161 157 103
154 151 99
166 161 99
161 158 101
145 143 95
159 155 101
163 159 104
164 160 103
165 161 104
157 153 103
158 155 102
158 156 103
164 160 108
166 163 108
160 156 103
156 154 104
164 160 104
159 158 107
167 163 108
155 152 102
167 165 109
156 155 104
165 160 105
161 158 105
162 159 106
157 155 103
166 164 111
162 159 106
168 165 109
169 166 109
166 163 109
165 162 108
163 161 108
165 161 108
170 167 110
168 164 109
170 167 112
168 165 110
162 161 108
167 164 110
170 167 112
168 165 109
171 169 113
170 167 112
171 168 112
161 159 107
170 168 113
172 169 113
169 166 110
171 168 112
172 168 112
171 168 112
170 167 112
163 161 108
169 166 109
155 153 102
164 161 107
168 165 109
169 166 109
169 167 112
170 166 110
171 168 112
170 166 109
164 161 107
173 169 112
173 169 113
169 166 110
169 166 109
164 162 107
166 163 108
168 165 109
165 162 107
165 162 108
163 159 106
169 166 109
170 165 109
164 161 106
160 157 101
168 162 106
162 157 101
156 153 98
160 155 99
159 155 102
169 165 108
160 156 99
159 154 99
175 170 110
165 160 103
167 161 106
162 156 99
154 150 95
163 156 102
173 167 107
162 156 97
161 156 98
155 150 93
161 155 97
154 150 95
156 152 94
148 145 93
154 149 90
136 131 80
153 148 88
153 147 90
157 151 91
130 125 74
151 146 84
149 143 90
133 129 79
158 150 88
139 134 84
136 131 72
144 139 77
138 133 72
137 140 56
172 197 0
173 197 0
172 196 0
173 196 0
173 197 0
176 198 0
172 195 0
174 198 0
173 197 0
172 196 0
175 198 0
174 198 0
172 196 0
175 198 0
172 196 0
172 195 0
172 196 0
173 196 0
172 196 0
174 197 0
176 199 0
171 194 0
174 198 0
175 198 0
174 197 0
173 196 0
177 199 0
175 198 0
174 197 0
174 196 0
175 198 0
173 196 0
175 198 0
174 197 0
173 197 0
176 199 0
174 197 0
174 198 0
174 197 0
174 197 0
172 196 0
173 196 0
174 197 0
174 198 0
173 197 0
173 197 0
174 198 0
175 198 0
173 197 0
172 196 0
172 196 0
174 197 0
172 197 0
175 198 0
174 197 0
173 196 0
174 198 0
175 198 0
175 198 0
174 198 0
173 196 0
172 194 0
175 197 0
171 196 0
173 197 0
172 195 0
174 197 0
174 198 0
175 198 0
176 199 0
172 196 0
170 194 0
172 196 0
173 195 0
172 197 0
168 191 0
171 195 0
173 196 0
174 198 0
172 197 0
173 196 0
177 199 0
176 199 0
172 197 0
171 195 0
173 197 0
174 196 0
176 198 0
173 196 0
174 198 0
174 197 0
173 196 0
175 197 0
170 195 0
174 198 0
173 196 0
175 198 0
174 198 0
174 198 0
172 197 0
171 195 0
173 197 0
171 195 0
173 196 0
173 196 0
172 196 0
171 195 0
172 196 0
173 197 0
174 198 0
173 197 0
173 196 0
174 198 0
174 197 0
168 193 0
173 197 0
173 196 0
174 197 0
174 198 0
173 195 0
170 195 0
176 199 0
174 198 0
176 198 0
177 199 0
174 197 0
172 196 0
175 198 0
169 193 0
174 198 0
170 194 0
172 196 0
173 196 0
169 193 0
177 199 0
177 199 0
175 198 0
175 198 0
167 190 0
172 195 0
172 196 0
174 197 0
171 195 0
173 196 0
173 197 0
175 198 0
173 197 0
171 193 0
170 195 0
172 195 0
174 197 0
172 196 0
171 195 0
174 198 0
172 197 0
174 198 0
173 195 0
173 197 0
173 194 0
173 197 0
172 195 0
172 197 0
174 196 0
174 198 0
168 192 0
174 198 0
171 193 0
175 198 0
174 198 0
173 197 0
172 197 0
175 197 0
174 196 0
173 196 0
174 197 0
173 197 0
170 193 0
174 198 0
170 193 0
172 195 0
174 198 0
175 198 0
174 196 0
173 197 0
172 195 0
171 194 0
175 197 0
174 197 0
173 197 0
175 197 0
171 193 0
172 195 0
173 197 0
172 196 0
169 193 0
170 195 0
173 194 0
174 198 0
169 193 0
174 198 0
171 195 0
172 195 0
177 198 0
173 197 0
170 193 0
178 199 0
170 193 0
169 194 0
174 197 0
176 199 0
173 196 0
173 196 0
172 196 0
165 188 0
175 198 0
173 196 0
172 195 0
174 197 0
173 195 0
175 198 0
175 197 0
174 195 0
172 194 0
174 198 0
172 195 0
173 197 0
173 197 0
170 193 0
174 197 0
174 196 0
172 196 0
175 198 0
173 197 0
171 194 0
171 195 0
174 196 0
170 193 0
175 198 0
172 196 0
174 196 0
175 198 0
173 196 0
173 197 0
170 194 0
171 195 0
172 195 0
169 193 0
169 193 0
168 193 0
174 197 0
176 199 0
170 193 0
175 197 0
173 196 0
171 195 0
156 170 16
139 131 74
134 129 68
122 117 62
140 135 70
151 145 77
144 138 80
139 131 74
157 150 93
154 148 85
146 140 90
151 146 80
143 138 85
153 147 89
151 146 90
161 155 93
156 151 95
163 156 97
158 152 91
164 159 100
158 152 91
154 149 97
150 146 93
155 150 96
163 158 98
152 147 95
154 150 94
155 150 95
164 161 104
159 156 103
162 157 101
160 155 97
161 159 106
160 157 104
156 152 100
166 162 105
158 153 101
166 162 106
172 167 111
155 152 100
167 162 106
161 158 104
159 156 104
167 163 106
159 157 104
170 166 110
167 162 107
162 158 104
161 157 103
165 161 106
169 167 111
162 159 105
159 157 104
158 156 105
163 161 109
168 166 111
165 162 108
169 165 109
166 163 109
155 152 101
167 164 110
166 164 109
168 166 111
167 165 110
172 169 113
174 171 113
168 165 109
163 162 108
169 166 110
158 156 106
171 167 110
173 169 112
171 168 112
165 162 108
173 169 112
167 164 109
166 163 109
171 168 112
165 163 109
170 167 112
169 166 110
166 163 107
166 164 109
163 160 107
169 165 109
167 164 109
165 161 106
172 169 112
168 166 110
167 165 110
172 169 113
165 162 107
172 169 112
165 161 107
171 168 110
170 166 110
167 164 109
169 164 107
167 165 110
168 165 106
173 168 110
163 159 106
166 162 108
172 168 108
164 162 106
168 163 106
169 166 109
164 162 108
165 161 103
162 159 101
165 160 103
167 164 107
168 162 104
159 156 102
162 158 103
159 154 98
163 159 102
164 160 106
167 163 104
158 154 97
166 162 106
160 155 102
160 156 101
163 158 99
152 147 94
160 155 97
157 152 95
159 154 95
164 158 99
145 140 90
155 150 91
150 145 88
149 143 87
152 146 85
142 136 82
153 147 87
136 132 79
149 142 87
147 141 85
134 129 80
146 141 82
130 127 68
130 124 68
136 131 62
141 134 70
162 175 45
174 196 0
173 197 0
173 197 0
174 196 0
175 198 0
174 197 0
173 197 0
174 197 0
175 197 0
173 197 0
174 197 0
173 196 0
177 199 0
174 198 0
174 197 0
173 196 0
173 196 0
172 197 0
176 199 0
175 198 0
173 197 0
171 195 0
172 196 0
169 194 0
174 198 0
176 199 0
171 195 0
174 197 0
174 197 0
172 196 0
171 195 0
173 197 0
172 195 0
173 197 0
173 196 0
175 198 0
176 198 0
172 195 0
173 197 0
172 197 0
174 198 0
173 196 0
175 198 0
173 197 0
172 196 0
175 198 0
174 197 0
170 194 0
172 196 0
174 197 0
176 199 0
172 197 0
176 198 0
167 190 0
174 198 0
173 196 0
174 198 0
174 198 0
172 197 0
174 197 0
174 197 0
175 198 0
172 196 0
173 196 0
174 196 0
175 197 0
173 197 0
172 196 0
174 198 0
174 197 0
175 198 0
173 196 0
177 199 0
174 197 0
174 197 0
173 197 0
175 198 0
175 198 0
175 197 0
172 196 0
172 196 0
172 196 0
172 196 0
175 198 0
177 198 0
171 194 0
175 198 0
172 197 0
174 197 0
174 197 0
173 196 0
174 198 0
176 199 0
175 198 0
173 196 0
171 195 0
172 196 0
174 197 0
174 196 0
173 196 0
175 198 0
174 196 0
173 197 0
174 198 0
173 196 0
175 198 0
176 199 0
173 196 0
172 194 0
173 197 0
175 198 0
171 194 0
172 196 0
169 193 0
175 198 0
177 199 0
171 195 0
176 199 0
173 196 0
175 198 0
170 193 0
173 196 0
175 197 0
172 196 0
171 196 0
175 198 0
173 195 0
173 197 0
174 198 0
170 194 0
173 196 0
175 198 0
174 197 0
171 193 0
172 196 0
171 195 0
172 195 0
175 198 0
171 194 0
175 198 0
174 198 0
171 195 0
174 198 0
175 198 0
173 195 0
178 200 0
176 198 0
171 195 0
172 196 0
175 198 0
174 197 0
174 195 0
172 193 0
173 196 0
170 193 0
173 197 0
169 193 0
174 196 0
172 196 0
170 193 0
173 196 0
174 197 0
174 197 0
176 198 0
174 197 0
172 195 0
172 195 0
172 196 0
174 196 0
172 194 0
173 196 0
173 196 0
171 195 0
175 198 0
173 196 0
172 194 0
174 197 0
172 195 0
170 193 0
172 197 0
170 194 0
175 198 0
174 197 0
176 197 0
175 198 0
169 194 0
170 193 0
173 197 0
174 197 0
173 196 0
175 198 0
167 191 0
171 196 0
173 196 0
177 199 0
171 194 0
172 196 0
174 198 0
176 199 0
170 194 0
171 195 0
171 195 0
172 196 0
172 196 0
171 194 0
173 197 0
173 197 0
172 196 0
171 195 0
175 197 0
174 197 0
171 196 0
170 193 0
172 196 0
170 194 0
170 194 0
171 195 0
174 197 0
175 197 0
172 194 0
173 197 0
172 195 0
172 196 0
172 195 0
176 198 0
173 197 0
174 197 0
169 192 0
172 194 0
171 194 0
173 195 0
172 195 0
174 197 0
172 197 0
172 195 0
174 197 0
176 199 0
173 197 0
172 195 0
171 194 0
172 196 0
172 197 0
170 193 0
173 196 0
175 198 0
172 195 0
175 198 0
172 196 0
173 195 0
171 194 0
174 197 0
175 198 0
171 194 0
171 195 0
140 139 70
126 121 66
124 119 62
150 143 80
134 127 70
140 134 77
139 133 74
143 139 66
153 147 84
142 136 80
150 144 84
158 151 89
154 149 81
151 146 90
137 133 77
157 150 94
160 153 96
159 153 94
168 162 102
153 149 91
162 157 98
155 151 92
152 147 86
167 161 101
153 148 93
156 152 97
163 157 99
167 162 104
167 162 106
157 155 104
161 157 96
167 162 104
159 156 101
151 149 99
163 158 105
158 155 104
160 155 99
160 157 104
169 165 110
158 156 104
152 149 100
163 161 107
169 165 109
169 164 109
168 164 109
163 161 107
162 161 107
173 167 108
144 142 96
160 158 106
156 154 103
162 160 106
168 165 110
166 162 108
168 167 112
162 160 107
167 165 111
166 164 110
173 169 113
171 168 112
168 166 111
168 165 110
170 166 110
174 170 113
167 163 109
169 168 113
166 164 109
171 168 112
165 164 109
168 167 112
168 165 110
164 162 109
174 171 114
169 167 112
167 164 110
166 163 108
173 170 113
167 164 109
169 166 111
168 164 109
163 161 108
171 168 112
172 169 113
167 165 109
169 167 112
170 168 112
173 170 113
168 164 109
174 170 113
169 166 109
171 167 110
171 168 110
166 164 109
171 168 112
169 165 109
169 165 108
163 161 107
170 166 109
164 160 104
161 157 104
166 164 108
163 159 102
162 159 103
170 165 107
170 166 108
168 165 108
163 161 107
163 158 102
169 165 106
161 157 102
166 161 103
164 160 104
161 157 101
166 161 102
164 160 104
161 156 101
160 156 101
159 155 99
156 152 98
165 160 99
155 150 91
163 161 102
159 153 98
164 157 99
166 160 103
166 161 102
168 162 99
147 142 88
166 161 98
152 148 94
163 158 98
152 146 87
154 148 85
171 164 101
142 139 77
131 128 75
156 151 93
147 141 79
152 146 85
151 145 90
133 128 70
140 134 80
138 133 77
139 133 77
143 135 82
153 155 60
175 197 0
171 196 0
176 199 0
171 195 0
172 197 0
174 197 0
172 196 0
172 196 0
174 197 0
173 197 0
170 193 0
173 197 0
172 196 0
175 198 0
175 198 0
173 197 0
172 196 0
173 196 0
175 198 0
174 198 0
171 195 0
175 198 0
176 198 0
174 198 0
172 196 0
175 198 0
173 197 0
174 198 0
174 198 0
174 198 0
174 198 0
175 198 0
175 198 0
174 198 0
173 196 0
176 199 0
173 197 0
175 197 0
175 198 0
173 196 0
174 198 0
174 197 0
172 196 0
173 197 0
175 198 0
175 198 0
175 197 0
177 199 0
174 198 0
175 198 0
174 197 0
172 196 0
173 197 0
172 196 0
173 196 0
175 198 0
174 198 0
173 196 0
173 196 0
172 196 0
172 196 0
173 195 0
175 198 0
175 197 0
172 196 0
172 195 0
172 196 0
172 196 0
175 197 0
174 198 0
173 196 0
173 197 0
171 194 0
174 198 0
172 195 0
174 198 0
175 197 0
174 198 0
173 197 0
176 199 0
171 195 0
171 195 0
172 196 0
173 197 0
172 195 0
176 198 0
173 196 0
173 196 0
173 197 0
174 198 0
172 196 0
174 197 0
177 199 0
172 196 0
173 197 0
174 198 0
175 198 0
177 199 0
173 197 0
173 197 0
174 198 0
173 197 0
174 197 0
174 197 0
175 198 0
173 196 0
173 196 0
171 194 0
176 199 0
175 198 0
173 195 0
172 195 0
174 197 0
174 197 0
174 197 0
174 196 0
174 198 0
174 197 0
173 196 0
171 195 0
177 199 0
174 197 0
173 196 0
175 198 0
175 198 0
172 195 0
173 195 0
176 199 0
174 197 0
170 193 0
173 197 0
174 198 0
175 198 0
172 196 0
174 197 0
172 195 0
174 195 0
174 197 0
171 195 0
174 196 0
175 196 0
176 198 0
173 196 0
173 197 0
172 196 0
172 196 0
175 198 0
174 197 0
172 195 0
173 196 0
173 196 0
174 196 0
174 198 0
176 199 0
173 197 0
172 195 0
173 196 0
175 198 0
174 196 0
172 196 0
170 194 0
174 197 0
172 196 0
174 198 0
173 195 0
168 193 0
173 196 0
173 196 0
174 196 0
172 196 0
171 193 0
171 195 0
174 197 0
172 196 0
171 195 0
174 198 0
171 194 0
176 198 0
173 197 0
173 197 0
174 197 0
176 199 0
172 196 0
169 192 0
170 194 0
171 195 0
171 194 0
173 196 0
173 195 0
173 196 0
174 198 0
170 192 0
173 196 0
175 196 0
173 197 0
174 197 0
172 195 0
172 197 0
174 197 0
176 198 0
171 194 0
174 198 0
171 196 0
172 196 0
172 195 0
172 194 0
171 194 0
172 195 0
175 197 0
172 196 0
172 194 0
170 194 0
173 195 0
173 197 0
171 194 0
173 195 0
176 199 0
174 197 0
171 194 0
172 194 0
173 196 0
172 195 0
172 197 0
171 193 0
173 195 0
170 193 0
175 198 0
172 195 0
175 198 0
173 197 0
174 197 0
172 196 0
171 194 0
174 197 0
175 198 0
174 198 0
171 194 0
171 195 0
174 197 0
175 198 0
171 195 0
169 194 0
172 195 0
174 197 0
172 196 0
169 193 0
174 196 0
175 197 0
173 196 0
172 195 0
171 194 0
173 195 0
171 195 0
167 182 51
129 124 66
132 127 62
125 120 64
141 136 68
145 139 74
159 153 90
156 150 88
156 152 85
158 152 85
152 145 87
150 145 88
159 152 88
143 139 73
153 146 88
157 151 97
156 150 88
168 161 99
152 149 95
159 154 93
154 150 90
157 152 95
152 147 90
153 148 97
157 153 95
152 148 97
162 158 99
150 147 97
151 147 93
145 142 92
168 163 104
163 158 101
158 155 101
157 153 100
159 156 101
160 155 101
163 159 106
152 150 98
151 148 98
166 162 105
165 162 106
154 151 101
156 154 102
168 164 107
163 160 106
166 162 108
166 163 108
165 160 107
165 163 109
160 157 104
159 158 106
164 162 109
157 154 103
167 165 109
170 166 110
171 167 110
164 161 108
163 162 109
166 164 109
160 159 108
167 165 111
170 166 109
171 168 112
169 165 110
169 165 110
165 161 108
166 164 110
167 165 110
166 162 108
172 170 113
168 167 112
168 165 111
172 169 113
169 166 112
172 169 113
166 163 110
169 167 112
171 168 112
172 167 111
161 159 106
162 158 104
172 168 110
173 170 113
172 169 112
169 165 109
171 168 112
167 164 109
168 165 109
164 160 106
170 167 110
171 167 110
174 171 114
165 162 108
166 163 108
175 171 113
169 166 109
164 161 107
161 158 104
165 162 102
165 161 107
162 158 104
168 165 109
168 166 110
156 153 99
171 168 110
171 168 110
162 158 104
168 164 108
172 167 110
165 160 104
167 162 104
164 160 103
163 158 95
165 160 99
164 159 103
167 161 102
166 161 103
164 159 101
171 164 107
163 158 102
155 150 95
156 152 94
162 157 101
173 167 109
165 160 97
164 158 101
164 159 99
151 145 90
164 158 98
160 156 94
169 162 102
148 143 85
158 152 87
149 146 91
159 152 93
151 145 88
154 149 94
162 155 93
149 143 88
147 141 84
146 140 84
146 139 77
142 137 77
159 153 82
143 138 77
132 126 64
147 139 80
169 187 39
173 197 0
173 197 0
173 197 0
175 198 0
175 198 0
173 197 0
174 197 0
175 197 0
174 196 0
174 197 0
173 195 0
173 195 0
172 196 0
173 197 0
174 197 0
175 198 0
174 197 0
172 196 0
175 198 0
175 198 0
169 193 0
174 198 0
175 198 0
172 196 0
170 194 0
173 197 0
171 195 0
176 199 0
175 198 0
171 195 0
173 197 0
175 198 0
173 196 0
173 197 0
171 194 0
174 198 0
173 197 0
174 197 0
174 198 0
175 198 0
172 196 0
172 195 0
172 195 0
176 199 0
173 197 0
174 197 0
172 195 0
172 196 0
177 199 0
173 197 0
171 196 0
174 197 0
175 198 0
172 195 0
173 197 0
172 196 0
175 198 0
174 197 0
175 198 0
173 197 0
174 197 0
174 198 0
173 196 0
174 197 0
175 198 0
175 198 0
176 199 0
174 198 0
172 195 0
174 198 0
172 197 0
171 194 0
171 195 0
172 196 0
173 197 0
176 198 0
174 198 0
170 195 0
173 197 0
170 194 0
172 196 0
172 195 0
174 198 0
172 195 0
172 194 0
174 197 0
170 195 0
173 197 0
174 198 0
173 197 0
172 197 0
174 198 0
175 197 0
172 196 0
172 196 0
173 195 0
175 198 0
173 197 0
173 196 0
174 197 0
169 192 0
175 198 0
174 197 0
174 197 0
173 195 0
174 198 0
173 196 0
175 198 0
171 194 0
172 195 0
170 194 0
174 198 0
172 197 0
174 197 0
172 195 0
174 197 0
174 197 0
173 197 0
170 193 0
172 196 0
169 192 0
172 195 0
173 197 0
173 196 0
176 198 0
173 197 0
172 196 0
172 196 0
174 196 0
175 198 0
176 199 0
174 198 0
173 197 0
176 198 0
171 194 0
172 194 0
171 195 0
173 197 0
169 193 0
174 197 0
172 195 0
172 195 0
173 196 0
174 198 0
170 194 0
169 192 0
171 194 0
175 198 0
172 195 0
171 195 0
170 192 0
173 196 0
173 196 0
172 196 0
174 196 0
174 197 0
170 192 0
171 195 0
171 194 0
175 198 0
172 196 0
174 197 0
173 195 0
174 196 0
176 197 0
171 195 0
170 194 0
174 197 0
168 192 0
175 197 0
174 198 0
173 195 0
172 195 0
172 196 0
172 195 0
175 197 0
172 195 0
173 195 0
174 197 0
171 193 0
171 195 0
171 194 0
173 197 0
174 197 0
173 196 0
174 195 0
172 195 0
169 192 0
174 198 0
172 196 0
176 199 0
169 192 0
173 196 0
173 196 0
173 196 0
174 196 0
172 194 0
170 194 0
175 197 0
173 196 0
174 197 0
175 197 0
173 196 0
174 196 0
173 197 0
174 198 0
173 196 0
171 194 0
173 196 0
172 196 0
172 194 0
173 196 0
174 197 0
172 196 0
174 197 0
170 193 0
173 197 0
175 198 0
174 198 0
172 195 0
169 194 0
173 197 0
170 191 0
170 192 0
174 197 0
172 196 0
174 197 0
170 193 0
173 196 0
170 193 0
171 194 0
173 196 0
173 196 0
173 197 0
172 195 0
174 196 0
172 195 0
170 193 0
173 196 0
176 198 0
174 197 0
174 195 0
172 193 0
173 196 0
171 194 0
173 195 0
172 196 0
171 194 0
171 192 0
173 197 0
172 195 0
174 196 0
127 130 56
125 119 62
128 124 58
134 128 75
145 139 79
152 145 85
140 135 72
155 149 81
152 147 87
141 137 82
161 154 95
158 153 86
154 149 84
157 152 90
152 146 84
152 147 88
154 148 84
156 151 93
158 152 99
158 154 96
162 157 93
161 155 97
163 158 103
156 152 93
137 135 85
174 167 104
160 156 99
164 158 101
154 151 92
158 155 97
155 153 101
162 159 103
153 150 98
149 144 93
156 152 99
160 158 104
159 156 101
163 158 104
161 157 104
164 160 106
163 159 106
156 153 101
163 160 106
166 163 109
160 158 104
162 160 107
164 161 107
158 155 104
157 154 99
163 162 108
156 154 103
162 160 106
161 159 106
161 158 106
168 164 109
167 165 109
166 163 109
154 152 103
167 164 109
167 164 109
168 166 111
165 163 109
172 169 112
167 166 112
167 165 111
171 167 111
171 168 112
173 170 113
173 169 112
168 164 109
168 164 109
171 167 111
169 166 110
170 168 112
168 166 111
162 160 108
171 167 110
174 170 113
164 162 109
167 165 111
168 166 110
170 167 110
161 159 106
171 168 112
169 166 110
170 167 110
168 166 110
171 168 112
172 167 110
169 165 108
171 169 112
175 170 112
166 162 107
169 165 107
175 171 113
172 167 110
175 170 112
171 166 109
169 165 106
165 162 104
169 165 109
168 164 108
171 166 109
170 164 104
170 166 108
168 164 108
173 169 112
171 166 108
166 162 104
169 165 107
167 163 107
156 152 98
173 168 109
173 168 109
163 159 102
160 156 98
160 155 101
170 163 102
166 162 103
156 152 94
164 160 103
169 164 106
169 163 103
154 151 95
166 159 101
164 159 95
164 157 97
171 165 103
156 150 93
157 153 95
168 162 95
162 156 97
165 158 94
155 151 91
151 144 87
161 154 94
148 142 84
153 148 91
144 138 77
160 153 87
148 143 82
152 146 84
148 141 80
141 136 77
150 144 75
146 140 75
141 136 75
152 156 66
175 198 0
173 197 0
175 198 0
173 197 0
176 198 0
172 195 0
174 198 0
174 198 0
173 197 0
171 194 0
175 197 0
173 197 0
172 195 0
175 198 0
173 197 0
174 198 0
172 196 0
175 198 0
174 198 0
174 198 0
173 197 0
173 197 0
172 195 0
176 199 0
175 198 0
173 196 0
172 196 0
174 197 0
172 197 0
175 198 0
175 198 0
173 196 0
175 198 0
176 198 0
173 197 0
174 197 0
173 197 0
172 194 0
175 198 0
173 196 0
174 198 0
172 197 0
174 198 0
175 197 0
174 198 0
170 194 0
174 198 0
173 197 0
175 198 0
174 197 0
176 199 0
177 199 0
173 197 0
175 198 0
175 198 0
170 194 0
173 197 0
173 196 0
172 196 0
174 198 0
172 194 0
174 197 0
175 198 0
176 199 0
175 198 0
173 197 0
173 197 0
172 196 0
175 198 0
172 196 0
172 197 0
175 198 0
170 195 0
174 197 0
173 196 0
172 196 0
173 197 0
172 195 0
177 199 0
174 197 0
176 199 0
172 195 0
173 197 0
174 195 0
174 197 0
175 198 0
177 199 0
174 198 0
172 195 0
174 198 0
175 198 0
172 195 0
173 196 0
174 198 0
173 196 0
173 196 0
174 198 0
172 196 0
175 197 0
172 196 0
170 194 0
174 197 0
173 197 0
173 196 0
173 196 0
175 198 0
173 196 0
173 196 0
172 194 0
173 196 0
170 194 0
172 195 0
172 196 0
173 195 0
171 194 0
172 196 0
173 196 0
173 196 0
174 198 0
173 196 0
173 197 0
173 197 0
171 195 0
173 197 0
173 196 0
171 195 0
173 195 0
173 196 0
175 198 0
173 195 0
172 195 0
175 198 0
172 195 0
172 196 0
175 198 0
171 195 0
175 198 0
173 196 0
174 197 0
173 195 0
172 196 0
174 197 0
168 191 0
174 198 0
172 196 0
172 195 0
171 195 0
174 197 0
173 197 0
171 195 0
173 197 0
175 197 0
171 194 0
167 192 0
174 197 0
172 195 0
174 197 0
170 195 0
174 198 0
175 198 0
170 194 0
170 193 0
172 197 0
171 195 0
170 193 0
175 197 0
174 197 0
173 197 0
173 197 0
169 192 0
173 197 0
177 199 0
172 195 0
171 194 0
170 193 0
174 197 0
174 197 0
170 193 0
171 194 0
171 196 0
170 194 0
173 196 0
173 196 0
175 198 0
173 197 0
171 194 0
175 198 0
174 196 0
174 197 0
173 196 0
173 197 0
173 196 0
173 196 0
175 197 0
172 195 0
172 194 0
174 196 0
173 196 0
172 194 0
171 195 0
173 196 0
173 195 0
169 191 0
171 195 0
172 194 0
172 195 0
171 194 0
173 197 0
173 197 0
174 197 0
172 196 0
173 195 0
174 196 0
174 197 0
174 196 0
170 192 0
170 192 0
175 198 0
171 194 0
176 199 0
173 196 0
174 197 0
170 193 0
175 197 0
176 197 0
172 195 0
173 196 0
176 199 0
172 195 0
173 197 0
174 197 0
175 196 0
170 194 0
171 195 0
173 194 0
173 197 0
173 194 0
174 197 0
173 195 0
167 188 0
169 190 0
172 197 0
170 194 0
172 195 0
172 195 0
171 194 0
171 194 0
170 194 0
175 198 0
173 195 0
172 196 0
160 179 28
142 135 74
139 134 70
143 138 64
124 119 68
136 130 68
148 141 82
156 148 89
153 147 81
168 161 88
137 132 83
150 144 83
156 150 86
160 153 93
154 148 85
157 151 93
155 150 91
166 160 103
149 145 89
146 143 90
159 153 99
166 160 99
157 152 92
160 154 99
147 143 88
157 154 100
159 153 97
156 153 95
152 148 93
156 153 96
164 159 104
166 161 106
163 157 101
145 142 95
142 139 91
159 155 99
161 157 103
162 159 104
161 158 102
158 154 99
155 153 103
158 157 104
158 155 103
162 160 106
164 162 108
161 158 105
161 159 106
167 164 110
170 166 110
169 166 109
158 156 103
165 161 108
162 160 108
169 165 110
150 149 103
171 168 112
169 166 110
169 166 110
170 168 112
164 162 108
167 166 111
169 166 111
170 167 112
167 164 110
169 167 111
169 166 111
167 164 109
166 163 109
171 167 111
167 165 110
166 164 110
168 165 109
165 163 109
166 164 109
169 166 110
169 165 109
162 159 106
172 168 110
174 170 113
168 165 110
172 169 113
171 168 112
171 169 113
172 168 112
173 170 113
167 165 110
174 171 113
172 168 112
168 164 108
171 170 113
168 165 109
170 166 109
171 167 110
170 165 109
165 161 106
167 163 108
168 165 109
166 163 108
171 167 110
175 171 113
162 160 104
167 163 108
172 168 112
168 164 106
163 160 103
172 167 109
168 163 107
166 163 107
163 160 104
160 157 104
163 158 103
169 166 110
165 162 106
171 165 107
169 164 107
163 159 102
164 159 104
162 157 101
166 161 101
172 167 108
166 161 104
168 163 102
161 156 98
167 162 103
163 160 101
164 159 99
155 150 93
151 146 94
165 161 102
164 158 98
163 157 97
160 155 97
162 157 97
157 151 93
163 158 99
153 147 87
156 150 91
153 148 84
138 132 84
148 143 90
161 154 90
155 148 90
131 126 75
146 140 74
131 125 70
132 128 77
149 143 77
127 122 64
125 121 64
175 194 32
176 198 0
174 198 0
173 196 0
175 198 0
174 198 0
172 196 0
173 197 0
174 197 0
175 197 0
173 197 0
173 196 0
173 196 0
175 197 0
173 197 0
174 197 0
172 197 0
175 198 0
173 196 0
176 199 0
174 197 0
173 196 0
173 196 0
173 196 0
172 197 0
173 197 0
176 198 0
169 193 0
175 198 0
174 198 0
173 195 0
171 194 0
170 194 0
175 198 0
175 197 0
173 195 0
175 198 0
172 197 0
171 195 0
174 197 0
171 194 0
174 197 0
173 196 0
173 197 0
172 197 0
174 198 0
174 196 0
175 198 0
176 199 0
171 195 0
171 195 0
176 199 0
171 196 0
175 197 0
176 199 0
174 197 0
174 197 0
177 199 0
174 197 0
172 196 0
173 196 0
173 197 0
172 196 0
172 196 0
173 197 0
173 196 0
173 197 0
172 196 0
171 195 0
174 198 0
173 197 0
174 197 0
174 196 0
174 197 0
173 195 0
171 194 0
172 196 0
173 196 0
174 196 0
173 196 0
172 195 0
174 197 0
173 197 0
173 197 0
171 195 0
175 197 0
175 198 0
173 196 0
175 198 0
175 198 0
174 196 0
175 198 0
173 197 0
175 198 0
173 197 0
175 198 0
171 195 0
173 197 0
175 198 0
173 197 0
171 195 0
172 196 0
175 198 0
172 195 0
173 196 0
175 197 0
170 194 0
173 197 0
174 198 0
172 195 0
172 196 0
173 197 0
173 196 0
173 197 0
172 197 0
172 197 0
172 196 0
175 198 0
173 197 0
171 195 0
173 196 0
174 197 0
174 197 0
173 197 0
173 197 0
173 196 0
174 197 0
174 197 0
172 194 0
173 195 0
175 198 0
172 195 0
174 197 0
175 198 0
171 194 0
170 195 0
173 196 0
173 196 0
171 193 0
177 199 0
172 195 0
175 198 0
174 197 0
170 193 0
173 196 0
175 198 0
172 196 0
172 194 0
173 196 0
173 197 0
177 199 0
170 193 0
174 198 0
173 197 0
174 196 0
175 198 0
169 190 0
174 197 0
172 195 0
172 195 0
173 196 0
174 196 0
169 193 0
173 196 0
171 194 0
171 196 0
170 192 0
171 195 0
173 195 0
174 197 0
169 192 0
174 198 0
175 197 0
172 196 0
174 197 0
171 195 0
172 195 0
176 198 0
172 197 0
173 197 0
170 195 0
174 198 0
173 196 0
171 194 0
176 198 0
173 197 0
173 197 0
173 196 0
173 197 0
171 194 0
171 194 0
174 196 0
172 195 0
173 197 0
171 194 0
172 194 0
172 195 0
173 197 0
171 195 0
174 197 0
172 195 0
171 196 0
167 189 0
172 195 0
174 198 0
174 198 0
173 197 0
169 192 0
166 189 0
175 198 0
175 198 0
174 198 0
170 193 0
170 193 0
172 194 0
171 194 0
175 198 0
173 197 0
175 197 0
172 196 0
175 197 0
171 192 0
168 192 0
172 195 0
174 197 0
170 194 0
172 195 0
174 197 0
175 197 0
171 194 0
171 194 0
173 196 0
174 197 0
174 198 0
173 197 0
172 196 0
171 193 0
172 196 0
172 195 0
173 195 0
174 197 0
173 197 0
170 193 0
171 195 0
174 196 0
174 197 0
172 196 0
173 195 0
174 197 0
172 194 0
171 195 0
130 131 53
132 127 62
154 147 79
135 130 64
144 137 77
140 134 70
133 128 74
150 143 77
149 144 85
155 147 87
162 155 90
140 134 70
143 139 80
135 130 73
146 139 87
152 147 83
161 156 90
157 151 92
159 153 95
154 149 91
147 143 90
156 151 99
157 153 97
154 150 96
149 145 90
158 155 100
147 145 97
144 142 95
147 143 88
163 157 102
135 133 86
157 154 100
153 149 96
146 146 96
164 160 105
164 161 106
154 151 101
159 156 104
165 161 107
149 147 99
165 162 108
155 153 101
158 156 101
162 159 106
158 155 103
161 159 105
161 159 106
154 152 100
157 155 105
159 157 106
166 164 110
154 151 101
163 160 107
171 167 111
166 163 109
165 162 109
166 163 109
169 166 111
166 163 109
166 164 110
167 163 109
163 161 108
168 165 111
172 168 112
162 159 106
167 163 109
169 167 111
164 161 107
168 166 112
169 166 112
177 173 114
167 164 109
169 166 111
173 170 112
170 167 110
169 166 110
172 169 112
170 167 112
167 164 109
163 161 108
175 171 113
166 163 109
178 173 114
172 168 112
173 169 112
172 168 112
171 167 110
170 166 109
174 170 113
175 172 114
166 163 108
167 165 107
172 168 112
175 170 113
171 167 110
178 172 113
170 166 109
163 161 107
167 163 104
173 169 112
170 167 112
174 170 113
172 168 112
169 166 109
167 163 107
168 164 107
168 165 103
170 166 107
168 163 102
169 165 107
169 165 108
159 156 101
161 157 101
164 159 102
160 156 101
170 165 104
168 163 104
167 164 106
161 157 99
165 160 101
165 161 104
166 161 104
164 158 103
164 158 99
165 161 102
156 152 93
166 162 101
159 154 97
157 152 91
157 152 88
159 154 97
162 158 95
167 163 99
160 155 95
159 153 95
163 155 94
153 147 90
156 149 94
154 149 88
157 151 91
155 148 90
151 145 77
143 137 77
143 138 70
160 153 91
148 141 82
131 126 77
134 128 70
131 125 70
151 167 32
174 198 0
173 197 0
171 195 0
174 197 0
174 197 0
173 197 0
173 197 0
170 194 0
176 198 0
174 198 0
172 196 0
178 200 0
172 196 0
174 197 0
175 198 0
173 196 0
172 196 0
174 198 0
176 198 0
175 198 0
172 197 0
174 197 0
173 196 0
171 194 0
173 197 0
176 198 0
174 197 0
173 197 0
176 198 0
169 193 0
175 198 0
171 194 0
176 199 0
175 198 0
175 198 0
175 198 0
175 198 0
175 198 0
175 198 0
174 197 0
175 198 0
174 198 0
174 198 0
174 198 0
173 196 0
177 199 0
176 198 0
175 198 0
172 194 0
174 198 0
174 197 0
172 196 0
175 198 0
173 197 0
177 199 0
174 197 0
172 196 0
173 197 0
171 196 0
175 198 0
172 195 0
174 197 0
175 197 0
173 195 0
173 197 0
173 197 0
168 191 0
173 197 0
177 198 0
175 196 0
174 198 0
172 196 0
171 195 0
174 197 0
176 199 0
173 196 0
175 198 0
172 195 0
175 197 0
174 196 0
173 195 0
171 194 0
172 196 0
173 197 0
173 196 0
173 197 0
176 198 0
171 194 0
170 194 0
174 196 0
173 196 0
172 194 0
174 198 0
171 194 0
174 197 0
174 197 0
169 194 0
174 197 0
173 197 0
173 197 0
174 198 0
176 199 0
173 197 0
168 193 0
174 197 0
173 197 0
176 198 0
170 195 0
173 196 0
173 196 0
174 198 0
176 199 0
173 196 0
170 193 0
171 194 0
171 195 0
173 196 0
171 193 0
171 194 0
174 198 0
172 196 0
173 196 0
172 196 0
173 195 0
173 195 0
170 195 0
172 196 0
171 193 0
175 198 0
171 194 0
173 196 0
174 197 0
173 196 0
175 197 0
172 197 0
173 197 0
174 197 0
175 198 0
174 196 0
174 198 0
173 196 0
173 197 0
173 197 0
174 197 0
172 195 0
168 192 0
172 197 0
173 197 0
174 197 0
173 196 0
174 197 0
173 196 0
170 194 0
172 197 0
168 192 0
174 197 0
173 197 0
172 196 0
173 196 0
173 196 0
169 193 0
167 190 0
174 197 0
174 198 0
173 197 0
175 197 0
169 194 0
173 197 0
172 195 0
176 199 0
174 197 0
171 195 0
168 192 0
174 198 0
171 195 0
172 195 0
173 195 0
174 198 0
175 197 0
173 197 0
173 197 0
174 197 0
169 193 0
172 196 0
170 193 0
172 196 0
171 196 0
168 191 0
174 197 0
174 197 0
164 187 0
170 193 0
170 194 0
177 199 0
171 195 0
173 197 0
174 196 0
174 198 0
172 194 0
171 194 0
172 196 0
173 197 0
170 195 0
175 198 0
173 197 0
175 198 0
170 194 0
172 196 0
171 194 0
173 197 0
173 197 0
176 198 0
171 193 0
174 196 0
170 193 0
172 195 0
170 195 0
176 197 0
175 198 0
173 196 0
173 197 0
174 198 0
175 197 0
171 194 0
175 198 0
172 194 0
173 196 0
173 196 0
173 196 0
171 194 0
170 193 0
173 196 0
173 196 0
168 190 0
172 195 0
171 195 0
172 195 0
174 198 0
172 194 0
173 195 0
174 196 0
173 197 0
172 194 0
174 196 0
171 195 0
172 195 0
173 196 0
173 195 0
173 196 0
157 177 16
122 116 51
124 118 51
128 123 62
143 137 66
138 133 58
149 143 80
143 139 83
140 135 67
151 145 85
158 152 89
144 139 79
134 129 75
157 150 84
150 143 90
145 141 85
150 147 85
142 137 79
157 152 93
158 151 94
162 157 99
160 154 94
142 138 87
143 140 90
152 146 92
156 151 97
152 148 94
161 156 100
153 151 93
165 159 96
157 152 96
158 154 100
156 151 99
156 152 99
156 153 102
165 161 107
168 164 108
153 150 99
161 158 105
159 156 102
150 149 102
167 163 108
164 160 106
151 150 103
161 158 106
163 160 107
171 168 110
160 157 104
161 159 107
160 158 106
168 165 111
159 157 106
159 157 108
166 162 108
164 161 107
171 167 112
165 163 109
167 164 109
170 167 111
168 165 110
163 160 108
171 169 113
167 165 112
163 161 108
171 167 110
164 160 107
165 164 111
170 166 110
172 169 112
163 161 109
171 167 112
170 167 111
170 167 110
169 166 110
173 170 112
172 169 112
172 169 113
170 167 110
171 168 112
171 167 109
171 167 110
171 168 112
163 161 108
165 162 106
165 162 108
168 165 110
167 162 108
173 169 113
175 171 113
167 166 109
172 167 109
168 165 108
173 170 113
171 167 109
175 171 113
169 165 108
174 170 109
172 167 109
173 167 108
159 156 103
173 168 109
172 167 109
168 164 108
169 165 107
158 154 99
166 162 104
164 162 106
169 163 106
172 168 110
167 163 107
163 160 104
163 159 104
167 163 104
168 164 104
164 159 102
163 158 103
162 159 103
173 168 108
171 166 107
169 164 107
171 166 107
161 155 99
155 150 93
172 165 102
162 157 97
170 166 103
155 149 93
157 152 93
159 153 93
158 153 98
144 140 87
150 145 90
159 153 97
161 157 93
157 151 95
154 149 91
163 157 93
157 151 91
159 153 93
161 155 97
134 130 60
150 143 85
158 151 88
146 140 87
145 139 85
138 133 70
148 141 84
138 132 72
136 131 68
138 133 64
138 136 68
170 192 0
174 197 0
174 198 0
175 197 0
175 198 0
173 197 0
175 198 0
172 194 0
174 196 0
171 194 0
174 197 0
171 194 0
176 198 0
175 198 0
173 197 0
175 197 0
175 198 0
174 198 0
175 198 0
172 195 0
174 197 0
175 198 0
172 197 0
175 197 0
172 196 0
172 195 0
171 195 0
174 197 0
173 197 0
173 196 0
173 197 0
175 198 0
173 197 0
173 197 0
174 198 0
172 196 0
176 199 0
175 198 0
174 197 0
173 197 0
173 196 0
173 197 0
174 198 0
170 194 0
174 197 0
174 198 0
174 198 0
173 197 0
174 198 0
173 196 0
172 196 0
174 197 0
172 195 0
173 197 0
174 197 0
174 197 0
174 198 0
173 197 0
175 198 0
176 199 0
173 197 0
171 195 0
174 197 0
175 198 0
175 198 0
175 198 0
171 195 0
173 196 0
177 199 0
172 196 0
172 197 0
173 196 0
173 196 0
173 197 0
175 198 0
172 194 0
174 198 0
171 194 0
173 197 0
172 195 0
173 196 0
175 198 0
175 198 0
172 195 0
173 197 0
173 196 0
171 194 0
172 194 0
174 198 0
174 197 0
169 193 0
172 197 0
173 197 0
174 198 0
176 198 0
174 197 0
174 197 0
174 197 0
174 197 0
172 195 0
172 196 0
174 198 0
172 196 0
172 197 0
175 198 0
172 196 0
175 198 0
175 197 0
172 196 0
174 197 0
174 198 0
171 195 0
173 196 0
173 195 0
169 193 0
171 194 0
174 196 0
172 196 0
175 198 0
171 195 0
174 197 0
175 198 0
172 195 0
173 197 0
174 197 0
173 196 0
172 195 0
171 194 0
171 194 0
174 198 0
173 197 0
173 196 0
172 195 0
174 197 0
175 197 0
173 196 0
170 193 0
174 197 0
174 198 0
171 195 0
174 197 0
174 197 0
172 195 0
172 196 0
173 196 0
172 197 0
174 196 0
173 196 0
173 195 0
173 197 0
173 194 0
174 198 0
175 198 0
175 197 0
175 198 0
171 194 0
175 198 0
171 193 0
167 190 0
172 195 0
174 196 0
170 194 0
171 195 0
172 196 0
174 196 0
176 199 0
169 192 0
173 197 0
169 192 0
173 196 0
171 194 0
173 197 0
172 196 0
171 195 0
171 195 0
173 197 0
174 197 0
172 196 0
168 192 0
176 199 0
171 194 0
174 197 0
174 195 0
170 194 0
169 192 0
174 197 0
172 195 0
173 195 0
171 193 0
175 197 0
172 194 0
174 197 0
176 199 0
172 195 0
174 198 0
175 198 0
175 198 0
173 196 0
174 196 0
174 197 0
175 198 0
171 193 0
171 193 0
171 194 0
171 195 0
172 196 0
171 194 0
170 192 0
171 194 0
171 193 0
174 197 0
172 197 0
171 195 0
174 198 0
172 195 0
175 198 0
174 198 0
174 196 0
171 194 0
171 195 0
174 197 0
171 194 0
170 194 0
174 196 0
169 192 0
172 196 0
174 196 0
175 198 0
173 196 0
169 192 0
170 192 0
171 195 0
170 194 0
171 193 0
175 197 0
172 195 0
175 196 0
173 196 0
174 197 0
176 198 0
169 193 0
172 195 0
175 197 0
173 197 0
174 197 0
170 193 0
173 195 0
172 195 0
170 193 0
146 158 39
127 122 58
134 127 64
135 131 62
135 130 68
142 136 74
140 134 72
146 141 75
140 133 77
133 128 67
151 146 84
152 147 80
152 147 87
155 150 91
141 135 80
154 149 92
153 148 90
139 135 78
147 142 87
153 149 91
157 154 95
171 164 104
138 135 84
146 144 89
154 149 93
156 153 97
144 140 90
153 148 95
155 150 94
163 157 101
154 152 98
152 150 98
154 150 97
155 151 100
152 151 100
158 155 101
153 149 98
159 156 102
158 155 103
153 152 103
165 161 106
149 147 100
157 155 104
160 156 102
156 153 101
159 157 104
166 163 109
158 156 106
152 149 101
160 158 105
168 163 106
168 164 109
162 160 109
155 154 105
162 159 107
168 165 109
166 162 108
157 155 105
157 154 104
169 165 110
170 165 109
163 161 108
163 160 108
174 171 113
170 166 110
173 169 110
172 168 112
169 165 109
160 158 106
168 166 109
163 160 108
171 167 111
166 164 109
171 167 110
171 168 112
166 164 109
169 165 109
176 172 114
169 165 110
171 168 112
163 161 108
171 168 111
170 166 110
170 167 110
169 166 110
171 168 112
169 166 110
171 168 110
170 167 110
169 166 109
174 170 113
170 167 112
170 166 108
173 170 112
172 169 110
172 168 109
164 162 107
176 169 109
156 153 99
168 164 107
167 164 106
170 165 108
174 170 110
167 162 106
168 164 108
167 164 106
163 159 99
170 166 109
165 161 103
172 168 109
163 159 103
165 161 106
164 160 101
167 163 101
168 163 107
167 161 101
168 164 103
167 161 101
171 166 106
170 164 103
155 152 97
169 165 106
162 157 99
167 161 97
165 161 101
156 151 93
156 151 93
160 155 93
165 159 101
164 159 99
155 148 91
142 138 84
171 164 98
147 141 82
145 139 80
154 148 91
161 155 88
153 148 91
153 147 91
145 140 80
156 150 91
159 152 85
151 147 91
144 139 79
156 149 85
145 139 80
160 151 87
140 134 75
137 130 72
127 122 66
138 131 74
156 169 42
175 198 0
174 197 0
169 192 0
175 198 0
172 194 0
172 197 0
174 197 0
175 198 0
173 196 0
174 198 0
174 198 0
175 198 0
174 198 0
174 197 0
176 198 0
171 196 0
173 196 0
173 197 0
173 197 0
175 198 0
172 196 0
173 197 0
174 198 0
172 196 0
173 197 0
174 198 0
173 197 0
175 197 0
175 198 0
175 198 0
174 197 0
175 197 0
173 196 0
175 198 0
173 196 0
176 198 0
173 196 0
174 198 0
174 198 0
172 195 0
174 198 0
173 196 0
173 197 0
176 199 0
174 197 0
173 196 0
175 198 0
173 197 0
176 199 0
174 198 0
173 196 0
171 194 0
176 198 0
169 193 0
173 196 0
172 196 0
173 197 0
174 197 0
175 198 0
173 197 0
173 196 0
171 195 0
176 199 0
173 197 0
171 194 0
175 198 0
172 194 0
172 197 0
176 199 0
173 197 0
174 197 0
175 198 0
174 198 0
173 196 0
174 198 0
176 198 0
172 197 0
173 197 0
173 196 0
174 198 0
171 194 0
175 198 0
172 197 0
172 197 0
173 195 0
171 195 0
175 198 0
172 197 0
175 198 0
171 195 0
174 197 0
172 196 0
175 198 0
175 197 0
173 196 0
174 198 0
172 197 0
172 195 0
172 196 0
169 192 0
176 197 0
177 199 0
176 199 0
174 197 0
171 193 0
174 198 0
176 199 0
174 198 0
175 198 0
174 197 0
173 197 0
173 196 0
172 197 0
172 195 0
170 193 0
171 195 0
171 195 0
176 198 0
171 195 0
174 197 0
174 196 0
175 197 0
172 195 0
173 197 0
174 197 0
173 195 0
172 194 0
171 194 0
175 198 0
175 197 0
174 198 0
171 195 0
175 198 0
174 196 0
172 196 0
173 197 0
175 198 0
174 197 0
171 195 0
172 196 0
171 195 0
175 198 0
172 197 0
172 195 0
172 195 0
172 196 0
170 193 0
171 194 0
169 191 0
171 194 0
171 195 0
173 197 0
173 196 0
176 199 0
172 196 0
172 195 0
174 197 0
172 197 0
171 194 0
174 197 0
172 195 0
176 199 0
175 197 0
172 196 0
173 196 0
172 195 0
174 197 0
171 195 0
170 191 0
174 197 0
171 195 0
173 197 0
171 194 0
173 195 0
174 196 0
172 195 0
171 194 0
172 197 0
176 198 0
173 197 0
170 194 0
171 194 0
175 198 0
175 198 0
172 195 0
174 198 0
173 195 0
172 196 0
173 197 0
170 193 0
174 198 0
173 196 0
169 193 0
173 197 0
173 197 0
171 194 0
175 197 0
172 196 0
171 195 0
171 195 0
170 193 36
166 189 51
144 170 105
147 170 95
136 160 125
132 157 125
123 149 137
124 150 133
126 153 133
132 157 125
120 145 130
134 158 117
131 156 125
135 160 120
127 152 130
126 152 120
142 168 105
157 179 76
151 175 88
170 191 51
169 192 0
172 196 0
174 197 0
175 198 0
173 197 0
172 195 0
175 198 0
176 199 0
173 196 0
172 196 0
175 198 0
174 197 0
171 193 0
171 196 0
173 196 0
170 194 0
170 193 0
170 193 0
174 197 0
170 193 0
172 195 0
170 192 0
172 194 0
174 198 0
172 195 0
167 190 0
171 194 0
171 194 0
124 119 62
120 117 60
140 134 68
143 137 72
147 141 74
127 124 64
141 136 74
154 147 82
150 143 84
148 142 84
136 132 78
155 150 84
146 142 81
155 147 88
134 132 81
157 150 91
139 136 72
148 143 92
156 151 93
146 140 86
135 133 81
147 143 90
158 151 94
158 155 98
165 159 97
139 137 92
157 153 98
153 148 97
149 146 94
163 158 99
158 154 101
150 148 99
146 144 96
154 151 99
155 153 103
159 156 103
164 160 105
155 154 101
158 156 103
160 156 102
157 155 104
166 163 108
151 150 100
160 158 107
161 159 106
160 157 104
157 155 104
163 160 108
166 162 109
148 146 98
158 156 106
164 161 108
160 159 106
163 161 108
151 150 103
166 163 108
161 160 108
165 162 109
160 158 104
161 159 108
168 165 110
170 168 113
167 164 110
163 161 108
162 159 107
164 163 110
172 168 112
166 164 111
169 167 112
168 165 110
169 166 110
171 167 110
168 165 110
167 164 109
167 164 109
170 166 110
169 165 110
170 167 111
169 166 110
172 168 110
168 164 108
173 169 112
167 165 108
170 167 110
176 171 113
170 168 112
173 171 114
177 172 112
171 167 108
173 169 112
167 164 107
174 170 109
169 165 108
168 164 107
167 165 107
170 166 109
164 162 107
172 168 110
168 164 107
165 162 106
169 165 108
170 166 110
174 168 108
174 169 109
171 166 108
171 166 109
163 161 103
162 159 104
163 160 104
173 168 106
168 164 107
168 164 108
172 168 107
160 157 98
168 164 106
168 163 104
167 163 104
165 161 104
163 158 103
160 156 99
173 167 108
163 159 98
168 164 103
161 156 101
158 154 95
166 161 103
163 157 94
162 157 98
170 163 101
154 150 94
162 157 99
168 162 101
153 148 88
158 152 95
145 139 85
158 152 93
157 150 90
138 134 77
151 146 87
154 149 94
159 151 87
160 154 94
154 148 90
149 142 80
142 135 79
150 144 79
148 141 79
146 140 77
142 137 72
140 134 75
121 117 64
149 156 53
174 197 0
174 197 0
172 195 0
172 195 0
171 194 0
174 197 0
174 198 0
174 197 0
173 197 0
175 198 0
172 195 0
175 198 0
173 197 0
175 197 0
171 194 0
172 195 0
175 198 0
173 197 0
177 199 0
172 197 0
173 195 0
173 196 0
173 196 0
174 198 0
173 196 0
173 196 0
176 199 0
175 198 0
171 195 0
174 198 0
176 199 0
174 197 0
172 195 0
171 194 0
173 197 0
171 196 0
176 199 0
174 197 0
175 197 0
174 197 0
172 194 0
176 199 0
173 197 0
175 198 0
174 198 0
172 197 0
173 196 0
171 195 0
174 198 0
174 196 0
173 196 0
170 194 0
174 198 0
168 192 0
175 197 0
173 196 0
174 196 0
174 198 0
175 197 0
174 197 0
171 194 0
170 195 0
172 196 0
175 198 0
175 198 0
175 198 0
175 198 0
172 196 0
175 198 0
174 197 0
172 197 0
171 196 0
175 198 0
170 194 0
174 197 0
170 193 0
174 197 0
174 196 0
172 196 0
172 196 0
171 194 0
174 197 0
175 198 0
175 198 0
174 198 0
170 194 0
176 199 0
175 198 0
173 196 0
172 195 0
173 196 0
174 197 0
170 194 0
174 197 0
173 196 0
174 196 0
170 194 0
174 198 0
173 197 0
171 193 0
174 197 0
173 196 0
176 199 0
175 198 0
174 198 0
173 196 0
174 198 0
171 194 0
172 196 0
174 198 0
173 196 0
175 198 0
174 198 0
172 196 0
173 196 0
174 197 0
172 196 0
174 197 0
174 198 0
178 200 0
174 197 0
172 197 0
173 197 0
172 194 0
172 195 0
172 195 0
171 194 0
175 198 0
172 196 0
173 197 0
174 196 0
172 195 0
172 195 0
169 193 0
168 192 0
172 195 0
173 196 0
174 198 0
172 196 0
173 196 0
172 195 0
172 196 0
174 198 0
171 195 0
174 198 0
174 196 0
174 196 0
175 198 0
173 197 0
174 197 0
169 193 0
167 191 0
169 192 0
173 197 0
172 195 0
171 194 0
171 195 0
170 194 0
175 198 0
168 191 0
172 194 0
173 196 0
170 195 0
170 194 0
173 195 0
173 196 0
174 197 0
172 196 0
172 196 0
172 196 0
173 197 0
174 197 0
172 196 0
168 192 0
177 199 0
171 194 0
169 191 0
176 198 0
174 197 0
175 197 0
172 196 0
175 198 0
174 197 0
176 199 0
171 195 0
170 194 0
172 197 0
173 197 0
172 195 0
173 194 0
173 196 0
168 192 0
173 197 0
171 194 36
157 181 84
134 158 122
126 152 133
107 135 151
88 118 165
68 104 175
63 100 179
62 99 181
62 99 179
62 99 181
62 99 179
62 99 181
61 99 181
61 98 181
60 98 181
61 99 181
61 99 181
62 99 181
62 99 179
61 98 177
61 98 181
61 98 181
62 99 179
62 99 179
61 98 177
61 98 179
66 102 177
86 117 169
103 132 151
118 145 142
141 164 111
154 177 84
162 186 63
171 194 0
171 193 0
173 196 0
172 194 0
172 195 0
172 196 0
170 192 0
173 196 0
170 193 0
172 194 0
172 195 0
172 194 0
171 191 0
169 191 0
175 198 0
172 194 0
170 193 0
175 198 0
170 194 0
171 193 0
135 147 32
111 108 48
147 141 74
147 140 74
132 127 66
121 117 51
143 137 79
154 147 88
154 147 84
145 141 80
150 144 85
145 139 84
142 135 78
154 148 87
158 152 92
152 147 91
147 142 87
156 150 90
146 141 79
142 137 86
150 146 93
141 138 84
150 146 87
160 156 102
145 143 93
152 147 93
149 145 89
162 157 101
154 149 97
158 154 99
156 152 97
165 161 103
169 163 104
163 159 101
160 155 101
167 163 107
153 150 100
154 151 102
149 148 98
164 161 108
146 144 96
158 154 103
157 154 103
162 160 107
163 160 108
155 154 106
153 152 101
161 159 107
173 168 112
159 157 106
158 155 104
166 163 108
167 163 108
157 156 104
164 161 107
172 168 111
157 155 106
153 152 103
162 160 108
171 167 111
155 154 103
168 165 110
167 165 110
161 158 106
168 165 110
169 166 111
169 165 110
166 162 108
167 164 108
159 158 106
163 160 108
170 167 112
167 164 109
173 170 113
170 167 111
172 167 111
169 167 112
165 161 108
174 170 112
166 164 109
163 161 106
173 170 112
175 171 113
168 165 109
171 168 112
174 171 113
173 169 112
170 167 108
174 170 112
173 169 112
173 170 112
176 172 114
167 164 109
168 165 109
174 171 113
172 169 112
165 164 107
173 169 112
171 167 108
168 165 107
170 165 107
166 163 107
169 164 107
172 169 112
175 171 112
172 168 110
172 168 109
165 160 104
169 165 109
169 165 101
177 172 110
164 158 97
174 169 112
167 162 103
163 158 99
163 159 99
166 161 104
168 164 103
168 163 106
168 163 101
168 163 102
161 157 98
168 164 103
164 161 99
165 160 101
172 165 103
166 160 97
158 153 93
165 161 102
158 154 98
167 163 101
164 158 98
164 157 99
157 152 95
160 155 95
158 151 95
153 148 87
149 144 88
161 153 98
158 151 91
156 150 87
164 157 94
153 147 87
138 132 77
165 158 99
151 146 87
140 135 80
150 144 74
146 139 79
155 148 82
138 133 72
134 128 64
136 133 66
172 195 16
174 198 0
172 195 0
172 195 0
175 198 0
177 199 0
175 198 0
174 196 0
175 198 0
172 194 0
174 197 0
171 195 0
175 198 0
175 198 0
177 199 0
175 198 0
174 197 0
173 197 0
175 198 0
174 197 0
174 198 0
174 198 0
172 195 0
171 196 0
173 196 0
175 198 0
175 198 0
174 198 0
174 198 0
174 198 0
172 196 0
173 197 0
173 195 0
171 196 0
176 198 0
174 198 0
174 197 0
173 197 0
174 197 0
173 196 0
172 197 0
174 198 0
172 196 0
173 196 0
173 197 0
176 198 0
171 195 0
172 197 0
174 197 0
170 195 0
174 197 0
171 195 0
174 198 0
173 196 0
174 197 0
172 196 0
173 197 0
175 198 0
173 196 0
172 196 0
176 199 0
173 197 0
174 197 0
173 196 0
174 197 0
172 196 0
176 198 0
172 197 0
174 197 0
172 195 0
172 196 0
173 195 0
175 198 0
170 194 0
173 197 0
175 198 0
173 196 0
174 197 0
173 195 0
171 194 0
172 196 0
173 196 0
171 194 0
172 195 0
170 194 0
173 196 0
172 197 0
173 197 0
174 197 0
173 197 0
172 195 0
172 194 0
170 195 0
172 197 0
176 198 0
169 193 0
172 196 0
172 196 0
173 196 0
173 197 0
177 199 0
171 194 0
173 197 0
175 198 0
176 199 0
174 196 0
173 196 0
173 195 0
171 196 0
172 195 0
171 195 0
174 197 0
174 198 0
170 193 0
173 196 0
171 194 0
173 196 0
174 197 0
174 198 0
173 197 0
175 198 0
172 196 0
173 196 0
170 193 0
172 195 0
172 194 0
171 195 0
174 197 0
174 197 0
173 197 0
173 196 0
174 197 0
174 198 0
171 195 0
175 198 0
171 194 0
173 196 0
173 196 0
171 194 0
170 195 0
175 198 0
174 197 0
175 198 0
173 197 0
173 196 0
172 196 0
174 195 0
172 195 0
174 196 0
175 198 0
174 197 0
173 197 0
170 193 0
172 196 0
172 196 0
173 197 0
172 196 0
173 195 0
174 196 0
171 193 0
172 196 0
172 196 0
171 194 0
173 197 0
174 197 0
173 197 0
175 197 0
173 197 0
172 195 0
176 199 0
171 195 0
172 196 0
174 198 0
170 194 0
173 196 0
167 190 0
174 197 0
173 196 0
174 197 0
173 197 0
172 195 0
174 197 0
169 193 0
170 193 0
174 196 0
173 196 0
172 195 0
176 198 0
172 195 36
151 174 92
139 163 99
100 128 157
80 113 171
61 98 181
62 99 181
62 99 181
62 99 181
61 99 179
62 99 181
61 99 179
61 98 177
62 99 181
61 98 179
62 99 181
62 99 181
62 99 181
62 99 181
61 99 181
61 99 181
62 99 181
61 99 181
61 98 181
62 99 181
61 98 179
62 99 181
61 99 181
61 98 179
61 98 181
61 99 181
62 99 179
62 99 181
60 98 179
62 99 179
63 99 179
61 98 179
62 99 179
61 98 178
95 125 160
123 150 133
118 143 135
153 176 80
166 190 51
172 195 0
172 193 0
170 193 0
176 198 0
177 199 0
175 198 0
171 195 0
171 195 0
166 188 0
172 194 0
169 192 0
172 196 0
174 197 0
172 194 0
172 197 0
127 133 39
114 110 51
135 129 64
150 145 79
141 135 66
136 129 72
136 130 74
130 126 67
151 145 80
149 143 82
150 145 81
142 136 77
147 142 82
159 151 93
158 152 91
156 150 90
157 152 89
144 141 88
152 147 88
158 152 92
153 147 93
143 139 82
160 156 99
152 149 96
137 134 84
149 146 92
152 148 93
139 137 93
149 146 96
146 144 94
159 156 102
157 152 101
158 154 99
156 153 100
152 151 99
155 152 98
153 151 101
154 152 100
159 156 105
158 157 105
164 160 105
156 154 102
161 158 105
156 154 103
151 150 102
158 156 104
161 159 107
148 148 102
161 158 105
150 148 99
164 162 108
159 158 107
168 164 109
164 161 108
157 155 106
169 166 110
168 165 109
164 161 107
152 152 101
168 163 109
166 162 107
157 156 106
172 169 113
160 157 106
163 159 106
173 169 112
168 166 112
174 171 114
170 167 112
170 166 110
169 167 111
173 170 113
169 166 111
161 160 107
167 164 110
168 165 108
168 165 111
169 166 110
174 170 112
174 170 112
173 169 112
171 168 112
170 167 110
170 166 110
175 170 110
177 171 112
171 168 112
173 169 109
173 169 112
170 167 112
173 170 112
172 168 112
170 168 112
172 170 110
176 171 112
171 168 110
174 170 112
176 171 108
169 165 107
173 169 109
174 170 112
167 163 107
171 167 110
168 163 108
165 161 102
166 163 104
166 164 107
171 166 107
167 162 106
170 165 107
166 161 103
170 166 103
167 162 104
166 162 103
166 161 103
160 155 101
165 160 101
167 163 104
171 166 107
166 161 103
173 166 107
166 161 101
160 156 97
167 162 103
166 161 103
167 161 99
165 162 103
164 159 98
167 162 102
162 157 101
164 159 98
155 150 94
168 162 99
162 158 98
150 146 85
162 156 95
157 152 91
142 138 79
156 149 88
150 146 93
155 151 91
165 157 97
152 146 87
147 143 84
150 144 84
141 135 84
156 150 90
143 138 75
152 146 80
150 144 79
139 134 74
122 116 62
137 132 64
164 181 28
175 197 0
173 195 0
173 197 0
172 195 0
173 197 0
175 198 0
175 198 0
172 196 0
175 198 0
174 198 0
176 199 0
174 196 0
174 197 0
174 197 0
172 196 0
175 198 0
171 195 0
174 198 0
174 197 0
173 196 0
176 199 0
174 198 0
174 198 0
174 198 0
175 198 0
173 196 0
173 196 0
172 196 0
171 194 0
172 195 0
175 198 0
174 197 0
175 198 0
172 194 0
175 198 0
172 196 0
176 199 0
174 197 0
174 197 0
175 198 0
172 197 0
174 197 0
175 197 0
173 197 0
172 196 0
176 199 0
174 198 0
173 196 0
174 196 0
171 196 0
172 195 0
174 196 0
171 195 0
177 199 0
173 196 0
173 196 0
173 196 0
175 198 0
175 198 0
172 195 0
172 196 0
174 198 0
173 196 0
173 196 0
177 199 0
172 196 0
172 197 0
173 197 0
175 197 0
174 198 0
170 194 0
173 197 0
171 195 0
174 197 0
173 195 0
171 195 0
172 196 0
169 193 0
176 197 0
174 197 0
173 197 0
174 197 0
173 196 0
167 190 0
175 197 0
172 196 0
170 193 0
175 197 0
173 196 0
174 197 0
173 196 0
174 197 0
175 197 0
173 197 0
172 195 0
175 197 0
174 198 0
175 198 0
174 198 0
174 197 0
170 194 0
173 197 0
174 197 0
172 195 0
173 197 0
174 196 0
174 198 0
175 198 0
173 196 0
169 194 0
172 195 0
175 198 0
176 198 0
172 196 0
173 196 0
175 197 0
174 198 0
173 196 0
170 194 0
172 194 0
173 195 0
173 197 0
175 197 0
173 197 0
170 192 0
174 197 0
175 198 0
175 197 0
174 198 0
173 196 0
173 197 0
171 194 0
172 195 0
174 198 0
174 197 0
172 194 0
173 196 0
174 197 0
174 196 0
172 195 0
173 196 0
174 197 0
169 193 0
174 196 0
172 195 0
174 198 0
171 195 0
171 195 0
174 197 0
169 193 0
174 197 0
176 197 0
172 197 0
174 197 0
172 194 0
177 199 0
172 195 0
171 194 0
173 197 0
172 196 0
174 197 0
171 195 0
173 196 0
174 196 0
174 197 0
169 193 0
176 198 0
171 194 0
169 193 0
170 195 0
172 195 0
171 194 0
171 194 0
173 196 0
173 197 0
173 196 0
173 196 0
166 189 0
169 192 0
170 193 0
172 196 0
173 194 0
172 195 0
170 194 44
151 175 92
130 156 125
95 124 163
67 103 179
61 99 179
62 99 179
62 99 181
61 99 181
61 98 181
61 99 181
62 99 181
63 100 181
62 99 181
62 99 181
61 98 181
62 99 181
62 99 181
61 99 181
62 99 181
61 99 181
62 99 181
62 99 181
61 98 181
61 98 181
62 99 181
61 98 181
62 99 181
61 99 181
62 99 181
61 99 181
62 99 181
62 99 179
61 99 181
62 99 181
61 99 181
61 98 181
62 99 181
62 99 181
62 99 181
62 99 179
61 99 181
61 99 181
61 98 179
61 98 181
60 97 176
60 97 177
65 100 174
92 121 160
120 147 137
143 166 97
169 192 51
174 197 0
173 197 0
173 195 0
173 196 0
171 195 0
168 192 0
174 196 0
173 196 0
172 195 0
176 199 0
168 189 22
103 99 48
121 114 60
135 129 62
148 143 68
145 138 77
144 139 70
146 141 83
151 145 80
147 142 80
143 137 76
135 130 74
134 131 76
145 140 78
157 151 92
150 144 90
152 148 81
144 139 86
134 133 80
151 146 91
144 139 81
151 147 89
147 144 86
164 159 100
152 147 91
142 139 88
155 151 96
159 155 99
159 154 100
164 159 104
158 154 99
159 154 97
155 153 99
155 151 98
158 154 97
146 144 95
167 161 106
150 147 94
160 157 103
159 155 104
155 153 100
147 144 97
151 150 102
164 162 108
162 158 106
155 154 105
151 149 98
157 154 103
159 156 105
155 153 104
157 155 103
158 157 106
160 158 106
164 161 108
154 151 102
165 162 109
155 153 104
164 160 108
161 158 106
170 167 112
165 161 108
164 161 108
164 162 109
160 157 103
166 162 108
164 161 108
171 167 112
163 161 108
165 164 111
166 163 109
161 158 106
163 161 107
169 167 112
174 170 112
170 167 112
169 166 111
172 169 111
173 168 109
176 171 113
168 164 109
173 170 113
173 169 111
173 170 113
169 165 109
173 169 112
171 168 112
172 168 111
171 167 108
172 168 108
168 165 108
174 171 109
176 172 113
175 170 109
169 166 109
174 169 108
167 164 107
170 166 108
177 172 112
169 165 108
169 167 109
172 168 108
166 161 106
169 164 103
167 163 103
169 164 107
167 164 108
164 161 106
173 169 110
169 164 107
162 159 104
169 163 104
167 163 106
168 162 106
177 171 109
172 167 106
171 167 108
174 168 108
170 164 106
171 164 104
169 164 103
159 156 99
163 160 104
163 159 99
168 163 106
160 155 94
167 162 103
171 165 103
169 163 102
156 152 95
172 166 99
160 153 97
155 151 93
169 162 101
151 145 90
157 152 94
151 144 88
155 149 91
140 135 79
158 152 91
150 144 79
148 144 87
160 154 87
154 147 88
169 163 99
156 151 88
150 144 84
160 154 91
149 142 80
137 132 72
150 143 82
137 132 70
152 145 85
137 131 72
133 126 70
145 152 48
176 198 0
172 196 0
176 198 0
172 196 0
172 195 0
175 198 0
174 197 0
172 195 0
175 197 0
175 198 0
175 198 0
173 197 0
174 198 0
174 197 0
170 193 0
173 196 0
174 198 0
174 198 0
174 198 0
175 198 0
175 198 0
172 197 0
174 197 0
174 197 0
173 197 0
176 199 0
173 197 0
172 196 0
174 197 0
175 198 0
172 196 0
174 198 0
174 197 0
177 199 0
172 195 0
171 195 0
171 193 0
175 197 0
173 197 0
172 196 0
171 194 0
170 195 0
174 198 0
176 199 0
171 195 0
169 193 0
175 198 0
173 197 0
173 197 0
175 198 0
172 196 0
175 198 0
175 197 0
172 196 0
175 197 0
173 196 0
171 195 0
172 197 0
174 197 0
175 198 0
171 194 0
176 198 0
173 196 0
175 197 0
170 194 0
177 199 0
173 197 0
173 197 0
169 192 0
172 196 0
174 196 0
173 196 0
175 198 0
173 196 0
174 197 0
172 197 0
175 198 0
173 196 0
173 197 0
174 198 0
174 196 0
175 198 0
173 197 0
174 197 0
172 197 0
173 196 0
169 193 0
174 197 0
172 195 0
173 197 0
171 195 0
172 195 0
171 195 0
173 196 0
172 195 0
173 196 0
172 196 0
172 195 0
175 198 0
172 194 0
174 197 0
172 196 0
170 194 0
173 196 0
170 194 0
174 197 0
172 197 0
172 196 0
169 194 0
173 196 0
172 195 0
173 197 0
175 197 0
170 193 0
171 194 0
174 198 0
175 198 0
174 197 0
174 197 0
170 195 0
170 193 0
173 196 0
174 197 0
173 196 0
170 194 0
174 198 0
174 197 0
176 199 0
173 196 0
175 198 0
171 194 0
172 196 0
171 193 0
173 196 0
168 192 0
173 197 0
171 195 0
171 193 0
173 197 0
174 197 0
174 196 0
171 195 0
172 196 0
170 193 0
174 197 0
171 195 0
172 193 0
172 194 0
171 195 0
172 194 0
174 198 0
172 195 0
172 196 0
172 196 0
175 198 0
173 197 0
173 197 0
174 196 0
173 196 0
173 196 0
170 193 0
173 196 0
172 195 0
170 194 0
174 196 0
173 195 0
175 198 0
171 194 0
174 197 0
171 194 0
171 195 0
173 197 0
173 196 0
173 197 0
172 196 0
173 195 0
173 197 0
174 198 0
172 195 0
172 196 0
164 187 57
139 163 117
106 134 153
68 103 177
61 99 181
61 98 179
62 99 181
62 99 177
61 99 179
62 99 181
61 99 181
61 98 179
62 99 181
62 99 179
61 99 181
61 99 181
61 98 181
61 98 181
61 99 181
61 98 181
61 99 181
62 99 181
62 99 181
61 99 181
63 100 181
62 99 181
61 98 181
61 99 181
62 99 179
61 98 181
62 99 181
61 99 181
61 98 181
62 99 181
62 99 181
61 99 181
62 99 179
61 98 181
61 98 181
62 99 181
62 99 181
62 99 181
62 99 181
61 99 181
61 99 181
62 99 181
62 99 179
61 98 177
60 97 178
61 98 181
62 99 179
61 98 179
60 97 177
61 98 177
65 101 175
112 138 142
137 161 117
170 193 36
173 193 0
172 194 0
174 197 0
175 197 0
170 193 0
175 198 0
173 194 0
152 169 22
132 126 64
129 123 64
144 139 72
137 131 72
130 126 64
145 140 80
148 143 74
147 141 81
143 136 80
147 142 77
148 142 83
143 139 82
144 138 80
153 146 89
138 134 79
148 144 85
138 135 85
150 145 83
154 148 91
153 147 93
149 145 92
162 157 100
158 154 94
153 150 92
142 139 86
160 154 99
153 150 98
148 145 92
147 144 96
163 159 101
160 157 103
152 148 94
152 149 97
158 154 100
170 165 106
153 151 101
151 149 100
155 153 101
147 146 98
151 150 104
159 156 106
142 141 95
154 153 103
160 156 103
157 155 104
153 153 103
156 154 105
155 154 103
150 149 103
160 159 108
159 157 104
172 168 111
152 151 102
161 159 108
163 160 107
152 150 102
160 157 105
168 165 110
164 161 109
162 161 109
166 163 109
167 165 111
158 155 104
158 156 106
170 166 111
167 165 110
166 164 109
170 167 110
168 165 111
172 168 110
172 169 112
170 168 113
172 169 112
173 170 113
170 167 112
171 167 110
172 167 109
171 169 113
162 161 108
161 160 107
173 169 111
175 171 114
170 166 111
173 169 113
171 167 109
175 170 110
170 167 109
172 168 109
171 166 108
170 166 109
172 168 109
172 168 109
172 169 112
172 168 112
171 168 109
176 171 110
168 164 108
175 170 112
172 168 110
175 170 108
166 162 106
179 173 112
167 164 106
175 170 112
178 171 110
166 162 106
173 168 107
169 166 109
170 165 106
170 166 107
178 171 110
165 162 104
171 165 106
173 168 108
164 159 101
167 161 104
166 163 108
169 165 107
166 161 102
172 167 107
162 158 99
172 166 102
167 162 102
163 158 99
165 159 98
169 164 101
160 156 94
157 152 94
153 148 97
162 155 95
166 160 99
175 168 106
165 159 94
158 153 94
165 157 97
154 148 93
161 154 95
164 157 94
153 148 88
158 151 91
154 148 91
146 139 87
144 139 79
159 152 88
160 154 82
144 139 77
150 143 77
152 144 84
147 141 84
135 131 72
139 133 70
145 138 72
129 124 60
126 122 62
173 197 0
175 198 0
174 196 0
172 194 0
174 197 0
175 197 0
171 195 0
171 193 0
172 196 0
175 198 0
171 195 0
173 197 0
175 198 0
174 197 0
174 196 0
173 196 0
174 198 0
175 198 0
174 197 0
173 196 0
173 196 0
175 198 0
172 196 0
173 197 0
174 198 0
172 196 0
176 199 0
170 195 0
173 197 0
171 195 0
174 197 0
174 197 0
175 198 0
173 197 0
175 198 0
173 196 0
174 198 0
177 199 0
176 199 0
174 198 0
175 198 0
174 196 0
175 198 0
174 197 0
172 196 0
176 198 0
174 198 0
174 197 0
173 197 0
174 198 0
175 198 0
173 197 0
176 199 0
174 197 0
174 197 0
175 198 0
173 196 0
175 198 0
173 195 0
173 197 0
172 195 0
171 195 0
172 196 0
174 197 0
172 196 0
174 198 0
174 198 0
173 197 0
173 196 0
172 196 0
172 195 0
171 195 0
175 198 0
174 198 0
176 198 0
168 192 0
171 196 0
174 196 0
175 197 0
172 196 0
172 195 0
172 196 0
173 196 0
172 197 0
174 197 0
176 199 0
173 196 0
174 196 0
173 195 0
174 198 0
173 196 0
172 195 0
172 195 0
174 197 0
174 198 0
173 197 0
172 196 0
173 196 0
173 196 0
171 194 0
170 194 0
172 195 0
175 198 0
172 197 0
172 195 0
172 195 0
176 199 0
172 196 0
174 198 0
173 195 0
171 194 0
175 198 0
173 197 0
173 197 0
173 196 0
174 196 0
173 196 0
173 196 0
174 197 0
174 196 0
173 195 0
171 195 0
176 197 0
172 196 0
175 197 0
176 199 0
171 195 0
175 198 0
173 197 0
172 195 0
173 197 0
171 195 0
174 196 0
175 198 0
172 195 0
172 196 0
171 194 0
174 198 0
173 195 0
169 193 0
174 197 0
174 197 0
175 197 0
174 197 0
175 198 0
173 197 0
167 190 0
170 193 0
172 195 0
171 194 0
169 192 0
168 192 0
169 192 0
172 192 0
173 195 0
173 196 0
171 195 0
173 196 0
173 196 0
174 197 0
173 197 0
172 195 0
168 193 0
175 197 0
172 196 0
169 192 0
172 194 0
173 196 0
174 197 0
170 193 0
173 196 0
175 198 0
171 194 0
170 193 0
174 195 0
172 195 0
171 194 0
166 189 51
127 154 130
86 116 165
62 99 179
63 99 177
63 100 181
63 100 181
63 100 181
61 98 179
63 100 181
62 99 181
62 100 181
62 99 181
62 99 179
61 98 181
62 99 181
62 99 181
61 99 181
62 99 181
61 98 181
62 99 181
61 98 181
62 99 181
62 99 181
61 99 181
62 99 181
62 99 181
61 99 181
62 99 181
62 99 181
61 98 181
62 99 181
62 99 181
61 98 181
61 99 181
61 99 181
61 99 181
61 98 179
61 99 181
62 99 181
62 99 181
62 99 181
61 98 179
61 99 181
61 99 181
61 98 179
62 99 181
62 99 181
62 99 179
63 100 181
62 99 181
62 99 181
61 99 181
61 99 179
61 98 179
61 98 179
61 98 177
61 97 178
59 96 177
61 98 178
66 102 177
95 124 159
151 175 95
165 187 52
172 195 0
170 195 0
175 197 0
171 193 0
156 160 58
146 141 68
137 131 60
133 127 62
122 118 60
145 139 72
139 133 66
147 141 77
151 144 79
147 142 81
161 154 90
145 140 78
146 141 88
143 139 87
146 141 84
145 139 84
151 146 87
157 151 91
149 144 85
141 137 85
147 142 86
152 147 95
149 146 93
166 161 102
145 142 92
140 136 89
149 146 93
143 140 86
147 145 95
148 145 94
146 143 88
146 143 96
148 145 95
149 146 93
148 146 99
159 156 103
156 153 102
161 158 104
154 151 101
163 160 108
151 148 101
156 152 100
166 163 108
150 147 97
145 145 100
156 153 103
162 159 106
161 158 105
148 147 102
160 158 106
162 159 106
158 157 106
162 159 107
157 156 107
153 152 103
154 153 103
154 152 104
166 163 109
162 159 107
164 161 108
155 154 105
161 159 108
171 167 110
163 162 108
168 166 112
162 159 108
168 165 110
168 166 112
171 167 112
168 164 108
161 160 109
173 169 110
163 161 108
167 163 109
173 169 111
167 165 109
172 169 113
170 165 108
174 170 113
170 167 112
173 170 111
167 164 108
169 165 108
171 167 109
172 169 110
167 165 105
175 170 113
166 163 106
169 166 107
173 169 112
170 167 110
174 169 110
174 171 112
169 165 108
178 172 112
170 168 109
168 165 108
173 169 110
168 164 106
169 166 109
172 166 104
176 171 112
171 168 109
175 171 110
174 170 112
172 167 107
171 167 108
173 167 107
177 172 109
169 164 106
176 171 112
175 169 108
169 165 103
169 164 104
158 155 98
172 167 107
176 171 109
167 162 104
169 163 102
170 166 106
171 165 104
168 164 106
165 160 102
162 156 94
166 161 101
165 160 99
164 160 101
166 160 98
160 154 94
167 161 97
157 151 91
151 147 90
165 159 98
169 162 101
162 157 91
156 152 85
171 164 104
157 151 87
167 160 99
162 156 91
166 160 97
160 154 88
149 145 85
155 148 88
144 139 79
140 136 80
159 152 85
141 135 77
152 147 80
141 135 79
140 135 79
149 142 79
133 127 68
141 134 70
127 121 64
165 184 22
174 197 0
171 195 0
173 196 0
170 194 0
176 198 0
174 197 0
175 197 0
172 196 0
170 194 0
175 198 0
176 198 0
172 196 0
175 198 0
173 197 0
169 193 0
172 196 0
175 198 0
173 197 0
172 197 0
171 195 0
173 196 0
171 195 0
174 198 0
174 198 0
174 198 0
172 196 0
169 193 0
176 198 0
173 196 0
170 192 0
175 197 0
174 198 0
173 196 0
174 197 0
172 196 0
174 198 0
175 198 0
174 197 0
173 197 0
173 197 0
172 196 0
171 195 0
175 197 0
174 197 0
173 197 0
174 197 0
172 196 0
176 199 0
175 198 0
173 197 0
176 199 0
174 197 0
173 196 0
174 195 0
175 198 0
169 194 0
174 198 0
170 193 0
174 198 0
174 198 0
173 197 0
175 198 0
174 197 0
173 197 0
173 197 0
175 198 0
175 197 0
173 197 0
173 196 0
173 196 0
174 197 0
174 197 0
174 197 0
175 198 0
172 196 0
175 198 0
175 198 0
173 197 0
175 198 0
175 198 0
172 196 0
174 196 0
174 197 0
175 196 0
170 195 0
174 198 0
172 197 0
172 196 0
172 195 0
172 195 0
173 197 0
170 194 0
169 193 0
173 195 0
171 195 0
173 196 0
173 197 0
170 194 0
172 195 0
172 195 0
173 195 0
173 196 0
174 197 0
171 194 0
173 197 0
173 195 0
174 197 0
170 195 0
173 196 0
173 196 0
173 195 0
173 196 0
176 198 0
171 195 0
175 197 0
172 195 0
171 194 0
174 196 0
169 193 0
175 198 0
173 197 0
172 196 0
172 196 0
173 197 0
171 195 0
172 196 0
174 197 0
175 198 0
171 195 0
173 196 0
169 193 0
175 198 0
173 197 0
171 194 0
166 190 0
172 196 0
174 197 0
174 198 0
171 194 0
173 197 0
174 197 0
170 194 0
175 198 0
171 196 0
173 197 0
173 196 0
172 194 0
171 194 0
172 196 0
175 198 0
171 195 0
174 196 0
171 195 0
172 195 0
175 197 0
174 198 0
172 196 0
168 191 0
173 196 0
172 196 0
174 198 0
171 195 0
176 198 0
173 196 0
174 197 0
169 193 0
175 198 0
175 198 0
174 197 0
175 197 0
174 196 0
169 193 0
174 197 0
171 195 0
147 171 102
119 145 137
66 102 179
62 99 181
61 99 179
62 99 179
62 99 181
61 99 181
62 99 181
62 99 181
61 99 181
62 99 181
63 100 181
61 99 181
62 99 181
61 98 179
62 99 181
62 99 179
61 99 181
61 98 181
61 98 181
61 99 181
62 99 181
62 99 181
62 99 181
62 99 181
61 98 181
62 99 181
61 99 181
62 99 181
62 99 181
61 99 181
61 99 181
62 99 181
61 98 181
61 98 181
62 99 181
61 98 181
62 99 181
61 99 181
61 98 179
61 98 181
61 98 181
62 99 181
62 99 181
61 99 181
61 99 181
61 98 179
61 98 181
61 99 181
62 98 179
61 98 181
61 98 181
61 99 181
61 98 177
61 98 179
62 98 179
62 98 177
62 99 179
62 99 181
61 97 176
61 98 179
62 99 181
61 98 181
62 99 179
66 102 175
99 127 147
128 154 123
170 193 0
168 189 16
129 126 48
125 122 45
145 139 66
124 119 64
137 132 61
153 146 82
146 142 68
140 134 75
134 130 70
143 137 73
132 128 68
149 143 87
156 151 85
142 137 78
160 154 93
154 149 90
138 134 83
152 149 91
151 148 87
133 130 75
152 147 85
155 151 93
152 148 90
147 143 91
154 150 97
160 154 99
144 141 92
139 137 88
156 154 101
143 140 87
150 147 95
141 139 92
145 142 89
152 149 97
154 151 100
141 141 97
151 149 101
154 152 103
148 147 100
160 157 105
154 151 102
158 156 105
157 154 104
158 155 104
149 147 99
162 159 107
153 152 104
145 145 100
152 148 98
152 151 103
144 144 99
148 145 96
162 159 106
165 162 109
158 156 106
154 153 102
162 160 107
158 157 108
161 158 106
157 155 106
160 157 105
167 164 110
168 165 109
160 159 107
166 164 111
168 165 111
171 167 112
169 165 111
171 167 112
170 167 112
172 169 112
165 162 108
162 160 106
171 167 112
173 168 111
169 166 111
171 168 112
172 168 110
171 169 112
167 164 107
169 166 111
170 167 109
170 166 110
174 170 110
169 165 108
174 170 112
171 167 109
167 163 104
172 167 108
173 168 109
173 168 108
175 170 109
172 167 110
176 172 113
175 171 113
175 170 112
173 168 109
175 170 109
168 163 106
171 166 109
168 164 107
170 167 107
173 167 108
176 171 112
171 167 109
173 169 110
169 165 107
168 162 104
170 166 108
168 165 104
172 167 107
169 164 106
163 159 101
163 160 104
169 164 103
170 164 103
169 164 104
169 164 104
166 161 103
171 166 108
163 158 101
160 155 99
166 161 101
164 160 101
159 153 95
167 162 101
157 153 98
165 159 95
166 160 102
165 162 104
163 159 94
161 155 93
165 157 98
164 159 91
159 154 90
160 154 93
164 156 95
155 149 85
161 156 91
162 156 90
151 145 82
150 144 84
152 147 87
160 154 91
154 147 85
145 140 79
148 140 82
141 135 74
155 148 88
144 138 85
140 134 80
149 143 79
123 119 66
138 133 72
145 140 72
142 152 32
174 197 0
174 197 0
174 196 0
177 199 0
173 197 0
176 199 0
174 197 0
175 198 0
175 198 0
175 198 0
173 197 0
173 197 0
176 198 0
173 197 0
176 199 0
171 195 0
173 197 0
174 197 0
171 195 0
170 194 0
174 198 0
174 197 0
170 195 0
174 197 0
174 197 0
170 195 0
175 197 0
171 194 0
175 198 0
173 196 0
170 194 0
175 198 0
176 198 0
176 199 0
174 198 0
174 198 0
174 197 0
172 195 0
174 197 0
171 194 0
173 196 0
172 196 0
173 197 0
174 195 0
172 197 0
171 195 0
175 198 0
173 196 0
172 195 0
177 199 0
171 195 0
173 196 0
174 197 0
174 197 0
174 197 0
173 197 0
174 197 0
174 196 0
172 196 0
172 196 0
172 196 0
173 196 0
175 197 0
171 195 0
174 198 0
175 198 0
174 197 0
173 197 0
174 197 0
176 199 0
172 196 0
174 198 0
172 195 0
173 196 0
175 197 0
172 196 0
174 198 0
171 194 0
173 197 0
174 197 0
173 196 0
171 196 0
175 197 0
173 196 0
174 198 0
174 198 0
174 198 0
172 197 0
171 195 0
174 196 0
173 197 0
174 197 0
174 197 0
172 196 0
173 197 0
171 193 0
169 193 0
175 197 0
173 196 0
174 197 0
170 193 0
172 196 0
173 196 0
176 198 0
172 196 0
171 195 0
171 193 0
173 197 0
174 198 0
172 197 0
172 196 0
173 196 0
172 197 0
173 197 0
173 197 0
174 197 0
171 195 0
175 198 0
174 198 0
172 196 0
172 196 0
172 194 0
171 195 0
171 194 0
172 195 0
173 196 0
171 195 0
173 196 0
172 195 0
171 194 0
174 198 0
173 197 0
173 197 0
169 193 0
172 195 0
174 197 0
173 197 0
175 198 0
173 197 0
174 197 0
172 195 0
175 198 0
174 198 0
170 195 0
175 198 0
176 198 0
171 195 0
172 196 0
173 195 0
170 194 0
173 196 0
171 195 0
175 198 0
173 197 0
173 195 0
173 196 0
172 196 0
171 193 0
174 195 0
171 194 0
171 194 0
169 192 0
172 195 0
172 196 0
172 196 0
173 196 0
172 195 0
170 193 0
174 197 0
174 196 0
174 197 0
167 189 51
128 154 128
92 121 165
61 98 181
63 100 181
62 99 177
61 99 179
62 99 181
61 99 181
62 99 181
63 100 181
61 99 181
61 99 181
62 99 179
62 99 181
61 99 181
61 98 181
61 99 181
61 99 181
61 99 181
62 99 181
61 99 181
62 99 181
62 99 181
61 98 181
61 99 181
62 99 181
61 98 181
61 99 181
61 99 181
62 99 181
62 99 181
61 99 181
61 99 181
62 99 181
61 99 181
61 99 181
61 98 181
62 99 181
61 98 181
61 98 181
61 98 181
62 99 181
62 99 181
62 99 181
62 99 181
62 99 181
61 99 181
62 99 181
61 99 181
61 98 179
62 99 181
61 99 181
61 98 181
62 99 181
62 99 181
62 99 181
61 98 181
61 98 179
61 98 179
61 98 179
62 99 179
61 98 179
61 98 179
61 98 179
61 98 181
61 98 179
62 99 179
62 99 181
60 96 175
62 99 179
83 114 164
101 125 142
123 122 84
137 131 66
132 126 60
143 136 68
122 118 62
137 132 62
154 148 77
143 139 73
158 151 90
148 145 77
141 136 82
155 149 85
142 137 78
137 132 75
158 153 95
146 141 76
144 139 83
150 145 87
141 138 86
128 127 82
146 143 89
137 134 86
131 128 79
157 152 98
141 138 89
146 143 93
144 142 97
151 148 96
153 149 97
153 149 95
142 140 92
150 146 94
144 142 94
143 141 91
136 135 93
132 132 90
147 145 100
151 147 95
143 142 96
155 153 104
142 140 96
150 148 100
158 156 107
153 152 100
148 146 99
153 152 104
165 162 108
153 150 100
144 144 100
151 149 100
153 151 101
159 156 105
152 150 102
166 162 108
163 160 108
160 158 108
157 154 102
173 170 113
155 154 105
162 158 105
157 155 105
165 162 109
167 165 110
169 166 110
162 159 104
156 155 105
172 167 108
167 164 110
170 167 110
165 162 109
170 166 110
164 161 106
163 161 107
167 164 109
168 164 107
168 165 111
162 160 109
170 165 104
171 166 110
168 165 111
165 161 105
171 168 109
175 170 113
171 167 109
168 166 110
173 169 113
176 170 110
172 168 109
171 166 108
171 168 110
175 170 110
173 169 109
175 171 114
169 166 106
177 172 112
169 165 109
170 167 106
176 171 113
170 167 110
172 168 110
172 168 107
171 167 107
178 172 112
175 170 109
177 171 108
167 163 106
172 167 109
177 171 110
175 168 108
168 163 106
175 170 110
168 164 107
163 159 104
166 161 101
168 163 102
172 167 106
174 167 106
166 162 103
168 163 103
170 165 106
168 163 102
165 162 104
168 161 99
164 160 102
166 161 99
176 170 104
169 164 101
173 167 102
162 157 91
170 164 102
168 163 104
155 150 93
163 156 95
158 154 90
160 155 98
164 158 95
167 161 94
158 153 88
156 150 90
163 156 90
159 153 82
151 145 82
147 142 82
156 150 84
163 157 88
158 153 84
158 151 84
161 154 90
144 139 79
134 130 72
158 151 88
147 142 74
128 122 68
138 131 72
142 135 74
136 139 56
174 197 0
174 198 0
174 198 0
172 196 0
174 197 0
171 194 0
170 192 0
173 197 0
174 196 0
175 198 0
174 197 0
173 197 0
173 197 0
174 198 0
173 197 0
174 198 0
174 197 0
172 196 0
175 198 0
173 197 0
173 197 0
171 194 0
176 198 0
173 197 0
173 196 0
174 197 0
172 196 0
175 198 0
174 198 0
173 197 0
173 196 0
173 197 0
175 198 0
176 198 0
175 197 0
173 196 0
172 195 0
173 197 0
172 196 0
174 198 0
172 196 0
172 196 0
174 198 0
170 194 0
174 198 0
174 198 0
173 196 0
174 197 0
171 195 0
175 198 0
176 199 0
171 194 0
171 194 0
177 199 0
171 194 0
174 198 0
176 199 0
174 196 0
173 196 0
174 198 0
176 197 0
174 196 0
174 197 0
175 197 0
174 197 0
173 197 0
173 196 0
170 193 0
171 194 0
173 197 0
173 196 0
176 199 0
175 198 0
172 196 0
176 198 0
175 197 0
173 197 0
174 197 0
171 195 0
174 198 0
176 199 0
169 192 0
174 197 0
172 196 0
167 191 0
172 195 0
171 195 0
174 197 0
171 194 0
171 195 0
176 198 0
172 196 0
174 197 0
172 195 0
173 197 0
170 195 0
173 197 0
171 194 0
172 195 0
173 197 0
171 195 0
173 197 0
171 196 0
173 197 0
172 196 0
173 197 0
173 197 0
171 194 0
172 195 0
172 195 0
172 195 0
175 198 0
174 197 0
165 189 0
175 198 0
175 197 0
173 196 0
174 196 0
174 197 0
174 197 0
171 194 0
174 198 0
171 195 0
173 197 0
173 195 0
171 194 0
174 197 0
171 195 0
172 196 0
172 196 0
173 196 0
172 197 0
173 195 0
171 194 0
170 194 0
176 198 0
173 195 0
171 196 0
171 195 0
174 197 0
171 195 0
173 197 0
171 195 0
174 197 0
171 195 0
172 196 0
173 196 0
175 197 0
174 197 0
173 197 0
171 195 0
171 195 0
174 197 0
175 198 0
170 192 0
172 195 0
173 196 0
173 195 0
171 195 0
169 193 0
171 195 0
175 198 0
173 197 0
174 197 0
172 195 0
174 198 0
172 195 0
172 195 0
171 194 0
150 175 88
112 139 147
62 99 177
62 99 173
62 99 181
63 100 181
62 99 177
61 99 181
61 98 181
62 99 179
62 100 181
62 99 179
62 99 181
62 99 181
62 99 181
62 99 181
62 99 179
62 99 181
61 98 181
62 99 181
62 99 181
62 99 181
61 99 181
62 100 181
61 98 181
61 99 181
62 99 181
61 99 181
61 98 181
62 99 181
61 99 181
62 99 181
62 99 181
61 99 181
61 98 181
61 99 181
61 98 181
61 98 181
62 99 181
62 99 181
61 99 181
61 99 181
61 98 181
61 98 181
61 99 181
61 98 181
61 99 181
62 99 181
62 99 181
62 99 181
62 99 181
61 98 181
62 99 181
62 99 181
62 99 181
61 99 181
62 99 181
61 98 179
62 99 179
62 99 181
61 98 181
61 98 181
62 99 181
62 99 179
62 99 181
62 98 177
62 99 181
63 100 181
62 99 181
61 98 179
62 99 181
61 98 179
62 99 179
61 98 178
61 99 179
62 99 179
98 111 138
132 130 91
138 132 58
142 136 64
132 128 60
134 131 65
140 135 75
155 149 84
140 135 77
152 148 84
135 132 76
149 143 84
136 132 77
140 135 80
134 131 76
146 142 86
140 136 83
158 151 92
155 151 91
147 144 88
142 138 89
151 148 91
141 137 91
144 140 86
169 163 101
154 150 95
149 146 95
145 143 91
158 155 101
141 140 91
142 140 92
152 148 95
151 148 97
147 145 99
141 141 97
154 151 103
148 144 95
141 139 95
153 151 101
149 148 100
142 142 98
146 145 98
161 157 103
157 155 103
150 148 101
161 159 104
156 152 102
155 153 105
155 154 105
160 157 107
141 141 99
162 159 108
161 158 105
171 167 110
155 153 103
157 155 105
163 159 106
161 158 106
166 162 109
156 154 105
157 156 105
161 159 108
167 163 109
157 157 105
164 161 108
167 164 108
162 160 107
166 162 107
158 156 106
169 165 109
168 165 108
165 162 108
172 167 108
174 169 110
166 164 108
167 164 107
169 166 109
170 167 109
170 167 110
168 166 111
168 164 109
166 164 110
174 170 110
171 167 108
169 166 111
169 166 110
169 166 109
176 171 110
172 167 110
172 168 109
175 171 110
174 171 112
171 166 104
171 168 109
176 171 109
176 172 110
175 169 109
172 167 107
172 169 109
172 168 109
173 169 109
169 164 105
175 170 109
169 165 107
172 167 107
167 163 104
168 164 102
172 166 101
170 164 103
177 171 110
164 160 101
170 165 106
173 167 104
170 165 102
173 167 106
171 165 106
171 166 107
169 164 104
172 165 103
167 162 102
161 155 94
172 166 103
169 163 97
162 159 93
165 159 102
165 159 101
169 163 101
164 158 98
164 159 95
160 155 95
161 157 93
165 158 98
160 155 94
154 151 88
170 163 102
150 145 84
152 146 88
159 154 95
155 151 87
156 148 82
156 150 91
152 147 88
154 148 80
143 140 74
161 153 87
150 144 79
146 142 79
143 137 75
143 137 75
144 139 75
138 133 70
151 144 74
134 129 64
143 136 74
116 113 53
170 192 0
171 192 0
172 193 0
175 197 0
174 197 0
172 196 0
174 198 0
174 198 0
175 198 0
173 197 0
175 198 0
174 197 0
175 198 0
172 196 0
174 197 0
173 196 0
173 196 0
173 197 0
173 197 0
174 197 0
172 196 0
174 198 0
172 196 0
172 196 0
175 198 0
172 196 0
173 196 0
171 195 0
175 198 0
173 197 0
175 198 0
174 198 0
175 198 0
171 195 0
176 199 0
174 197 0
174 197 0
174 197 0
174 197 0
173 197 0
171 194 0
171 195 0
173 196 0
173 197 0
172 195 0
173 196 0
173 196 0
170 194 0
171 194 0
173 196 0
172 195 0
174 197 0
169 192 0
173 196 0
174 196 0
175 197 0
174 198 0
173 197 0
173 196 0
172 196 0
172 195 0
173 196 0
174 197 0
175 198 0
172 196 0
174 197 0
171 196 0
173 197 0
175 198 0
171 194 0
172 196 0
175 198 0
175 198 0
172 196 0
173 196 0
172 196 0
172 196 0
174 197 0
175 198 0
176 199 0
174 198 0
172 195 0
171 195 0
171 194 0
172 196 0
168 192 0
173 197 0
173 196 0
168 192 0
171 194 0
173 197 0
172 196 0
175 198 0
173 197 0
176 198 0
173 197 0
177 199 0
171 194 0
171 195 0
173 197 0
173 197 0
172 196 0
174 198 0
171 195 0
174 197 0
172 195 0
173 196 0
171 194 0
172 195 0
172 196 0
173 195 0
173 196 0
172 195 0
173 196 0
173 196 0
174 197 0
174 198 0
172 196 0
172 195 0
171 195 0
172 195 0
170 193 0
173 196 0
173 196 0
173 196 0
174 197 0
173 197 0
172 194 0
171 194 0
170 195 0
174 198 0
172 195 0
168 191 0
175 198 0
170 192 0
175 198 0
174 196 0
174 197 0
174 197 0
169 192 0
171 195 0
169 192 0
175 198 0
174 197 0
176 198 0
171 195 0
172 195 0
173 196 0
169 191 0
172 196 0
171 195 0
171 195 0
175 198 0
170 193 0
168 192 0
174 197 0
171 194 0
173 196 0
170 194 0
174 196 0
171 194 0
176 198 0
170 194 0
173 195 0
174 197 0
172 193 0
173 197 0
154 179 80
101 129 153
62 99 179
61 98 179
62 99 181
62 99 181
62 99 181
62 99 181
62 99 181
61 99 181
61 98 179
61 98 181
62 99 181
62 99 179
61 99 181
61 99 181
61 99 181
62 99 181
62 99 181
61 99 181
62 99 181
61 98 181
62 99 181
62 99 181
62 99 181
61 99 181
61 98 181
61 99 181
61 99 181
62 99 181
62 99 181
62 99 181
61 98 181
62 99 181
62 99 181
62 99 181
61 98 181
61 98 181
62 99 181
62 99 181
62 99 181
62 99 181
61 98 181
62 99 181
61 99 181
61 99 181
62 99 181
61 99 181
61 98 181
62 99 181
61 98 181
62 99 181
62 99 181
62 99 181
62 99 181
61 98 181
61 99 181
62 99 181
61 99 181
62 99 181
61 99 181
62 99 181
61 98 181
63 100 181
61 99 181
62 99 181
62 99 179
62 99 181
62 99 179
61 98 179
62 99 179
61 99 181
61 98 181
61 98 179
61 98 179
61 98 179
60 97 176
62 99 179
61 97 172
62 98 178
93 110 146
137 135 110
149 143 75
144 138 80
141 136 75
149 144 80
143 139 76
148 142 77
141 136 77
135 131 76
137 133 77
131 130 74
153 148 92
137 134 82
148 144 87
150 146 93
146 143 85
139 136 87
143 139 90
137 134 84
156 152 95
143 140 88
136 133 86
148 145 97
145 144 97
143 140 93
151 148 98
135 135 91
140 138 94
148 145 96
141 139 95
145 145 99
151 149 100
158 154 100
143 141 94
158 154 103
153 151 102
156 153 99
156 154 102
139 139 96
155 153 104
144 143 98
161 159 107
151 149 101
164 161 109
157 155 105
158 156 106
149 148 101
149 149 103
151 150 101
159 157 106
158 156 106
159 157 106
152 151 103
162 159 108
157 155 105
165 161 108
156 155 105
157 155 106
166 163 108
164 161 108
163 161 108
165 163 110
167 164 109
162 160 108
170 167 112
159 157 106
168 165 109
171 168 112
159 156 103
158 157 106
173 169 112
171 167 111
171 167 108
174 169 111
173 168 109
173 169 110
168 164 108
175 171 113
169 165 107
170 165 104
172 168 110
172 168 109
173 169 109
177 172 113
177 171 112
169 164 107
168 165 109
169 167 109
174 170 111
179 173 110
176 171 112
172 168 108
177 171 110
176 170 107
175 171 109
169 165 107
175 169 109
172 167 107
175 170 107
173 169 107
173 169 110
170 166 108
176 170 107
170 164 104
168 163 102
176 170 109
166 161 99
170 166 107
162 159 99
176 170 107
165 160 101
170 165 107
150 147 90
174 169 102
176 171 112
168 161 101
166 162 102
170 164 102
166 161 103
167 163 101
170 164 102
166 161 99
167 162 98
171 165 99
163 158 94
169 163 98
162 155 95
169 163 98
168 162 101
156 151 90
160 155 94
159 153 94
163 155 95
156 149 90
164 157 95
151 145 82
160 155 94
155 149 91
156 150 82
144 138 77
158 151 91
151 144 80
151 146 75
151 146 84
148 142 79
139 132 74
136 131 68
142 136 70
148 142 79
139 133 68
145 138 70
131 125 68
155 171 32
173 196 0
174 197 0
174 198 0
172 196 0
173 197 0
174 196 0
172 196 0
174 198 0
174 198 0
175 198 0
173 196 0
172 195 0
172 196 0
176 198 0
177 199 0
173 197 0
171 195 0
175 198 0
174 197 0
174 198 0
172 196 0
172 196 0
174 197 0
175 198 0
175 198 0
173 196 0
173 197 0
175 198 0
176 198 0
171 194 0
169 192 0
175 198 0
174 197 0
173 196 0
170 195 0
174 196 0
175 198 0
173 196 0
174 197 0
176 198 0
173 197 0
173 197 0
172 197 0
175 198 0
172 197 0
172 195 0
174 198 0
175 197 0
171 195 0
172 194 0
171 195 0
172 196 0
173 197 0
175 198 0
173 197 0
177 199 0
171 194 0
173 196 0
171 195 0
176 198 0
174 196 0
175 198 0
171 194 0
172 196 0
174 198 0
173 196 0
171 195 0
175 198 0
173 197 0
174 197 0
171 195 0
172 195 0
172 195 0
174 198 0
174 197 0
173 197 0
172 196 0
169 194 0
172 195 0
173 196 0
169 193 0
175 198 0
169 194 0
174 197 0
170 194 0
174 197 0
172 195 0
174 197 0
171 193 0
174 196 0
174 197 0
173 196 0
174 196 0
173 197 0
173 196 0
172 195 0
172 196 0
171 194 0
170 194 0
172 196 0
172 194 0
170 193 0
170 193 0
169 192 0
172 196 0
171 194 0
173 197 0
173 196 0
172 196 0
173 197 0
171 195 0
172 196 0
170 195 0
174 198 0
174 197 0
173 197 0
169 192 0
173 196 0
170 191 0
174 197 0
172 196 0
176 198 0
171 195 0
173 196 0
169 193 0
169 191 0
175 198 0
172 196 0
171 195 0
176 198 0
166 189 0
173 195 0
169 191 0
171 193 0
174 197 0
172 196 0
172 195 0
173 197 0
173 197 0
170 195 0
172 195 0
171 195 0
171 194 0
172 196 0
172 195 0
174 197 0
173 195 0
173 197 0
175 198 0
169 193 0
171 195 0
174 196 0
173 196 0
172 196 0
175 198 0
171 194 0
175 198 0
171 195 0
175 197 0
174 196 0
174 197 0
172 195 0
174 197 0
171 194 0
142 167 102
88 119 167
62 99 179
61 98 179
62 99 179
62 99 181
62 99 181
62 99 181
61 98 175
62 99 177
61 99 179
62 99 181
62 99 181
61 98 179
62 99 181
62 99 181
61 99 181
62 99 181
62 99 181
61 99 181
61 99 181
61 98 181
61 99 181
62 99 181
62 99 181
62 99 181
62 99 181
62 99 181
61 98 181
62 99 181
61 98 181
62 99 181
62 99 181
61 99 181
60 98 181
61 99 181
61 99 181
61 99 181
61 99 181
61 98 181
61 98 181
61 99 181
61 99 181
62 99 181
60 98 181
61 98 181
60 98 181
61 99 181
61 98 181
62 99 181
61 98 181
61 98 181
61 99 181
61 99 181
61 98 181
61 99 181
61 98 181
61 99 181
61 99 181
62 99 181
61 98 181
62 99 181
61 99 181
61 98 181
61 98 179
62 99 179
61 98 181
62 99 181
61 98 181
62 98 177
62 99 179
61 98 179
61 98 178
61 98 179
62 99 179
61 99 181
61 98 179
61 98 179
62 99 179
61 98 179
62 99 179
61 98 176
61 97 175
62 99 177
84 107 158
135 135 117
156 150 84
146 140 73
146 141 77
140 136 75
145 141 79
154 147 88
149 144 84
136 131 69
146 142 87
142 138 84
136 132 79
140 136 90
133 130 84
136 131 81
140 137 85
140 136 83
155 152 97
153 149 95
139 136 86
145 142 89
132 130 86
150 147 97
148 146 98
139 137 87
146 143 95
144 143 99
160 156 100
155 153 103
153 150 100
154 152 100
150 148 97
155 153 104
142 140 95
144 143 96
145 144 98
153 152 104
149 148 100
156 153 103
142 141 98
142 143 100
146 146 102
143 143 100
154 153 104
150 148 102
153 152 103
148 147 102
153 152 103
152 151 101
143 144 100
163 161 108
161 159 107
152 151 102
158 155 105
161 158 106
168 165 109
160 158 107
154 154 105
159 157 105
165 162 108
167 164 110
168 165 111
162 159 108
163 161 108
171 167 111
167 164 109
162 159 107
169 165 110
166 163 109
165 163 106
174 170 113
167 163 107
171 168 109
172 168 110
163 162 104
165 163 107
164 162 104
167 163 107
173 168 108
169 166 109
172 168 111
171 167 109
172 168 106
176 171 109
173 169 112
173 169 108
170 167 110
169 165 104
174 168 108
173 169 109
173 169 107
173 168 109
176 170 109
175 169 108
177 172 113
171 168 110
169 165 107
174 168 102
170 165 104
175 169 106
175 170 110
171 165 103
171 166 103
173 168 103
170 166 103
173 168 109
173 168 107
176 171 110
169 164 107
169 164 102
173 168 108
166 160 102
166 161 97
162 157 91
166 160 99
162 158 99
173 167 103
170 165 103
171 165 103
167 161 97
170 163 101
166 161 99
162 155 93
165 159 98
156 152 93
170 164 102
163 157 95
154 149 88
162 155 87
147 143 84
161 154 93
164 158 97
158 153 90
147 141 77
159 153 88
164 158 90
156 151 88
151 145 88
157 150 87
149 144 82
148 141 87
153 147 82
154 147 84
138 132 75
154 148 82
150 143 84
135 130 75
121 117 60
119 116 51
135 128 72
146 158 32
171 194 0
175 198 0
175 198 0
168 193 0
173 196 0
175 197 0
171 195 0
172 196 0
177 199 0
175 198 0
173 197 0
171 195 0
172 196 0
172 196 0
175 198 0
176 199 0
175 198 0
175 198 0
174 198 0
173 196 0
174 198 0
171 194 0
174 197 0
174 198 0
176 199 0
174 198 0
173 196 0
173 197 0
171 195 0
173 197 0
171 193 0
175 198 0
171 195 0
173 197 0
174 196 0
175 198 0
170 195 0
173 196 0
175 198 0
175 198 0
175 197 0
173 197 0
176 198 0
172 196 0
172 195 0
176 198 0
174 197 0
174 197 0
169 191 0
172 196 0
171 195 0
171 195 0
173 196 0
174 198 0
175 197 0
174 198 0
174 197 0
174 197 0
172 194 0
175 198 0
175 198 0
173 196 0
174 197 0
176 199 0
172 197 0
174 198 0
174 198 0
168 193 0
171 195 0
172 197 0
174 197 0
172 195 0
173 196 0
172 196 0
173 197 0
174 197 0
169 192 0
174 198 0
172 196 0
171 195 0
173 197 0
173 196 0
174 197 0
174 197 0
174 197 0
171 195 0
174 196 0
174 198 0
171 194 0
173 197 0
174 197 0
170 194 0
173 197 0
171 196 0
172 196 0
172 195 0
171 195 0
173 197 0
173 196 0
174 196 0
168 192 0
173 197 0
172 195 0
173 196 0
172 196 0
172 195 0
171 194 0
173 197 0
173 196 0
169 193 0
171 194 0
173 196 0
175 197 0
172 196 0
170 194 0
168 191 0
170 194 0
172 195 0
175 198 0
176 199 0
173 197 0
174 197 0
171 195 0
171 195 0
176 199 0
174 197 0
175 198 0
173 196 0
173 195 0
176 198 0
173 196 0
174 196 0
175 198 0
171 193 0
174 197 0
172 196 0
171 195 0
170 191 0
174 197 0
173 195 0
170 193 0
174 197 0
173 196 0
170 194 0
172 195 0
174 197 0
170 195 0
171 194 0
173 196 0
170 193 0
173 196 0
170 193 0
175 198 0
169 192 0
170 194 0
171 194 0
174 197 0
171 195 0
174 196 0
172 194 0
171 194 0
173 195 0
151 175 88
101 131 151
62 99 175
63 99 177
63 100 181
61 98 177
62 99 175
62 99 179
62 99 181
62 99 181
61 98 179
61 98 177
61 98 177
63 100 181
61 99 179
62 99 181
62 99 181
62 99 181
62 99 181
62 99 181
62 99 181
62 99 181
62 99 181
61 99 181
61 98 181
60 98 181
61 99 181
61 99 181
61 99 181
62 99 181
61 99 181
61 98 179
62 99 181
61 98 181
61 98 181
61 98 181
61 99 181
61 99 181
63 100 181
61 99 181
62 99 181
61 99 181
61 99 181
61 99 181
61 99 181
61 98 181
60 98 181
61 98 181
62 99 181
61 99 181
61 99 181
61 99 181
61 99 181
62 99 181
61 99 181
62 99 181
61 98 181
62 99 181
62 99 181
62 99 181
61 99 181
60 98 181
61 99 181
61 99 181
62 99 181
62 99 181
61 98 181
61 99 181
62 99 181
61 99 181
62 99 181
62 99 179
62 99 181
62 99 179
61 98 178
61 98 181
61 99 181
61 98 179
61 98 179
60 96 174
61 98 179
62 99 179
61 98 175
62 98 176
63 100 179
62 98 172
61 97 174
62 97 172
97 116 155
115 121 126
144 139 81
134 129 69
135 133 74
147 142 84
154 148 90
150 145 91
141 137 82
133 129 74
139 136 83
149 144 90
147 143 86
131 128 78
137 134 89
145 142 86
139 137 91
148 145 92
149 145 93
140 137 89
149 145 94
153 149 97
128 127 86
159 155 101
136 133 84
132 132 91
146 144 97
145 144 93
135 135 95
150 148 99
133 133 93
147 145 95
147 146 97
154 152 99
138 138 95
152 149 100
146 145 99
155 152 102
148 147 101
146 143 96
146 145 99
153 151 104
148 146 99
160 158 108
138 137 95
156 154 104
157 156 106
160 158 107
151 151 104
158 157 106
158 156 106
159 157 105
155 152 103
153 150 102
168 165 111
168 165 110
166 163 109
156 153 102
162 159 108
167 164 109
161 158 104
170 165 110
168 164 109
161 158 103
169 167 111
160 158 105
167 163 108
164 161 105
170 166 109
168 164 106
173 169 112
166 163 105
173 169 108
172 169 109
163 159 105
169 166 109
171 167 110
171 167 108
171 166 109
170 166 108
170 166 106
173 168 108
169 165 106
173 168 109
174 169 108
175 170 112
170 166 108
172 168 110
172 167 108
171 167 105
178 173 113
172 168 108
172 168 109
173 168 109
169 165 102
172 167 109
167 162 103
177 170 109
178 172 110
171 166 106
171 167 104
171 166 108
169 164 103
171 166 103
167 163 103
170 164 102
167 162 98
172 167 106
173 167 107
170 164 98
163 157 97
170 165 102
172 166 108
164 158 98
157 156 94
166 162 104
173 168 106
162 157 87
168 161 102
164 161 101
173 167 98
159 153 94
169 163 104
164 159 94
167 161 101
160 156 97
157 153 93
160 154 94
162 155 94
158 153 94
167 161 93
155 150 85
146 141 79
156 150 85
166 160 88
165 158 85
136 131 68
153 147 88
158 152 93
143 137 80
142 136 75
135 130 72
146 140 74
151 145 79
135 130 74
145 138 74
139 132 74
130 124 62
126 121 56
135 147 28
175 198 0
173 195 0
175 198 0
171 194 0
173 195 0
174 198 0
175 198 0
173 197 0
171 195 0
174 197 0
174 198 0
174 197 0
172 196 0
173 196 0
173 197 0
171 194 0
173 197 0
174 197 0
172 196 0
174 197 0
176 199 0
174 197 0
172 196 0
171 196 0
172 195 0
175 198 0
175 197 0
169 192 0
174 196 0
174 197 0
173 196 0
175 198 0
172 196 0
174 197 0
173 197 0
175 198 0
174 196 0
172 196 0
173 197 0
175 197 0
172 195 0
174 198 0
173 196 0
174 197 0
174 197 0
171 195 0
176 199 0
174 196 0
175 197 0
173 197 0
172 195 0
170 195 0
174 196 0
177 199 0
174 198 0
173 196 0
172 195 0
176 199 0
170 195 0
175 198 0
171 194 0
172 197 0
173 197 0
176 198 0
173 196 0
173 196 0
173 197 0
171 196 0
174 198 0
174 198 0
172 196 0
172 195 0
171 194 0
170 194 0
175 198 0
173 196 0
174 198 0
174 198 0
173 196 0
174 197 0
172 196 0
175 198 0
166 190 0
170 195 0
173 196 0
173 197 0
171 195 0
173 196 0
171 195 0
168 192 0
172 196 0
169 192 0
174 196 0
172 197 0
172 195 0
174 197 0
174 197 0
175 198 0
170 193 0
174 197 0
174 196 0
170 195 0
173 196 0
169 193 0
174 198 0
175 197 0
172 195 0
174 198 0
174 197 0
175 198 0
168 190 0
171 194 0
174 197 0
171 195 0
171 195 0
174 198 0
172 194 0
174 197 0
174 196 0
169 194 0
171 195 0
173 196 0
170 192 0
173 196 0
168 191 0
172 197 0
174 198 0
171 195 0
170 193 0
169 192 0
173 196 0
171 195 0
173 196 0
175 197 0
173 195 0
173 197 0
169 193 0
173 196 0
170 194 0
174 198 0
174 198 0
174 198 0
173 196 0
170 195 0
169 192 0
175 197 0
172 196 0
171 194 0
172 194 0
173 196 0
173 197 0
173 196 0
168 192 0
173 196 0
176 198 0
174 197 0
172 196 0
174 196 0
169 192 0
170 193 0
160 183 67
109 137 147
62 99 177
63 99 179
62 99 177
63 100 177
62 99 177
63 100 181
62 99 175
62 99 179
61 99 181
62 99 179
61 98 179
62 99 181
63 100 181
62 99 177
62 99 179
62 99 181
62 99 181
61 99 181
62 99 181
61 99 181
61 99 181
61 98 181
61 98 181
62 99 181
62 99 181
61 98 179
62 99 181
61 99 181
62 99 181
62 99 181
61 98 181
62 99 181
62 99 181
61 98 181
61 98 181
61 99 181
61 98 181
60 98 181
62 99 181
61 98 181
61 98 181
62 99 181
61 99 181
62 99 181
62 99 181
62 99 181
61 99 181
61 98 181
62 99 181
61 98 181
61 98 181
62 99 181
61 98 181
62 99 181
62 99 181
62 99 181
61 99 181
61 99 181
62 99 181
61 98 181
62 99 181
63 100 181
62 100 181
62 99 181
61 99 181
62 99 181
62 99 181
62 99 181
62 99 181
61 98 181
62 99 181
62 99 181
61 98 179
61 98 179
62 99 181
61 99 181
62 98 178
60 98 181
62 99 179
61 98 177
62 99 181
62 99 177
61 98 177
62 98 177
62 98 177
62 99 177
62 99 178
60 96 175
62 98 174
61 97 172
97 114 154
146 141 101
141 134 79
152 147 88
156 150 97
144 139 83
140 135 78
137 133 82
146 142 82
155 151 90
147 142 90
136 134 85
132 130 83
128 126 83
146 141 88
135 133 82
137 134 83
147 144 95
138 136 89
147 143 94
137 136 90
128 126 84
149 146 95
144 141 94
141 140 94
141 140 94
154 152 103
136 135 93
131 132 91
140 138 92
143 141 94
146 145 97
129 130 92
138 137 94
151 149 102
142 141 92
142 143 101
151 149 101
151 149 101
156 153 105
140 141 99
143 141 97
148 147 100
153 152 102
161 159 107
152 150 102
156 154 106
151 149 101
165 162 109
160 157 108
146 146 102
160 158 105
160 158 106
161 158 107
154 152 103
161 159 107
161 159 106
161 158 104
160 158 105
160 158 107
166 163 108
166 163 109
174 170 111
167 163 108
174 169 112
170 168 112
173 169 112
167 162 105
170 166 109
173 169 110
160 157 105
174 169 111
167 165 108
168 164 107
171 168 110
171 167 108
173 169 112
168 164 108
173 168 109
168 164 103
170 166 108
176 171 110
169 166 108
172 167 105
175 170 110
175 169 106
171 165 103
172 167 104
179 172 113
175 169 109
168 164 109
168 164 102
171 167 107
174 169 109
174 168 104
166 162 106
170 166 104
175 170 110
171 166 104
169 163 99
170 165 107
174 168 108
173 169 110
173 167 107
170 166 101
172 168 107
174 169 104
169 165 104
172 165 106
171 165 106
160 156 98
171 165 104
173 167 99
169 163 99
167 161 101
169 164 97
175 168 102
173 165 99
169 162 101
167 161 103
158 153 90
164 158 93
161 156 91
163 156 97
155 150 91
166 159 97
162 155 91
163 158 93
150 146 85
154 149 87
160 154 91
166 157 101
156 150 85
152 146 84
145 140 82
156 149 88
147 141 80
153 147 85
148 142 80
156 148 80
145 140 79
150 145 79
144 139 75
132 129 70
153 146 79
137 132 70
140 134 64
126 127 48
173 196 0
173 194 0
176 198 0
172 194 0
173 196 0
172 196 0
174 198 0
173 197 0
175 198 0
174 197 0
172 196 0
175 198 0
174 198 0
174 197 0
173 196 0
173 197 0
174 197 0
174 198 0
172 195 0
174 197 0
173 197 0
175 198 0
171 195 0
174 198 0
174 197 0
172 196 0
174 197 0
175 198 0
172 196 0
169 192 0
175 198 0
174 197 0
176 199 0
177 199 0
173 196 0
172 196 0
174 198 0
172 196 0
176 199 0
174 197 0
175 198 0
175 198 0
171 195 0
171 195 0
172 196 0
175 198 0
175 197 0
172 196 0
169 193 0
175 198 0
174 198 0
171 195 0
173 197 0
170 193 0
170 194 0
173 195 0
168 193 0
174 198 0
168 193 0
175 197 0
173 196 0
174 198 0
174 196 0
172 195 0
174 197 0
175 198 0
173 197 0
173 197 0
174 197 0
170 192 0
173 197 0
173 197 0
174 196 0
172 196 0
173 197 0
170 193 0
173 196 0
174 197 0
172 195 0
175 198 0
174 198 0
173 196 0
175 198 0
176 198 0
173 197 0
175 198 0
174 198 0
173 196 0
171 195 0
173 196 0
174 196 0
173 197 0
174 198 0
172 196 0
174 197 0
174 198 0
173 196 0
171 195 0
172 195 0
174 196 0
173 197 0
171 195 0
173 196 0
172 195 0
173 197 0
174 198 0
175 198 0
174 198 0
173 196 0
171 194 0
175 197 0
173 196 0
174 196 0
173 197 0
173 197 0
173 194 0
171 194 0
172 196 0
168 191 0
174 196 0
173 197 0
174 197 0
172 195 0
173 196 0
174 197 0
174 198 0
172 195 0
171 194 0
170 194 0
170 192 0
171 195 0
174 198 0
174 198 0
172 196 0
176 198 0
169 193 0
176 198 0
171 195 0
173 195 0
174 196 0
174 198 0
169 192 0
174 197 0
171 195 0
171 195 0
169 192 0
173 196 0
169 192 0
174 197 0
174 197 0
169 193 0
178 199 0
175 198 0
171 193 0
171 196 0
175 198 0
174 196 0
173 196 0
172 196 0
115 142 135
66 101 171
62 99 179
62 99 179
62 99 179
62 99 177
62 99 179
63 100 177
62 99 181
61 98 177
62 99 179
62 99 177
61 98 181
62 99 181
62 99 179
61 99 177
61 99 181
62 99 181
62 99 181
63 99 179
62 99 179
61 99 181
61 99 181
61 98 181
62 99 181
61 98 181
61 98 181
62 100 181
62 99 181
62 99 181
61 98 181
62 99 181
62 99 181
61 98 181
61 99 181
61 98 181
62 99 181
62 99 181
61 99 181
61 98 181
61 99 181
61 99 181
62 99 181
61 98 181
62 99 181
62 99 181
61 98 181
62 99 181
62 99 181
62 99 181
62 99 181
61 99 181
62 99 181
62 99 181
62 99 181
61 98 181
61 99 181
62 99 181
62 99 181
61 98 181
62 99 181
61 99 181
61 99 181
61 98 181
62 99 181
62 99 181
61 99 181
62 99 181
62 99 181
61 99 181
61 98 179
62 99 181
61 99 181
62 99 181
62 99 181
62 99 181
62 99 181
60 97 179
62 99 181
62 99 177
62 99 181
62 98 179
61 98 179
63 100 181
61 98 175
61 98 176
61 98 177
62 99 179
62 99 179
63 99 178
61 97 170
62 98 175
61 98 175
61 98 177
65 99 172
106 116 126
135 132 92
132 130 73
137 134 81
129 127 79
151 146 84
140 138 85
148 144 85
137 132 80
143 140 91
130 127 81
142 138 90
126 124 79
140 139 95
138 136 89
128 126 83
129 128 84
131 131 91
150 147 98
145 141 92
135 133 89
154 150 99
141 139 93
139 138 94
120 122 89
140 140 95
149 147 99
142 140 94
154 151 101
144 143 98
154 150 101
148 146 98
151 150 103
154 152 101
142 141 94
154 153 105
155 153 102
151 149 102
148 148 100
140 139 98
155 153 102
147 146 102
156 155 104
159 156 106
154 152 103
152 150 101
154 152 101
154 153 103
155 153 103
171 166 110
156 153 101
140 140 96
154 153 103
157 154 104
165 162 105
163 161 109
159 158 106
172 167 111
149 147 99
163 161 107
168 164 108
169 166 110
170 166 110
173 168 110
165 163 109
165 163 107
167 163 107
166 163 109
171 166 110
165 162 108
170 166 107
169 165 102
172 166 108
169 166 111
177 172 112
170 166 108
169 166 111
172 167 106
172 167 105
175 170 109
168 165 109
177 172 109
178 172 112
170 166 106
173 169 109
169 165 106
175 170 109
175 169 106
175 169 107
172 167 106
172 166 105
168 163 106
172 166 106
167 163 103
172 166 104
175 167 107
174 167 107
177 172 109
173 167 107
173 167 106
167 164 101
173 165 104
178 171 107
175 168 106
169 166 107
177 171 107
164 159 99
174 167 102
165 160 98
170 165 102
172 166 103
168 162 95
171 165 99
163 157 95
163 158 95
165 161 99
160 157 97
159 155 95
158 152 84
165 158 95
158 152 94
152 147 84
170 164 103
161 153 95
162 155 91
162 156 95
164 157 95
165 159 91
145 139 75
159 154 90
157 149 88
160 155 88
164 157 93
163 157 88
135 131 70
154 148 84
153 147 80
158 151 91
147 142 80
147 141 74
149 143 77
146 140 72
137 132 72
119 115 48
133 128 72
137 131 64
174 196 0
173 196 0
172 195 0
174 197 0
172 197 0
174 196 0
173 194 0
173 196 0
174 198 0
175 198 0
173 196 0
174 197 0
173 197 0
170 194 0
176 198 0
175 198 0
172 197 0
175 198 0
174 197 0
172 195 0
171 193 0
175 198 0
172 196 0
173 197 0
174 197 0
171 194 0
173 197 0
175 197 0
173 197 0
170 194 0
175 198 0
175 198 0
175 198 0
177 199 0
174 198 0
174 198 0
172 195 0
170 194 0
173 197 0
173 197 0
173 196 0
173 197 0
174 197 0
174 198 0
174 198 0
172 195 0
172 196 0
173 197 0
172 197 0
170 194 0
174 196 0
169 192 0
174 197 0
174 198 0
174 198 0
175 198 0
173 195 0
171 194 0
175 197 0
174 198 0
172 195 0
174 197 0
170 193 0
172 194 0
173 196 0
172 196 0
170 195 0
173 196 0
174 196 0
171 195 0
170 194 0
172 197 0
171 195 0
175 197 0
175 198 0
175 197 0
171 194 0
171 194 0
176 199 0
174 196 0
173 197 0
171 195 0
175 198 0
173 196 0
174 196 0
173 195 0
173 197 0
174 198 0
173 197 0
175 197 0
173 195 0
171 195 0
173 195 0
172 195 0
174 196 0
176 198 0
173 196 0
171 195 0
172 194 0
173 195 0
173 196 0
171 195 0
171 195 0
170 193 0
167 190 0
174 197 0
174 198 0
172 195 0
172 195 0
172 197 0
174 198 0
169 191 0
174 197 0
173 197 0
171 195 0
172 197 0
172 194 0
172 196 0
175 198 0
173 196 0
174 197 0
172 196 0
170 194 0
174 198 0
174 197 0
171 195 0
171 194 0
170 194 0
167 190 0
176 198 0
176 199 0
174 198 0
174 198 0
173 197 0
172 196 0
173 196 0
172 196 0
172 196 0
172 197 0
170 193 0
172 195 0
172 195 0
173 196 0
171 195 0
171 196 0
170 194 0
172 195 0
173 196 0
171 194 0
174 196 0
173 196 0
172 195 0
172 196 0
172 196 0
175 198 0
172 195 0
171 195 0
148 170 102
85 116 169
62 99 173
62 99 179
62 99 179
62 99 181
63 100 181
62 99 179
62 99 181
61 98 177
63 100 181
62 99 181
62 99 179
62 99 179
62 99 181
62 99 181
62 99 181
62 99 179
62 99 181
62 99 181
61 99 181
62 99 181
62 99 181
62 99 181
62 99 179
62 99 181
62 99 181
61 99 181
62 99 181
61 99 181
61 99 181
61 98 181
62 99 181
62 99 181
62 99 181
61 98 181
61 99 181
61 99 181
61 98 181
61 98 181
61 99 181
62 99 181
61 98 181
62 99 181
61 99 181
62 99 181
61 98 181
61 98 181
61 99 181
62 99 181
62 99 181
62 99 181
62 99 181
62 99 181
61 98 181
61 99 181
61 99 181
61 99 181
61 99 181
62 99 181
61 99 181
61 98 181
61 98 181
61 99 181
61 99 181
62 99 181
61 99 181
62 99 181
61 99 181
62 99 181
62 99 181
61 98 181
62 99 181
61 99 181
60 97 181
61 99 181
62 99 179
61 98 177
62 98 179
61 98 179
62 99 181
62 99 179
62 99 179
62 99 181
61 99 181
61 98 179
62 99 179
62 99 178
61 98 179
62 99 179
61 99 181
61 99 179
60 97 174
63 100 179
61 98 175
61 96 171
61 98 175
61 98 177
89 112 169
124 126 106
133 129 77
154 148 85
139 137 85
134 131 78
154 151 93
133 133 88
138 134 86
147 142 90
138 137 85
136 134 88
147 144 95
134 133 83
145 142 93
123 123 83
128 127 86
152 149 99
138 136 91
138 137 93
143 141 95
139 138 96
131 132 90
138 137 93
133 132 90
144 142 97
146 145 97
151 149 100
134 135 93
143 142 97
130 131 91
149 148 102
155 153 103
144 143 97
147 145 98
147 144 97
138 138 97
147 145 98
149 147 101
136 136 92
156 153 103
155 152 104
153 151 103
148 148 102
154 152 102
149 148 101
163 161 108
149 149 103
150 148 98
161 158 106
158 156 104
163 161 107
163 161 107
155 153 104
167 162 106
169 165 109
163 160 106
158 156 101
160 158 107
149 149 101
165 162 108
165 162 108
172 167 110
166 164 107
169 164 109
173 169 109
176 171 110
167 164 108
161 159 104
174 170 112
178 172 110
170 165 108
160 158 104
175 169 109
172 168 110
177 171 108
175 170 111
172 167 106
172 168 109
173 168 104
172 168 103
174 169 108
173 169 108
171 168 107
174 168 106
171 167 104
173 168 110
172 168 106
173 168 103
178 172 110
170 165 104
174 169 107
172 167 102
174 168 104
169 165 98
170 165 102
174 168 107
171 167 106
174 167 103
168 163 106
167 162 102
170 164 102
168 162 101
174 169 104
169 164 106
165 161 101
171 165 104
168 164 102
168 163 99
169 165 106
159 156 94
166 161 102
171 165 102
168 162 101
175 170 104
169 163 99
162 158 91
160 155 95
168 162 95
156 149 87
167 161 91
166 159 93
164 158 91
163 157 90
156 151 90
165 158 94
162 156 91
159 153 82
163 157 94
151 146 87
156 151 85
155 149 88
139 133 74
150 144 82
152 145 79
138 133 75
146 140 79
151 143 82
136 130 74
142 137 68
134 129 66
143 135 72
139 134 66
151 143 77
122 118 53
166 188 22
173 197 0
176 198 0
171 194 0
171 195 0
171 194 0
175 198 0
173 196 0
176 198 0
174 198 0
176 199 0
175 197 0
170 195 0
173 196 0
174 197 0
173 196 0
176 199 0
174 198 0
175 198 0
172 196 0
172 197 0
172 196 0
174 198 0
173 197 0
172 195 0
173 197 0
173 196 0
173 196 0
174 197 0
176 198 0
176 198 0
175 198 0
176 198 0
174 198 0
175 198 0
171 195 0
176 199 0
174 197 0
173 196 0
174 198 0
173 195 0
174 197 0
172 196 0
172 196 0
171 195 0
169 193 0
167 192 0
172 195 0
173 196 0
174 197 0
174 197 0
174 197 0
174 197 0
172 196 0
174 198 0
175 197 0
173 195 0
174 198 0
172 196 0
173 197 0
175 198 0
173 195 0
174 198 0
174 198 0
171 194 0
171 193 0
173 196 0
172 195 0
172 195 0
174 196 0
174 198 0
177 198 0
172 196 0
172 195 0
176 198 0
173 196 0
174 198 0
176 199 0
170 192 0
169 192 0
172 195 0
173 196 0
173 196 0
171 195 0
171 195 0
171 195 0
174 197 0
175 196 0
173 197 0
171 194 0
171 194 0
169 193 0
174 197 0
174 198 0
172 196 0
172 196 0
172 195 0
171 194 0
172 196 0
171 195 0
171 195 0
174 197 0
172 195 0
169 193 0
171 193 0
174 196 0
169 193 0
172 197 0
169 194 0
171 195 0
173 196 0
172 195 0
174 196 0
173 197 0
174 198 0
169 192 0
173 196 0
171 194 0
174 197 0
170 194 0
171 194 0
174 197 0
174 197 0
172 196 0
175 198 0
170 193 0
172 196 0
173 196 0
174 198 0
172 196 0
167 191 0
170 193 0
174 198 0
171 194 0
171 195 0
172 195 0
170 192 0
172 196 0
171 194 0
169 192 0
173 196 0
174 197 0
171 195 0
174 196 0
172 195 0
169 193 0
175 198 0
170 193 0
173 196 0
173 197 0
168 190 0
173 196 0
173 196 0
172 194 0
170 194 0
160 183 76
111 139 149
62 98 169
63 99 175
63 100 177
62 99 177
62 99 177
63 100 179
62 99 179
62 98 175
62 99 177
61 98 179
62 99 181
62 99 181
61 99 181
62 99 177
61 99 181
62 99 179
61 98 177
62 99 181
62 99 181
62 99 181
61 98 181
61 99 181
61 99 181
63 100 181
61 99 181
62 99 181
61 99 181
62 99 181
61 99 181
62 99 181
62 99 181
62 99 181
61 99 181
62 99 181
62 99 181
61 99 181
62 99 181
61 99 181
62 99 181
61 99 181
61 99 181
62 99 181
61 99 181
61 99 181
61 99 181
61 99 181
61 99 181
61 99 181
61 99 181
62 99 181
61 99 181
61 99 181
63 100 181
61 99 181
61 98 181
62 99 181
62 99 181
61 99 181
61 98 181
61 99 181
62 99 181
61 99 181
61 99 181
61 99 181
61 99 181
62 99 181
62 99 181
61 98 181
61 98 179
61 98 181
62 99 181
62 99 181
61 99 181
61 99 181
62 99 179
61 98 181
61 99 181
62 99 181
62 99 181
61 99 181
62 99 181
61 98 177
61 98 179
62 99 181
61 99 181
62 99 177
61 98 179
61 99 181
62 99 179
63 99 179
62 99 179
61 98 178
63 100 179
63 100 181
61 98 177
63 100 181
62 99 181
61 96 171
61 97 171
61 98 175
91 109 147
140 138 95
126 125 78
139 135 79
135 132 81
152 149 93
134 132 84
122 122 78
135 131 82
144 142 93
151 146 92
135 135 93
126 125 89
141 139 92
136 135 90
144 142 98
128 127 88
123 125 85
142 141 95
136 135 90
146 144 97
141 139 94
132 132 92
132 131 91
150 148 99
140 138 94
141 141 95
129 130 89
138 138 97
155 152 101
136 136 94
150 147 98
141 139 96
144 144 100
144 144 99
150 148 101
143 142 98
157 154 106
150 148 101
147 145 99
163 159 106
147 146 100
154 152 103
149 148 100
158 155 105
155 153 103
163 159 108
161 158 105
164 161 108
154 153 102
161 158 105
168 164 109
163 161 107
161 159 108
155 154 103
162 159 107
164 160 106
165 161 107
168 163 108
165 162 107
174 169 111
171 168 110
168 165 109
171 168 112
171 167 109
170 167 110
173 170 110
175 170 110
166 164 108
173 169 110
173 169 111
169 166 107
175 170 110
170 167 109
169 165 104
172 168 109
171 168 103
172 168 109
174 169 107
174 169 108
175 170 110
178 172 110
173 168 106
166 163 103
172 168 107
174 168 104
170 166 103
173 169 101
178 171 107
167 161 97
165 162 100
176 169 107
168 163 97
169 163 102
172 166 102
170 164 101
176 170 107
175 170 106
175 169 106
169 165 103
165 161 99
176 170 108
172 165 104
169 164 103
174 168 102
165 159 95
176 168 101
175 170 106
172 167 95
169 161 101
169 164 101
166 161 101
169 163 101
168 161 99
173 167 101
168 162 93
168 161 98
164 158 94
171 165 97
162 156 91
153 147 84
154 148 77
155 149 90
162 156 90
161 154 88
165 159 94
148 143 84
156 150 88
151 145 84
165 158 90
150 145 85
148 141 84
156 150 84
145 140 74
147 141 82
130 125 53
146 140 75
133 130 66
152 146 80
140 134 74
139 134 70
139 133 64
130 125 56
155 170 32
174 198 0
173 197 0
174 194 0
173 197 0
173 196 0
173 196 0
174 196 0
172 195 0
174 198 0
175 197 0
172 197 0
174 196 0
173 197 0
173 197 0
173 195 0
174 198 0
174 197 0
174 197 0
170 194 0
174 198 0
170 194 0
175 197 0
173 197 0
173 197 0
170 194 0
172 196 0
170 195 0
174 198 0
175 198 0
173 196 0
175 198 0
175 198 0
171 195 0
174 197 0
172 196 0
175 197 0
173 196 0
173 197 0
172 195 0
172 196 0
170 194 0
175 198 0
172 195 0
169 193 0
173 195 0
169 194 0
172 197 0
175 198 0
171 195 0
174 197 0
174 198 0
173 197 0
171 194 0
172 196 0
172 196 0
173 197 0
173 196 0
173 197 0
172 196 0
172 195 0
174 198 0
172 195 0
174 197 0
174 197 0
173 196 0
173 197 0
172 196 0
175 198 0
173 196 0
171 194 0
174 196 0
174 197 0
170 194 0
172 197 0
173 195 0
171 195 0
170 194 0
175 198 0
173 195 0
172 195 0
174 196 0
173 195 0
175 198 0
172 196 0
174 197 0
172 196 0
173 197 0
172 196 0
173 196 0
176 199 0
174 198 0
173 196 0
172 196 0
170 194 0
171 195 0
173 197 0
174 196 0
172 196 0
174 197 0
171 195 0
173 197 0
175 198 0
175 198 0
170 193 0
174 197 0
175 197 0
171 194 0
168 193 0
168 191 0
175 198 0
171 193 0
169 192 0
173 196 0
175 197 0
172 196 0
172 196 0
175 198 0
171 193 0
173 196 0
173 197 0
167 190 0
170 194 0
169 192 0
173 197 0
170 193 0
172 195 0
174 196 0
173 196 0
171 194 0
176 197 0
175 197 0
171 193 0
170 193 0
168 192 0
173 195 0
172 196 0
172 194 0
171 194 0
173 197 0
172 194 0
173 196 0
169 191 0
171 195 0
171 195 0
171 193 0
169 191 0
171 195 0
172 197 0
172 193 0
174 198 0
173 196 0
169 193 0
172 195 0
150 174 95
72 107 171
62 99 173
62 99 179
63 100 177
63 100 179
62 99 175
62 99 175
63 100 181
62 99 181
62 99 181
62 99 181
62 99 181
62 99 181
61 99 181
61 99 181
61 98 179
62 99 179
62 99 181
61 99 181
62 99 179
62 99 181
62 99 181
61 98 179
62 99 181
61 99 181
62 99 181
61 99 179
61 99 181
62 99 181
61 99 181
61 99 181
61 98 179
62 99 181
62 99 181
62 99 181
61 99 181
62 99 181
62 99 181
62 99 181
62 99 181
61 98 181
62 99 181
61 99 181
61 99 181
61 98 181
62 99 181
62 99 181
61 98 181
62 99 181
61 98 181
61 99 181
61 99 181
62 99 181
62 99 181
62 99 181
60 98 181
61 99 181
61 99 181
61 98 181
60 98 181
61 99 181
61 99 181
61 98 181
62 99 181
62 99 181
62 99 181
62 99 181
62 99 181
62 99 181
62 99 181
61 99 181
61 98 181
62 99 181
62 99 181
62 99 179
62 99 181
61 99 181
63 100 181
61 98 179
61 98 181
61 98 181
61 99 179
61 98 177
62 99 179
62 99 179
62 99 181
62 99 179
62 99 179
62 99 179
61 98 177
62 99 179
62 99 181
62 99 179
61 98 178
60 96 174
61 98 174
62 99 179
62 98 179
62 98 177
61 97 175
63 99 177
61 98 177
62 98 176
78 103 159
113 118 110
141 138 81
131 130 84
144 140 84
140 136 85
125 124 80
131 130 83
120 120 79
129 129 85
133 132 86
132 130 82
134 130 86
133 133 86
137 136 93
138 135 91
133 132 88
134 134 92
135 134 89
138 136 90
142 140 94
133 132 90
160 157 105
131 132 93
144 143 96
155 153 102
149 148 102
138 138 93
144 143 99
142 142 99
140 139 96
144 143 95
145 144 100
137 136 94
143 142 98
148 146 100
146 144 99
149 147 101
151 150 105
147 145 99
150 149 101
153 150 102
160 158 105
150 147 101
160 157 101
161 159 107
150 150 100
151 151 103
163 160 105
162 159 105
161 159 107
162 160 105
150 150 102
163 161 107
159 158 106
161 159 107
168 164 108
166 163 108
164 162 106
165 162 107
165 162 105
168 165 106
170 166 109
171 167 108
170 165 108
169 166 109
167 164 105
173 167 109
168 164 106
172 168 109
175 169 110
171 168 106
172 167 106
173 168 109
175 171 112
173 168 106
170 166 107
170 166 105
174 169 108
171 166 104
175 171 110
174 168 105
175 170 104
178 172 108
168 162 98
168 165 108
176 171 109
174 169 106
174 169 107
173 168 101
172 166 104
167 161 101
166 162 101
177 169 103
168 163 102
167 162 99
171 167 106
175 170 106
177 170 104
171 167 103
169 166 102
168 162 99
170 167 106
175 168 103
164 160 95
175 169 104
164 158 95
166 160 99
156 151 90
166 161 97
160 156 94
163 158 93
164 158 97
165 160 97
171 165 97
159 154 87
166 161 95
165 160 97
163 157 93
169 163 94
160 154 95
159 153 90
154 149 85
161 155 88
160 154 95
146 140 80
161 155 94
152 147 80
151 144 82
154 147 79
159 153 82
154 147 84
151 145 75
126 122 60
148 141 79
144 139 75
151 146 74
147 140 82
134 129 58
144 138 72
142 136 77
130 124 62
143 149 53
174 197 0
173 196 0
173 195 0
174 198 0
173 197 0
174 198 0
174 198 0
174 198 0
173 196 0
174 197 0
173 196 0
173 197 0
175 198 0
176 199 0
173 197 0
174 198 0
174 197 0
174 197 0
171 195 0
173 197 0
173 197 0
172 196 0
173 197 0
174 197 0
174 197 0
173 197 0
176 199 0
172 196 0
172 195 0
171 196 0
171 195 0
170 193 0
172 196 0
172 195 0
173 196 0
173 196 0
172 196 0
167 191 0
175 197 0
174 198 0
175 198 0
175 198 0
175 198 0
175 198 0
174 197 0
172 195 0
174 197 0
173 197 0
174 198 0
171 196 0
176 199 0
174 197 0
173 196 0
173 197 0
175 198 0
174 197 0
172 196 0
170 193 0
169 191 0
176 198 0
171 195 0
172 195 0
171 195 0
172 196 0
174 197 0
173 197 0
173 195 0
173 197 0
172 195 0
171 194 0
171 194 0
174 197 0
175 198 0
171 194 0
173 197 0
170 194 0
175 198 0
172 195 0
172 196 0
174 198 0
176 199 0
173 196 0
169 192 0
173 195 0
170 194 0
174 198 0
170 194 0
174 196 0
172 196 0
172 197 0
172 195 0
173 196 0
170 195 0
175 198 0
173 197 0
171 195 0
171 195 0
173 195 0
170 194 0
177 198 0
174 197 0
175 198 0
174 197 0
171 195 0
172 196 0
174 197 0
173 196 0
173 196 0
176 198 0
175 198 0
171 194 0
173 196 0
175 198 0
171 194 0
171 195 0
173 197 0
171 196 0
171 195 0
176 199 0
173 197 0
170 193 0
168 191 0
176 197 0
169 192 0
173 197 0
170 194 0
173 195 0
174 198 0
176 198 0
173 195 0
174 196 0
175 197 0
172 195 0
172 196 0
170 193 0
174 198 0
175 198 0
172 194 0
174 197 0
174 196 0
170 193 0
170 193 0
168 191 0
173 196 0
173 196 0
174 198 0
167 190 0
173 197 0
167 189 0
174 197 0
173 195 0
163 187 62
111 137 147
60 97 169
63 99 177
61 98 173
63 99 175
63 100 179
62 99 179
62 99 179
62 99 177
62 99 177
61 98 175
62 99 181
62 99 177
63 100 181
61 98 177
62 99 181
61 98 181
62 99 179
62 99 181
63 99 179
62 99 181
61 98 179
62 99 179
61 98 179
62 99 181
62 99 181
62 99 181
61 98 179
62 99 181
61 98 181
62 99 181
61 99 181
61 99 181
62 99 181
62 99 181
62 99 181
62 99 181
61 98 181
61 99 181
61 98 181
62 99 181
61 99 181
61 99 181
61 98 181
61 99 181
61 99 181
61 99 181
61 99 181
61 99 181
61 99 181
62 99 181
61 98 181
62 99 181
61 99 181
61 98 181
62 99 181
62 99 181
61 99 181
61 99 181
61 98 181
61 99 181
61 99 181
62 99 181
62 99 181
62 99 181
61 99 181
61 99 181
61 99 181
61 98 181
62 99 181
62 99 181
62 99 181
61 99 181
62 99 181
61 99 181
62 99 181
62 99 181
62 99 181
62 99 181
62 99 179
61 98 179
62 99 179
61 98 179
61 98 179
61 99 179
61 99 181
62 99 179
62 99 181
62 99 181
62 99 181
62 99 181
61 98 179
61 98 176
62 99 181
62 99 179
61 98 179
62 99 179
61 98 179
62 98 178
62 99 177
61 98 177
61 98 174
62 99 179
61 98 172
62 98 176
61 97 176
61 97 174
100 113 142
121 122 82
141 139 88
121 120 71
126 124 67
147 144 93
141 139 89
129 128 86
125 122 80
122 122 76
130 128 83
139 136 90
117 118 83
134 133 87
136 136 95
134 133 90
126 128 91
135 135 93
127 128 89
129 130 92
139 137 91
146 145 99
138 138 97
151 149 101
130 131 91
144 143 98
130 130 90
143 143 98
144 142 98
154 152 103
148 146 96
136 136 96
151 149 99
144 144 100
131 133 94
154 152 103
146 144 96
148 146 99
154 153 103
149 147 96
149 147 99
149 147 98
145 145 100
159 157 107
147 145 97
153 151 101
147 148 101
162 159 106
153 152 104
164 163 110
162 159 102
159 158 104
163 161 106
157 155 103
161 158 105
170 167 106
165 162 105
168 165 108
164 162 105
158 155 100
169 166 109
167 164 107
170 167 111
168 165 106
171 167 107
166 161 104
169 164 101
174 169 110
170 166 104
174 169 106
170 165 100
171 167 105
168 165 106
173 167 104
175 170 111
168 164 101
172 167 106
173 168 104
177 172 108
175 170 106
175 170 110
173 169 103
171 166 108
179 172 110
169 165 102
172 167 102
174 169 107
172 167 104
164 161 101
175 170 107
171 167 107
173 168 102
168 163 98
168 164 99
174 168 107
172 165 98
172 166 104
172 166 103
166 160 101
171 165 104
169 165 103
171 165 97
167 161 102
168 161 95
170 163 98
180 173 107
166 161 95
161 156 94
171 164 99
168 162 99
172 165 102
152 147 87
158 153 95
157 151 88
166 159 94
165 159 95
163 156 91
159 154 94
163 157 90
162 155 93
155 149 88
158 152 85
165 158 93
152 146 85
165 159 90
153 147 87
159 152 85
150 143 82
148 143 85
164 157 91
152 147 82
151 146 77
152 147 74
145 138 72
143 137 72
135 131 66
144 139 72
140 133 68
127 122 53
127 122 60
163 177 32
172 195 0
172 193 0
173 195 0
173 195 0
172 194 0
171 193 0
173 197 0
172 197 0
171 195 0
173 196 0
174 197 0
174 195 0
175 198 0
173 195 0
173 197 0
172 195 0
173 197 0
173 196 0
177 199 0
174 198 0
174 198 0
173 196 0
173 196 0
171 194 0
173 196 0
174 197 0
171 196 0
174 198 0
173 197 0
174 198 0
175 198 0
175 198 0
176 199 0
175 198 0
174 197 0
174 198 0
172 196 0
173 196 0
173 197 0
173 196 0
175 198 0
173 197 0
172 196 0
175 198 0
169 193 0
176 198 0
173 197 0
174 196 0
173 196 0
171 195 0
174 198 0
172 196 0
175 197 0
173 196 0
171 193 0
169 193 0
173 196 0
170 194 0
174 197 0
173 197 0
177 199 0
169 194 0
169 193 0
173 197 0
175 198 0
172 196 0
171 195 0
173 196 0
173 197 0
173 196 0
170 193 0
175 198 0
172 196 0
173 195 0
174 197 0
171 195 0
176 198 0
168 192 0
172 196 0
170 193 0
173 197 0
172 196 0
170 194 0
172 197 0
175 198 0
173 197 0
172 197 0
174 198 0
177 199 0
171 195 0
174 197 0
171 194 0
173 196 0
174 198 0
172 194 0
173 197 0
172 195 0
177 199 0
169 193 0
169 193 0
173 195 0
173 196 0
174 197 0
171 194 0
170 193 0
174 197 0
175 198 0
172 195 0
171 194 0
176 198 0
170 194 0
172 197 0
176 198 0
173 195 0
174 197 0
175 197 0
170 194 0
173 196 0
170 192 0
174 197 0
175 197 0
175 198 0
174 197 0
175 198 0
172 195 0
171 195 0
173 197 0
173 196 0
168 192 0
174 195 0
172 196 0
175 198 0
174 198 0
172 195 0
170 192 0
170 194 0
171 195 0
171 195 0
174 198 0
174 197 0
173 195 0
170 194 0
172 196 0
172 195 0
172 196 0
174 196 0
171 194 0
174 197 0
172 195 0
172 195 0
152 175 76
80 112 155
63 99 177
62 99 175
63 99 173
62 99 181
61 99 179
62 99 181
62 99 179
63 100 181
62 99 179
62 99 177
61 99 181
63 100 179
62 99 179
62 99 179
62 99 181
62 99 179
62 99 181
61 99 181
62 99 181
62 99 179
62 99 179
62 99 181
61 99 181
62 99 181
62 99 179
62 99 181
61 99 181
61 99 181
62 99 181
61 99 181
61 99 179
62 99 181
61 99 181
62 99 181
62 99 181
62 99 181
61 99 181
62 99 181
61 99 181
61 98 181
61 99 181
61 98 181
61 98 181
62 99 181
61 99 181
62 99 181
61 98 181
61 99 181
61 99 181
62 99 181
61 99 181
60 98 181
61 98 181
61 99 181
62 99 181
61 99 181
62 99 181
61 98 181
62 99 181
61 99 181
62 99 181
61 98 181
61 98 181
61 98 181
61 99 181
61 98 181
61 98 181
62 99 181
61 99 181
61 99 181
61 99 181
61 99 181
62 99 181
62 99 181
61 99 181
62 99 181
61 99 181
61 99 181
62 99 181
61 98 181
62 99 181
62 99 181
62 99 179
61 99 181
61 98 179
61 99 179
62 99 179
61 99 181
62 99 181
61 98 177
61 98 178
62 99 179
61 98 177
61 98 179
61 98 179
62 99 177
62 99 179
62 99 179
61 99 181
61 98 175
62 98 176
61 98 177
62 98 174
62 99 181
62 98 175
60 96 170
61 98 178
62 98 176
74 102 168
117 119 105
144 142 88
135 133 89
123 121 78
135 133 91
124 122 81
130 130 90
131 129 88
135 133 89
124 125 86
139 136 91
150 147 95
135 134 93
147 145 98
131 132 91
132 132 90
149 148 98
123 124 89
132 132 94
121 122 85
134 134 92
149 148 100
134 134 94
137 136 92
144 143 98
146 144 98
130 133 95
149 148 100
148 146 98
135 136 96
152 151 101
140 139 97
153 150 101
149 147 101
143 142 97
143 144 100
141 140 95
159 156 106
154 151 101
148 147 100
161 158 103
151 150 99
148 146 100
159 157 106
156 153 101
167 164 107
151 149 99
151 148 102
159 157 105
156 154 100
156 154 103
170 166 108
170 167 109
164 161 107
147 146 95
166 162 104
161 160 105
174 168 109
166 163 105
170 166 106
171 166 108
169 165 109
175 169 109
172 167 108
174 169 110
170 166 109
166 163 103
174 169 105
174 170 110
172 167 106
169 165 106
178 171 106
173 169 107
177 171 104
169 165 101
167 163 106
176 171 106
170 166 103
170 164 105
171 166 106
172 166 104
175 169 109
174 169 106
178 172 106
173 169 106
175 169 107
176 170 103
176 171 109
179 172 109
175 171 112
171 166 104
174 168 107
167 163 101
168 163 101
172 165 101
172 167 101
169 163 104
170 165 98
170 164 102
170 165 97
175 168 102
173 166 101
173 166 103
176 169 104
166 161 99
168 161 94
164 158 95
168 162 97
170 164 102
164 158 95
165 159 94
162 156 88
159 153 85
161 155 90
177 170 101
159 153 90
164 159 94
155 149 84
161 155 87
158 152 88
162 155 85
145 139 80
155 149 82
163 156 88
157 151 79
150 143 82
153 147 87
161 153 84
160 152 88
144 139 75
150 143 77
149 142 72
148 142 74
116 113 60
129 124 68
146 140 70
149 141 79
129 125 53
143 146 51
170 192 0
172 194 0
168 190 0
171 191 0
172 196 0
175 196 0
172 195 0
175 198 0
176 199 0
171 194 0
172 195 0
171 195 0
173 195 0
176 198 0
173 197 0
175 198 0
173 194 0
171 196 0
175 198 0
176 199 0
172 196 0
169 192 0
172 196 0
172 197 0
175 198 0
174 197 0
174 198 0
174 197 0
174 197 0
175 198 0
172 196 0
171 195 0
174 197 0
172 195 0
171 195 0
173 197 0
174 198 0
173 197 0
170 194 0
172 195 0
172 195 0
171 195 0
174 198 0
174 196 0
174 198 0
172 196 0
174 197 0
174 197 0
169 191 0
172 195 0
171 195 0
174 198 0
173 197 0
174 197 0
171 195 0
172 194 0
174 198 0
172 194 0
172 195 0
173 196 0
173 197 0
172 195 0
171 193 0
172 195 0
172 197 0
172 195 0
173 196 0
174 198 0
171 195 0
175 198 0
172 196 0
175 198 0
170 194 0
173 196 0
173 196 0
174 198 0
171 195 0
170 194 0
173 197 0
173 197 0
172 196 0
174 197 0
174 197 0
174 197 0
174 198 0
172 196 0
170 193 0
173 195 0
172 196 0
176 199 0
173 195 0
174 198 0
171 194 0
174 196 0
167 190 0
173 196 0
173 196 0
175 196 0
176 199 0
172 196 0
170 193 0
172 195 0
173 195 0
168 192 0
173 196 0
172 196 0
172 196 0
169 192 0
172 195 0
169 191 0
172 196 0
173 197 0
173 197 0
169 193 0
175 197 0
172 196 0
176 197 0
173 196 0
169 193 0
173 197 0
173 196 0
167 191 0
171 194 0
173 197 0
172 195 0
172 194 0
173 196 0
172 196 0
174 197 0
171 195 0
170 194 0
175 195 0
174 197 0
169 193 0
172 196 0
171 194 0
172 196 0
172 195 0
173 196 0
173 194 0
170 192 0
174 198 0
172 195 0
171 194 0
174 195 0
172 196 0
172 194 0
171 196 0
172 196 0
136 160 117
70 105 171
63 100 181
62 99 177
63 99 177
62 98 171
62 99 177
63 100 181
62 99 173
62 99 179
62 99 181
61 98 175
62 99 181
62 99 181
61 99 177
62 99 181
62 99 179
62 99 181
62 99 181
61 99 179
61 98 177
61 99 181
62 99 181
63 99 179
61 99 181
63 100 181
61 98 181
61 98 181
62 99 181
62 99 181
61 99 181
62 99 181
62 99 181
62 99 179
61 99 181
61 99 179
62 99 181
61 99 181
62 99 181
61 99 181
62 99 181
62 99 181
61 98 181
62 99 181
62 99 181
62 99 181
61 99 181
62 99 181
61 99 181
62 99 181
61 98 181
61 99 181
61 99 181
61 99 181
61 98 181
62 99 181
61 99 181
61 99 181
62 99 181
61 99 181
62 99 181
61 98 181
62 99 181
62 99 181
61 99 181
62 99 181
62 99 181
61 98 181
62 99 179
61 98 181
62 99 181
62 99 181
61 99 181
62 99 181
61 99 181
61 99 181
62 99 181
61 99 181
62 99 181
62 99 181
61 98 181
62 99 181
61 98 179
63 100 181
61 99 181
61 99 181
61 98 179
61 98 181
61 98 181
62 99 181
61 98 179
62 99 181
61 99 181
62 98 178
63 100 181
62 99 179
60 96 173
62 99 177
61 99 179
61 98 177
62 99 181
61 98 179
62 99 177
62 98 179
62 99 181
62 99 179
62 98 173
61 98 174
62 99 179
62 100 181
61 98 176
61 97 175
59 93 161
103 113 122
133 133 79
125 123 77
129 129 85
122 121 78
135 134 80
124 124 82
137 135 89
133 130 85
117 118 81
138 138 93
118 118 81
127 127 86
112 115 80
138 138 96
121 121 83
133 134 92
132 130 86
143 143 97
138 136 93
139 139 96
122 124 90
138 138 94
133 133 93
144 142 98
138 138 91
138 138 96
144 144 99
135 135 93
134 134 95
142 142 98
147 146 101
146 144 98
143 142 97
147 145 100
145 143 97
155 153 105
154 153 104
160 157 106
152 151 100
154 154 106
152 151 104
155 153 99
152 152 105
150 147 95
163 160 105
161 156 101
163 160 106
162 159 104
158 156 106
164 161 105
169 165 109
164 161 106
164 161 108
168 165 109
169 164 105
166 162 108
164 160 107
174 169 110
169 165 104
166 163 107
163 159 102
167 164 105
173 168 108
168 164 104
169 165 106
170 165 100
178 172 110
171 167 106
170 165 105
172 168 107
172 167 108
173 168 107
170 165 105
174 169 110
175 171 108
173 167 102
175 170 106
174 169 107
175 170 108
174 169 104
180 172 104
175 170 108
171 166 105
173 167 106
178 173 110
171 166 99
172 166 98
170 166 101
170 165 106
169 165 101
172 167 104
165 161 98
172 167 103
170 165 99
176 170 104
165 161 101
168 163 101
173 166 104
172 166 104
171 165 98
174 168 99
175 169 104
172 166 98
172 165 99
166 159 98
162 156 91
153 148 88
165 158 88
165 160 95
157 150 93
168 161 94
169 163 94
166 160 99
168 161 95
155 148 90
158 152 91
150 144 88
152 146 85
160 154 91
154 149 87
155 149 87
150 145 82
148 143 79
151 144 77
148 142 87
142 137 72
143 138 74
156 149 90
141 135 70
150 144 75
139 133 74
146 140 66
135 129 70
149 142 79
152 145 70
125 121 58
134 138 53
172 196 0
175 197 0
176 198 0
175 198 0
170 192 0
175 197 0
174 198 0
173 197 0
174 198 0
173 197 0
172 195 0
173 197 0
172 197 0
175 198 0
171 195 0
171 194 0
176 198 0
172 195 0
175 197 0
172 195 0
171 195 0
174 198 0
173 196 0
173 196 0
174 198 0
176 198 0
173 196 0
175 198 0
172 195 0
173 196 0
174 198 0
173 196 0
173 196 0
169 193 0
177 198 0
176 199 0
176 199 0
171 195 0
175 198 0
174 198 0
173 196 0
171 195 0
176 199 0
173 197 0
173 197 0
173 196 0
174 198 0
173 196 0
174 198 0
174 195 0
171 195 0
174 198 0
172 195 0
173 196 0
175 198 0
168 192 0
171 193 0
173 196 0
173 196 0
171 194 0
165 187 0
174 197 0
169 192 0
172 196 0
173 196 0
173 196 0
172 194 0
174 198 0
171 194 0
174 198 0
172 196 0
172 197 0
173 196 0
169 192 0
174 197 0
172 195 0
172 196 0
171 194 0
174 198 0
174 198 0
173 196 0
173 197 0
174 196 0
173 195 0
177 199 0
169 191 0
172 196 0
169 192 0
169 192 0
172 197 0
170 193 0
173 193 0
174 198 0
173 197 0
175 196 0
174 197 0
175 198 0
168 192 0
174 197 0
176 198 0
169 193 0
174 197 0
172 195 0
172 197 0
171 195 0
171 195 0
174 197 0
171 195 0
171 195 0
171 195 0
175 198 0
172 196 0
167 191 0
170 192 0
170 193 0
171 194 0
174 197 0
171 193 0
174 196 0
173 196 0
174 198 0
171 195 0
170 194 0
175 197 0
174 196 0
173 195 0
173 197 0
171 195 0
171 193 0
169 192 0
171 194 0
172 196 0
171 195 0
175 198 0
174 197 0
172 195 0
174 197 0
175 198 0
171 194 0
168 192 0
171 195 0
173 197 0
173 196 0
172 195 0
176 199 0
171 192 0
172 196 0
165 188 57
118 144 133
62 99 175
62 99 177
62 99 177
62 99 179
63 99 175
63 100 181
63 100 181
62 99 179
61 98 179
62 99 175
61 99 177
62 99 181
62 99 181
62 99 179
61 99 181
62 99 181
62 99 181
63 100 181
62 99 181
61 99 181
62 99 181
62 99 179
61 98 179
61 99 181
61 98 181
61 99 181
62 99 181
62 99 181
62 99 181
62 99 181
61 99 181
62 99 181
61 99 181
62 99 181
62 99 177
62 99 181
61 99 181
62 99 181
60 98 179
62 99 181
62 99 181
62 99 181
62 99 181
61 99 181
61 99 181
62 99 181
62 99 181
62 99 181
61 98 181
61 99 181
61 99 181
62 99 181
62 99 181
61 99 181
63 100 181
62 99 181
62 99 181
61 98 181
62 99 181
62 99 181
62 99 181
61 99 181
62 99 181
61 99 181
61 98 181
61 99 181
62 99 181
61 99 181
61 99 181
61 98 181
61 98 181
62 99 181
61 99 181
61 99 181
61 98 181
62 99 181
62 99 181
62 99 181
61 98 181
62 99 181
61 98 181
62 99 181
61 98 181
62 99 181
62 99 181
61 99 181
61 98 181
61 99 179
63 100 181
61 98 181
62 99 181
61 98 181
63 100 181
61 98 179
62 99 181
62 99 181
62 99 181
62 99 179
62 99 177
63 99 179
62 99 179
62 98 175
63 99 177
62 98 177
60 97 174
61 97 177
62 99 181
62 99 177
61 98 175
62 99 179
62 99 177
61 97 170
61 98 175
62 98 175
72 98 150
132 130 91
127 126 86
124 124 79
116 115 77
131 129 84
111 111 75
137 133 88
127 128 89
133 131 88
122 122 86
135 134 92
136 135 90
134 133 92
138 137 95
150 147 95
123 123 84
134 134 93
140 139 94
135 135 94
129 129 89
132 133 93
131 132 92
130 130 92
140 141 98
136 137 96
141 141 97
129 129 91
154 151 102
147 147 102
153 152 101
148 148 103
154 152 103
142 141 94
141 142 98
151 150 102
135 134 94
163 160 108
158 156 106
147 146 99
155 152 98
159 157 104
147 147 98
156 153 99
167 163 106
164 160 105
155 154 101
157 156 103
162 159 104
166 161 106
164 160 105
165 161 106
162 159 103
158 156 105
166 164 106
169 166 108
166 162 103
166 161 106
168 165 109
162 159 101
168 164 106
172 168 110
173 169 106
173 168 109
159 158 103
172 167 107
171 166 108
174 168 102
171 168 110
173 167 107
172 167 106
169 163 101
174 169 108
168 164 102
171 166 97
176 170 108
177 171 108
166 162 101
168 164 102
169 164 102
168 164 104
172 167 103
172 166 104
175 168 108
175 168 107
174 168 106
168 164 102
175 170 106
172 166 101
172 166 102
167 162 95
170 163 101
175 169 103
171 166 99
178 171 109
169 163 102
173 167 102
166 160 91
171 164 99
172 165 103
170 164 99
174 167 99
168 163 101
175 168 106
163 157 94
164 158 94
163 158 95
171 165 102
159 152 88
154 149 88
162 154 91
152 148 87
166 161 94
166 159 93
161 154 90
158 151 88
160 151 87
165 158 93
155 150 82
157 149 85
151 146 79
147 141 77
153 148 85
150 145 68
154 149 82
159 153 82
149 142 80
148 142 74
155 149 80
121 117 58
150 145 77
143 138 64
145 140 72
136 131 64
134 129 58
137 131 66
136 133 64
171 193 0
172 195 0
174 196 0
171 193 0
171 195 0
173 196 0
174 198 0
175 198 0
174 198 0
171 195 0
174 197 0
176 199 0
172 195 0
172 195 0
173 197 0
171 194 0
176 199 0
170 194 0
173 196 0
174 197 0
174 197 0
176 198 0
174 196 0
172 196 0
172 195 0
172 196 0
173 196 0
175 198 0
171 193 0
173 196 0
174 198 0
174 198 0
175 198 0
169 193 0
174 197 0
172 197 0
173 196 0
174 197 0
167 191 0
172 195 0
174 197 0
173 196 0
173 196 0
172 196 0
172 195 0
169 192 0
171 195 0
171 194 0
171 195 0
173 196 0
172 196 0
171 195 0
174 198 0
174 198 0
174 198 0
172 196 0
172 195 0
170 194 0
172 196 0
173 196 0
175 197 0
173 196 0
174 198 0
174 198 0
172 197 0
174 198 0
167 192 0
172 196 0
175 198 0
173 196 0
174 197 0
173 195 0
169 192 0
173 196 0
170 194 0
171 196 0
174 197 0
173 196 0
175 198 0
172 195 0
170 193 0
171 194 0
174 196 0
173 196 0
174 198 0
175 198 0
174 196 0
170 194 0
171 194 0
170 193 0
174 197 0
174 197 0
173 197 0
170 193 0
175 198 0
171 195 0
173 196 0
177 199 0
175 198 0
169 193 0
170 195 0
173 196 0
172 197 0
172 194 0
172 196 0
168 191 0
170 195 0
168 192 0
174 197 0
174 197 0
175 198 0
170 193 0
173 195 0
166 190 0
171 192 0
171 194 0
172 194 0
175 198 0
173 196 0
169 193 0
172 196 0
170 193 0
175 198 0
170 194 0
171 194 0
174 196 0
169 194 0
175 197 0
170 193 0
167 192 0
170 192 0
172 194 0
169 192 0
175 198 0
170 193 0
167 190 0
173 197 0
172 194 0
172 196 0
165 188 0
173 195 0
174 197 0
169 192 0
172 195 0
170 193 0
171 195 0
151 176 76
88 118 157
63 100 175
61 98 175
62 99 175
62 99 175
63 100 179
62 99 177
63 99 175
62 99 179
61 98 173
61 99 181
62 99 177
62 98 171
62 99 181
62 99 177
63 99 179
63 100 177
62 99 181
61 99 181
61 98 181
61 98 179
61 98 177
62 99 181
62 99 181
61 99 181
62 99 181
60 98 179
61 99 181
61 98 181
61 99 181
61 99 181
62 99 181
62 99 181
62 99 181
62 99 181
61 98 181
62 99 181
62 99 181
62 99 181
61 98 181
62 99 181
62 99 181
62 99 181
62 99 181
61 98 181
62 99 181
61 99 181
61 98 181
61 99 181
62 99 181
62 99 181
61 98 181
61 98 181
61 99 181
63 100 181
62 99 181
62 99 181
61 99 181
61 98 181
62 99 181
61 99 181
62 99 181
61 99 181
62 99 181
61 99 181
61 99 181
62 99 181
61 98 181
62 99 181
61 99 181
62 99 181
61 99 181
62 99 181
61 99 181
61 98 181
61 99 181
62 99 181
61 99 181
61 98 181
62 99 181
61 99 181
62 99 181
62 99 181
61 98 181
61 99 181
62 99 181
62 99 181
62 99 181
61 98 177
61 98 181
62 99 181
61 99 181
61 98 179
62 99 181
62 99 177
62 99 181
63 99 177
61 98 175
62 99 181
62 99 179
61 98 177
63 100 181
61 98 179
62 99 179
61 98 178
62 99 179
61 98 177
61 98 177
62 99 179
62 99 177
62 99 179
62 99 179
62 98 179
61 97 175
62 99 174
61 97 173
61 97 174
71 98 157
119 120 92
130 129 86
135 134 86
129 129 85
136 133 88
127 127 85
128 129 87
129 129 86
121 122 81
115 117 81
125 126 88
118 118 83
120 121 85
132 132 91
130 131 91
118 120 86
125 126 87
131 132 89
139 139 98
144 143 99
146 145 99
135 134 93
139 138 96
147 145 96
127 128 92
138 136 93
140 140 97
139 139 95
128 130 91
142 141 97
157 154 104
146 145 99
144 143 100
143 143 98
148 147 101
153 151 102
147 146 101
156 153 102
151 149 99
157 155 106
164 160 106
154 152 101
158 157 103
151 151 101
165 161 105
156 153 102
163 159 105
159 158 103
167 162 105
167 163 106
175 170 112
165 162 105
162 159 103
167 164 106
172 166 106
168 164 103
158 155 101
167 164 106
167 164 109
167 164 105
160 156 95
164 160 101
168 164 107
175 170 107
172 168 104
165 161 106
166 161 100
177 171 106
168 163 101
167 164 105
174 168 101
175 170 107
176 170 109
173 167 104
176 171 104
176 169 106
174 169 107
175 170 102
175 169 107
168 162 99
172 166 104
172 166 104
173 168 104
173 167 102
166 162 99
175 168 103
172 167 104
171 165 98
172 167 102
172 166 99
165 160 101
169 164 97
171 165 99
174 168 99
175 168 101
171 167 101
165 158 95
165 159 99
177 169 103
163 158 95
168 161 98
170 164 94
167 161 94
167 160 97
171 165 97
166 160 94
171 166 101
171 163 99
167 161 97
172 164 101
152 146 85
167 161 98
160 154 93
161 156 88
162 156 91
169 162 95
153 149 87
165 158 91
147 141 82
154 148 77
161 156 88
151 145 84
156 149 80
146 141 75
156 149 80
140 133 70
151 145 72
144 139 72
147 140 74
141 135 66
139 134 66
136 130 66
138 132 68
115 111 45
121 118 48
170 193 0
174 196 0
173 195 0
174 198 0
171 194 0
174 197 0
176 199 0
173 197 0
177 199 0
173 197 0
172 194 0
171 195 0
175 198 0
174 198 0
172 196 0
174 198 0
172 196 0
172 195 0
174 197 0
171 195 0
173 197 0
176 198 0
173 196 0
174 197 0
169 191 0
175 198 0
173 196 0
169 192 0
174 197 0
173 195 0
173 197 0
172 193 0
173 197 0
175 198 0
174 198 0
175 198 0
172 196 0
173 196 0
174 196 0
172 195 0
172 196 0
173 195 0
171 194 0
173 196 0
175 198 0
173 197 0
172 195 0
173 197 0
173 196 0
174 196 0
173 196 0
175 198 0
175 197 0
170 193 0
173 197 0
174 197 0
173 196 0
173 196 0
170 194 0
173 197 0
174 196 0
174 197 0
171 194 0
172 195 0
174 197 0
170 194 0
171 194 0
174 197 0
171 194 0
174 198 0
174 198 0
173 197 0
173 196 0
171 195 0
175 198 0
175 197 0
170 194 0
175 198 0
173 195 0
172 196 0
170 194 0
173 196 0
172 196 0
172 196 0
170 193 0
171 194 0
176 199 0
174 198 0
173 196 0
168 191 0
172 196 0
172 195 0
171 194 0
174 198 0
171 194 0
174 196 0
170 192 0
173 196 0
176 199 0
172 195 0
172 195 0
173 194 0
174 198 0
174 197 0
174 197 0
172 195 0
169 191 0
173 197 0
172 195 0
173 196 0
169 191 0
172 194 0
169 193 0
174 198 0
169 194 0
174 197 0
170 193 0
175 198 0
171 194 0
173 196 0
173 197 0
172 195 0
170 193 0
168 192 0
169 193 0
169 191 0
173 196 0
169 191 0
173 195 0
173 196 0
168 192 0
170 193 0
171 195 0
176 198 0
172 193 0
174 196 0
173 197 0
167 192 0
173 196 0
170 193 0
171 193 0
172 196 0
174 197 0
171 194 0
173 195 0
159 182 80
67 102 175
62 99 175
63 99 173
62 99 175
62 99 177
62 99 177
63 100 179
62 99 179
63 100 179
62 100 181
62 99 179
61 98 181
61 98 179
62 99 177
62 99 175
62 99 181
62 99 181
62 99 181
62 99 181
62 99 181
62 99 181
63 100 181
62 99 181
62 99 181
62 99 181
62 99 177
61 99 181
62 99 181
62 99 181
61 98 181
62 99 177
62 99 181
62 99 181
62 99 181
62 99 179
62 99 181
61 99 181
62 99 181
62 99 181
62 99 181
62 99 181
62 99 181
62 99 181
61 99 181
61 98 181
60 98 181
62 99 181
61 99 181
61 99 181
61 98 181
61 99 181
62 99 181
62 99 181
61 98 181
61 99 181
62 99 181
61 99 181
62 99 181
61 99 181
61 98 181
62 99 181
62 99 181
61 99 181
61 98 179
61 98 181
61 99 181
61 99 181
62 99 181
62 99 181
61 98 181
62 99 181
62 99 181
61 99 181
62 99 181
62 99 181
62 99 181
62 99 181
62 99 181
61 98 181
61 98 181
62 99 181
62 99 181
62 99 181
62 99 181
62 99 181
62 99 179
61 99 179
61 98 181
62 99 181
61 98 179
62 99 181
61 99 181
62 99 179
62 99 181
62 99 179
62 99 181
62 99 181
62 99 181
62 99 177
62 99 181
62 99 177
61 98 179
61 98 179
62 99 177
62 99 179
62 99 177
61 97 174
62 99 179
62 98 176
62 99 175
61 98 175
62 99 175
62 98 175
62 99 178
62 99 181
61 97 174
61 98 168
62 98 176
60 96 174
65 97 166
104 109 93
127 127 83
118 117 78
117 116 79
127 126 86
131 130 92
120 121 83
125 124 86
118 119 82
127 127 87
137 137 94
135 135 94
126 127 88
134 134 93
141 139 92
130 131 93
128 128 89
126 127 91
128 129 92
135 135 95
137 136 94
131 131 90
148 147 102
124 127 91
121 125 92
138 137 91
148 146 97
142 142 97
147 147 101
145 144 97
134 135 93
141 140 93
147 147 100
156 154 102
150 148 100
153 150 101
141 140 90
154 151 100
161 158 103
151 149 101
157 155 105
144 142 95
170 165 108
155 153 101
164 160 106
156 154 104
162 159 105
162 158 104
169 165 110
170 166 109
162 160 106
154 151 99
168 162 102
165 161 105
171 166 105
165 162 105
171 167 106
170 164 103
173 168 108
165 160 100
167 163 103
166 162 104
173 168 105
175 168 101
172 168 104
170 165 107
175 169 106
171 167 104
171 168 108
173 167 108
175 169 103
172 167 104
174 169 106
171 167 104
180 173 109
174 168 104
171 166 104
172 168 105
175 169 102
174 168 108
176 170 103
174 168 103
174 168 97
173 168 106
175 169 102
173 168 102
176 170 106
173 168 98
167 162 98
176 170 104
173 167 102
169 165 98
174 168 103
171 164 95
168 160 95
175 167 101
171 166 97
168 163 97
170 164 99
168 161 98
167 161 98
161 156 94
170 164 98
176 168 98
167 160 94
165 160 98
160 154 84
161 155 90
160 154 90
162 157 94
152 146 85
158 152 85
166 160 94
157 151 84
158 151 90
160 154 84
163 155 91
146 141 79
159 153 85
150 145 79
157 152 88
136 131 66
147 141 70
143 136 70
155 149 75
144 137 74
159 151 80
153 145 72
147 142 74
144 137 68
144 138 72
141 135 66
134 129 60
139 132 64
169 191 0
176 198 0
174 196 0
173 197 0
172 195 0
173 196 0
174 198 0
173 197 0
175 197 0
174 198 0
173 196 0
174 197 0
173 196 0
173 196 0
174 197 0
173 196 0
174 197 0
173 196 0
175 198 0
175 198 0
172 197 0
175 198 0
171 195 0
170 194 0
174 198 0
169 193 0
173 197 0
173 197 0
173 196 0
175 197 0
171 195 0
171 194 0
175 198 0
172 195 0
174 197 0
171 195 0
173 196 0
173 197 0
175 197 0
174 198 0
175 198 0
171 194 0
173 197 0
174 198 0
168 190 0
174 198 0
174 198 0
176 199 0
167 191 0
173 197 0
172 196 0
171 195 0
167 191 0
172 196 0
171 194 0
172 196 0
167 191 0
174 197 0
172 197 0
175 198 0
173 196 0
173 197 0
175 197 0
174 198 0
173 196 0
174 197 0
173 196 0
172 195 0
173 197 0
175 198 0
172 195 0
176 199 0
174 197 0
173 196 0
175 198 0
174 198 0
171 194 0
173 196 0
174 198 0
171 194 0
168 192 0
173 196 0
170 193 0
171 193 0
169 193 0
175 197 0
170 194 0
173 197 0
173 197 0
173 197 0
170 193 0
171 195 0
173 196 0
175 197 0
170 193 0
173 196 0
171 195 0
176 198 0
171 194 0
172 196 0
174 197 0
172 194 0
172 195 0
173 195 0
169 192 0
174 198 0
175 198 0
169 193 0
174 197 0
167 192 0
171 195 0
171 193 0
172 196 0
172 195 0
163 187 0
173 196 0
175 196 0
172 195 0
172 195 0
171 195 0
174 198 0
174 197 0
173 197 0
173 195 0
172 196 0
170 192 0
173 195 0
165 189 0
175 198 0
172 197 0
169 191 0
172 196 0
172 197 0
172 196 0
174 196 0
174 196 0
173 195 0
173 195 0
172 194 0
170 193 0
172 197 0
174 197 0
167 189 0
171 194 0
147 171 92
63 99 175
63 100 179
62 99 177
62 99 181
61 98 177
62 99 175
62 99 179
63 99 175
63 100 179
63 100 179
62 99 175
61 98 173
63 99 179
62 99 179
62 99 181
61 98 179
61 98 173
63 100 181
62 99 179
61 98 179
61 98 179
61 98 181
62 99 177
62 99 181
61 99 181
62 99 181
61 98 179
62 99 181
62 99 181
63 100 179
62 99 181
62 99 181
62 99 181
61 99 181
61 99 181
61 99 181
62 99 181
61 98 181
62 99 181
61 98 181
61 99 181
61 98 179
62 99 181
62 99 181
61 99 181
61 98 181
62 99 181
62 99 181
61 99 181
62 99 181
62 99 181
61 99 181
61 98 181
62 99 181
62 99 181
61 98 179
61 99 181
61 99 181
62 99 179
61 99 181
62 99 181
61 98 181
62 99 181
61 99 181
61 99 181
61 99 181
62 99 181
61 99 181
62 99 181
62 99 179
61 99 179
62 99 181
61 99 181
61 98 181
62 99 181
62 99 181
61 98 181
61 99 181
62 99 181
62 99 181
61 99 181
61 98 181
62 99 181
62 99 181
62 99 179
62 99 181
61 98 179
61 99 181
62 99 181
61 98 179
61 99 181
61 99 181
61 99 181
63 100 181
61 99 181
61 99 179
61 98 179
61 98 181
62 99 179
63 100 181
62 99 181
62 99 181
62 99 181
62 99 179
62 99 176
61 98 177
62 99 179
62 99 177
63 100 181
61 98 179
62 98 175
62 99 177
62 99 177
61 98 178
62 99 179
60 97 175
62 97 174
61 97 174
63 99 174
62 98 178
61 97 169
61 97 174
113 120 125
121 122 83
126 124 82
117 118 82
121 121 81
124 123 83
140 138 93
132 130 87
117 116 81
135 134 91
113 115 82
120 122 86
116 117 81
110 113 81
118 120 86
109 113 84
139 138 96
135 136 94
126 128 91
126 126 87
116 118 84
134 132 90
130 132 92
138 137 95
123 125 89
133 133 91
132 133 95
144 142 96
140 140 97
135 135 90
138 139 97
141 139 95
153 150 101
147 146 98
145 144 100
142 142 98
150 149 99
163 160 104
150 148 100
157 155 106
157 154 105
160 158 104
155 152 97
148 148 95
162 159 104
162 159 103
163 160 101
161 158 105
162 159 104
168 163 106
167 163 103
171 166 103
165 161 101
173 169 107
168 163 104
164 161 106
169 166 108
166 163 103
165 162 103
172 167 105
168 164 104
165 160 95
171 167 104
173 168 105
164 160 99
173 169 108
164 160 101
166 162 99
173 169 102
176 170 110
172 168 106
167 164 103
179 173 108
175 170 107
171 167 104
177 171 108
169 164 99
174 167 101
171 165 95
176 170 106
176 170 103
176 170 104
176 170 102
170 164 102
168 163 98
169 165 95
174 168 104
163 157 95
173 166 98
172 166 98
170 166 98
167 162 98
167 162 94
167 161 97
166 159 97
171 165 102
168 162 90
159 153 87
171 164 99
164 158 91
160 156 94
160 154 88
160 155 87
170 163 95
161 156 90
159 154 88
159 153 88
169 163 94
155 150 82
163 157 90
160 152 88
165 159 93
157 151 90
149 144 77
154 147 87
156 148 82
149 143 79
162 155 82
146 140 80
146 140 80
149 143 85
139 133 74
152 145 82
150 144 80
141 135 64
135 129 66
148 142 79
138 132 72
127 122 51
139 133 58
138 133 62
139 132 68
123 117 48
168 188 16
173 197 0
174 196 0
171 195 0
170 193 0
174 196 0
176 199 0
171 195 0
173 197 0
174 198 0
172 196 0
176 199 0
174 197 0
173 197 0
172 197 0
170 194 0
172 195 0
173 197 0
171 194 0
172 196 0
176 199 0
173 197 0
175 198 0
173 197 0
173 196 0
175 198 0
175 198 0
174 197 0
172 197 0
172 195 0
168 192 0
173 196 0
171 195 0
174 197 0
172 196 0
176 198 0
172 196 0
171 195 0
173 196 0
172 194 0
168 191 0
175 198 0
169 193 0
171 194 0
175 198 0
173 197 0
171 195 0
168 192 0
173 197 0
171 195 0
172 197 0
175 198 0
169 192 0
172 196 0
172 196 0
173 197 0
174 197 0
171 194 0
171 195 0
172 196 0
169 193 0
172 197 0
169 193 0
174 198 0
170 193 0
175 197 0
175 197 0
172 195 0
174 196 0
172 195 0
171 192 0
171 194 0
172 196 0
172 196 0
173 197 0
174 197 0
168 191 0
172 196 0
173 197 0
172 196 0
171 193 0
176 199 0
171 195 0
171 194 0
172 197 0
173 196 0
169 193 0
173 196 0
173 197 0
172 197 0
175 197 0
173 197 0
173 197 0
173 196 0
172 195 0
171 195 0
170 193 0
170 193 0
173 196 0
172 196 0
174 197 0
166 190 0
172 195 0
174 196 0
171 195 0
175 197 0
172 195 0
174 198 0
172 194 0
172 196 0
172 195 0
174 197 0
172 196 0
174 196 0
173 195 0
170 193 0
175 198 0
171 195 0
172 196 0
172 193 0
167 190 0
172 195 0
174 197 0
173 197 0
172 195 0
174 197 0
171 194 0
171 193 0
171 194 0
172 194 0
175 198 0
170 194 0
173 197 0
173 196 0
172 196 0
171 194 0
173 197 0
170 193 0
171 195 0
169 192 0
171 194 0
166 189 0
171 193 0
142 165 102
66 102 167
63 100 177
62 99 175
63 99 177
62 99 175
62 99 177
63 100 181
61 99 181
63 100 179
63 100 177
61 98 175
62 99 179
63 100 181
62 99 181
62 99 179
62 99 179
62 99 181
62 99 179
62 99 181
62 99 173
62 99 179
62 99 177
62 99 181
62 99 181
62 99 181
61 98 181
62 99 181
62 99 181
61 98 181
62 99 181
62 99 181
62 99 181
61 98 181
61 98 181
62 99 181
62 99 181
61 98 179
62 99 181
62 100 181
62 99 181
62 99 181
62 99 181
62 99 181
61 99 181
62 99 181
61 99 181
61 99 181
62 99 181
61 99 181
61 98 181
61 98 181
61 98 181
62 99 181
61 99 181
62 99 181
61 98 181
61 99 181
62 99 179
62 99 181
62 99 181
61 98 181
62 99 181
61 99 181
61 99 181
62 99 181
62 99 181
61 98 181
62 99 181
61 99 181
60 98 179
62 99 181
62 99 181
63 100 181
61 99 181
61 98 181
62 99 181
62 99 181
62 99 181
62 99 181
62 99 181
62 99 181
63 100 181
61 99 181
61 98 181
62 99 181
61 99 181
61 98 181
61 99 181
62 99 181
62 99 181
61 99 181
61 98 181
61 99 179
61 99 179
61 98 179
62 99 181
62 99 181
62 99 181
62 99 181
62 99 181
62 99 181
62 99 181
61 99 179
62 99 177
62 98 175
62 100 181
62 99 179
62 99 177
61 98 177
63 100 181
62 99 181
63 100 179
61 98 175
62 98 175
62 99 177
62 98 175
60 97 177
60 96 169
62 98 174
62 99 175
62 98 174
62 98 176
60 96 172
61 95 163
100 111 129
130 130 88
129 128 85
117 119 84
118 120 84
120 121 84
125 126 85
122 124 87
124 124 86
120 122 85
120 122 88
121 123 86
121 120 83
130 130 91
106 109 80
145 143 98
141 141 96
126 127 88
126 126 88
136 137 94
141 140 94
119 121 85
137 138 95
138 138 92
126 126 87
131 131 90
137 137 95
143 143 99
137 137 96
136 135 94
148 147 97
141 141 97
147 145 94
148 146 98
141 140 97
154 152 100
155 153 99
162 158 105
160 157 105
149 147 98
160 157 102
165 161 103
152 150 103
159 155 104
163 160 103
167 164 109
170 165 106
163 160 102
162 159 103
167 162 103
166 162 105
169 164 107
164 161 103
172 168 109
172 168 109
164 162 101
164 160 101
164 161 103
164 161 101
169 164 103
168 164 102
172 167 104
171 167 101
172 167 105
172 167 104
176 170 108
169 164 103
175 169 102
171 167 104
168 164 104
173 167 99
173 168 101
163 159 95
171 166 104
174 169 106
164 160 99
171 165 103
173 169 106
169 164 101
175 169 108
167 162 95
175 168 104
174 168 102
174 169 102
166 160 95
171 165 102
171 166 97
169 163 90
171 165 101
171 165 98
173 168 102
167 162 91
166 162 98
174 167 99
172 166 102
164 158 88
170 164 95
174 166 103
169 164 104
170 163 101
165 159 88
162 156 93
152 147 80
169 164 99
162 155 87
164 158 94
164 157 87
173 165 95
166 160 97
161 155 91
161 154 88
157 151 79
162 155 91
168 162 90
161 154 87
152 146 85
150 145 68
134 130 60
146 141 79
146 139 75
142 136 75
146 139 84
144 139 70
142 134 70
147 140 79
143 138 64
143 136 74
149 142 84
141 135 68
128 124 56
131 125 62
122 117 56
169 188 16
169 192 0
174 195 0
172 194 0
174 196 0
172 194 0
172 196 0
173 197 0
172 196 0
175 198 0
175 198 0
172 197 0
173 197 0
174 198 0
177 199 0
174 198 0
173 196 0
171 195 0
174 197 0
174 197 0
172 196 0
173 197 0
172 195 0
172 196 0
170 194 0
172 196 0
172 196 0
174 197 0
170 195 0
175 198 0
173 197 0
173 196 0
173 197 0
172 195 0
169 192 0
171 195 0
171 195 0
171 194 0
171 195 0
174 196 0
170 194 0
175 197 0
175 198 0
173 194 0
171 194 0
170 194 0
174 198 0
172 195 0
169 194 0
172 196 0
176 199 0
172 196 0
171 195 0
174 197 0
171 195 0
169 192 0
167 190 0
174 198 0
172 196 0
176 198 0
172 195 0
171 195 0
172 195 0
172 196 0
174 197 0
174 198 0
170 194 0
172 195 0
172 195 0
173 196 0
170 193 0
170 193 0
173 196 0
174 197 0
173 197 0
172 195 0
174 198 0
171 194 0
170 193 0
174 197 0
173 196 0
171 195 0
170 195 0
172 194 0
169 193 0
170 194 0
171 195 0
173 197 0
170 194 0
170 194 0
171 195 0
173 196 0
175 197 0
172 196 0
174 196 0
170 193 0
172 195 0
171 195 0
172 196 0
172 196 0
174 196 0
175 198 0
176 199 0
174 198 0
173 196 0
170 194 0
173 196 0
171 194 0
173 197 0
174 196 0
171 195 0
170 193 0
173 196 0
172 195 0
173 196 0
169 190 0
172 194 0
174 198 0
175 198 0
170 193 0
169 192 0
173 197 0
172 196 0
173 195 0
170 194 0
171 193 0
171 194 0
175 198 0
173 196 0
167 190 0
173 197 0
172 195 0
173 195 0
172 195 0
172 195 0
170 193 0
169 192 0
172 195 0
173 197 0
168 191 0
171 193 0
176 197 0
125 149 120
62 99 177
62 99 175
62 99 173
62 99 175
62 99 177
62 99 175
62 99 181
61 98 173
61 99 177
62 99 177
61 98 175
61 98 175
61 98 181
62 99 179
62 99 181
62 99 179
62 99 179
62 99 179
62 99 181
61 98 173
61 99 179
61 99 181
62 99 177
61 98 181
61 98 179
61 99 181
62 99 175
62 99 181
61 98 179
62 99 181
62 99 181
61 98 181
61 98 179
61 98 179
62 99 181
62 99 181
62 99 181
62 99 181
62 99 181
61 98 181
61 98 181
63 100 181
62 99 181
62 99 181
61 99 181
61 98 181
62 99 181
62 99 181
62 99 181
62 99 181
62 99 181
61 99 181
61 99 181
61 98 181
62 99 181
61 99 181
62 99 181
62 99 181
61 99 181
62 99 181
62 99 181
62 99 181
62 99 181
62 99 181
60 98 179
61 98 179
61 99 181
61 99 181
61 99 181
61 98 181
62 99 181
62 99 179
62 99 181
62 99 179
61 99 181
62 99 181
61 98 179
62 99 181
62 99 179
61 99 181
61 98 179
62 99 181
62 99 179
62 99 181
62 99 181
61 99 181
62 99 181
62 99 181
62 99 181
61 98 179
62 99 179
62 99 179
61 99 181
63 100 181
62 99 179
61 99 181
62 99 181
62 99 179
62 99 179
61 99 181
63 100 181
62 99 179
61 98 177
62 99 179
61 98 179
62 99 175
62 98 175
62 99 181
62 99 179
62 99 177
63 100 181
62 99 181
61 98 178
62 99 179
62 99 181
63 99 179
61 98 177
61 98 176
62 99 179
61 98 175
62 98 174
62 99 179
62 98 172
61 96 165
61 96 170
62 97 167
92 107 134
121 120 79
101 101 71
104 106 75
114 114 80
120 121 84
123 121 83
124 125 89
108 111 78
124 125 86
123 125 90
120 122 89
126 128 90
132 132 90
129 129 90
128 129 91
130 130 91
129 130 92
130 131 92
119 122 86
134 134 92
132 132 93
141 141 98
127 128 90
131 132 89
136 138 97
133 134 92
145 144 98
140 140 95
131 132 93
148 147 102
155 153 103
143 142 96
131 131 85
146 145 101
145 143 98
142 141 93
151 149 100
151 149 102
160 157 102
154 150 97
159 156 103
152 150 94
152 151 98
159 156 102
162 158 104
166 164 105
154 151 100
165 161 106
165 162 100
169 165 104
163 160 100
166 162 105
162 160 99
173 168 103
172 167 105
166 164 103
166 161 98
169 165 106
168 163 100
166 162 98
175 169 105
179 172 108
166 162 101
174 168 108
173 168 104
173 168 103
172 165 98
172 167 104
171 166 101
174 168 105
169 165 101
172 167 103
173 168 106
170 165 99
169 165 102
174 169 108
172 166 99
173 166 98
172 165 101
172 167 101
172 166 103
172 168 102
175 170 104
167 162 98
177 171 106
173 165 97
172 164 102
166 162 97
169 162 98
172 165 95
163 159 95
171 163 97
161 156 94
165 159 94
168 162 94
174 167 99
175 168 101
160 153 94
168 160 97
158 154 85
168 162 98
153 149 77
160 155 88
161 155 91
161 155 93
164 158 88
161 155 91
158 153 87
156 148 87
169 161 91
164 158 85
163 156 82
160 154 85
155 149 85
145 140 77
155 149 85
158 153 80
159 152 84
157 149 77
147 141 72
146 140 74
153 146 79
146 139 74
150 144 68
131 126 62
135 130 70
124 120 56
136 131 68
120 116 51
138 131 70
164 187 0
172 195 0
174 197 0
173 197 0
174 197 0
172 195 0
172 196 0
175 198 0
174 198 0
175 198 0
174 197 0
172 195 0
174 198 0
175 198 0
171 195 0
174 198 0
174 197 0
174 198 0
172 196 0
173 196 0
174 197 0
173 197 0
175 198 0
173 197 0
171 194 0
170 194 0
175 198 0
174 198 0
175 198 0
175 196 0
173 197 0
174 198 0
172 196 0
174 198 0
173 197 0
173 197 0
172 196 0
174 197 0
176 198 0
172 196 0
175 197 0
175 198 0
170 195 0
171 195 0
171 194 0
176 199 0
171 195 0
172 195 0
174 197 0
172 196 0
176 199 0
173 197 0
175 198 0
174 197 0
172 195 0
174 197 0
172 195 0
173 197 0
173 197 0
175 198 0
174 197 0
169 193 0
172 196 0
176 199 0
172 196 0
174 197 0
173 197 0
173 197 0
173 196 0
173 197 0
173 195 0
171 195 0
171 195 0
170 193 0
169 192 0
172 195 0
172 196 0
174 198 0
172 195 0
169 193 0
173 196 0
172 195 0
172 195 0
172 195 0
172 196 0
173 196 0
173 195 0
174 196 0
171 194 0
165 188 0
172 197 0
173 195 0
175 198 0
168 192 0
172 194 0
173 197 0
171 194 0
174 197 0
175 197 0
171 194 0
168 192 0
173 196 0
169 192 0
175 197 0
171 194 0
168 192 0
172 194 0
172 195 0
173 196 0
170 192 0
170 194 0
175 197 0
171 194 0
170 194 0
170 194 0
168 191 0
171 195 0
168 192 0
173 196 0
169 192 0
174 196 0
172 195 0
171 195 0
168 191 0
173 195 0
173 195 0
175 197 0
174 195 0
175 198 0
170 194 0
174 197 0
173 196 0
175 198 0
175 197 0
174 197 0
172 195 0
170 192 0
169 191 0
168 190 0
172 195 0
172 195 0
123 149 133
61 98 165
62 98 169
61 98 165
63 100 175
62 99 171
63 99 175
62 99 173
62 99 177
63 100 179
62 99 179
62 99 181
63 99 179
62 99 179
62 99 181
62 99 181
62 99 179
62 99 179
63 100 179
61 98 179
62 99 179
62 99 181
62 99 179
62 99 179
62 99 177
62 99 181
62 99 181
62 99 181
62 99 181
62 99 181
63 100 181
61 98 179
62 99 181
61 99 181
61 98 181
62 99 181
62 99 181
62 99 181
63 100 181
60 98 179
62 99 181
62 99 181
61 99 181
62 99 181
62 99 181
61 99 179
62 99 181
62 99 181
62 99 181
62 99 181
62 99 181
61 98 181
62 99 181
62 99 181
62 99 181
62 99 181
61 99 181
62 99 181
62 99 181
61 99 181
62 99 181
62 99 181
61 99 179
62 99 181
61 98 181
62 99 181
61 99 181
62 99 181
61 98 181
62 99 181
62 99 181
62 99 181
62 99 181
62 99 181
61 99 181
63 100 181
61 99 181
61 99 181
61 99 181
62 99 181
61 99 181
62 99 181
62 99 179
62 99 181
61 98 181
62 99 181
62 99 181
61 98 179
61 98 181
61 98 179
62 99 181
61 99 181
61 99 181
62 99 181
61 98 181
62 99 181
61 99 181
62 99 181
62 99 181
62 99 179
61 98 179
62 99 181
61 98 177
61 98 179
62 99 179
62 99 179
62 99 181
63 100 179
62 99 177
62 99 181
62 99 177
62 99 179
62 99 181
62 99 181
62 98 179
62 99 181
62 99 177
62 99 177
61 98 177
61 97 175
62 99 175
62 98 176
62 99 175
61 97 170
61 96 172
59 96 174
61 97 173
61 97 170
62 97 169
90 106 141
115 115 81
112 114 81
115 117 79
119 122 85
130 130 87
108 110 77
113 113 76
108 111 79
125 127 91
123 125 89
128 129 89
126 128 89
129 129 88
121 123 87
125 125 89
135 135 94
128 129 87
134 135 94
128 130 92
126 128 90
137 136 92
139 138 96
130 130 90
130 129 89
135 135 92
139 139 96
140 140 86
142 140 94
138 138 95
149 147 97
151 149 99
151 150 100
151 149 102
147 145 99
143 142 98
150 148 101
161 157 100
162 158 103
165 162 103
151 149 98
156 154 102
155 152 97
156 153 99
162 159 99
154 152 99
156 154 97
164 160 102
167 162 104
164 161 104
165 162 105
167 163 101
160 157 104
167 163 108
169 164 105
161 157 101
170 165 101
164 160 96
175 168 104
164 160 95
170 165 104
170 166 103
173 167 103
170 165 100
169 165 99
174 168 103
165 161 97
174 169 104
172 168 101
175 169 104
177 171 104
173 167 102
174 168 101
171 167 99
177 170 99
170 164 95
176 170 104
170 164 106
169 164 99
172 167 99
177 171 107
168 163 98
169 163 97
169 164 99
170 164 98
173 167 98
172 167 97
174 168 99
168 163 99
170 163 101
161 157 87
158 155 91
170 164 94
162 156 94
159 155 87
164 160 97
172 165 93
170 164 99
169 162 94
165 159 95
163 157 88
170 164 101
167 160 93
154 148 87
161 154 88
172 166 98
158 151 87
157 151 88
161 154 85
155 150 87
163 156 90
162 156 87
155 148 80
154 148 85
155 150 77
157 149 90
145 140 72
144 138 82
147 141 77
148 140 72
154 147 80
154 148 82
141 136 66
140 133 70
136 130 64
137 131 66
119 115 39
125 120 58
125 121 53
130 126 56
165 187 16
174 197 0
172 196 0
173 196 0
170 194 0
173 197 0
168 192 0
175 198 0
173 196 0
175 198 0
168 192 0
173 197 0
172 196 0
173 196 0
171 195 0
177 199 0
172 196 0
172 195 0
174 198 0
173 196 0
170 194 0
175 198 0
174 197 0
174 196 0
173 196 0
176 199 0
172 195 0
174 198 0
173 197 0
172 196 0
174 198 0
170 194 0
174 197 0
174 198 0
170 193 0
171 195 0
174 197 0
173 197 0
172 195 0
174 197 0
171 194 0
174 197 0
173 197 0
174 197 0
173 196 0
173 196 0
174 198 0
174 197 0
172 197 0
172 195 0
172 196 0
169 192 0
174 198 0
174 198 0
176 198 0
173 195 0
174 197 0
169 194 0
173 197 0
174 198 0
173 196 0
172 195 0
170 195 0
171 194 0
169 193 0
172 195 0
169 193 0
175 197 0
168 191 0
173 196 0
175 198 0
173 195 0
172 195 0
170 193 0
173 197 0
172 197 0
175 197 0
169 193 0
168 192 0
173 196 0
173 196 0
172 196 0
173 196 0
172 196 0
170 194 0
171 195 0
172 197 0
171 195 0
172 195 0
173 197 0
171 194 0
173 195 0
172 195 0
174 196 0
174 198 0
173 197 0
172 196 0
172 196 0
175 197 0
177 198 0
174 196 0
173 196 0
173 196 0
173 196 0
170 192 0
174 197 0
173 196 0
170 193 0
172 196 0
170 193 0
172 196 0
174 197 0
166 190 0
168 191 0
172 195 0
168 192 0
170 194 0
168 192 0
171 194 0
170 194 0
172 195 0
173 195 0
176 199 0
171 195 0
174 198 0
172 196 0
171 193 0
172 194 0
170 194 0
173 196 0
170 192 0
169 192 0
171 193 0
170 194 0
170 194 0
170 192 0
176 198 0
171 194 0
170 193 0
173 196 0
121 148 122
62 99 171
62 99 179
61 98 171
64 100 175
62 99 177
61 98 177
63 100 179
61 98 171
63 100 181
62 99 177
62 99 177
63 100 181
63 99 179
62 99 179
61 99 179
62 99 177
61 99 177
62 99 181
62 99 177
63 100 181
63 100 181
62 99 179
62 99 179
62 99 181
61 99 179
62 99 181
61 98 179
61 98 181
62 99 181
62 99 181
62 99 181
63 100 181
62 99 181
62 99 181
62 99 181
62 99 177
60 98 181
62 99 181
62 99 181
63 100 181
62 99 181
62 99 181
61 99 181
61 99 181
61 99 181
62 99 181
62 99 181
61 98 181
61 99 181
62 99 181
62 99 181
61 99 179
62 99 181
61 99 181
62 99 181
62 99 181
62 99 181
62 99 181
62 99 181
62 99 181
62 99 181
61 98 181
62 99 181
61 99 181
62 99 181
61 98 181
62 99 181
61 98 181
62 99 181
62 99 181
61 99 181
61 98 181
61 99 181
62 99 181
61 99 181
63 100 181
62 99 181
61 99 181
62 99 181
61 99 181
61 99 181
61 98 179
62 99 181
61 99 181
62 99 181
61 99 181
61 98 181
61 98 179
62 99 181
62 99 179
62 99 181
62 99 181
62 99 181
62 99 181
61 99 181
62 99 179
62 99 181
61 98 179
62 99 181
62 99 179
62 99 181
63 100 181
62 98 179
62 98 179
62 99 179
63 100 179
63 99 177
61 99 179
62 99 181
62 99 181
62 99 179
62 98 174
62 98 171
63 100 179
62 98 177
62 99 177
61 98 175
61 98 175
61 98 175
62 99 173
62 99 181
62 98 174
62 99 173
62 99 177
62 98 174
63 100 181
60 95 163
62 99 179
62 97 169
60 95 165
91 107 141
89 92 64
104 107 75
109 110 75
104 107 74
117 118 80
98 102 76
113 114 78
109 112 82
116 118 83
129 131 92
121 122 84
126 126 85
103 108 79
134 134 92
125 125 87
112 115 82
137 137 94
130 130 88
115 117 82
128 128 91
144 142 95
138 138 95
124 125 88
143 143 96
138 138 96
144 144 97
138 138 92
150 147 99
140 139 95
145 145 93
149 147 94
151 149 99
137 136 87
140 139 94
154 152 100
146 146 96
144 144 100
150 148 100
157 154 96
157 155 100
156 153 99
154 152 98
159 156 100
160 156 98
170 166 106
159 156 99
163 159 101
161 157 99
157 154 102
173 168 105
161 159 96
164 161 102
166 162 103
164 161 106
174 169 105
168 163 105
167 161 101
174 168 104
171 167 101
168 165 104
171 165 97
165 161 96
169 165 97
175 169 103
174 168 102
171 167 104
175 168 102
173 167 105
171 166 98
170 165 99
176 169 104
169 164 98
178 170 103
166 161 93
176 170 101
175 169 104
172 166 97
172 166 101
166 161 91
171 166 101
166 161 94
165 159 88
169 164 95
173 167 101
173 167 98
177 170 101
170 163 91
174 167 104
162 156 91
165 160 90
165 159 98
163 158 93
167 161 91
162 155 91
166 159 90
166 160 94
158 153 80
160 155 87
170 164 98
166 160 93
163 156 94
164 157 82
168 161 88
162 157 82
165 159 82
162 156 88
170 163 88
151 146 84
164 157 85
163 157 87
148 143 79
149 142 80
149 143 77
155 150 87
155 148 75
146 141 79
149 143 77
156 149 87
146 141 70
146 141 75
152 145 80
144 137 70
137 131 68
135 130 60
142 135 72
136 132 53
121 117 48
120 115 48
172 194 0
173 195 0
172 194 0
173 196 0
171 193 0
173 194 0
168 192 0
174 197 0
172 196 0
168 191 0
174 197 0
173 196 0
172 197 0
172 196 0
171 195 0
173 197 0
173 197 0
174 197 0
173 196 0
174 197 0
171 195 0
175 198 0
174 197 0
172 195 0
173 196 0
175 198 0
171 195 0
171 195 0
171 193 0
174 198 0
171 195 0
173 197 0
170 194 0
173 197 0
171 195 0
173 196 0
174 198 0
173 196 0
176 198 0
171 195 0
172 196 0
171 196 0
173 197 0
174 197 0
172 196 0
174 197 0
170 193 0
170 194 0
174 197 0
173 197 0
173 197 0
170 194 0
171 195 0
174 196 0
172 195 0
170 192 0
172 196 0
174 198 0
174 197 0
172 195 0
168 191 0
174 198 0
173 196 0
175 198 0
167 191 0
170 195 0
170 195 0
176 198 0
168 191 0
174 197 0
171 194 0
173 197 0
173 196 0
168 192 0
170 194 0
173 197 0
171 195 0
172 195 0
172 196 0
174 197 0
169 193 0
170 194 0
172 195 0
173 196 0
174 198 0
174 196 0
172 195 0
172 195 0
173 195 0
172 195 0
169 194 0
172 196 0
175 197 0
172 195 0
173 196 0
174 197 0
171 194 0
168 191 0
175 198 0
173 195 0
174 197 0
170 194 0
170 193 0
171 195 0
171 195 0
172 196 0
173 197 0
169 193 0
173 196 0
171 194 0
168 191 0
171 193 0
171 192 0
174 197 0
174 196 0
167 191 0
172 194 0
169 191 0
166 190 0
170 193 0
173 196 0
172 195 0
167 191 0
175 197 0
166 188 0
171 194 0
174 197 0
172 194 0
172 195 0
176 198 0
174 198 0
174 197 0
167 189 0
170 193 0
171 195 0
173 195 0
173 197 0
171 193 0
172 196 0
118 143 130
62 99 171
62 99 177
62 99 177
61 98 177
63 99 175
64 100 179
61 98 169
61 98 171
62 99 179
62 99 181
61 98 171
62 99 181
62 99 175
61 98 177
62 99 177
62 99 179
62 99 181
62 99 179
62 99 175
62 99 181
62 99 179
62 99 181
61 99 181
62 99 179
61 99 177
62 99 179
62 99 179
62 99 181
62 99 181
62 99 179
61 98 179
61 99 181
62 99 181
61 99 181
62 99 181
61 99 179
62 99 179
62 99 181
61 99 179
61 99 181
61 99 181
62 99 181
61 98 179
62 99 181
62 99 181
62 99 181
61 99 181
61 99 179
62 99 181
61 99 181
62 99 181
61 99 179
61 99 181
61 99 181
61 99 181
62 99 181
62 99 181
62 99 181
61 98 181
62 99 181
61 98 181
62 99 179
62 99 181
60 98 181
62 99 181
61 99 181
61 98 177
61 99 181
61 99 181
61 98 181
62 99 181
62 99 181
63 100 181
61 99 179
61 98 179
62 99 181
62 99 181
61 98 181
62 99 181
60 98 181
61 98 181
62 99 181
62 99 181
62 99 181
61 99 181
61 99 181
62 99 181
62 99 181
62 99 179
61 99 181
61 98 179
62 99 181
62 99 179
61 98 179
62 99 181
62 99 179
62 99 177
62 99 181
62 99 181
61 98 177
62 99 181
61 99 181
62 99 179
62 99 179
63 100 179
62 99 179
61 98 177
61 98 177
62 99 181
62 99 179
62 99 181
61 98 173
61 98 179
62 99 177
61 98 179
62 98 177
62 99 181
62 99 175
61 98 177
61 98 174
61 98 170
62 99 181
61 98 177
62 98 174
61 97 171
61 97 170
62 98 175
62 99 175
62 99 179
61 97 174
61 96 168
62 98 175
83 101 136
106 106 75
104 107 77
109 111 79
101 104 72
125 124 85
101 104 75
121 122 84
118 121 87
109 113 85
131 132 92
111 113 79
119 121 86
109 113 83
108 111 79
122 123 86
121 123 86
128 128 87
137 136 92
126 126 89
131 130 90
151 149 99
118 119 81
139 139 94
136 136 91
140 141 96
131 131 90
138 137 90
148 147 99
155 152 101
133 134 87
151 150 98
143 143 97
143 142 93
147 145 94
144 143 96
162 158 102
147 147 98
151 149 97
160 157 104
162 157 101
154 151 96
158 155 99
163 159 103
161 157 102
160 158 102
165 161 101
164 160 103
166 162 105
162 158 101
163 160 103
165 160 100
166 162 97
171 166 109
161 157 95
167 162 99
163 160 104
169 164 104
173 167 103
170 165 98
168 164 99
165 160 99
171 166 104
168 163 105
176 170 108
168 163 100
176 169 97
174 168 102
176 169 107
168 162 97
169 165 99
171 165 97
174 168 104
176 170 103
171 164 99
171 166 103
174 167 103
172 167 103
171 166 101
172 166 98
175 169 99
175 170 103
167 162 97
171 164 99
161 157 87
173 166 98
167 161 95
169 163 98
169 162 97
169 164 99
170 164 93
168 162 91
164 159 91
164 158 93
165 159 93
157 152 84
172 166 97
164 157 90
159 154 87
171 163 97
163 156 90
167 160 93
161 155 91
162 155 80
161 155 87
165 160 87
162 155 85
165 159 91
149 142 74
157 152 84
169 160 88
157 151 88
156 148 75
163 156 90
155 149 77
160 152 84
155 149 85
157 150 80
160 152 88
154 148 74
148 143 72
125 121 56
134 128 62
152 146 70
118 114 53
138 133 58
137 131 60
123 119 53
171 193 16
170 192 0
173 196 0
174 196 0
174 196 0
170 193 0
173 196 0
173 197 0
173 195 0
172 195 0
173 196 0
173 197 0
173 197 0
172 195 0
173 196 0
174 198 0
173 196 0
174 198 0
174 197 0
173 196 0
171 195 0
173 197 0
175 198 0
175 197 0
170 193 0
174 198 0
175 198 0
174 197 0
173 197 0
173 197 0
172 197 0
171 194 0
174 198 0
174 198 0
173 196 0
173 196 0
171 194 0
170 194 0
172 196 0
172 196 0
177 199 0
172 197 0
173 197 0
172 195 0
173 197 0
172 196 0
174 196 0
172 194 0
174 197 0
174 196 0
172 196 0
172 196 0
174 197 0
170 193 0
168 192 0
173 197 0
172 197 0
172 195 0
170 194 0
175 198 0
168 193 0
175 197 0
170 194 0
173 197 0
171 194 0
171 195 0
172 196 0
174 197 0
170 193 0
167 191 0
172 196 0
175 198 0
171 195 0
172 195 0
175 198 0
170 193 0
174 197 0
172 196 0
172 195 0
170 193 0
170 194 0
170 194 0
170 194 0
173 196 0
173 197 0
175 198 0
172 197 0
170 195 0
171 194 0
173 195 0
169 191 0
172 196 0
172 197 0
171 195 0
167 190 0
172 196 0
171 193 0
175 198 0
172 195 0
174 197 0
169 194 0
174 198 0
174 196 0
173 197 0
171 195 0
171 194 0
173 197 0
175 197 0
173 196 0
172 196 0
171 193 0
170 193 0
170 193 0
170 194 0
172 196 0
172 195 0
170 194 0
171 194 0
174 196 0
170 191 0
176 198 0
174 197 0
168 192 0
172 196 0
169 192 0
167 191 0
170 194 0
168 192 0
171 194 0
173 196 0
172 196 0
170 193 0
171 194 0
169 193 0
172 193 0
175 197 0
174 196 0
172 194 0
118 145 130
62 98 165
61 97 163
62 99 173
61 98 169
62 98 173
61 98 171
62 99 175
62 99 177
62 99 179
61 99 181
62 99 177
62 99 177
63 100 177
62 99 181
62 99 179
62 99 177
61 99 177
62 99 179
62 99 179
62 99 179
62 99 179
62 99 181
61 98 181
62 99 181
63 100 181
62 99 177
62 99 179
61 99 181
62 99 181
62 99 175
61 99 179
62 99 181
62 99 181
62 99 179
62 99 181
62 99 181
61 99 181
62 99 181
61 98 179
62 99 181
62 99 181
61 99 181
62 99 179
61 99 179
61 99 181
60 98 181
63 100 181
62 99 181
62 99 181
61 98 179
62 99 181
62 99 181
62 99 179
62 99 181
61 99 179
62 99 181
62 99 181
61 99 181
62 99 181
62 99 181
61 99 181
61 99 181
62 99 181
61 98 179
62 99 181
61 98 181
61 99 181
61 99 181
62 99 179
61 98 177
62 99 181
62 99 181
62 99 181
62 99 181
61 98 179
63 100 181
62 99 181
62 99 181
62 99 181
61 99 181
62 99 181
60 98 181
61 98 181
62 99 181
61 99 181
62 99 181
61 98 181
62 99 181
62 99 179
62 99 181
62 99 181
62 99 179
62 99 179
61 98 177
61 98 177
62 99 181
62 99 179
62 99 179
61 99 179
62 99 179
62 99 181
62 99 181
61 98 179
62 99 179
62 99 181
62 99 177
62 99 181
61 99 181
63 100 181
62 99 181
63 100 181
62 99 181
63 100 179
62 99 175
61 98 179
62 99 179
62 99 177
61 99 181
62 99 179
62 99 175
60 97 175
61 97 169
62 99 177
62 98 175
62 99 181
62 99 175
63 99 173
61 98 175
63 99 175
61 97 170
62 99 177
60 97 173
61 97 172
60 97 172
92 109 143
91 95 71
106 108 74
118 118 82
97 102 76
99 104 78
120 120 82
113 114 79
107 109 78
120 121 86
120 122 88
113 114 82
121 123 85
122 122 85
120 121 84
122 123 86
128 130 91
136 136 95
121 122 85
143 143 97
113 118 85
128 129 88
153 150 99
137 137 91
129 130 89
142 141 94
150 147 96
137 137 90
140 139 90
144 143 92
149 147 99
146 144 96
144 142 91
139 138 93
168 163 105
153 150 98
158 155 103
142 142 91
155 151 95
158 155 99
154 152 101
166 161 105
156 154 96
157 154 97
165 162 105
155 154 100
164 158 101
158 155 101
163 160 101
162 159 103
163 159 99
169 164 98
168 163 101
166 163 95
169 164 103
161 156 98
169 164 101
174 168 105
167 164 102
166 162 93
177 171 102
173 168 103
170 165 99
175 168 105
174 168 95
170 164 97
174 169 101
169 165 99
170 164 91
169 165 103
174 169 106
176 169 98
168 163 93
175 168 99
173 167 104
168 164 97
176 170 104
169 163 97
173 167 97
169 162 88
169 164 99
170 163 95
175 168 102
163 157 87
167 162 95
167 162 95
165 158 91
156 151 85
175 167 99
161 155 93
168 162 98
175 168 98
163 158 87
168 162 95
161 154 87
166 159 90
172 165 93
165 158 91
157 151 82
164 158 88
171 162 91
153 147 80
165 159 87
159 152 80
157 151 87
162 155 88
153 147 82
149 144 80
153 147 82
166 158 88
154 149 77
154 148 80
155 148 72
151 144 74
156 150 84
148 141 64
147 141 79
144 137 75
154 147 75
142 135 66
159 152 74
140 135 64
154 148 72
136 129 70
133 127 60
107 105 48
117 112 48
167 188 16
176 197 0
171 194 0
176 198 0
171 194 0
173 196 0
172 197 0
172 195 0
173 196 0
175 198 0
172 196 0
172 196 0
167 191 0
174 197 0
175 198 0
175 197 0
171 195 0
172 195 0
173 197 0
174 197 0
172 196 0
170 194 0
173 196 0
172 195 0
176 199 0
171 194 0
173 196 0
172 195 0
173 196 0
174 197 0
174 197 0
174 197 0
172 195 0
172 196 0
172 195 0
173 196 0
172 196 0
175 198 0
174 196 0
173 197 0
174 197 0
173 197 0
174 198 0
172 196 0
173 197 0
170 194 0
171 195 0
171 195 0
172 195 0
172 194 0
172 195 0
168 191 0
176 198 0
176 199 0
170 193 0
176 199 0
173 197 0
173 196 0
175 198 0
173 196 0
173 197 0
171 195 0
173 197 0
174 197 0
174 198 0
175 198 0
171 195 0
175 198 0
174 198 0
170 194 0
172 195 0
174 196 0
170 194 0
170 193 0
171 195 0
167 192 0
165 188 0
171 194 0
174 196 0
172 195 0
172 196 0
173 195 0
171 193 0
171 194 0
171 195 0
171 193 0
171 195 0
173 196 0
170 193 0
172 196 0
171 194 0
174 197 0
172 195 0
172 196 0
170 192 0
172 195 0
173 196 0
171 194 0
173 196 0
173 196 0
170 195 0
169 192 0
172 195 0
176 198 0
169 192 0
172 195 0
172 194 0
172 196 0
170 192 0
174 196 0
166 189 0
170 193 0
169 193 0
171 193 0
175 198 0
173 197 0
175 198 0
173 195 0
169 193 0
171 193 0
175 198 0
173 195 0
169 193 0
174 196 0
173 196 0
174 197 0
167 189 0
174 196 0
174 198 0
169 194 0
167 191 0
173 196 0
172 195 0
170 192 0
174 198 0
175 198 0
174 197 0
131 156 120
63 100 175
63 99 177
63 100 181
62 98 171
63 100 177
62 98 169
62 99 181
62 99 173
63 100 175
63 100 175
62 99 177
62 99 177
62 99 179
63 100 181
62 99 177
61 98 177
62 99 177
62 99 177
61 99 181
61 98 175
63 100 181
61 98 181
63 99 179
62 99 181
62 99 181
63 100 181
62 99 181
62 99 179
61 98 181
63 100 179
63 100 179
62 99 179
62 99 179
62 99 177
62 99 181
62 99 181
61 99 181
61 99 181
61 99 181
62 99 179
61 99 181
62 99 181
62 99 181
62 99 181
61 98 179
62 99 181
63 100 181
62 99 181
62 99 181
61 99 181
61 99 179
62 99 181
61 99 181
62 99 181
62 99 181
62 99 181
62 99 181
62 99 181
62 99 181
62 99 181
63 100 181
61 98 181
63 100 181
61 98 181
62 99 181
62 99 181
61 99 181
61 99 181
61 99 181
61 99 181
62 99 181
62 99 181
63 100 181
61 99 181
62 99 181
62 99 181
61 98 181
62 99 179
62 99 181
61 98 181
61 99 177
61 98 177
61 98 181
62 99 181
61 99 181
62 99 179
62 99 181
62 99 181
63 100 179
61 99 181
62 99 181
62 99 181
62 99 179
62 99 177
62 99 179
63 100 181
62 99 177
62 99 181
61 99 179
63 100 181
61 98 179
62 99 181
61 98 181
62 99 179
62 99 181
62 99 179
62 99 181
62 99 181
63 100 179
61 98 175
62 99 179
62 99 181
62 99 177
61 97 171
62 99 177
63 100 181
62 99 179
60 95 167
62 99 181
61 98 173
61 98 171
62 99 177
62 99 175
62 99 179
61 99 181
63 99 177
61 98 174
62 99 179
61 98 174
61 98 177
63 100 181
61 97 172
61 97 168
60 95 162
61 97 172
61 96 169
83 100 126
112 113 79
95 96 69
104 107 79
100 101 72
111 112 78
106 108 77
100 101 70
106 109 82
114 115 80
115 118 83
114 116 81
134 134 93
120 122 86
122 125 92
130 130 91
116 118 85
127 128 89
120 123 86
138 138 96
121 122 83
137 136 88
144 142 95
137 136 95
138 137 91
128 131 92
131 130 90
138 137 91
146 146 98
146 145 91
148 145 93
149 149 102
150 148 96
143 142 94
147 145 95
146 144 94
139 140 93
156 154 101
158 155 102
163 159 99
146 145 98
155 153 94
166 162 101
151 150 99
157 154 99
165 161 99
168 163 103
164 160 98
170 165 100
167 162 99
168 163 103
161 157 93
169 165 101
161 158 100
169 165 105
174 169 104
169 165 98
169 164 96
172 167 104
171 167 103
172 167 103
165 160 96
170 164 103
171 164 97
163 157 95
167 161 97
167 162 94
170 164 95
177 170 104
173 168 99
178 171 102
171 164 99
176 170 99
171 166 97
175 168 102
174 169 104
172 166 97
178 171 102
175 169 102
163 157 87
170 164 93
172 164 97
170 163 98
176 167 98
170 164 94
167 161 94
172 166 93
171 165 97
176 169 102
162 157 82
160 154 80
168 162 95
170 165 98
169 162 94
153 148 77
171 165 98
163 156 85
149 142 80
165 158 85
158 153 79
171 165 95
163 158 87
155 149 82
161 155 84
155 150 75
164 157 90
154 150 79
159 152 84
153 145 82
158 151 85
151 146 66
152 146 82
157 151 79
158 151 77
147 142 68
149 144 75
140 133 74
133 129 60
148 143 72
151 145 72
153 145 75
151 143 70
133 128 58
118 114 56
139 133 70
104 100 39
168 189 0
172 196 0
173 196 0
170 193 0
173 196 0
176 197 0
173 196 0
176 199 0
172 196 0
172 196 0
172 195 0
168 194 0
171 195 0
169 193 0
172 195 0
174 196 0
172 195 0
174 198 0
173 196 0
174 197 0
172 194 0
174 197 0
175 197 0
172 195 0
173 196 0
177 199 0
174 198 0
172 196 0
174 197 0
176 199 0
173 195 0
166 190 0
173 196 0
172 194 0
175 198 0
175 198 0
174 197 0
171 195 0
170 194 0
173 196 0
175 197 0
171 195 0
171 196 0
171 195 0
173 197 0
175 198 0
173 197 0
174 198 0
173 195 0
172 196 0
170 192 0
172 196 0
174 197 0
170 195 0
171 194 0
168 192 0
174 197 0
173 195 0
171 194 0
172 196 0
170 193 0
173 197 0
172 196 0
174 197 0
170 193 0
170 195 0
170 193 0
171 195 0
172 196 0
175 198 0
173 196 0
172 196 0
171 194 0
169 193 0
169 193 0
168 193 0
174 198 0
173 196 0
172 195 0
175 198 0
171 196 0
175 197 0
171 194 0
172 195 0
174 197 0
170 194 0
173 197 0
165 190 0
172 195 0
171 193 0
175 197 0
173 197 0
170 193 0
174 197 0
174 198 0
173 195 0
175 198 0
174 197 0
172 196 0
173 195 0
170 193 0
170 194 0
170 193 0
172 196 0
165 188 0
169 194 0
173 197 0
166 189 0
173 196 0
171 194 0
172 194 0
172 195 0
172 196 0
171 194 0
171 195 0
173 196 0
169 193 0
168 192 0
169 192 0
169 192 0
171 194 0
164 189 0
175 197 0
172 195 0
173 197 0
173 196 0
165 189 0
172 195 0
172 195 0
171 195 0
170 194 0
171 194 0
169 192 0
169 193 0
174 197 0
170 193 0
134 158 111
62 99 173
62 98 175
61 98 175
62 99 173
62 98 171
62 99 173
62 99 177
62 98 173
62 99 175
60 97 169
63 100 177
63 99 179
62 99 179
62 99 177
62 99 177
61 99 179
63 100 181
62 99 181
61 98 177
63 100 179
62 99 181
61 99 181
64 100 181
61 98 177
62 99 179
61 99 179
62 99 179
63 100 181
63 100 179
62 99 179
62 99 181
62 99 181
61 99 181
62 99 181
61 99 181
62 99 181
62 99 181
63 100 181
61 98 181
61 99 181
61 98 179
61 99 181
62 99 181
62 99 179
61 99 181
62 99 181
61 99 181
62 99 181
62 99 179
62 99 181
62 99 181
62 99 181
62 99 181
62 99 181
62 99 181
62 99 181
62 99 179
61 98 181
62 99 179
62 99 181
62 99 181
62 99 181
61 98 181
62 99 181
61 98 181
62 99 181
62 99 181
62 99 181
61 99 181
62 99 181
62 99 181
61 99 179
61 98 181
61 99 181
62 99 181
61 98 181
62 99 181
61 99 181
63 100 181
62 100 181
61 98 181
61 98 179
61 98 181
62 99 181
61 99 179
62 99 179
62 99 181
62 99 179
62 99 181
62 99 181
61 99 179
62 99 179
62 99 177
62 99 181
62 99 179
61 98 177
61 99 179
62 99 179
62 99 179
62 99 181
62 99 181
61 99 179
62 99 181
62 99 181
61 98 179
61 99 181
61 99 179
62 99 179
63 100 181
61 98 175
62 99 177
62 99 177
61 99 179
62 99 181
62 99 179
62 99 179
61 98 181
62 99 175
63 100 179
61 98 181
61 98 177
61 99 181
63 99 174
62 99 175
62 98 178
62 99 177
62 99 181
62 99 171
61 98 175
62 99 179
62 99 175
60 96 168
62 99 175
62 99 177
61 98 174
62 98 174
61 97 168
59 94 159
97 107 119
95 98 69
82 87 64
84 89 65
114 116 78
115 116 80
117 119 84
108 112 81
122 124 88
118 120 88
108 110 77
104 107 81
116 119 86
130 129 89
120 121 85
133 133 87
117 120 84
120 122 86
116 117 83
123 123 86
122 124 85
144 143 95
126 128 87
140 139 90
121 121 79
148 146 95
131 131 90
143 142 97
148 146 95
127 128 90
145 144 95
148 145 92
138 138 90
148 148 92
156 153 98
157 155 102
159 157 102
159 155 103
162 157 101
156 153 99
163 159 102
160 156 98
161 159 100
156 153 92
159 156 102
168 164 97
168 163 99
166 162 99
163 160 99
160 157 92
166 162 99
165 161 105
167 163 98
166 161 98
170 166 97
172 167 108
168 163 101
170 165 99
172 167 98
175 169 98
174 168 106
175 170 102
171 165 93
175 169 105
170 165 95
167 161 89
173 168 101
173 167 103
166 162 90
173 167 97
170 165 97
172 167 101
172 166 98
165 161 93
172 166 98
171 166 94
173 168 97
169 163 95
175 168 100
169 164 97
163 157 91
172 165 99
170 164 90
164 159 93
169 164 101
168 162 97
163 157 91
166 161 91
169 163 93
177 170 99
169 164 94
154 149 84
170 164 98
174 167 98
170 164 94
167 161 88
160 154 84
156 151 87
160 153 77
163 156 84
153 149 84
156 151 87
160 153 87
146 141 79
155 150 85
149 143 77
161 155 77
146 142 74
160 154 82
148 144 74
159 153 77
146 141 68
158 152 87
156 149 82
138 134 66
154 148 70
142 136 66
146 140 75
135 129 62
128 123 62
140 133 77
118 113 51
150 143 64
131 126 56
131 129 48
170 191 0
172 194 0
170 192 0
171 194 0
171 195 0
172 193 0
173 197 0
173 197 0
175 198 0
175 198 0
171 195 0
175 197 0
173 197 0
176 199 0
172 197 0
174 198 0
172 197 0
172 196 0
173 197 0
176 198 0
169 193 0
171 195 0
172 196 0
172 195 0
174 198 0
173 196 0
174 197 0
173 196 0
175 198 0
170 195 0
173 195 0
173 196 0
174 197 0
175 197 0
171 194 0
173 196 0
172 195 0
173 196 0
176 199 0
173 196 0
175 198 0
175 198 0
174 197 0
174 197 0
170 195 0
173 197 0
174 198 0
173 196 0
175 198 0
173 197 0
172 195 0
172 195 0
173 197 0
170 193 0
175 197 0
170 195 0
170 194 0
174 198 0
169 192 0
174 198 0
172 197 0
171 195 0
174 197 0
168 192 0
169 192 0
174 197 0
170 193 0
172 196 0
166 189 0
174 198 0
168 192 0
173 195 0
173 196 0
170 194 0
172 196 0
170 193 0
172 196 0
169 192 0
174 197 0
170 193 0
171 194 0
166 190 0
168 192 0
173 197 0
174 197 0
175 197 0
169 193 0
174 197 0
169 193 0
172 194 0
174 197 0
175 198 0
170 194 0
172 195 0
175 197 0
172 197 0
168 193 0
173 196 0
172 196 0
172 195 0
173 196 0
170 194 0
172 194 0
170 192 0
174 197 0
175 198 0
172 196 0
173 197 0
172 195 0
175 197 0
166 189 0
173 194 0
171 194 0
172 196 0
168 191 0
168 191 0
172 196 0
168 191 0
172 196 0
170 193 0
170 193 0
174 197 0
172 195 0
174 197 0
170 195 0
172 195 0
174 196 0
166 190 0
173 196 0
172 196 0
170 192 0
171 194 0
167 191 0
173 194 0
167 189 0
152 176 84
62 99 173
62 99 177
62 98 171
62 99 173
63 99 175
62 98 167
62 99 175
62 99 175
62 99 181
62 99 179
62 99 175
61 98 171
62 99 175
62 99 179
61 98 171
62 99 181
62 99 179
62 99 177
62 99 181
63 100 181
62 99 181
62 99 181
62 99 181
62 99 177
62 99 179
62 99 177
62 99 181
62 99 179
62 99 181
62 99 181
62 99 177
62 99 177
62 99 179
62 99 181
63 100 181
62 99 181
61 98 181
62 99 181
61 99 181
61 99 181
62 99 181
61 98 177
61 99 181
62 99 181
62 99 181
62 99 179
62 99 181
61 98 181
61 99 179
62 99 181
63 100 181
62 99 181
62 99 181
62 99 181
62 99 181
62 99 181
61 98 181
62 99 179
62 99 181
62 99 181
61 99 181
61 99 181
61 98 181
61 98 177
63 100 181
61 99 181
62 99 177
61 99 181
62 99 181
61 98 181
62 99 181
62 99 181
62 99 181
62 99 179
62 99 181
62 99 181
62 99 179
62 99 181
62 99 181
61 99 181
62 99 181
62 99 181
62 99 181
61 99 181
62 99 179
62 99 177
62 99 181
62 99 181
62 99 179
62 100 181
62 99 181
61 98 179
61 99 181
61 98 177
61 98 181
61 99 181
63 99 177
61 99 181
63 100 181
61 99 181
62 99 175
62 99 179
62 99 181
63 100 181
62 99 177
62 99 179
63 100 179
63 100 181
62 99 179
62 99 179
62 99 179
61 99 179
62 99 177
63 100 177
62 98 173
62 99 179
62 99 181
63 99 179
62 99 179
61 98 177
61 98 173
62 99 175
61 98 179
61 97 173
62 99 177
63 100 179
61 97 175
61 98 172
62 98 174
62 99 175
61 98 170
61 97 168
61 98 175
63 99 174
62 98 174
62 99 169
61 98 166
60 95 167
62 98 170
61 96 167
92 101 106
108 109 78
113 114 78
118 118 80
109 111 80
101 103 71
115 118 83
96 102 77
112 115 83
99 103 75
125 126 89
115 116 84
120 121 85
111 114 82
114 116 85
129 130 93
124 126 89
124 125 86
137 134 88
133 133 89
133 132 89
121 122 79
152 150 99
143 142 92
134 132 88
144 143 92
140 140 95
151 149 99
134 133 86
128 129 84
144 142 92
138 137 94
137 137 90
154 152 97
149 147 94
145 144 97
160 156 98
148 146 94
152 150 98
152 148 96
155 152 96
161 160 101
159 155 88
158 155 97
157 153 96
155 152 89
161 157 100
166 162 97
163 158 97
161 158 93
166 162 96
170 165 99
163 159 97
167 163 98
169 164 103
172 167 99
173 167 102
171 165 98
162 157 97
175 169 104
167 162 99
175 169 105
172 166 99
172 166 101
172 166 95
172 167 95
171 166 95
171 165 101
168 162 94
175 167 100
168 163 94
175 169 101
172 164 100
174 169 99
167 161 91
169 163 93
166 161 94
173 166 95
176 168 98
171 164 93
175 169 99
172 166 97
169 162 90
168 163 94
169 164 93
167 161 91
169 162 91
167 160 88
164 157 87
169 161 91
165 158 91
168 162 91
161 155 85
164 158 85
170 163 88
152 146 82
164 157 85
154 149 87
164 158 87
159 154 87
168 162 87
164 159 85
167 160 90
162 155 90
143 139 66
153 147 75
157 151 77
148 142 80
151 144 74
158 150 85
143 139 62
140 135 75
157 151 72
154 147 75
130 124 60
138 134 64
141 138 60
143 137 66
136 131 74
146 141 64
143 137 62
132 127 56
145 139 70
124 121 51
173 196 0
175 196 0
168 190 0
172 195 0
173 194 0
172 193 0
175 198 0
175 198 0
174 198 0
171 194 0
174 198 0
173 197 0
171 194 0
171 194 0
173 197 0
174 197 0
172 196 0
171 195 0
170 194 0
173 196 0
172 196 0
173 196 0
171 195 0
173 196 0
173 196 0
174 197 0
172 196 0
173 197 0
168 191 0
170 193 0
172 196 0
172 196 0
169 192 0
175 198 0
171 194 0
173 197 0
172 196 0
171 194 0
172 194 0
174 197 0
169 192 0
174 197 0
172 195 0
169 192 0
175 198 0
175 198 0
175 198 0
171 194 0
173 197 0
173 196 0
173 196 0
171 196 0
174 198 0
172 196 0
172 197 0
173 197 0
174 197 0
173 196 0
170 192 0
172 195 0
173 196 0
173 197 0
168 191 0
169 194 0
172 195 0
172 195 0
169 193 0
174 197 0
171 195 0
173 197 0
174 197 0
171 195 0
172 195 0
173 195 0
176 199 0
173 197 0
174 197 0
174 197 0
175 197 0
172 196 0
170 195 0
168 192 0
171 195 0
172 196 0
176 198 0
170 194 0
171 194 0
173 197 0
170 193 0
165 189 0
172 196 0
170 194 0
170 194 0
168 191 0
173 197 0
170 193 0
171 194 0
172 196 0
172 196 0
170 193 0
174 197 0
167 190 0
173 197 0
172 196 0
171 194 0
172 195 0
173 196 0
170 193 0
170 193 0
174 197 0
175 198 0
165 188 0
170 194 0
168 192 0
174 197 0
169 192 0
167 191 0
169 193 0
169 193 0
175 197 0
172 195 0
174 197 0
173 195 0
172 195 0
169 191 0
171 193 0
171 194 0
173 196 0
173 197 0
168 192 0
173 197 0
170 194 0
175 198 0
166 189 0
148 173 88
62 99 167
62 98 167
63 99 171
62 99 169
62 99 171
62 99 175
63 99 169
60 97 165
61 98 169
62 99 171
61 98 171
62 99 179
62 99 177
62 99 179
62 99 179
62 99 173
63 100 181
62 99 181
63 99 177
62 99 177
62 99 177
61 98 177
62 99 177
62 99 177
63 99 179
61 98 177
61 98 179
62 99 177
63 100 181
62 99 181
62 99 181
62 99 179
62 99 179
62 99 179
62 99 181
62 99 177
62 99 177
62 99 179
62 99 181
62 99 181
62 99 175
62 99 179
62 99 179
61 98 177
62 99 181
62 99 181
61 99 181
62 99 181
62 99 181
62 99 181
62 99 181
61 99 181
61 99 179
62 99 181
62 99 179
62 99 181
62 99 181
61 98 179
62 99 181
63 100 181
62 99 181
61 99 181
62 99 181
63 100 181
62 99 179
61 99 181
62 99 181
61 98 181
62 99 181
62 99 179
62 99 181
62 99 181
62 99 179
62 99 181
62 99 179
61 98 181
62 99 181
62 99 181
61 98 177
62 99 181
62 99 181
62 99 181
63 100 179
61 99 181
62 99 179
62 99 181
61 98 179
62 99 181
63 99 179
62 99 181
62 99 181
63 99 179
61 99 181
62 99 181
61 98 179
61 98 181
62 99 175
61 99 181
62 99 181
62 99 179
61 98 179
63 100 181
62 99 179
62 99 179
61 99 179
61 98 177
62 99 175
62 99 177
62 99 179
62 99 181
61 99 179
61 98 175
62 99 181
63 100 179
63 100 179
62 99 175
63 100 181
61 98 173
61 98 177
62 99 179
62 99 179
62 99 177
62 99 177
63 100 177
61 98 177
61 98 177
62 99 173
61 98 177
62 98 168
62 98 173
62 99 177
61 98 179
62 99 177
61 98 173
62 99 177
62 99 175
62 97 168
63 99 175
60 96 165
63 99 170
60 96 167
64 96 162
95 101 86
69 74 58
85 90 68
104 107 76
112 115 80
97 101 71
112 113 79
119 120 83
109 110 78
126 127 87
129 130 91
111 113 82
123 124 85
120 122 80
127 129 91
135 135 91
110 111 79
131 131 89
140 139 93
132 133 89
129 130 84
133 132 91
132 132 87
125 126 85
144 143 93
121 124 83
145 143 95
149 147 95
148 146 97
133 133 90
156 154 104
148 145 91
152 149 90
155 151 95
161 158 101
153 150 96
162 157 97
161 157 96
157 153 99
152 149 93
169 164 100
155 154 91
159 155 98
157 155 97
163 158 98
165 160 102
174 169 109
163 159 98
166 163 101
164 159 91
164 158 93
167 161 101
167 162 101
168 164 101
169 162 93
170 164 97
172 167 102
175 168 103
162 157 96
165 160 95
169 164 101
177 171 107
164 160 96
170 165 97
169 164 91
173 166 93
171 165 101
167 162 91
167 161 100
176 169 99
172 166 97
172 165 99
169 163 94
175 169 99
163 158 95
173 167 98
173 166 93
172 165 97
171 165 93
168 162 95
170 165 97
163 158 88
159 155 82
178 170 99
162 157 90
168 161 93
174 166 97
172 165 90
167 161 91
164 158 85
169 162 91
160 155 84
161 155 82
167 161 88
167 161 91
161 156 82
165 158 87
161 154 84
169 161 91
148 142 75
159 152 85
154 147 77
153 147 72
165 158 91
162 156 85
164 158 85
165 158 85
160 153 77
140 136 74
151 146 77
164 157 82
155 150 79
148 143 68
137 132 62
161 154 82
147 141 68
143 137 60
140 135 70
138 132 60
141 136 68
139 134 56
135 129 60
133 138 36
176 199 0
173 194 0
169 191 0
175 197 0
174 195 0
172 194 0
172 195 0
172 196 0
174 196 0
173 197 0
174 198 0
172 196 0
172 195 0
175 198 0
174 198 0
170 193 0
174 197 0
175 198 0
173 195 0
172 196 0
174 197 0
175 198 0
176 198 0
171 195 0
176 198 0
173 196 0
175 198 0
173 197 0
171 195 0
172 197 0
175 198 0
173 196 0
171 194 0
172 195 0
173 196 0
174 198 0
173 196 0
174 198 0
172 196 0
173 196 0
170 194 0
173 196 0
176 199 0
173 197 0
170 194 0
171 195 0
168 192 0
172 196 0
171 194 0
173 196 0
174 197 0
175 198 0
176 199 0
170 194 0
174 197 0
173 195 0
175 197 0
175 198 0
168 191 0
175 197 0
170 194 0
176 199 0
169 192 0
174 198 0
174 197 0
172 195 0
167 191 0
173 197 0
168 191 0
170 194 0
173 197 0
170 193 0
174 197 0
173 197 0
176 198 0
176 198 0
167 191 0
173 196 0
169 192 0
168 192 0
172 196 0
175 198 0
176 199 0
170 194 0
169 193 0
169 193 0
168 191 0
172 195 0
169 192 0
172 195 0
172 196 0
171 194 0
171 195 0
173 197 0
172 196 0
167 192 0
171 195 0
175 197 0
175 198 0
171 195 0
174 197 0
173 197 0
170 192 0
174 197 0
172 195 0
170 193 0
176 199 0
175 198 0
170 194 0
170 192 0
171 195 0
169 193 0
174 196 0
173 196 0
170 193 0
173 196 0
173 196 0
171 194 0
169 193 0
174 195 0
173 195 0
170 193 0
172 194 0
168 191 0
173 196 0
168 191 0
168 191 0
169 192 0
173 197 0
171 194 0
173 195 0
169 193 0
174 196 0
163 188 57
88 118 147
62 98 171
62 98 171
63 99 173
61 98 169
62 99 179
63 99 177
62 99 181
62 99 179
62 99 179
62 99 171
62 99 181
62 99 175
62 99 175
61 99 179
62 99 179
63 100 181
62 99 181
61 98 173
62 99 177
62 99 179
62 99 179
62 99 179
61 98 173
62 99 181
62 99 179
61 98 181
61 98 175
61 98 177
62 99 179
62 99 179
62 99 181
61 98 179
62 99 179
63 100 179
63 100 179
62 99 181
62 99 179
63 100 181
62 99 181
62 99 179
62 99 179
61 99 181
62 99 181
61 98 181
63 100 181
61 99 181
62 99 181
62 99 179
62 99 181
62 99 179
62 99 181
61 99 181
62 99 181
61 98 179
61 99 181
61 99 179
62 99 179
62 99 181
61 98 181
63 100 181
61 99 181
61 98 179
62 99 181
62 99 181
61 98 177
63 100 181
61 98 181
63 100 181
62 99 181
61 98 179
61 98 181
62 99 179
62 99 181
62 99 181
62 99 181
61 98 179
61 99 181
62 99 181
62 99 177
61 98 179
62 99 181
62 99 181
62 99 181
62 99 181
62 99 181
62 99 181
62 99 181
61 99 181
62 99 179
62 99 181
62 99 181
62 99 181
62 99 177
62 99 181
62 99 181
62 99 181
62 99 175
63 100 179
62 99 179
62 99 181
62 99 181
62 99 177
62 99 179
63 99 179
62 99 181
62 99 181
62 99 177
62 99 179
62 99 179
63 100 181
62 99 181
62 99 179
61 98 177
62 99 175
62 99 179
62 99 177
62 99 179
62 99 181
62 99 177
62 99 181
62 99 175
62 99 177
62 99 179
61 98 175
63 100 177
61 97 168
61 98 177
62 98 172
62 99 179
62 99 177
62 99 177
62 98 174
61 98 170
61 98 179
62 98 175
63 100 177
63 99 175
62 98 169
62 99 176
62 98 173
62 98 168
61 97 173
63 94 156
99 105 99
100 102 74
89 94 71
102 105 74
94 98 73
89 94 69
103 106 77
115 115 80
107 109 78
113 116 83
121 121 85
114 115 81
127 128 88
124 124 85
111 111 76
129 131 92
125 126 87
128 128 88
132 132 90
133 132 88
132 132 91
132 131 86
135 135 93
137 135 86
129 130 88
140 139 93
138 138 91
143 142 92
151 149 98
143 142 90
144 142 90
153 150 89
156 152 98
157 154 101
155 153 96
157 153 96
153 150 90
160 156 100
158 155 95
156 153 95
157 153 86
161 157 100
163 158 96
165 162 100
156 153 95
154 153 96
155 152 93
162 158 94
159 155 98
168 162 101
173 167 97
172 166 99
177 169 102
166 162 98
172 166 103
163 158 96
170 165 101
169 164 96
168 163 93
169 164 94
170 164 102
176 170 104
169 163 91
171 165 98
176 168 99
170 165 95
173 166 101
169 164 95
176 169 95
168 163 98
174 168 99
175 168 95
177 170 107
167 162 94
171 164 98
166 161 87
164 159 93
169 163 95
166 161 93
169 164 95
170 164 95
171 164 91
168 162 90
173 167 91
178 171 103
167 162 93
164 158 88
164 158 84
171 163 91
163 157 85
163 157 87
160 154 84
157 151 77
160 154 80
163 156 82
163 158 82
161 155 84
162 157 85
157 151 75
161 155 84
158 153 82
142 136 70
153 147 82
153 148 74
170 162 97
157 149 85
144 137 72
156 150 84
143 137 60
145 140 64
153 146 75
144 137 64
136 131 64
145 140 75
141 135 74
140 135 64
130 125 60
144 138 62
124 119 56
133 127 68
129 124 60
143 146 45
174 194 0
172 195 0
171 193 0
174 198 0
172 194 0
173 195 0
172 195 0
173 197 0
171 193 0
174 198 0
170 195 0
172 195 0
173 196 0
173 196 0
171 196 0
171 194 0
175 198 0
175 198 0
173 196 0
173 196 0
172 196 0
170 194 0
178 200 0
172 196 0
171 195 0
169 192 0
174 198 0
174 197 0
171 195 0
176 198 0
173 196 0
173 197 0
174 197 0
169 192 0
171 195 0
170 193 0
174 197 0
174 197 0
171 194 0
171 194 0
172 196 0
171 195 0
170 194 0
172 194 0
172 194 0
171 195 0
173 196 0
172 195 0
172 195 0
173 196 0
171 194 0
169 193 0
173 197 0
172 194 0
174 196 0
171 195 0
172 196 0
171 195 0
173 195 0
174 198 0
172 195 0
176 199 0
171 194 0
171 195 0
175 197 0
172 194 0
166 189 0
174 197 0
170 195 0
172 197 0
174 198 0
172 195 0
171 195 0
171 193 0
173 196 0
174 197 0
173 197 0
169 192 0
174 198 0
170 194 0
174 196 0
175 198 0
170 194 0
174 197 0
172 195 0
169 193 0
170 194 0
170 195 0
174 198 0
171 194 0
169 193 0
170 194 0
174 197 0
172 195 0
171 194 0
172 196 0
171 194 0
173 196 0
173 196 0
169 192 0
167 191 0
171 195 0
170 195 0
172 195 0
171 194 0
173 197 0
172 196 0
167 190 0
173 196 0
171 194 0
170 192 0
170 194 0
173 196 0
170 193 0
172 195 0
171 195 0
168 192 0
175 198 0
166 190 0
172 194 0
171 194 0
167 190 0
170 193 0
172 196 0
173 197 0
172 194 0
175 198 0
169 192 0
167 190 0
167 189 0
169 191 0
172 196 0
172 195 0
99 126 144
61 99 179
62 98 171
62 99 175
62 98 171
62 99 175
62 98 169
61 98 171
62 99 175
62 99 173
62 99 171
62 99 177
62 99 177
62 99 175
62 99 173
63 99 177
63 100 181
63 100 179
62 99 179
62 98 175
62 99 177
62 99 179
62 99 179
62 99 171
62 99 179
62 99 179
62 99 177
62 99 177
62 99 177
62 99 177
62 99 181
62 99 181
62 99 181
62 99 177
61 98 179
62 99 179
62 99 181
62 99 181
62 99 177
63 100 179
63 100 181
62 99 181
61 99 179
62 99 181
62 99 179
62 99 181
62 99 179
62 99 179
62 99 179
62 99 181
61 99 181
61 99 181
62 99 179
62 99 179
62 99 181
62 99 181
62 99 181
61 99 181
62 99 179
61 98 181
62 99 181
61 98 179
61 98 177
62 99 181
62 99 181
62 99 179
62 99 181
62 99 181
62 99 181
62 99 181
62 99 181
62 99 181
63 99 177
63 100 181
61 99 177
62 99 179
61 98 181
61 98 175
62 99 181
62 99 181
62 99 179
60 98 175
62 99 179
61 98 179
62 99 179
61 99 179
62 99 181
62 99 181
63 100 179
62 99 179
62 99 179
62 99 179
61 99 179
61 98 179
62 99 181
61 98 177
61 99 179
61 99 181
62 99 181
62 99 177
61 98 177
63 99 179
62 99 179
61 99 179
62 99 181
62 99 181
62 99 179
62 99 179
62 99 177
62 99 177
62 99 181
61 98 175
61 98 175
62 99 177
62 99 179
62 99 177
62 99 181
62 99 175
62 99 175
61 98 169
62 99 179
62 99 177
62 99 175
62 99 175
62 99 179
62 98 169
64 100 181
62 99 171
63 100 181
62 98 173
61 99 181
62 99 177
62 98 177
60 97 169
63 99 177
62 98 170
63 100 179
63 99 175
61 98 177
62 98 174
64 100 174
62 99 179
62 98 174
62 98 170
61 97 167
67 95 149
73 82 75
85 91 68
100 104 76
95 98 73
106 110 81
85 91 70
109 112 81
128 129 90
97 103 77
108 111 78
112 115 79
120 121 86
122 123 85
120 121 85
115 117 80
111 113 68
133 132 87
129 127 82
125 125 79
125 125 84
140 139 92
129 129 83
130 131 90
130 129 84
129 130 85
128 129 89
136 136 92
136 135 87
155 151 94
144 142 92
161 157 97
162 158 97
141 139 88
151 149 99
161 157 91
160 157 101
151 148 96
147 147 96
152 147 92
165 160 100
156 153 99
158 154 90
162 158 92
164 160 100
162 157 93
164 161 102
166 162 95
159 156 101
169 164 99
166 160 93
166 162 96
159 155 96
169 163 92
172 166 96
172 166 99
169 163 97
171 166 99
171 164 92
162 158 96
165 160 93
173 167 95
171 164 104
171 164 96
171 166 95
173 166 93
163 158 91
171 164 94
172 166 101
172 165 95
175 168 95
167 161 90
172 164 97
170 165 94
168 162 90
164 157 91
171 165 94
162 158 80
168 162 94
166 161 93
170 163 88
172 165 94
165 159 87
168 161 94
159 153 79
164 160 87
171 163 91
171 163 95
163 158 82
171 163 85
171 164 91
162 157 80
171 164 88
167 160 82
166 159 88
151 146 77
162 154 85
159 153 74
161 154 75
157 151 75
167 160 88
147 141 75
155 150 75
156 150 77
142 136 68
151 145 77
157 153 75
158 150 80
159 152 74
154 149 85
145 140 64
153 148 64
146 139 70
158 150 75
144 140 68
125 119 58
154 148 74
137 132 58
142 136 64
127 122 53
122 117 39
143 150 42
175 197 0
172 195 0
169 191 0
169 189 0
172 194 0
171 193 0
173 197 0
169 193 0
174 197 0
172 196 0
177 199 0
176 199 0
173 196 0
171 195 0
169 190 0
173 195 0
172 196 0
173 197 0
173 197 0
172 196 0
172 197 0
170 194 0
175 198 0
168 191 0
172 196 0
170 194 0
172 197 0
171 195 0
173 195 0
173 196 0
172 196 0
169 194 0
176 199 0
170 194 0
175 198 0
170 194 0
173 197 0
169 193 0
173 196 0
173 196 0
173 196 0
173 197 0
174 195 0
173 196 0
174 198 0
164 188 0
173 195 0
174 197 0
173 195 0
172 195 0
172 196 0
173 197 0
175 198 0
169 191 0
172 194 0
176 198 0
172 195 0
170 194 0
171 194 0
175 198 0
169 193 0
172 194 0
171 194 0
170 194 0
166 190 0
175 198 0
170 194 0
170 193 0
173 197 0
171 194 0
174 197 0
175 198 0
174 198 0
173 197 0
169 194 0
174 197 0
173 197 0
170 193 0
172 195 0
172 196 0
175 198 0
170 194 0
175 197 0
172 196 0
173 196 0
167 191 0
173 196 0
173 196 0
169 194 0
171 195 0
173 196 0
171 193 0
172 196 0
172 195 0
172 195 0
171 195 0
173 196 0
170 195 0
168 191 0
169 192 0
171 194 0
171 194 0
168 191 0
172 196 0
168 192 0
170 192 0
170 192 0
171 196 0
170 192 0
173 196 0
166 189 0
163 187 0
172 195 0
175 198 0
172 195 0
169 194 0
172 195 0
167 189 0
171 194 0
168 192 0
173 197 0
173 196 0
165 188 0
168 192 0
173 194 0
172 197 0
169 194 0
171 194 0
167 191 0
168 191 0
171 194 0
168 190 0
133 157 114
63 100 177
62 99 169
62 98 163
63 100 181
62 98 171
62 99 173
62 99 179
62 99 173
62 100 181
61 98 169
61 98 167
62 99 179
62 99 179
61 98 171
62 99 175
61 98 167
62 99 179
62 98 171
61 98 175
62 99 179
62 99 175
61 98 175
62 99 177
62 99 181
61 98 177
62 99 179
62 99 181
62 99 177
63 100 181
62 99 173
62 99 179
62 99 179
62 99 179
62 99 179
61 98 177
62 99 179
62 99 179
61 99 181
63 100 181
62 99 181
61 98 177
62 99 179
61 99 179
62 99 181
62 99 181
61 99 179
61 99 179
61 99 181
62 99 181
62 99 179
62 99 181
62 99 181
62 99 181
61 99 179
62 99 179
63 100 181
62 99 181
62 99 181
61 99 179
62 99 181
61 99 181
62 99 179
61 99 181
62 99 181
62 99 181
61 98 179
62 99 181
62 99 179
61 99 181
62 99 181
62 99 181
62 99 181
62 99 179
63 100 181
62 99 181
62 99 181
61 99 179
62 99 179
61 98 177
62 99 179
62 99 177
62 99 181
62 100 181
62 99 181
62 99 177
61 99 177
62 99 179
61 99 181
62 99 181
62 99 181
62 99 177
62 99 181
62 99 181
62 99 181
62 99 181
62 99 181
62 99 181
62 99 177
62 99 181
62 99 181
62 99 181
61 99 181
62 99 181
62 99 177
62 99 175
62 99 179
62 99 179
61 98 177
62 99 181
61 98 173
62 99 179
62 99 177
61 98 179
62 99 181
62 99 179
62 99 181
62 99 179
62 99 175
61 98 177
62 99 173
62 99 177
63 100 179
62 99 177
62 99 177
61 98 171
62 99 179
62 99 173
63 99 175
62 98 174
61 98 175
62 99 179
62 99 179
63 99 177
62 99 177
63 99 177
62 99 179
60 97 171
62 98 172
62 98 175
63 99 179
62 99 171
63 100 177
61 97 170
62 98 174
60 96 164
60 94 160
71 89 117
70 78 60
101 104 73
97 100 73
108 110 80
105 108 76
87 91 69
102 105 75
111 114 80
116 118 81
113 115 74
117 119 78
110 114 84
115 117 81
116 119 81
116 116 79
127 126 87
116 118 81
119 120 83
135 135 92
155 153 101
127 127 83
134 134 88
119 118 80
145 143 96
142 139 90
151 148 93
127 127 79
136 136 86
145 144 92
141 140 92
154 151 90
153 150 91
155 151 92
151 148 93
145 143 91
144 143 86
157 153 88
165 159 95
155 152 97
159 155 93
153 151 92
154 151 94
157 155 93
161 157 95
168 163 96
159 154 94
158 155 90
167 161 92
170 164 96
160 157 95
165 161 99
164 159 92
165 162 97
169 164 101
169 163 97
161 156 86
170 164 97
164 160 97
169 163 99
173 166 95
177 169 105
169 164 101
172 165 95
171 165 97
175 167 98
167 164 88
168 163 97
170 163 97
172 166 94
167 162 95
179 171 106
169 161 94
169 162 94
173 166 91
167 161 94
170 163 94
167 160 95
177 170 102
170 165 90
171 164 90
162 156 87
167 162 87
158 153 85
165 158 88
172 165 91
169 161 90
154 149 85
164 159 91
169 162 88
159 152 84
162 157 82
157 152 80
155 150 82
165 158 90
155 148 77
150 146 74
159 152 84
159 152 90
161 154 88
147 143 77
157 151 80
149 144 70
145 140 70
155 149 72
132 129 51
148 142 66
151 144 70
154 147 75
150 143 77
138 132 68
159 152 77
122 118 60
134 130 58
135 130 62
138 133 58
140 133 56
146 138 70
115 111 45
119 115 45
147 159 28
171 194 0
174 196 0
170 193 0
172 194 0
171 193 0
171 193 0
173 196 0
175 198 0
171 195 0
174 197 0
174 197 0
172 196 0
172 196 0
171 195 0
174 197 0
176 199 0
174 197 0
174 197 0
172 195 0
171 195 0
173 196 0
175 198 0
171 195 0
174 198 0
173 196 0
171 194 0
174 197 0
171 194 0
174 197 0
175 197 0
173 196 0
171 195 0
175 197 0
173 196 0
173 196 0
175 197 0
175 198 0
174 198 0
171 194 0
174 198 0
172 195 0
173 196 0
175 198 0
171 195 0
174 197 0
170 194 0
173 196 0
171 195 0
176 198 0
173 195 0
174 197 0
170 195 0
175 197 0
173 197 0
171 195 0
173 195 0
170 194 0
173 196 0
174 197 0
173 196 0
173 195 0
175 198 0
169 193 0
177 198 0
173 196 0
172 195 0
170 194 0
171 195 0
168 191 0
171 194 0
168 192 0
173 196 0
172 194 0
171 194 0
171 193 0
171 195 0
172 195 0
171 194 0
172 195 0
170 195 0
167 191 0
174 198 0
173 196 0
172 195 0
173 196 0
173 197 0
169 193 0
172 195 0
175 197 0
169 189 0
170 194 0
172 195 0
174 197 0
171 193 0
171 195 0
174 196 0
172 194 0
169 192 0
170 192 0
173 196 0
175 197 0
171 195 0
172 197 0
175 198 0
170 191 0
171 194 0
171 195 0
173 196 0
168 193 0
173 197 0
172 195 0
170 193 0
175 198 0
173 196 0
172 196 0
172 197 0
173 196 0
171 193 0
172 196 0
171 195 0
172 193 0
168 191 0
174 197 0
173 195 0
170 193 0
171 194 0
173 196 0
169 192 0
172 195 0
167 189 0
173 196 0
135 159 120
62 99 167
62 99 171
62 98 169
61 98 171
63 100 175
62 98 171
62 99 175
62 99 177
62 99 177
62 99 175
62 99 179
62 99 179
63 100 181
62 99 179
62 99 177
62 99 177
61 98 175
62 99 179
61 98 169
62 99 179
62 99 181
62 99 181
61 98 179
62 100 181
62 99 179
62 99 179
63 100 181
62 99 173
62 99 179
62 99 181
62 99 181
61 99 179
61 99 181
62 99 177
62 99 181
61 99 179
62 99 181
61 99 181
61 99 179
62 99 181
62 99 181
62 99 179
63 100 181
62 99 179
62 99 181
62 99 179
62 99 181
62 99 181
62 99 181
62 99 181
62 99 179
62 99 179
62 99 181
61 99 181
62 99 179
62 99 179
62 99 177
62 99 177
63 100 181
63 99 179
61 98 181
62 99 181
62 99 179
61 98 181
62 99 181
62 99 179
62 99 179
63 100 181
62 99 181
62 99 181
62 99 181
61 98 177
62 99 181
61 99 181
62 99 179
63 100 181
62 99 181
61 98 179
61 99 181
62 99 181
63 100 181
62 100 181
62 99 179
62 99 181
62 99 181
61 98 181
62 99 181
63 100 181
63 100 181
61 98 177
61 98 177
62 99 179
62 99 179
62 99 177
63 100 181
62 99 179
63 100 179
62 99 181
61 98 177
62 99 179
62 99 173
62 99 181
61 98 181
62 99 179
62 99 179
62 99 179
62 99 177
62 99 177
63 100 181
62 99 181
62 99 179
63 100 181
61 99 181
61 98 171
63 100 179
61 98 175
63 99 177
62 99 175
63 100 179
60 97 175
62 98 175
63 99 179
63 100 181
63 100 177
62 99 179
62 99 175
62 98 176
62 98 177
61 98 175
63 100 175
63 99 173
61 98 177
62 99 171
62 99 171
61 98 173
61 99 179
62 98 172
62 99 176
62 98 170
62 98 172
62 98 174
64 100 175
61 98 175
62 98 175
61 96 169
62 98 172
61 96 161
60 94 160
82 94 107
85 90 65
101 103 74
78 85 65
88 93 68
85 90 66
101 103 74
91 97 72
101 104 75
116 116 77
107 110 81
119 121 86
97 101 72
130 129 87
116 118 81
126 125 86
125 127 86
133 133 87
128 128 87
124 125 82
140 139 87
134 133 80
127 127 85
131 131 83
144 143 90
123 124 83
132 132 89
136 137 89
142 140 92
140 139 84
137 136 88
152 148 92
146 145 98
151 148 86
150 146 93
143 142 89
149 146 90
165 161 95
152 149 93
164 159 101
169 164 99
161 156 96
159 156 95
159 155 91
167 162 98
159 155 99
164 159 95
166 161 96
160 155 90
168 162 93
167 163 92
170 164 101
170 165 103
163 158 94
171 166 95
162 158 90
170 165 97
164 160 99
164 159 93
168 164 97
176 169 101
169 164 95
171 165 94
174 166 103
175 168 101
176 169 97
173 165 98
174 168 100
166 160 97
166 160 95
170 163 91
168 162 91
167 161 94
167 161 93
165 159 91
172 166 95
165 160 88
171 164 93
172 165 97
166 162 87
168 162 94
172 164 94
162 156 85
170 164 91
164 158 88
165 160 87
165 159 84
171 165 88
156 149 79
170 162 88
159 151 88
164 157 90
161 154 80
167 160 91
168 162 88
157 150 82
159 151 79
157 151 80
167 161 91
157 152 79
156 151 72
161 155 79
147 140 75
162 154 84
151 145 75
158 151 74
157 151 72
148 141 75
144 138 66
146 141 70
143 137 72
136 131 66
142 137 60
132 125 56
122 116 60
151 145 70
133 126 64
131 126 56
137 132 51
151 166 22
174 197 0
171 193 0
173 196 0
171 193 0
173 194 0
172 194 0
170 194 0
169 193 0
172 197 0
172 195 0
175 197 0
173 197 0
172 196 0
173 197 0
173 196 0
173 197 0
169 193 0
168 193 0
172 195 0
176 198 0
173 197 0
174 198 0
173 196 0
172 196 0
174 198 0
173 197 0
173 196 0
172 194 0
171 193 0
173 196 0
174 195 0
171 194 0
173 196 0
172 197 0
174 197 0
170 194 0
171 195 0
170 194 0
170 196 0
170 194 0
173 195 0
171 194 0
176 198 0
173 196 0
171 193 0
176 198 0
175 198 0
170 193 0
172 195 0
172 195 0
175 198 0
174 197 0
174 198 0
176 199 0
170 194 0
174 197 0
168 194 0
174 197 0
174 198 0
175 197 0
172 195 0
173 195 0
172 195 0
171 195 0
175 198 0
170 193 0
171 194 0
171 196 0
172 196 0
169 194 0
173 197 0
173 196 0
176 199 0
168 193 0
167 190 0
169 192 0
172 196 0
175 198 0
172 197 0
173 197 0
169 193 0
173 196 0
172 195 0
172 196 0
166 189 0
170 193 0
173 196 0
171 195 0
172 195 0
172 195 0
162 184 0
167 192 0
169 194 0
167 191 0
168 192 0
175 198 0
173 197 0
167 190 0
168 192 0
172 195 0
173 195 0
170 193 0
170 194 0
171 194 0
173 196 0
169 192 0
168 192 0
174 198 0
162 184 0
173 197 0
171 194 0
169 190 0
170 193 0
172 194 0
169 192 0
173 195 0
169 192 0
170 193 0
169 192 0
168 192 0
173 196 0
175 198 0
168 192 0
171 194 0
177 199 0
170 193 0
171 194 0
170 192 0
171 193 0
170 195 0
156 180 57
68 102 165
60 97 167
62 99 171
62 99 173
63 100 179
60 96 165
61 98 165
62 99 175
62 99 177
63 99 175
62 99 175
63 99 173
61 98 177
62 99 179
62 99 179
62 99 171
62 99 175
61 98 173
62 99 177
62 99 179
62 99 173
62 99 179
61 98 175
62 99 179
62 99 181
62 99 179
62 99 181
62 99 181
62 99 181
63 99 177
61 98 177
62 99 181
62 99 181
63 100 177
62 99 179
62 99 177
62 99 175
62 99 179
62 99 181
62 99 177
62 99 179
62 99 181
63 100 181
62 99 179
61 99 179
62 99 177
62 99 181
61 98 179
62 99 179
61 99 181
61 99 181
62 99 181
63 100 181
62 99 179
62 99 181
62 99 181
61 98 181
62 99 179
62 99 179
62 99 181
62 99 181
61 99 181
62 99 179
61 98 181
62 99 181
60 98 179
62 99 181
62 99 177
62 99 179
61 99 179
62 99 181
61 99 181
63 100 181
62 99 181
62 99 181
62 99 181
61 98 179
62 99 181
62 99 181
61 99 179
62 99 175
62 99 179
62 99 179
61 99 177
63 100 181
61 99 181
61 98 177
62 99 179
62 99 181
62 99 179
62 99 181
62 99 181
61 99 179
62 99 181
62 99 179
63 99 179
62 99 181
63 100 181
62 99 181
62 99 179
62 99 179
62 99 181
61 99 181
62 99 177
62 99 179
62 99 177
62 99 179
62 99 175
62 99 179
61 98 173
62 99 177
61 98 171
62 99 179
62 99 181
61 98 177
62 99 181
62 99 173
62 99 179
62 99 179
62 99 179
61 98 177
61 98 169
62 99 179
63 100 179
62 99 173
62 99 177
61 98 171
62 99 177
62 99 177
61 98 172
63 99 177
63 99 179
62 98 169
62 98 173
63 99 173
62 99 179
62 99 175
62 99 175
62 99 177
63 99 174
62 99 181
62 98 172
61 97 166
63 99 175
62 99 172
61 97 170
63 99 177
61 97 167
60 96 168
68 98 157
76 83 70
94 99 71
84 91 71
92 96 71
104 107 73
93 97 69
109 111 77
120 121 86
107 108 75
114 115 78
127 127 82
120 121 84
132 131 88
115 117 80
117 119 79
119 121 84
122 123 81
115 118 77
123 123 81
133 133 90
123 124 80
142 140 86
134 132 85
140 141 93
129 129 85
145 143 90
147 144 94
133 133 87
141 139 93
148 146 95
156 151 93
156 153 96
142 141 85
146 145 92
151 148 93
153 150 88
153 149 95
151 148 88
152 150 92
157 153 91
159 155 94
167 163 94
163 158 91
168 162 91
165 161 100
165 162 94
169 163 99
168 163 97
164 160 101
171 165 95
157 152 88
167 163 93
168 163 89
168 162 90
165 160 91
170 164 97
168 163 94
168 162 97
169 163 95
171 165 99
170 165 99
168 163 93
167 162 94
175 167 98
157 152 84
168 162 93
172 166 97
167 161 93
172 166 94
170 162 91
162 157 80
168 163 84
170 163 94
169 163 90
164 158 87
169 163 85
171 163 87
167 160 88
163 156 90
169 162 85
167 160 90
164 158 88
172 165 93
157 151 75
156 151 84
164 159 87
167 161 97
166 160 82
168 162 88
157 151 80
155 149 77
164 159 82
157 151 88
157 151 85
163 156 80
162 155 74
145 141 75
155 149 74
156 150 75
160 156 77
153 146 82
161 155 79
147 142 74
152 145 70
145 139 77
141 136 70
141 135 66
154 148 82
130 125 56
150 144 70
152 146 75
129 126 58
143 137 58
139 133 56
138 133 56
140 133 70
120 115 45
123 118 56
165 182 28
168 192 0
173 196 0
175 198 0
172 193 0
172 193 0
173 197 0
172 195 0
169 193 0
174 198 0
176 198 0
175 198 0
170 192 0
173 196 0
173 197 0
174 198 0
171 194 0
171 195 0
172 195 0
169 193 0
170 195 0
172 195 0
174 198 0
174 198 0
172 195 0
173 197 0
168 193 0
173 196 0
173 196 0
174 197 0
175 198 0
175 197 0
172 195 0
176 198 0
173 195 0
175 198 0
174 197 0
173 196 0
166 190 0
174 195 0
175 198 0
171 195 0
173 196 0
172 195 0
169 192 0
171 194 0
167 191 0
170 194 0
174 197 0
171 194 0
173 197 0
172 195 0
176 199 0
174 198 0
170 193 0
173 197 0
171 194 0
170 195 0
171 194 0
169 192 0
171 195 0
171 195 0
171 194 0
169 193 0
169 194 0
173 196 0
174 197 0
172 195 0
171 195 0
166 189 0
172 195 0
170 194 0
172 196 0
174 196 0
173 196 0
176 199 0
170 193 0
169 192 0
172 194 0
171 195 0
173 196 0
173 196 0
169 192 0
165 188 0
172 196 0
167 190 0
169 192 0
171 195 0
168 190 0
169 191 0
172 196 0
172 196 0
173 196 0
169 192 0
172 195 0
171 195 0
169 192 0
176 197 0
168 191 0
169 191 0
170 193 0
171 195 0
169 193 0
167 191 0
169 192 0
168 192 0
171 195 0
166 190 0
172 196 0
172 195 0
171 193 0
170 194 0
175 198 0
168 192 0
170 193 0
171 193 0
166 190 0
171 195 0
171 194 0
171 194 0
173 196 0
170 194 0
173 196 0
170 195 0
171 193 0
172 197 0
170 192 0
173 197 0
170 193 0
171 194 0
168 191 0
98 127 155
61 98 171
62 98 169
63 100 179
62 99 175
62 99 165
61 97 170
63 99 175
63 99 177
61 98 169
61 98 167
62 99 173
61 98 175
62 99 177
62 99 177
62 99 177
62 99 179
63 99 175
61 98 175
62 99 177
61 98 175
63 99 173
61 98 177
62 98 171
62 99 181
63 99 177
62 99 179
62 99 181
62 99 179
63 100 181
61 98 173
62 99 179
62 99 181
63 99 177
63 100 181
62 99 179
62 99 179
61 98 179
62 99 179
63 100 181
62 99 179
62 99 179
61 98 175
62 99 181
63 100 181
62 99 181
62 99 181
61 98 177
62 99 181
61 98 181
62 99 181
61 98 179
62 99 179
62 99 181
61 98 177
62 99 177
62 99 181
62 99 177
63 100 181
62 99 179
62 99 181
62 99 181
63 100 181
62 99 179
62 99 177
61 99 181
62 99 179
61 99 181
61 98 181
62 99 179
61 98 177
61 99 181
62 99 181
62 99 177
62 99 179
61 99 181
62 99 179
63 100 179
61 98 179
62 99 179
62 99 181
62 99 179
62 99 179
61 98 177
61 98 177
61 98 175
62 99 179
62 99 181
62 99 179
62 99 177
62 99 179
62 99 179
62 99 181
62 99 179
61 99 181
63 100 181
63 100 181
62 99 177
62 99 179
61 98 175
62 99 177
62 99 181
61 98 179
62 99 179
61 98 173
62 99 179
63 99 179
63 100 181
61 98 181
61 98 177
61 98 179
62 99 177
62 99 177
62 99 179
62 99 175
62 99 179
63 100 181
62 99 179
62 99 179
62 99 177
61 98 179
62 99 179
63 99 175
61 98 173
62 98 173
62 99 177
62 99 179
62 99 175
62 99 175
63 99 179
63 99 177
62 99 175
62 99 177
61 98 171
62 99 171
62 99 179
61 97 171
63 99 175
63 100 175
63 99 175
61 97 160
62 98 172
63 99 177
61 97 170
62 98 168
62 98 169
64 100 177
63 99 177
61 96 166
62 98 168
61 96 164
70 97 150
93 98 74
93 97 70
95 99 71
81 86 61
93 98 72
108 108 74
103 105 71
108 110 75
104 107 74
102 103 73
106 109 75
110 112 80
126 127 88
127 127 85
110 111 71
127 126 77
114 117 83
122 122 84
124 124 78
132 133 90
139 137 88
141 139 88
146 144 88
140 138 85
135 136 84
150 147 91
136 135 85
140 139 91
148 146 94
150 147 93
141 141 82
152 150 95
156 153 94
156 152 93
156 153 95
140 139 92
151 147 87
151 148 86
157 152 92
157 153 89
156 152 90
162 157 93
159 155 87
160 155 93
170 164 97
158 154 95
169 164 94
163 159 88
165 161 89
168 163 100
161 155 88
161 157 91
164 158 91
173 167 103
170 164 97
166 161 99
160 157 88
170 165 103
170 164 86
171 166 95
174 167 94
169 162 84
172 165 100
168 162 97
171 164 96
173 167 97
166 162 93
175 168 99
172 167 93
166 161 85
166 160 88
173 165 93
171 165 88
175 169 101
174 167 98
165 158 93
170 163 88
168 161 91
173 166 98
159 153 82
165 159 85
159 153 80
159 154 87
164 157 82
162 157 80
163 156 87
166 160 85
165 158 84
169 162 84
170 164 90
165 157 84
161 155 80
157 151 87
154 147 79
160 153 85
153 146 74
150 144 75
157 151 77
154 148 80
141 135 70
166 158 79
166 159 80
151 146 70
145 141 66
163 156 87
147 140 70
134 128 58
149 144 75
149 144 74
151 145 74
148 142 68
141 134 72
144 137 66
139 132 62
128 123 56
127 122 51
140 134 56
166 185 16
170 193 0
170 192 0
173 194 0
167 186 0
173 195 0
175 197 0
174 197 0
171 195 0
175 197 0
173 196 0
174 198 0
170 194 0
172 196 0
173 197 0
173 196 0
173 196 0
173 197 0
170 194 0
171 195 0
172 195 0
171 195 0
173 195 0
170 193 0
173 196 0
174 197 0
171 194 0
172 196 0
173 196 0
172 195 0
167 191 0
172 195 0
172 195 0
171 195 0
172 195 0
168 190 0
170 194 0
174 197 0
171 194 0
172 196 0
170 195 0
173 196 0
173 196 0
171 195 0
174 197 0
175 198 0
172 196 0
174 197 0
172 196 0
167 190 0
172 194 0
165 189 0
171 195 0
171 195 0
173 195 0
174 198 0
168 193 0
171 194 0
172 195 0
175 198 0
173 195 0
172 195 0
171 194 0
169 192 0
170 194 0
173 197 0
171 195 0
171 194 0
172 194 0
174 197 0
170 193 0
176 199 0
172 196 0
174 197 0
175 198 0
171 194 0
172 196 0
174 197 0
172 196 0
169 192 0
172 195 0
173 195 0
168 192 0
170 192 0
174 197 0
170 194 0
168 192 0
171 194 0
168 193 0
172 195 0
167 191 0
173 196 0
172 194 0
171 194 0
168 193 0
176 198 0
172 196 0
171 195 0
167 190 0
167 191 0
167 190 0
174 197 0
173 195 0
173 197 0
172 194 0
167 189 0
170 193 0
171 194 0
173 196 0
171 193 0
174 196 0
174 197 0
169 191 0
171 194 0
169 194 0
169 191 0
172 195 0
173 196 0
171 194 0
170 194 0
174 196 0
167 191 0
168 190 0
170 193 0
169 193 0
167 192 0
169 194 0
172 196 0
172 196 0
171 194 0
132 157 114
62 99 169
62 99 173
62 99 167
62 98 165
62 99 179
62 99 173
62 99 175
63 99 177
62 99 173
62 99 175
62 98 175
62 99 175
63 99 171
62 99 173
62 99 177
63 100 181
62 99 175
62 99 177
62 99 177
63 99 173
62 99 175
61 99 179
61 98 177
63 100 177
62 99 179
62 99 177
62 99 177
62 99 179
62 99 173
62 99 179
63 100 177
61 98 177
62 99 177
63 100 181
62 99 179
61 98 175
61 98 175
62 99 181
61 98 179
61 98 179
62 99 177
61 98 179
63 99 177
62 99 181
62 99 181
62 99 177
62 99 179
62 99 179
62 99 177
62 99 181
62 99 181
61 98 179
61 98 179
63 99 175
62 98 175
63 100 179
62 99 179
62 99 179
63 100 181
62 99 181
62 99 179
63 100 181
62 99 181
62 99 179
62 99 179
62 99 177
61 99 179
63 100 181
62 99 181
62 99 181
61 99 179
63 100 181
62 99 181
62 99 179
62 99 181
62 99 179
61 98 179
62 99 181
62 99 181
63 100 181
61 99 181
62 99 179
62 99 177
62 99 179
62 99 177
62 99 181
61 98 177
62 99 181
62 99 181
61 98 177
62 99 181
62 99 181
62 99 181
62 99 181
62 99 181
62 99 177
62 99 181
62 99 175
61 98 173
61 98 179
62 99 181
62 99 175
61 99 181
63 100 181
62 100 181
61 98 175
63 99 177
61 98 173
62 99 179
62 99 179
62 99 179
62 99 179
62 99 175
61 99 179
63 100 181
62 99 177
62 99 179
62 99 181
62 99 177
63 100 181
62 99 177
61 98 173
63 100 181
62 99 177
63 99 179
63 99 179
62 99 175
61 98 177
62 99 179
61 98 177
63 100 179
62 99 174
62 99 179
62 98 172
61 98 174
61 98 175
62 98 171
62 99 177
63 99 175
62 98 173
61 98 173
61 99 177
62 98 171
62 98 165
62 98 179
61 98 177
61 97 165
61 98 169
64 100 177
61 97 165
62 98 170
62 98 170
83 100 123
70 75 56
88 92 66
99 101 68
98 102 76
103 106 78
95 97 69
98 101 69
108 110 75
105 108 78
106 107 71
102 107 74
116 118 78
120 123 86
123 125 83
114 116 77
131 132 90
128 128 82
129 129 88
134 133 86
132 132 89
124 124 82
133 133 81
133 131 80
125 125 83
141 139 86
145 144 92
149 147 93
148 145 93
153 149 90
150 147 91
154 151 91
152 149 90
143 142 93
147 146 88
150 147 85
160 157 101
158 155 88
159 154 95
162 158 91
152 150 94
164 159 96
167 162 96
165 160 94
160 156 95
167 162 101
161 158 92
160 156 95
175 168 100
160 156 89
159 154 95
164 160 90
168 162 87
164 160 80
167 162 94
175 168 99
172 166 98
169 163 89
174 167 97
172 165 95
167 162 92
165 160 87
167 161 95
170 162 91
164 160 84
170 164 94
171 164 94
167 162 90
172 165 93
177 169 103
167 162 88
168 161 94
169 162 87
168 161 93
168 161 91
174 167 101
166 160 91
164 158 87
167 160 87
170 163 90
164 158 84
177 169 101
152 146 79
171 163 91
153 147 74
157 151 74
168 162 91
166 161 85
165 159 90
166 159 87
165 159 88
162 155 84
161 156 84
158 153 82
167 159 85
162 156 82
157 150 80
162 156 79
152 149 80
163 157 87
141 137 53
148 142 75
158 152 84
146 142 77
154 147 72
146 142 64
145 141 70
141 136 56
151 145 72
147 141 60
141 135 68
142 136 70
146 138 72
128 123 56
127 122 58
123 119 42
118 118 42
171 193 0
168 188 0
168 190 0
169 191 0
167 189 0
176 198 0
173 196 0
173 196 0
174 198 0
173 196 0
173 197 0
171 195 0
175 197 0
173 196 0
171 195 0
173 196 0
173 196 0
172 196 0
175 198 0
171 195 0
172 196 0
172 194 0
170 194 0
175 198 0
177 199 0
175 197 0
172 195 0
173 195 0
174 197 0
169 193 0
176 198 0
171 195 0
170 194 0
168 193 0
172 197 0
171 195 0
174 197 0
176 197 0
173 196 0
170 194 0
176 198 0
174 197 0
172 196 0
176 198 0
173 195 0
176 198 0
175 198 0
173 197 0
169 192 0
175 197 0
175 197 0
174 196 0
175 198 0
172 195 0
175 197 0
170 193 0
172 195 0
171 194 0
171 194 0
171 194 0
174 197 0
173 196 0
172 195 0
172 195 0
169 193 0
170 193 0
174 198 0
167 190 0
175 197 0
174 197 0
172 196 0
174 198 0
167 190 0
174 197 0
171 196 0
174 197 0
168 191 0
173 196 0
172 195 0
170 194 0
171 195 0
171 195 0
173 197 0
175 198 0
168 192 0
169 192 0
167 190 0
167 190 0
169 193 0
172 195 0
174 198 0
172 196 0
170 194 0
171 195 0
170 194 0
169 193 0
174 197 0
171 194 0
171 194 0
171 195 0
173 196 0
172 196 0
173 196 0
174 196 0
171 195 0
169 192 0
172 195 0
172 197 0
171 194 0
173 195 0
168 191 0
171 194 0
172 197 0
168 191 0
166 190 0
174 197 0
174 197 0
171 195 0
168 191 0
172 195 0
170 194 0
172 196 0
167 190 0
162 186 0
174 197 0
171 194 0
162 186 0
171 195 0
170 193 0
159 181 76
62 97 165
62 99 171
61 98 167
62 98 169
63 99 167
62 98 167
62 99 177
63 99 175
63 99 173
63 99 167
63 99 169
62 99 175
62 99 175
63 100 179
62 99 177
62 99 173
63 100 175
62 99 175
62 98 171
63 99 177
62 99 175
61 98 179
62 99 175
63 99 177
63 100 179
62 99 181
62 99 177
63 99 177
62 99 181
62 99 181
63 100 179
62 99 181
63 99 175
62 99 179
62 99 179
62 99 179
62 99 177
62 99 181
62 99 179
61 98 177
62 99 179
62 99 181
62 99 179
61 98 179
62 99 181
62 99 179
61 99 177
63 100 181
63 100 179
62 99 179
62 99 179
62 99 179
61 99 179
62 99 181
63 100 181
61 98 177
61 98 181
62 99 179
62 99 181
62 99 181
62 99 177
61 98 177
62 99 179
62 99 181
62 99 181
62 99 181
61 99 179
61 98 179
62 99 177
62 99 177
62 99 181
61 98 173
61 99 179
61 99 179
62 99 179
63 100 181
62 99 181
62 99 179
61 98 177
63 100 179
62 99 179
62 99 177
61 98 181
61 98 179
62 99 181
61 98 179
63 100 181
62 99 177
62 99 179
62 99 181
62 99 181
62 99 179
62 99 181
61 99 179
63 99 179
61 99 181
61 99 181
61 99 181
61 99 181
62 99 177
62 99 181
62 99 181
62 99 179
62 99 173
62 99 179
63 100 177
63 100 179
63 100 181
62 99 179
62 99 181
61 98 175
62 98 175
62 99 175
62 99 179
63 100 177
62 99 171
62 99 177
62 99 173
62 99 179
63 100 177
62 99 179
61 99 181
61 98 175
61 98 179
63 99 179
63 100 181
62 99 171
62 99 181
62 99 177
63 99 177
62 99 173
61 97 171
62 99 177
62 99 179
62 99 171
62 99 171
62 99 175
62 99 172
62 99 173
62 98 173
62 99 174
62 99 171
62 99 175
62 98 175
63 99 174
62 99 173
62 99 177
60 95 166
61 97 164
62 98 174
61 95 163
60 96 163
61 97 168
59 94 166
79 88 88
83 88 64
76 83 64
98 102 70
119 118 78
90 95 67
98 101 75
107 109 74
98 102 71
86 88 58
88 93 58
119 119 79
123 123 83
120 121 83
104 108 74
118 120 74
122 121 79
113 113 74
131 130 85
140 139 84
121 122 80
128 128 84
128 127 83
134 132 85
136 136 90
143 141 93
142 140 92
142 139 81
156 153 93
147 144 89
152 149 91
149 146 88
146 145 93
153 150 86
151 148 97
144 143 92
163 158 92
154 150 91
152 149 86
164 158 93
144 141 84
161 157 97
162 157 98
149 146 81
162 156 87
146 144 88
165 160 89
160 156 92
162 158 87
164 160 96
160 156 95
166 161 91
170 165 97
175 168 102
167 161 99
170 164 91
168 163 93
167 162 93
168 162 95
176 168 95
168 162 88
166 161 86
171 164 87
168 162 87
164 159 84
168 162 93
170 164 90
177 169 98
172 164 91
165 158 88
169 163 85
168 162 85
170 163 93
164 158 88
168 161 91
170 162 90
167 161 90
171 163 93
162 157 87
158 150 82
160 156 85
164 159 84
166 159 85
165 160 84
173 165 85
162 155 79
166 160 88
164 158 82
162 157 74
152 147 74
162 155 79
158 151 82
159 152 79
160 156 77
150 145 74
153 146 77
162 156 79
153 146 79
152 145 70
154 148 75
161 154 74
146 140 72
140 135 60
145 140 72
145 140 64
147 139 75
159 152 72
147 141 66
142 137 60
147 142 60
141 136 60
136 130 60
136 131 58
141 135 70
118 114 51
151 159 51
167 190 0
171 191 0
169 190 0
170 193 0
174 197 0
168 188 0
172 194 0
174 198 0
173 197 0
175 197 0
173 195 0
176 198 0
170 194 0
173 196 0
173 196 0
173 197 0
174 198 0
170 193 0
169 194 0
171 195 0
173 196 0
173 196 0
173 197 0
171 194 0
171 194 0
171 196 0
172 195 0
175 197 0
175 198 0
173 196 0
172 196 0
172 195 0
169 193 0
173 196 0
175 197 0
171 195 0
174 197 0
175 197 0
173 196 0
171 196 0
172 196 0
175 198 0
176 198 0
170 194 0
178 199 0
168 192 0
166 190 0
171 194 0
170 193 0
174 197 0
173 196 0
170 193 0
169 193 0
172 195 0
173 196 0
172 196 0
174 197 0
174 198 0
167 191 0
175 196 0
175 198 0
162 186 0
170 194 0
169 193 0
173 196 0
174 198 0
172 196 0
172 196 0
173 197 0
173 197 0
172 196 0
174 197 0
172 196 0
169 192 0
172 196 0
174 198 0
169 192 0
166 191 0
168 191 0
174 197 0
173 196 0
174 197 0
171 195 0
170 194 0
168 191 0
174 197 0
170 194 0
167 190 0
175 198 0
166 191 0
166 188 0
174 198 0
169 193 0
168 191 0
175 198 0
168 193 0
172 196 0
174 196 0
170 193 0
173 196 0
172 196 0
171 194 0
168 190 0
169 192 0
173 197 0
173 196 0
169 192 0
165 188 0
167 190 0
174 197 0
169 193 0
166 190 0
167 190 0
170 195 0
171 194 0
169 191 0
170 195 0
169 192 0
171 194 0
171 195 0
167 189 0
171 194 0
176 198 0
167 190 0
161 184 0
173 195 0
169 193 0
169 192 0
166 190 0
83 115 157
63 99 171
62 98 163
61 98 171
61 98 169
62 98 169
62 99 175
61 98 173
62 98 169
61 98 171
61 98 167
63 100 177
63 100 173
63 99 173
63 100 173
62 99 175
62 99 175
62 99 181
62 99 177
62 99 179
61 98 177
62 99 175
61 98 177
61 98 171
62 99 175
62 99 177
62 99 177
61 98 175
62 99 173
62 99 177
62 99 181
62 99 181
63 100 179
62 99 179
62 99 181
62 99 181
62 99 177
62 99 177
62 99 181
62 99 177
62 99 179
62 99 179
62 100 181
62 99 179
63 100 177
62 99 177
63 99 177
62 99 181
62 99 179
62 99 181
62 99 179
63 100 181
62 99 181
62 99 177
61 99 181
62 99 179
62 99 181
62 99 177
61 98 181
62 99 175
63 99 179
62 99 181
62 99 181
62 98 173
62 99 179
62 99 179
62 99 179
62 99 181
62 99 181
62 99 181
62 99 177
61 99 179
62 99 177
61 99 181
62 99 177
62 99 179
62 99 181
62 99 179
61 99 181
62 99 181
63 100 181
62 99 179
62 99 177
62 99 179
62 99 181
62 99 179
62 99 179
62 99 181
61 98 179
63 100 181
63 100 181
62 100 181
62 99 179
62 99 177
62 99 181
62 99 177
62 99 177
62 99 181
62 99 181
62 99 179
62 99 179
62 99 179
62 99 175
62 99 177
62 99 181
61 99 179
62 99 175
61 98 171
62 99 181
61 98 177
62 99 179
62 99 179
61 98 175
62 99 169
61 99 177
62 99 179
62 99 177
63 100 177
62 99 177
62 99 179
62 99 173
63 100 179
62 99 181
63 99 179
62 99 177
62 99 177
62 99 179
62 99 173
62 98 167
61 98 171
62 99 181
62 99 177
62 98 175
62 99 175
62 98 174
64 100 179
61 98 177
62 99 167
63 99 175
62 98 167
61 98 175
61 98 175
62 99 173
62 99 171
62 98 170
61 97 171
61 97 172
62 99 175
61 97 160
62 98 166
61 97 169
62 98 166
62 97 165
63 99 172
61 96 165
63 93 153
94 97 71
80 86 64
77 82 62
96 100 68
86 90 65
107 108 73
102 106 73
114 115 76
113 115 77
100 103 75
111 113 75
123 123 86
108 112 79
127 127 84
111 114 74
115 116 69
114 117 77
135 134 88
126 126 79
142 140 87
116 116 79
130 130 82
139 138 88
141 140 85
141 139 87
134 134 86
142 141 83
146 143 89
143 141 86
158 153 89
148 146 86
156 152 93
157 152 87
156 152 88
158 154 91
149 147 88
152 149 85
161 155 88
157 153 93
148 146 79
161 156 96
164 158 82
161 156 93
160 156 85
156 152 84
166 160 93
166 160 95
164 159 94
165 160 87
163 157 93
160 156 87
177 170 103
166 161 90
165 158 93
163 158 91
166 160 90
163 158 79
171 164 96
172 165 92
168 163 88
163 158 83
173 166 95
168 162 95
165 159 84
171 165 90
171 165 91
162 158 90
174 167 93
168 162 92
168 160 90
175 167 90
166 158 87
167 161 90
162 156 90
162 155 90
172 164 91
152 146 77
156 150 80
158 153 75
169 162 90
158 153 72
162 157 85
175 166 95
164 159 80
163 156 85
165 160 80
167 160 82
161 154 84
157 150 80
163 157 87
158 152 90
158 153 79
159 154 77
152 146 70
148 141 72
148 142 66
156 150 79
149 144 72
150 145 77
153 147 74
156 150 74
147 140 68
143 137 70
151 144 74
145 139 66
142 138 64
149 143 72
137 133 51
139 135 51
150 143 64
132 127 62
134 129 64
149 142 64
134 127 64
149 157 51
170 193 0
171 192 0
168 190 0
174 198 0
174 196 0
172 194 0
175 197 0
172 196 0
174 197 0
171 194 0
172 196 0
173 196 0
170 194 0
173 196 0
176 198 0
171 194 0
169 193 0
175 198 0
172 196 0
172 196 0
168 194 0
174 196 0
174 196 0
169 194 0
174 197 0
174 198 0
172 195 0
174 198 0
170 194 0
168 191 0
174 197 0
173 196 0
173 196 0
171 195 0
175 197 0
168 193 0
176 198 0
173 197 0
173 196 0
177 199 0
171 195 0
174 197 0
172 197 0
168 192 0
173 197 0
170 193 0
175 197 0
170 193 0
172 196 0
171 193 0
172 196 0
172 195 0
169 192 0
174 197 0
176 198 0
171 195 0
172 195 0
178 200 0
172 196 0
170 193 0
175 198 0
175 197 0
173 197 0
168 192 0
172 196 0
171 195 0
171 195 0
171 195 0
173 196 0
168 192 0
169 193 0
171 196 0
171 193 0
173 197 0
170 192 0
170 193 0
168 192 0
173 197 0
171 194 0
172 195 0
175 197 0
168 190 0
171 194 0
172 194 0
167 191 0
175 198 0
173 195 0
174 197 0
173 196 0
168 191 0
167 190 0
172 195 0
168 191 0
171 195 0
175 198 0
173 196 0
171 196 0
171 193 0
166 189 0
171 193 0
166 189 0
171 195 0
170 193 0
170 192 0
164 188 0
164 187 0
171 194 0
171 195 0
170 194 0
169 193 0
170 191 0
172 195 0
173 197 0
171 193 0
172 194 0
171 195 0
171 194 0
171 193 0
167 190 0
169 193 0
167 189 0
171 196 0
169 192 0
169 191 0
169 192 0
170 193 0
172 193 0
163 186 0
118 143 137
63 99 173
62 99 171
62 99 169
62 98 169
62 98 169
62 99 169
62 99 167
62 99 177
63 99 173
62 99 177
62 99 177
62 99 175
63 99 175
62 99 171
62 99 177
62 99 173
63 99 171
61 98 173
62 99 177
62 99 177
61 98 173
62 99 181
62 99 179
62 99 175
61 98 175
64 100 179
62 99 179
62 99 181
63 100 179
62 99 179
62 99 181
62 100 181
63 100 179
63 99 175
63 100 181
61 98 175
62 99 181
62 99 179
62 99 179
61 99 179
62 99 179
62 99 177
62 99 181
63 100 179
62 99 177
62 99 181
63 100 181
62 99 179
62 99 177
62 100 181
63 100 181
62 99 181
60 98 181
63 100 181
62 99 179
62 99 179
63 100 179
62 99 179
62 99 177
62 99 179
62 99 179
62 99 179
62 99 175
62 99 179
62 99 179
62 99 179
63 100 181
62 99 177
63 100 181
62 99 179
62 99 177
62 99 179
62 99 181
62 100 181
63 100 181
63 100 181
61 98 175
62 99 181
62 99 181
61 98 179
62 99 177
62 99 179
62 99 177
61 98 181
62 99 179
62 99 179
63 99 179
62 99 181
62 99 181
62 99 173
62 99 181
61 99 179
62 99 177
62 99 181
61 99 177
63 99 179
62 99 179
61 98 179
61 98 173
61 99 181
62 98 171
62 99 181
62 99 179
63 100 179
62 99 179
61 98 177
62 99 181
62 99 175
62 99 179
61 99 181
63 100 181
62 99 179
62 99 181
62 99 181
62 99 175
61 98 179
63 100 179
63 100 181
62 99 179
63 99 177
61 99 181
63 100 179
62 99 173
61 98 171
63 99 177
61 98 175
63 99 179
62 99 177
63 100 179
63 99 175
61 98 171
63 99 175
62 98 175
63 99 175
62 98 173
63 100 177
62 99 179
62 99 175
63 100 181
61 98 175
62 99 177
61 97 161
63 99 173
62 98 171
63 99 172
62 99 173
60 96 162
62 98 170
63 99 177
62 98 166
60 94 159
60 96 168
63 98 169
61 97 162
63 98 172
61 96 165
71 91 124
81 87 63
84 90 69
70 79 63
98 101 72
86 89 64
107 111 78
96 100 70
99 101 68
97 99 68
95 98 69
110 112 76
117 116 77
108 111 72
106 109 72
117 118 75
132 131 83
113 116 73
122 124 77
139 137 83
131 129 85
129 128 81
140 139 88
142 141 85
150 146 90
138 137 81
145 142 81
152 148 96
151 147 91
138 136 86
150 147 88
138 137 77
148 145 86
147 144 89
136 135 77
157 153 90
155 151 89
157 153 85
147 144 81
165 159 93
160 155 90
154 151 87
159 156 89
161 155 88
160 154 90
162 157 88
168 162 93
160 156 95
162 157 90
162 158 94
157 153 85
168 161 90
163 158 85
160 155 77
161 156 87
172 163 95
168 162 97
169 162 90
168 162 87
167 162 95
171 163 90
172 165 94
168 162 88
176 167 101
172 165 91
167 161 84
170 161 84
168 162 93
160 155 82
170 162 82
163 158 87
172 165 87
167 160 85
170 162 95
167 161 90
170 163 91
157 152 80
164 157 85
162 155 84
167 160 80
169 161 95
170 163 88
174 166 88
164 157 84
160 153 80
159 153 72
157 151 77
162 156 82
149 142 80
170 162 87
164 158 80
160 153 88
149 144 66
158 151 75
151 146 66
149 144 74
162 156 77
150 143 72
149 143 66
136 131 66
151 146 68
151 144 66
156 150 77
148 142 62
142 136 56
152 145 74
150 144 68
140 135 53
142 137 60
118 113 53
143 137 60
129 125 48
127 123 60
125 120 48
158 176 16
169 191 0
173 195 0
170 194 0
172 195 0
171 195 0
173 196 0
172 194 0
173 196 0
174 197 0
179 200 0
172 197 0
171 195 0
171 194 0
173 196 0
172 195 0
171 194 0
173 196 0
171 195 0
175 198 0
170 194 0
168 192 0
175 198 0
171 193 0
172 195 0
176 199 0
173 196 0
171 194 0
173 195 0
170 194 0
173 196 0
174 198 0
174 197 0
170 194 0
170 193 0
172 195 0
172 194 0
173 197 0
174 197 0
173 196 0
173 196 0
171 193 0
175 197 0
170 194 0
171 195 0
173 196 0
172 196 0
173 197 0
168 191 0
171 196 0
173 197 0
170 193 0
173 195 0
169 192 0
172 197 0
172 193 0
166 189 0
171 194 0
170 193 0
172 196 0
168 191 0
173 195 0
174 197 0
173 196 0
175 198 0
173 196 0
167 191 0
171 195 0
171 194 0
168 191 0
174 197 0
176 198 0
172 195 0
170 194 0
171 196 0
173 196 0
167 191 0
172 197 0
173 195 0
170 194 0
173 196 0
167 190 0
171 195 0
172 194 0
169 193 0
170 194 0
172 195 0
172 195 0
172 196 0
168 191 0
167 190 0
169 192 0
168 193 0
169 192 0
175 198 0
173 196 0
166 189 0
170 194 0
171 192 0
171 193 0
166 189 0
174 197 0
168 189 0
171 195 0
168 193 0
169 193 0
170 193 0
166 187 0
166 189 0
172 195 0
172 195 0
171 195 0
170 194 0
172 195 0
169 193 0
168 191 0
170 193 0
172 196 0
170 194 0
166 190 0
170 192 0
171 196 0
165 188 0
174 198 0
169 193 0
167 191 0
168 191 0
170 194 0
162 185 44
81 113 159
62 99 169
62 99 173
61 98 169
62 98 172
62 99 171
63 99 177
62 99 177
62 98 167
63 99 173
61 98 171
62 99 175
63 99 177
62 99 173
63 100 179
62 98 169
62 99 175
62 99 179
62 99 177
62 99 181
62 99 177
62 99 181
62 99 173
62 98 169
63 100 177
61 98 173
62 99 179
62 99 175
62 99 179
63 100 179
62 99 173
61 98 177
61 99 179
62 99 179
63 99 179
61 98 181
62 99 179
61 98 173
62 99 173
61 98 177
62 99 177
62 99 177
62 99 177
62 100 181
63 100 181
61 99 179
63 100 181
62 99 181
62 99 177
62 99 181
62 99 181
62 99 181
62 99 181
63 100 179
62 98 179
63 100 179
62 100 181
62 99 181
63 100 181
62 98 173
62 99 175
62 99 179
61 99 181
62 99 181
62 99 181
63 100 181
62 99 177
62 99 179
62 99 177
61 99 179
62 99 179
62 99 177
61 99 179
62 99 173
62 99 181
61 98 177
62 99 179
61 99 181
63 100 179
62 99 179
62 99 181
62 99 181
62 99 177
61 98 181
62 99 181
63 100 181
61 98 175
61 98 175
62 99 175
62 99 179
61 98 175
62 99 181
63 100 181
62 99 179
62 99 179
62 99 177
62 99 179
61 98 179
62 99 179
63 99 177
61 98 175
62 99 179
62 99 179
61 98 179
61 99 179
63 100 181
61 98 175
62 99 181
62 99 179
62 99 177
61 98 173
61 98 177
61 98 175
63 100 181
62 99 177
61 98 175
62 99 179
63 100 181
62 99 175
63 99 177
63 100 181
62 99 181
62 99 173
62 99 177
62 99 181
62 99 177
61 98 171
62 99 179
64 100 175
62 99 177
62 99 179
62 99 173
62 99 171
62 99 173
64 100 177
61 98 177
61 98 175
62 99 175
62 99 173
62 99 179
61 98 174
60 98 175
63 99 173
62 99 179
61 97 171
61 98 175
62 99 175
62 98 170
62 99 173
62 98 173
61 97 168
62 97 166
60 96 166
61 96 160
62 97 167
60 95 157
60 95 159
63 96 159
87 97 105
89 93 69
101 102 65
91 95 65
86 90 65
102 105 71
98 101 70
104 107 74
114 115 74
110 112 73
124 124 78
118 120 79
112 114 74
117 118 77
109 110 71
120 122 79
127 126 82
112 112 77
119 120 82
136 136 79
128 128 80
133 133 80
127 127 82
146 144 91
139 137 87
146 145 93
134 132 76
130 131 86
150 146 86
137 136 81
147 145 91
149 144 82
143 141 82
155 151 93
168 161 100
151 148 86
153 150 84
151 149 90
152 148 82
156 152 88
162 158 92
157 153 89
159 156 89
161 156 93
169 163 90
167 160 91
163 158 91
168 162 84
162 158 83
164 158 93
154 150 82
169 162 96
174 167 95
161 156 87
163 158 87
170 164 95
167 160 93
163 158 88
173 166 93
159 152 81
166 160 87
168 162 89
161 156 82
164 159 85
168 161 93
170 163 84
164 157 91
166 160 90
171 163 88
171 164 93
156 151 82
164 158 87
176 166 91
169 162 88
157 152 74
163 157 82
167 161 85
165 158 87
162 157 75
168 162 93
165 158 87
171 163 87
163 156 85
155 150 74
155 149 75
156 151 77
151 145 74
160 154 77
161 154 80
151 146 70
160 155 79
154 148 80
151 144 74
152 146 72
153 147 74
157 149 77
150 142 70
141 134 66
146 141 60
145 139 56
158 151 75
154 147 72
146 140 70
146 140 72
144 138 64
154 146 75
148 141 64
149 142 72
157 148 72
117 115 45
126 122 42
137 131 60
142 136 62
166 186 0
170 194 0
171 193 0
171 192 0
171 192 0
169 190 0
172 192 0
174 196 0
173 197 0
173 196 0
169 194 0
171 194 0
176 198 0
170 193 0
172 195 0
173 196 0
172 196 0
177 199 0
172 196 0
174 198 0
169 194 0
171 195 0
171 194 0
172 196 0
167 191 0
175 198 0
174 198 0
172 195 0
170 195 0
173 196 0
172 196 0
173 197 0
173 197 0
169 191 0
174 196 0
171 195 0
174 198 0
173 197 0
174 198 0
174 197 0
175 198 0
171 193 0
172 196 0
174 198 0
174 198 0
174 196 0
170 193 0
173 197 0
169 192 0
173 195 0
171 195 0
171 194 0
170 195 0
170 194 0
168 192 0
171 192 0
170 193 0
172 196 0
171 194 0
173 196 0
170 195 0
169 193 0
170 193 0
171 195 0
171 194 0
173 197 0
171 195 0
173 197 0
174 197 0
172 194 0
169 191 0
170 194 0
171 195 0
174 197 0
173 196 0
169 192 0
172 195 0
169 194 0
167 191 0
172 194 0
175 198 0
171 195 0
174 197 0
170 194 0
168 192 0
172 196 0
173 197 0
172 196 0
172 195 0
175 196 0
170 193 0
171 194 0
170 192 0
171 195 0
168 190 0
173 196 0
166 190 0
170 194 0
171 194 0
174 197 0
172 195 0
170 192 0
170 194 0
168 191 0
171 194 0
173 194 0
171 195 0
170 194 0
169 192 0
170 193 0
168 191 0
170 193 0
173 194 0
169 193 0
165 189 0
162 185 0
169 191 0
169 193 0
170 193 0
169 193 0
171 193 0
169 193 0
172 196 0
172 196 0
167 191 0
171 193 0
169 192 0
173 195 0
109 136 133
61 98 163
61 98 165
63 99 169
61 98 165
63 99 173
61 98 175
62 99 173
63 100 177
62 98 173
62 99 173
61 98 175
63 99 173
62 99 173
61 98 169
63 100 181
62 99 173
63 99 173
62 99 177
64 100 177
62 99 175
63 99 175
61 98 175
62 99 181
62 99 177
63 100 179
61 99 177
62 99 175
63 100 179
61 98 169
61 98 181
62 99 179
62 98 169
62 99 179
61 98 177
62 99 175
62 99 175
62 99 181
62 99 179
62 99 179
63 100 181
62 99 181
62 99 181
61 98 181
62 99 179
62 99 177
63 100 181
62 99 177
62 99 179
61 99 179
62 99 181
62 99 179
62 99 179
62 99 181
62 99 179
61 99 179
62 99 179
61 99 181
61 99 177
62 99 177
62 99 181
62 99 179
62 99 181
61 98 179
62 99 181
61 98 179
62 99 177
62 99 179
62 99 179
61 99 181
62 99 177
62 99 179
62 99 179
61 99 181
62 99 181
62 99 175
62 99 181
62 99 179
62 99 179
61 99 181
62 99 181
62 99 181
62 99 179
61 98 175
61 98 179
62 99 179
62 99 181
62 99 179
62 99 179
63 100 177
62 99 181
63 100 181
62 99 181
61 99 179
62 99 177
62 99 179
61 98 179
62 99 181
62 99 181
61 98 173
62 99 177
63 100 179
63 100 181
61 99 179
63 99 179
60 98 175
62 99 175
62 99 181
62 99 179
62 99 175
61 98 177
61 99 179
61 99 177
62 99 181
63 99 175
63 100 181
62 99 177
62 99 179
62 99 173
62 99 175
62 99 181
62 99 171
62 99 175
61 98 179
61 98 171
63 100 181
62 99 177
62 98 167
63 99 177
63 99 177
62 99 175
63 99 179
62 99 177
61 98 177
63 100 179
62 99 179
63 100 177
61 98 173
62 99 181
63 100 177
62 99 171
62 99 177
61 98 166
63 100 177
61 98 175
62 98 173
63 100 179
60 97 165
62 98 170
62 99 175
63 99 170
61 97 168
63 99 175
63 99 169
62 98 167
62 97 165
63 99 172
58 92 150
61 96 160
54 82 128
81 85 57
93 96 66
84 89 64
110 111 70
94 97 65
93 96 68
104 105 68
98 103 71
104 106 64
114 116 77
116 116 75
120 121 82
118 118 78
108 110 66
131 130 79
120 120 80
121 122 76
96 100 66
134 133 81
131 130 75
118 119 78
132 131 76
134 132 83
145 143 91
143 140 81
145 142 90
134 133 77
146 142 86
147 144 90
145 143 93
147 143 87
147 144 86
154 150 93
147 144 87
152 148 89
142 141 86
165 160 97
158 154 92
160 155 90
154 150 78
164 159 88
167 162 92
160 155 82
165 160 95
165 159 95
168 163 93
167 162 87
162 157 95
167 161 90
170 164 97
169 162 97
170 163 93
158 154 80
168 161 87
169 164 90
170 164 88
166 159 89
169 162 86
166 160 90
166 159 88
170 164 93
168 162 90
170 164 95
165 159 84
169 162 87
165 158 89
166 159 88
165 160 84
172 165 90
173 166 93
166 160 80
162 156 80
164 157 87
162 156 82
166 159 84
167 162 84
159 153 79
160 155 80
168 159 87
167 159 87
165 158 85
155 151 70
159 151 79
163 157 84
167 159 84
155 150 70
152 147 79
153 149 75
152 146 72
147 141 72
154 147 79
160 155 74
166 158 90
149 144 74
152 145 74
160 153 80
160 153 79
151 146 68
158 151 80
142 137 68
144 138 64
142 135 62
142 137 58
153 146 70
122 118 53
141 136 60
143 136 70
134 128 62
132 127 53
146 139 64
114 110 45
125 125 48
173 194 0
173 194 0
169 191 0
174 196 0
172 195 0
172 192 0
171 194 0
174 195 0
174 198 0
174 197 0
174 198 0
170 194 0
170 193 0
174 197 0
170 195 0
173 197 0
171 194 0
169 193 0
173 197 0
173 195 0
173 196 0
173 197 0
170 194 0
173 195 0
170 194 0
172 195 0
171 195 0
173 197 0
172 195 0
173 196 0
173 197 0
169 192 0
174 198 0
173 196 0
171 193 0
173 197 0
175 197 0
174 197 0
172 195 0
173 196 0
172 197 0
173 196 0
171 194 0
172 196 0
168 192 0
173 196 0
170 194 0
173 196 0
172 194 0
175 198 0
174 196 0
173 196 0
175 197 0
169 192 0
170 194 0
171 194 0
173 197 0
167 192 0
170 194 0
175 198 0
172 195 0
172 196 0
173 197 0
170 193 0
169 193 0
170 195 0
174 197 0
173 197 0
172 196 0
170 192 0
170 194 0
175 197 0
172 196 0
175 197 0
170 194 0
172 195 0
173 197 0
174 196 0
171 194 0
174 196 0
172 195 0
174 197 0
173 195 0
173 196 0
171 193 0
169 192 0
171 194 0
172 195 0
171 195 0
173 196 0
174 198 0
166 189 0
168 192 0
160 183 0
170 194 0
173 196 0
175 198 0
170 194 0
174 197 0
173 197 0
165 189 0
168 192 0
168 192 0
165 189 0
171 195 0
174 197 0
172 194 0
174 196 0
171 194 0
173 197 0
171 194 0
169 192 0
172 195 0
172 195 0
174 198 0
165 186 0
174 197 0
172 196 0
172 196 0
169 190 0
169 191 0
170 191 0
169 192 0
170 193 0
172 195 0
171 193 0
167 190 0
149 173 88
61 98 165
62 98 163
63 99 171
60 97 159
62 98 169
63 99 179
63 99 171
62 99 171
61 98 165
61 98 173
62 98 169
63 99 177
62 99 175
63 100 177
62 99 177
62 99 179
62 99 171
62 99 177
61 98 171
62 99 179
62 99 175
62 99 179
63 100 175
62 99 175
63 100 177
63 100 181
63 99 177
63 100 181
61 98 171
61 98 177
62 99 175
62 99 177
61 98 173
61 98 177
63 99 179
62 99 179
63 100 181
62 99 181
63 100 181
62 99 181
62 99 181
62 99 181
62 99 177
62 99 179
61 98 179
62 99 179
63 100 181
61 98 177
62 99 179
62 99 181
61 98 177
62 99 181
62 99 181
62 99 181
62 99 179
62 99 179
62 99 177
62 99 181
62 99 179
61 98 175
63 99 179
62 98 175
62 99 179
62 99 181
61 99 179
62 99 175
63 100 181
61 98 177
63 100 181
62 99 181
61 98 177
61 98 179
61 99 179
62 99 181
62 99 181
62 99 179
62 99 181
62 99 181
62 99 181
62 99 181
62 99 175
62 99 181
62 99 179
62 99 179
63 100 179
61 98 175
61 99 179
63 100 177
62 99 179
62 99 179
62 99 179
62 99 179
62 99 179
62 99 179
62 99 181
62 99 181
62 99 175
62 99 177
61 99 179
63 100 179
62 99 175
62 99 179
61 98 175
61 99 181
62 99 181
63 100 181
62 99 179
62 99 177
62 99 175
63 99 179
62 99 177
62 99 181
62 99 181
62 99 179
62 99 177
62 99 179
62 99 177
63 99 175
62 99 181
62 99 179
62 98 173
61 98 177
62 99 171
63 100 181
62 99 175
61 98 173
63 99 171
62 99 179
62 99 179
62 99 177
62 99 177
62 99 173
63 100 181
61 98 167
62 99 175
62 99 177
62 99 179
62 99 175
62 99 177
62 99 175
62 99 175
60 97 162
61 98 169
61 97 167
62 99 177
61 97 165
62 98 172
63 100 179
63 100 179
62 99 170
61 97 169
62 99 169
61 98 172
61 97 168
64 100 175
63 99 174
62 99 171
61 96 162
63 99 174
62 97 169
70 81 80
85 88 54
79 84 57
70 76 57
93 94 60
89 93 58
106 108 71
106 108 68
95 100 61
88 94 67
111 112 78
108 109 69
107 108 63
118 118 79
127 125 80
128 128 82
124 124 74
145 141 82
135 134 82
119 120 73
125 125 63
132 131 77
145 142 78
132 131 77
147 145 87
141 139 80
149 147 88
136 135 73
146 143 90
149 146 88
145 142 81
155 151 92
148 145 86
168 161 89
152 148 85
144 141 72
149 146 88
162 157 86
166 160 96
167 160 83
155 150 88
159 154 86
151 146 81
165 159 85
159 154 87
149 147 80
163 157 91
163 158 88
162 157 86
164 158 89
164 159 85
165 160 84
165 160 81
170 163 85
170 164 94
163 156 85
164 159 85
167 161 87
166 160 91
169 163 93
167 161 87
161 157 86
168 161 90
165 159 91
174 165 95
161 155 84
154 149 75
158 152 80
170 162 84
161 154 74
169 162 85
170 161 87
168 161 87
165 159 85
167 160 79
160 153 79
161 155 77
160 154 75
161 155 85
163 156 77
166 159 84
157 152 72
154 148 72
152 148 70
163 156 79
169 162 85
152 147 75
164 157 79
162 156 79
156 150 82
159 154 74
164 158 84
159 152 74
151 144 72
152 147 75
151 145 75
143 137 68
150 142 72
144 139 66
148 143 60
156 150 60
133 128 58
142 137 60
155 149 66
127 121 58
129 124 56
131 126 48
140 135 62
126 121 53
142 136 56
123 118 51
149 157 39
174 195 0
170 190 0
175 197 0
174 195 0
172 196 0
173 196 0
169 190 0
169 189 0
168 193 0
171 194 0
173 196 0
171 195 0
175 198 0
171 195 0
172 196 0
171 192 0
172 196 0
169 194 0
174 197 0
173 196 0
175 198 0
174 198 0
173 197 0
172 196 0
173 196 0
173 197 0
170 195 0
174 197 0
174 198 0
175 198 0
168 191 0
173 195 0
174 197 0
171 195 0
171 195 0
174 198 0
173 196 0
171 194 0
173 197 0
173 197 0
174 197 0
174 198 0
171 196 0
175 198 0
170 195 0
171 196 0
171 195 0
169 192 0
172 196 0
171 195 0
173 196 0
176 198 0
169 193 0
171 194 0
172 195 0
172 195 0
170 194 0
172 195 0
170 194 0
171 195 0
174 197 0
172 196 0
175 198 0
174 198 0
170 194 0
172 196 0
173 196 0
169 193 0
172 195 0
170 194 0
176 198 0
167 192 0
165 189 0
170 193 0
169 191 0
173 196 0
169 192 0
170 194 0
172 195 0
175 198 0
173 196 0
174 197 0
170 194 0
169 191 0
173 196 0
169 192 0
174 198 0
174 197 0
172 195 0
172 194 0
174 197 0
174 198 0
172 195 0
168 192 0
170 192 0
172 195 0
170 194 0
174 196 0
173 196 0
165 188 0
172 197 0
169 191 0
173 196 0
171 194 0
167 192 0
173 197 0
174 197 0
169 193 0
167 190 0
171 194 0
172 197 0
171 194 0
166 188 0
168 192 0
172 195 0
169 192 0
167 189 0
172 195 0
166 190 0
169 192 0
171 194 0
170 194 0
168 193 0
168 192 0
172 194 0
175 198 0
169 191 36
84 115 163
62 98 161
63 99 163
62 99 175
61 98 165
62 99 169
62 98 163
62 99 171
62 99 171
61 98 169
62 99 169
61 98 173
61 98 167
62 99 169
63 100 179
62 99 169
62 98 173
62 99 177
63 99 177
62 99 175
61 98 174
62 99 177
63 99 177
63 100 179
63 100 177
62 99 177
62 99 175
61 98 169
61 99 181
63 100 179
62 99 177
62 99 175
61 98 175
61 99 181
63 99 175
62 99 177
62 99 177
62 99 173
61 99 181
63 99 175
62 99 179
62 99 179
62 99 181
62 99 181
62 99 181
62 99 179
62 99 179
61 99 179
63 100 181
63 100 179
62 99 177
61 98 179
63 100 181
62 99 177
63 100 181
62 99 181
62 99 177
61 99 179
62 99 181
63 100 181
62 99 179
63 100 179
62 99 177
61 98 175
62 99 181
62 99 179
60 98 179
63 100 179
61 98 177
62 99 177
62 99 177
62 99 181
62 99 177
62 99 181
62 99 179
62 99 179
62 99 181
61 99 179
62 99 177
62 99 177
62 99 173
62 99 177
62 99 179
61 98 175
62 99 179
62 99 179
62 99 181
62 99 177
61 99 181
62 99 171
62 99 181
62 99 179
63 100 181
62 99 179
62 99 179
63 99 177
60 97 171
62 99 173
62 99 175
61 98 171
62 99 179
62 99 173
62 99 181
62 99 177
62 99 179
62 99 181
61 98 175
62 99 179
61 98 175
61 98 179
63 100 177
61 98 171
62 99 179
62 99 177
62 98 173
61 99 181
61 98 177
62 99 181
63 100 179
62 99 177
62 99 177
63 99 173
62 99 179
62 99 177
63 100 181
62 99 181
61 99 177
62 99 177
62 99 173
62 99 177
62 99 175
61 98 173
62 99 177
62 99 173
61 98 175
62 99 177
62 99 175
62 99 173
60 97 169
61 98 169
62 98 169
61 98 170
62 99 175
62 99 171
61 98 171
62 99 177
61 98 173
61 98 165
63 99 179
62 98 161
62 98 171
60 96 162
62 98 172
63 99 170
63 99 174
62 98 172
62 98 168
61 96 166
62 98 167
60 95 160
63 98 164
63 96 162
75 81 63
81 86 62
93 98 68
83 88 59
106 107 66
96 98 64
109 110 76
100 104 64
109 111 67
112 116 73
110 111 75
100 104 72
109 111 69
125 124 69
126 126 81
137 135 83
129 129 80
123 124 74
132 132 81
127 127 78
136 135 81
130 128 71
138 135 77
149 146 88
145 142 86
134 134 83
138 137 86
144 140 87
142 139 84
142 139 85
152 149 88
158 153 81
152 148 86
149 145 78
162 156 91
159 154 87
164 158 87
159 154 88
166 160 96
167 162 93
166 160 89
165 160 87
166 160 93
166 160 92
163 157 81
158 153 81
168 162 94
164 158 87
158 154 88
165 159 90
163 158 86
159 154 85
169 161 90
163 157 81
172 165 95
169 164 93
162 157 79
171 164 87
163 156 84
168 162 91
165 158 84
164 159 85
169 162 91
169 162 90
168 161 87
167 160 84
167 159 90
169 162 90
167 161 93
167 162 88
168 162 87
167 159 84
162 155 82
156 150 74
158 152 82
170 163 91
164 158 85
167 160 82
157 152 72
162 157 79
156 150 74
161 154 82
161 155 80
156 151 72
158 151 80
158 152 82
152 146 80
156 150 79
151 146 72
160 154 87
163 156 82
153 146 68
157 150 75
157 151 82
167 160 82
147 141 64
159 152 75
146 142 66
156 149 79
124 119 42
157 149 70
141 137 60
149 143 68
127 124 45
150 142 66
135 128 53
140 135 56
129 123 53
125 120 56
119 115 48
158 176 28
168 191 0
168 190 0
171 193 0
171 194 0
169 191 0
171 194 0
173 196 0
170 192 0
175 198 0
175 197 0
173 197 0
173 196 0
171 196 0
175 197 0
173 196 0
175 198 0
174 197 0
170 193 0
173 196 0
172 195 0
171 194 0
174 198 0
168 192 0
172 196 0
173 196 0
168 192 0
176 198 0
169 193 0
175 198 0
174 197 0
174 198 0
172 196 0
174 198 0
172 196 0
170 192 0
171 196 0
170 194 0
170 191 0
173 196 0
174 195 0
173 197 0
174 197 0
175 198 0
172 195 0
175 198 0
172 195 0
171 194 0
174 197 0
172 196 0
175 198 0
172 195 0
172 196 0
173 196 0
170 193 0
171 195 0
174 197 0
167 191 0
173 195 0
172 195 0
174 197 0
172 196 0
172 197 0
174 197 0
173 196 0
175 198 0
168 192 0
168 192 0
172 195 0
169 192 0
168 191 0
170 193 0
172 195 0
174 197 0
170 194 0
170 194 0
173 196 0
173 197 0
165 187 0
171 195 0
171 194 0
168 192 0
173 197 0
172 196 0
172 196 0
171 195 0
173 196 0
172 197 0
173 196 0
175 198 0
173 196 0
172 195 0
170 193 0
175 198 0
172 194 0
170 194 0
170 194 0
172 195 0
172 195 0
170 193 0
169 192 0
166 191 0
172 196 0
172 196 0
170 193 0
175 197 0
172 195 0
169 192 0
173 197 0
171 193 0
172 194 0
167 192 0
173 197 0
168 191 0
170 194 0
170 193 0
165 187 0
174 197 0
168 191 0
167 190 0
169 192 0
171 195 0
172 195 0
171 194 0
170 191 0
169 192 0
175 196 0
137 162 105
63 100 173
60 96 157
62 98 171
62 98 165
62 98 173
62 98 167
63 99 173
61 97 169
62 98 171
63 99 169
62 99 173
62 99 173
62 98 171
62 99 171
62 98 169
62 98 171
62 99 181
62 99 175
62 99 173
62 99 173
63 99 177
62 99 171
62 99 175
62 99 177
62 98 171
61 98 173
62 99 179
61 99 179
63 100 179
62 99 173
63 100 179
63 100 181
62 99 181
62 99 175
62 99 177
62 99 179
63 100 179
62 99 181
62 99 177
62 99 177
61 98 179
62 99 181
62 99 179
63 99 179
62 99 179
62 99 181
62 99 175
62 99 181
63 100 181
61 98 177
62 99 179
62 99 177
62 99 181
62 99 177
63 100 179
62 99 177
61 99 179
61 98 175
63 100 179
62 99 179
62 99 179
62 99 181
61 98 177
63 100 179
63 100 179
62 99 181
62 99 179
61 98 177
63 99 179
62 99 177
62 99 181
61 98 171
62 99 177
62 99 179
63 100 181
63 99 179
62 99 181
62 99 179
62 99 179
62 99 179
61 98 177
62 99 177
62 99 179
62 99 177
62 99 175
62 99 181
62 99 177
63 100 181
63 100 181
61 98 177
63 99 173
62 99 181
62 99 175
61 99 177
62 99 179
62 99 179
62 99 177
63 100 179
61 98 177
62 99 181
61 98 175
62 99 177
62 99 179
61 98 177
62 99 179
64 100 181
62 99 177
63 100 181
62 99 179
63 100 181
62 99 177
62 99 177
62 99 179
62 99 177
62 99 177
63 100 177
62 99 179
62 99 177
62 99 179
62 98 173
63 100 181
62 99 177
63 100 179
62 99 175
62 99 179
62 98 173
63 100 179
62 99 177
62 99 177
62 99 179
62 99 173
62 99 175
62 98 169
63 100 177
61 98 175
64 100 179
63 99 175
62 99 175
62 99 177
61 98 172
62 99 177
62 99 177
62 99 173
61 98 165
61 98 168
61 97 167
62 99 175
62 98 173
62 99 172
62 99 177
62 97 159
63 99 173
62 99 175
62 98 170
63 99 174
62 99 174
61 97 170
62 98 168
63 99 169
60 96 164
62 99 169
62 97 170
67 86 119
77 85 64
91 94 60
85 90 69
87 92 63
110 109 69
106 107 71
105 106 65
105 106 67
104 107 61
107 109 70
108 110 75
92 97 69
125 125 75
120 122 77
137 136 87
140 137 80
140 138 83
135 135 85
131 129 79
140 139 81
137 134 79
122 120 67
137 135 74
131 129 73
136 133 80
138 136 66
153 148 85
149 147 86
153 149 82
143 142 84
144 142 84
153 151 82
158 154 88
140 137 70
148 145 79
150 147 84
156 151 88
151 147 79
158 153 85
156 151 89
158 154 91
154 151 77
161 157 88
154 150 86
162 158 89
152 147 78
163 157 84
164 158 89
168 162 94
158 153 84
160 156 81
162 156 88
172 165 95
163 158 88
160 154 85
175 167 90
161 156 80
158 152 75
167 160 91
167 160 84
171 163 91
158 152 80
167 162 84
159 153 82
162 155 75
163 157 84
168 161 90
169 164 88
165 159 80
159 152 77
156 150 75
169 163 84
156 150 79
168 161 77
159 153 79
162 155 79
160 154 77
163 156 77
159 152 80
156 151 75
162 155 79
164 157 85
162 156 79
154 148 74
164 156 74
164 158 80
155 148 77
152 146 74
163 156 82
145 139 62
150 145 66
147 141 74
157 151 72
154 149 70
140 135 64
145 139 62
140 135 64
160 153 79
125 120 48
149 143 68
138 131 68
145 140 64
129 124 58
159 151 82
139 133 53
139 134 56
123 117 51
120 116 39
130 125 56
169 190 0
176 198 0
171 191 0
171 194 0
172 194 0
170 193 0
172 193 0
171 193 0
173 194 0
171 193 0
172 195 0
171 195 0
176 198 0
172 195 0
175 198 0
170 195 0
175 197 0
172 196 0
175 197 0
171 195 0
172 196 0
175 198 0
176 198 0
170 194 0
173 196 0
171 195 0
170 194 0
173 196 0
171 193 0
173 196 0
173 197 0
174 198 0
171 194 0
172 197 0
174 198 0
171 194 0
172 196 0
169 193 0
172 196 0
172 195 0
176 199 0
173 196 0
174 197 0
173 197 0
173 196 0
174 198 0
171 195 0
173 195 0
171 195 0
169 194 0
173 196 0
170 194 0
173 197 0
170 194 0
174 196 0
169 192 0
173 196 0
169 193 0
171 194 0
171 194 0
170 192 0
168 191 0
173 197 0
173 196 0
174 197 0
174 197 0
170 194 0
171 194 0
173 197 0
169 193 0
173 196 0
168 192 0
174 197 0
173 197 0
171 195 0
170 193 0
171 194 0
169 193 0
170 194 0
175 198 0
167 191 0
172 195 0
172 195 0
175 198 0
171 194 0
172 196 0
175 198 0
169 191 0
170 194 0
172 196 0
172 196 0
169 193 0
173 196 0
169 192 0
170 195 0
170 193 0
173 197 0
172 196 0
172 196 0
171 194 0
173 197 0
169 193 0
172 196 0
170 193 0
172 195 0
171 195 0
171 194 0
172 196 0
173 196 0
174 197 0
170 194 0
173 195 0
170 194 0
167 190 0
172 196 0
171 195 0
169 193 0
170 194 0
172 193 0
170 193 0
169 190 0
166 189 0
170 194 0
170 193 0
171 195 0
163 186 0
163 187 57
71 106 175
62 98 165
63 99 173
61 97 163
62 99 179
62 98 167
63 99 169
62 99 171
63 100 173
60 97 173
62 99 171
61 98 165
62 99 171
63 100 175
62 98 165
62 99 177
63 99 173
62 99 171
62 99 177
62 99 177
62 99 173
62 99 179
62 99 179
62 99 175
62 99 175
62 98 169
63 99 175
63 100 177
62 99 175
62 99 175
62 99 173
62 99 177
62 99 177
62 99 179
61 98 173
62 99 177
61 98 175
62 99 173
63 99 177
61 99 179
63 100 181
62 99 181
63 100 179
61 98 175
61 99 177
63 100 181
63 100 177
63 100 181
62 99 181
61 99 179
63 100 181
63 100 181
62 99 179
62 99 179
62 99 179
62 99 177
63 100 181
62 99 179
61 98 179
62 99 179
62 99 177
62 99 181
63 99 179
61 98 171
62 99 175
63 100 181
61 98 181
62 99 181
62 99 179
63 100 181
62 99 179
61 98 177
62 99 179
63 100 179
62 99 181
62 99 181
62 99 179
62 98 175
62 99 179
62 99 179
62 99 177
62 98 173
61 98 177
62 99 179
62 99 175
62 99 181
62 99 181
62 99 179
62 99 177
61 98 169
62 99 175
62 99 179
62 99 177
62 99 177
61 98 177
61 99 181
62 99 175
62 99 181
62 99 179
63 100 181
62 99 177
63 100 181
62 99 179
62 99 179
62 99 179
61 98 179
62 99 175
61 99 181
61 98 173
62 99 181
62 99 177
62 99 175
62 98 169
62 99 177
62 99 173
62 99 179
62 99 167
61 99 177
62 99 175
60 97 171
62 99 179
62 99 177
62 99 171
62 99 177
63 100 179
62 99 171
62 99 173
62 99 179
61 99 181
63 100 179
61 98 177
63 100 179
62 99 179
62 99 175
61 97 171
61 98 177
62 98 167
62 98 174
63 99 175
61 98 170
62 98 177
62 98 173
62 98 172
63 100 179
63 100 173
63 100 175
61 98 168
62 99 171
61 98 169
62 99 177
62 98 166
61 98 166
61 98 173
63 99 171
63 99 175
62 99 173
60 95 162
62 98 166
62 98 166
61 98 168
61 97 163
61 96 167
62 98 174
60 94 165
72 79 76
82 86 58
85 89 65
85 90 58
95 98 64
93 95 58
93 97 61
103 104 68
96 98 61
115 117 74
126 126 80
110 111 64
116 116 66
117 117 72
112 115 72
121 120 73
140 137 82
135 132 76
113 115 77
122 122 77
130 130 83
122 121 72
146 143 85
135 133 78
134 132 77
138 135 83
149 146 88
144 141 83
135 133 79
140 138 82
139 137 81
159 155 93
162 156 82
153 149 83
164 158 87
156 152 83
166 160 84
159 155 91
159 154 90
148 145 75
158 153 77
154 150 84
157 152 84
166 159 86
171 164 93
167 162 90
165 159 93
159 154 81
165 160 87
165 159 85
168 162 93
166 158 85
159 152 81
166 161 87
167 162 87
164 157 85
164 157 82
167 162 80
151 146 77
167 160 77
168 161 88
163 157 91
159 152 80
172 166 91
167 162 79
171 163 85
166 159 90
160 154 80
163 157 80
156 151 79
159 155 82
167 160 93
152 145 75
158 151 79
161 154 75
160 154 75
163 156 85
164 158 72
165 158 80
158 152 75
168 161 75
153 147 70
168 161 80
156 151 70
164 156 85
163 156 80
151 145 68
154 147 72
158 153 75
158 150 77
139 132 62
150 143 72
146 142 62
153 147 66
150 144 60
156 149 72
164 157 77
154 148 58
136 130 60
129 124 51
143 137 48
146 139 72
138 132 58
140 135 51
152 143 72
145 139 68
133 127 48
131 127 45
135 137 48
173 191 0
174 193 0
172 194 0
171 193 0
171 192 0
168 189 0
170 193 0
172 195 0
171 194 0
169 192 0
175 198 0
168 191 0
175 198 0
169 192 0
173 197 0
173 197 0
171 195 0
172 196 0
173 196 0
166 189 0
171 195 0
172 195 0
172 195 0
173 197 0
172 196 0
175 197 0
173 196 0
175 198 0
177 198 0
173 197 0
173 195 0
170 194 0
172 195 0
173 196 0
172 195 0
168 192 0
175 197 0
173 196 0
172 196 0
172 195 0
173 197 0
171 195 0
174 196 0
175 198 0
174 198 0
170 194 0
172 193 0
173 195 0
171 195 0
170 192 0
172 195 0
173 196 0
173 196 0
169 192 0
170 194 0
174 197 0
172 195 0
170 194 0
173 197 0
171 193 0
171 194 0
174 196 0
171 193 0
170 193 0
168 190 0
169 192 0
172 196 0
170 192 0
170 194 0
174 196 0
170 195 0
169 193 0
162 186 0
169 192 0
173 196 0
173 196 0
169 192 0
175 198 0
173 195 0
172 195 0
169 193 0
167 192 0
172 196 0
173 196 0
172 197 0
166 191 0
164 187 0
170 192 0
169 192 0
170 195 0
174 196 0
173 195 0
166 190 0
173 197 0
167 191 0
167 190 0
172 196 0
171 194 0
173 196 0
166 189 0
170 193 0
172 196 0
170 195 0
173 196 0
171 195 0
170 194 0
170 193 0
170 193 0
163 188 0
171 195 0
168 189 0
167 189 0
170 194 0
166 189 0
168 191 0
166 190 0
172 195 0
173 196 0
166 190 0
167 191 0
173 195 0
167 191 0
165 188 0
166 189 0
167 192 0
167 189 0
124 150 114
62 99 171
62 98 167
61 97 165
61 98 169
62 98 167
62 98 167
62 99 169
63 99 167
62 99 175
61 98 165
63 99 167
61 98 169
62 99 173
62 99 173
62 99 169
62 99 173
62 99 171
61 98 173
63 99 173
62 99 179
61 98 175
62 99 173
62 99 175
63 99 173
62 99 177
62 99 177
63 99 177
62 99 175
62 99 181
63 100 177
62 99 173
63 100 179
62 99 179
62 99 179
62 99 177
62 99 179
64 100 181
61 98 180
63 100 179
63 100 181
63 100 179
61 98 177
62 99 175
61 98 171
63 99 177
62 99 179
63 99 177
63 100 181
62 99 179
62 99 177
62 99 179
61 99 177
63 100 181
62 99 181
62 99 175
62 99 177
62 99 175
62 99 181
62 99 175
62 99 181
63 100 181
63 100 177
62 99 177
62 99 177
62 99 179
62 99 179
61 98 175
62 99 177
63 100 179
62 99 181
63 99 179
62 99 177
62 99 181
61 98 177
62 99 179
62 99 179
62 99 179
62 99 181
62 99 181
63 99 175
63 100 181
62 99 181
63 100 179
61 98 175
62 99 181
62 99 177
62 99 177
61 99 177
62 100 181
62 99 181
62 99 179
62 99 179
61 98 173
62 99 175
61 98 179
62 99 179
63 99 175
62 99 179
63 99 179
62 99 175
61 99 177
62 99 177
62 99 181
61 98 173
61 98 177
62 99 179
63 100 177
62 99 181
62 99 175
62 99 181
62 99 179
62 99 173
62 99 177
63 100 175
61 99 177
61 98 177
62 99 175
62 99 179
62 99 175
61 99 179
62 99 177
61 98 167
62 99 179
63 100 175
61 99 179
62 99 177
62 99 175
63 99 171
63 99 179
63 100 179
62 99 175
62 99 175
62 98 173
62 99 179
62 99 175
61 98 169
62 99 171
61 98 173
63 99 173
62 98 169
62 99 175
61 98 171
62 99 179
62 98 173
63 100 177
62 99 165
62 99 175
61 98 171
63 99 175
62 98 173
62 98 165
63 99 173
62 98 168
63 99 175
62 98 170
61 97 170
61 97 168
63 99 164
62 98 167
62 98 168
61 96 161
63 98 168
61 95 161
59 92 146
64 85 121
85 89 61
76 80 56
93 95 61
91 93 58
84 87 61
88 92 53
120 121 69
106 107 60
113 115 72
102 103 67
123 123 80
107 109 65
108 109 68
114 113 72
127 125 77
129 128 78
124 123 70
126 125 82
130 129 71
127 127 77
130 130 81
123 122 73
132 133 78
138 135 75
140 138 80
144 142 72
146 141 81
137 136 80
149 145 81
138 135 72
150 147 87
156 151 86
155 151 84
141 138 70
157 152 90
159 154 87
151 148 75
166 161 90
150 146 81
157 152 81
161 156 88
155 151 82
159 153 85
160 154 86
166 160 85
165 159 85
163 159 89
164 157 79
165 160 93
165 160 91
169 162 91
171 164 94
171 164 87
166 160 90
162 156 84
163 156 78
163 157 84
164 158 82
161 156 83
167 159 86
168 161 87
176 168 93
163 157 84
176 167 90
164 159 79
168 160 80
170 162 90
158 152 77
162 156 74
160 153 82
163 157 82
164 157 75
160 154 66
168 160 79
162 156 68
162 156 82
154 148 74
166 159 82
161 154 75
150 144 68
153 147 79
158 149 79
159 154 72
161 154 68
160 153 82
154 148 68
162 155 75
159 152 72
146 141 62
158 152 74
143 139 56
142 137 66
154 147 75
151 146 58
150 144 66
155 149 77
152 143 70
150 144 68
158 151 72
141 134 68
156 149 66
125 119 48
148 141 64
140 134 60
127 122 39
139 133 60
107 103 36
158 167 36
171 194 0
172 193 0
172 194 0
169 191 0
174 196 0
173 194 0
166 187 0
172 194 0
171 195 0
175 198 0
173 197 0
171 194 0
172 195 0
170 194 0
173 196 0
168 192 0
172 196 0
170 193 0
172 197 0
172 196 0
172 197 0
167 191 0
172 195 0
169 193 0
173 197 0
172 195 0
174 198 0
172 196 0
174 197 0
171 194 0
169 192 0
176 199 0
170 194 0
170 193 0
173 196 0
171 194 0
174 197 0
170 195 0
170 193 0
176 198 0
174 196 0
171 194 0
171 194 0
172 195 0
175 198 0
172 196 0
167 190 0
170 193 0
174 197 0
172 195 0
172 197 0
175 198 0
174 196 0
175 198 0
173 197 0
169 193 0
173 195 0
170 192 0
170 194 0
176 198 0
171 194 0
176 198 0
174 197 0
172 196 0
172 195 0
171 195 0
173 197 0
169 193 0
168 192 0
172 196 0
174 197 0
171 194 0
171 194 0
171 194 0
166 190 0
173 196 0
169 193 0
168 189 0
171 195 0
168 192 0
168 192 0
168 191 0
172 194 0
167 189 0
170 192 0
173 195 0
168 192 0
172 194 0
174 196 0
169 193 0
168 191 0
168 191 0
172 195 0
172 194 0
165 187 0
171 193 0
170 194 0
170 193 0
171 194 0
169 193 0
171 194 0
170 193 0
170 193 0
175 198 0
169 193 0
168 192 0
169 192 0
172 193 0
172 194 0
172 194 0
173 196 0
172 194 0
171 194 0
171 194 0
171 194 0
169 193 0
169 192 0
172 194 0
170 192 0
169 194 0
167 192 0
171 194 0
168 192 0
169 193 0
173 196 0
172 194 36
66 101 155
61 97 167
62 99 167
62 98 161
60 96 159
62 99 171
62 98 167
62 99 171
62 99 173
63 100 177
62 99 169
61 97 169
62 99 169
63 99 169
62 99 175
62 99 169
63 99 169
63 99 177
62 99 175
62 99 179
61 98 173
63 99 173
62 99 175
62 99 179
62 99 177
62 99 179
63 100 177
63 100 177
62 99 179
62 99 175
62 99 173
62 99 175
62 99 173
62 98 175
62 99 179
61 98 177
61 98 177
62 99 181
61 98 177
62 99 177
62 99 181
62 99 177
62 99 179
62 99 179
62 99 181
62 99 177
61 98 177
62 99 179
63 99 177
61 98 175
62 99 177
62 99 179
63 100 179
63 99 179
63 100 181
62 99 177
62 99 177
62 99 181
63 99 179
62 99 177
62 99 175
62 99 181
62 99 179
62 99 179
62 99 179
62 99 179
62 99 181
62 99 177
62 99 175
62 99 175
62 99 179
62 99 181
62 99 179
62 99 177
62 99 181
63 100 175
62 99 179
61 99 179
62 99 175
62 99 175
61 98 173
62 99 177
62 99 173
62 99 177
62 99 179
63 100 179
62 99 179
63 99 177
61 99 177
61 99 179
62 99 179
63 99 177
62 99 177
62 99 181
61 99 179
62 99 181
62 99 175
61 99 177
63 100 179
63 100 179
62 99 179
62 99 179
62 99 179
63 99 179
63 100 179
62 99 177
61 98 175
63 99 179
62 99 177
62 99 175
62 99 177
63 100 177
61 99 179
61 98 177
63 99 175
62 99 175
62 99 179
62 99 179
63 100 175
61 98 175
61 98 171
61 98 167
62 99 173
61 98 177
61 99 179
62 98 171
61 98 173
62 99 175
62 99 177
64 101 181
62 99 173
62 99 173
62 99 175
62 99 173
62 98 167
63 99 169
62 99 177
61 97 169
63 99 175
62 99 175
61 97 169
62 99 179
61 98 175
62 99 177
61 98 173
62 98 169
62 98 167
62 99 169
62 99 170
62 98 172
62 98 170
61 97 166
62 98 169
62 99 167
62 98 169
62 98 168
62 98 167
62 99 173
60 96 170
61 96 160
62 98 172
61 97 161
62 98 161
61 96 163
63 99 172
59 93 152
76 84 67
85 89 61
72 79 54
84 90 65
93 96 55
101 102 67
101 103 67
115 116 71
107 108 70
110 110 67
107 108 63
109 110 58
105 107 66
117 116 65
125 125 72
113 114 57
120 121 73
124 122 68
131 130 74
139 136 82
142 138 81
145 140 80
154 151 87
137 135 77
130 129 74
152 148 90
140 135 71
138 136 71
153 148 82
132 130 72
153 149 88
156 152 84
160 155 86
155 151 77
151 148 84
143 142 82
151 147 84
157 153 84
165 160 87
154 150 80
156 151 85
159 154 75
166 158 84
158 153 79
149 146 77
156 152 80
164 158 83
159 153 85
160 154 81
166 161 84
156 151 80
165 159 81
169 163 91
162 157 87
160 154 77
166 159 87
166 160 85
157 151 75
161 154 84
171 163 93
159 154 79
158 152 82
161 156 79
165 160 82
163 157 72
152 147 72
160 154 70
169 163 93
154 150 60
166 160 84
165 159 75
157 151 77
165 158 79
160 154 77
164 157 82
162 155 80
155 151 68
150 145 72
150 143 64
166 159 84
164 157 77
158 153 68
158 151 70
152 146 66
159 154 74
154 148 75
155 148 68
146 141 66
140 134 70
141 136 60
145 139 62
157 151 62
143 138 53
152 147 74
146 140 70
152 144 64
140 133 60
138 133 62
129 125 56
135 130 53
141 136 58
139 134 64
131 126 56
126 121 53
126 122 45
121 117 42
132 128 51
167 183 22
170 191 0
171 194 0
166 185 0
173 196 0
172 193 0
169 190 0
167 187 0
173 193 0
167 187 0
171 195 0
172 196 0
172 196 0
174 197 0
173 197 0
174 197 0
171 195 0
176 199 0
172 196 0
170 194 0
171 194 0
177 198 0
170 195 0
173 196 0
172 195 0
169 194 0
175 198 0
168 192 0
172 195 0
173 196 0
172 196 0
173 197 0
173 196 0
173 197 0
171 194 0
172 194 0
175 198 0
172 195 0
172 195 0
172 195 0
175 198 0
170 193 0
170 194 0
171 195 0
170 195 0
174 198 0
171 195 0
172 196 0
171 194 0
171 194 0
171 194 0
174 198 0
172 197 0
173 196 0
172 195 0
169 193 0
172 195 0
166 191 0
174 197 0
172 195 0
172 196 0
173 195 0
171 194 0
172 196 0
171 195 0
174 197 0
172 196 0
173 196 0
171 193 0
175 198 0
175 198 0
171 194 0
171 194 0
169 192 0
173 196 0
172 195 0
170 192 0
171 194 0
168 190 0
173 197 0
172 196 0
171 193 0
170 193 0
170 194 0
174 198 0
171 194 0
173 196 0
170 195 0
171 194 0
170 194 0
172 196 0
176 198 0
173 196 0
170 192 0
168 190 0
169 192 0
169 192 0
171 194 0
173 196 0
170 192 0
173 195 0
168 191 0
173 197 0
169 193 0
168 191 0
173 196 0
170 192 0
167 190 0
172 195 0
168 191 0
169 191 0
170 193 0
172 195 0
171 193 0
168 191 0
174 198 0
167 190 0
169 193 0
168 192 0
168 192 0
169 192 0
171 194 0
173 197 0
167 189 0
167 191 0
163 185 0
115 142 135
62 97 161
62 98 159
60 97 161
61 98 169
62 98 165
63 99 169
63 99 171
62 98 163
62 99 167
61 98 169
63 99 167
61 98 175
61 97 159
62 99 179
62 99 179
62 99 175
62 99 175
62 99 175
62 99 177
63 100 175
63 100 175
62 99 173
62 98 175
62 99 175
63 100 181
62 98 171
62 99 177
62 99 177
61 98 177
62 99 175
62 98 173
63 99 177
62 99 175
62 99 173
62 99 179
62 99 173
62 99 179
63 99 179
64 100 179
62 99 177
63 99 177
62 99 177
61 98 175
62 99 177
62 99 179
63 100 181
62 99 177
62 99 181
62 99 173
64 100 179
62 99 179
63 100 181
63 100 181
62 100 181
62 99 177
62 99 181
62 99 179
61 98 177
62 99 179
62 99 177
62 99 181
62 99 179
62 99 179
63 99 179
63 99 175
62 99 181
61 99 181
63 99 177
62 99 181
62 99 175
62 99 175
62 99 177
62 99 179
62 99 175
62 99 179
62 98 171
62 99 177
62 99 177
61 98 173
62 99 175
62 99 175
62 99 177
62 99 177
62 99 175
62 99 179
62 99 177
63 100 181
61 98 171
62 99 179
63 100 179
62 99 175
62 99 179
62 99 179
62 99 175
61 98 175
61 99 179
62 99 181
62 99 177
62 99 177
64 100 179
62 99 179
63 100 179
62 98 171
62 99 177
63 99 179
61 98 173
62 99 179
63 100 181
63 99 175
62 99 177
63 99 177
61 98 171
62 99 177
63 99 173
62 98 171
60 96 167
63 100 177
63 100 181
62 99 173
63 100 181
62 99 179
63 100 179
61 98 169
61 98 175
63 100 179
62 98 171
62 98 171
61 97 169
61 98 171
62 99 175
62 99 177
62 99 181
62 99 175
61 98 169
64 100 177
62 98 169
62 99 175
63 100 177
63 99 171
62 98 175
62 99 177
62 98 169
61 98 173
63 99 171
62 98 168
62 98 173
61 97 168
62 99 171
62 99 171
62 98 171
62 98 171
61 98 169
63 99 175
60 96 153
61 98 169
62 98 162
62 99 171
62 99 169
62 98 174
61 97 171
64 100 171
61 97 170
63 99 174
61 97 166
61 96 169
59 93 163
70 91 122
77 83 56
82 86 54
94 96 57
100 102 68
99 102 62
90 94 60
92 98 60
88 92 57
106 108 63
108 109 69
124 123 66
111 113 69
110 112 63
118 118 69
115 116 72
121 122 72
127 126 76
127 127 77
144 141 81
138 135 79
139 137 79
119 119 74
134 132 72
147 143 91
127 126 71
138 136 67
143 142 73
149 146 71
145 142 76
144 142 81
160 155 81
153 150 80
149 146 82
133 131 66
156 151 74
152 148 76
147 144 86
160 154 86
155 152 86
161 155 84
157 152 81
166 159 88
166 160 90
159 154 87
158 153 80
156 150 80
168 159 82
156 151 75
166 160 84
157 153 75
160 155 74
164 159 84
170 163 91
170 163 85
167 160 80
163 158 79
170 164 92
170 162 87
165 159 81
159 153 80
164 159 78
162 157 81
163 155 77
170 163 85
166 160 79
160 157 72
167 159 87
168 160 84
161 156 84
159 152 72
159 154 75
154 149 68
161 154 75
159 152 82
160 153 84
165 158 80
152 146 68
156 149 75
162 155 72
151 146 66
156 149 68
163 157 80
150 143 74
147 142 60
154 149 66
147 141 64
149 142 64
149 143 70
157 150 72
146 141 72
149 144 58
149 141 66
148 142 66
147 140 70
153 146 70
147 141 70
135 130 56
145 140 62
128 125 58
143 138 56
134 130 51
141 135 58
135 129 48
116 112 42
128 123 45
144 142 56
168 187 0
171 191 0
168 188 0
167 187 0
169 189 0
168 186 0
170 191 0
171 194 0
169 192 0
170 190 0
173 196 0
174 197 0
171 195 0
172 196 0
169 193 0
175 198 0
172 195 0
172 194 0
172 195 0
172 196 0
175 198 0
173 196 0
173 197 0
176 198 0
174 196 0
174 196 0
171 194 0
171 196 0
170 194 0
174 197 0
175 198 0
172 196 0
174 197 0
172 195 0
172 196 0
170 195 0
171 194 0
172 195 0
172 194 0
172 195 0
173 196 0
174 197 0
174 198 0
173 197 0
172 196 0
172 196 0
169 194 0
172 196 0
170 194 0
173 196 0
174 198 0
173 196 0
171 195 0
172 195 0
169 192 0
169 193 0
174 198 0
176 199 0
170 193 0
166 189 0
170 194 0
172 195 0
174 197 0
172 194 0
173 197 0
167 190 0
174 197 0
172 195 0
170 193 0
169 193 0
172 196 0
169 193 0
169 192 0
168 191 0
172 196 0
174 197 0
169 193 0
173 197 0
172 195 0
177 199 0
169 193 0
170 193 0
169 193 0
171 195 0
174 198 0
172 195 0
173 196 0
171 195 0
172 196 0
172 195 0
169 192 0
173 196 0
167 190 0
169 193 0
171 196 0
176 198 0
171 196 0
169 191 0
166 189 0
169 192 0
172 195 0
172 195 0
174 196 0
169 193 0
168 191 0
173 196 0
171 195 0
168 193 0
170 194 0
166 190 0
174 196 0
171 195 0
171 193 0
171 193 0
168 191 0
170 193 0
171 195 0
171 194 0
169 191 0
170 193 0
168 189 0
170 194 0
169 193 0
163 184 0
169 192 0
164 186 0
77 110 167
62 99 169
61 98 165
63 100 173
62 99 173
61 97 161
62 98 169
62 99 177
61 98 169
61 98 163
62 98 169
63 100 177
62 98 163
64 100 175
61 98 167
61 98 163
63 99 177
62 99 177
63 99 169
61 97 164
63 100 177
62 99 173
62 99 173
62 99 177
62 99 171
62 99 177
62 99 171
62 99 179
62 99 177
61 99 177
62 99 175
61 98 175
62 99 175
62 99 177
62 99 177
62 99 171
62 99 179
62 99 177
62 99 177
62 99 179
62 99 179
62 99 179
62 99 179
62 99 175
63 100 181
62 99 177
63 100 181
62 99 173
63 99 175
62 99 177
63 100 179
62 99 177
63 99 175
63 100 181
62 99 177
62 99 181
62 99 181
61 98 181
62 99 177
62 99 179
62 99 179
62 98 175
62 99 179
62 99 175
62 99 179
62 99 175
62 99 177
62 99 181
62 99 179
63 100 181
61 98 177
62 99 181
62 99 171
62 99 177
62 99 179
61 98 177
62 99 173
62 99 179
62 99 177
62 99 175
63 100 179
63 99 179
61 98 173
62 99 177
62 99 179
62 99 177
64 100 181
63 100 177
63 100 181
62 99 179
62 99 179
62 99 177
61 98 173
62 99 177
61 98 177
62 99 179
63 100 179
63 100 179
62 99 175
62 99 179
62 99 179
62 99 173
61 98 173
62 99 179
63 99 177
62 99 177
63 100 181
61 98 175
63 99 175
63 100 175
62 99 179
62 98 169
61 98 177
61 98 173
62 99 177
61 98 169
63 100 179
62 99 175
62 99 175
62 99 175
62 98 175
63 99 177
63 100 175
62 99 177
62 99 175
62 99 175
62 99 175
62 99 179
61 98 175
62 99 175
61 98 177
62 99 177
63 99 171
62 99 173
60 97 167
61 98 167
61 98 167
60 97 161
62 99 175
62 98 171
62 99 179
62 99 173
63 100 179
62 98 173
62 99 173
61 98 173
63 99 177
63 99 173
60 97 169
63 99 171
62 99 177
61 98 169
63 99 167
61 97 159
62 98 169
61 97 162
63 99 171
62 98 167
60 95 159
62 98 172
61 97 166
61 97 164
63 99 173
61 97 164
61 95 157
62 97 170
61 96 156
62 97 159
83 88 52
85 88 53
63 71 55
86 89 57
93 94 51
110 110 64
104 106 60
102 105 63
94 98 59
98 100 62
125 123 76
113 113 73
98 100 57
129 127 71
113 114 64
122 122 61
118 116 72
127 124 72
131 130 72
115 117 71
142 139 75
135 133 69
135 135 72
134 132 77
144 141 82
144 142 80
143 140 78
137 135 80
145 142 77
141 137 69
140 138 75
153 150 77
156 152 76
154 150 81
148 144 70
154 150 75
160 155 89
156 152 80
168 162 97
158 152 75
167 159 87
156 149 83
162 157 85
156 151 80
175 168 96
153 148 76
157 150 79
159 153 76
159 154 83
161 156 77
169 163 85
168 162 89
154 150 71
162 156 79
165 159 87
159 154 75
169 161 91
161 155 79
166 160 83
173 165 87
166 159 88
164 157 79
166 159 79
165 160 79
158 152 75
160 153 75
168 160 84
160 154 77
155 150 75
159 153 74
156 152 77
161 154 77
173 165 90
171 164 88
161 154 77
161 155 66
165 158 75
157 150 72
155 149 70
159 152 75
156 150 75
151 145 72
161 154 80
152 146 72
163 157 80
156 150 68
150 145 62
153 146 66
155 148 70
150 144 64
152 146 72
144 139 60
142 137 64
157 149 72
135 130 64
149 142 64
152 145 70
134 130 58
149 142 66
134 130 45
134 129 51
132 127 53
135 128 53
131 126 53
136 131 39
156 169 32
171 194 0
169 188 0
167 188 0
171 193 0
166 187 0
173 193 0
167 188 0
169 190 0
170 191 0
172 193 0
176 197 0
171 194 0
172 195 0
171 194 0
175 198 0
173 196 0
172 194 0
175 197 0
170 194 0
174 197 0
172 197 0
170 194 0
175 198 0
170 194 0
172 197 0
170 193 0
171 195 0
171 193 0
171 195 0
170 195 0
172 196 0
173 196 0
175 197 0
172 195 0
172 196 0
168 192 0
170 194 0
169 192 0
174 197 0
172 195 0
171 194 0
176 198 0
171 194 0
171 195 0
169 193 0
175 198 0
174 197 0
172 196 0
171 196 0
174 198 0
174 197 0
170 193 0
172 195 0
168 191 0
170 194 0
171 195 0
171 194 0
171 194 0
170 194 0
171 194 0
173 196 0
173 197 0
167 191 0
172 196 0
173 197 0
171 195 0
168 191 0
168 193 0
168 191 0
172 195 0
169 192 0
172 196 0
173 196 0
165 188 0
169 193 0
169 192 0
173 196 0
173 197 0
172 196 0
173 196 0
173 195 0
167 189 0
169 193 0
167 192 0
165 189 0
169 192 0
170 194 0
171 194 0
169 192 0
171 195 0
169 192 0
169 194 0
164 188 0
170 192 0
169 193 0
170 194 0
168 190 0
175 198 0
170 194 0
173 197 0
172 196 0
171 195 0
169 193 0
170 193 0
171 193 0
174 195 0
176 198 0
172 195 0
164 186 0
168 192 0
170 194 0
173 195 0
174 196 0
170 193 0
166 188 0
170 194 0
166 189 0
169 192 0
168 191 0
170 191 0
172 195 0
172 196 0
169 192 0
171 194 0
166 190 0
121 146 114
62 98 163
62 98 163
62 98 163
62 98 165
61 98 169
61 98 163
63 99 169
62 98 167
61 98 163
63 99 173
63 100 177
62 98 169
63 99 171
61 98 171
62 99 173
62 99 177
62 99 177
60 97 171
62 99 177
62 99 173
63 100 181
63 99 175
62 99 173
62 99 177
62 99 175
62 99 179
63 100 177
63 99 169
63 100 181
61 98 171
62 99 179
61 98 173
62 99 177
63 99 175
62 99 173
62 99 177
61 98 177
62 99 179
62 99 175
62 99 177
62 99 179
62 99 177
62 99 177
62 99 177
61 98 175
62 99 175
62 99 179
61 98 177
61 98 179
64 101 179
62 99 175
63 100 181
61 98 179
61 99 179
63 100 181
62 99 175
63 99 179
62 99 177
62 99 181
62 99 179
63 99 179
62 99 177
63 100 179
62 99 179
62 99 179
61 98 171
62 99 175
62 99 175
63 100 181
63 100 177
63 100 181
62 99 177
62 98 175
62 99 179
61 98 175
62 99 177
61 98 175
62 99 181
62 99 177
62 99 177
61 98 177
62 99 181
62 99 173
62 99 169
62 99 179
62 99 181
64 100 181
62 99 181
62 99 181
62 99 179
61 98 177
61 97 165
62 99 177
61 98 173
62 99 179
62 99 177
62 99 177
62 99 175
62 99 179
62 99 179
62 99 179
62 99 173
61 99 179
63 99 179
62 99 179
62 99 181
61 98 165
62 99 179
63 99 179
63 100 179
62 99 179
62 99 177
63 99 175
61 98 173
63 100 181
62 99 173
62 99 177
62 99 177
62 99 175
61 98 175
63 100 181
62 99 177
62 99 175
62 99 177
62 99 175
62 99 173
62 99 179
62 99 175
62 99 177
61 98 177
62 99 177
63 99 175
63 100 177
62 99 173
61 98 175
62 99 177
62 99 173
62 98 173
62 99 175
62 99 169
62 98 169
62 99 169
62 99 177
62 99 175
62 99 173
62 99 177
63 100 175
61 98 169
62 98 164
62 99 171
63 99 170
63 99 175
61 98 169
62 99 171
63 99 170
61 98 165
63 99 175
63 98 167
61 97 164
63 99 172
62 99 172
60 97 166
62 98 165
62 99 167
61 96 164
63 99 176
62 98 167
61 97 161
76 93 117
75 79 53
67 74 50
82 87 45
113 112 69
102 102 59
100 101 66
105 106 66
123 122 70
100 102 56
115 114 67
118 117 66
123 122 66
121 121 65
122 121 77
140 138 81
123 122 64
122 121 61
110 112 59
132 131 71
130 129 69
124 123 74
139 136 77
138 136 80
131 130 65
126 123 67
144 141 74
137 135 70
152 147 85
147 143 79
133 132 84
144 143 68
150 146 76
150 145 75
160 155 81
148 145 74
149 144 80
151 147 75
158 152 79
157 153 78
157 152 82
160 155 87
138 135 66
162 156 84
157 152 77
159 154 71
162 156 78
155 151 78
157 151 76
158 154 76
165 156 80
156 151 81
158 153 74
162 157 82
168 161 87
150 146 67
172 164 88
158 152 75
161 155 80
155 150 70
167 160 80
160 154 79
164 158 82
167 161 85
160 153 82
169 163 91
165 158 79
162 157 77
164 158 84
162 157 79
156 150 74
164 157 80
163 156 74
161 155 79
153 147 70
159 153 68
164 158 75
145 140 60
164 157 80
153 148 74
155 150 74
162 155 77
152 146 74
152 146 68
159 153 70
152 145 68
155 148 66
150 144 64
140 136 58
150 143 68
159 152 77
154 146 72
144 139 68
146 140 53
145 140 60
139 133 53
136 131 48
140 134 51
144 138 60
128 123 51
146 141 58
124 119 51
122 116 51
125 119 48
126 120 56
165 182 22
172 192 0
169 187 0
171 192 0
174 194 0
168 191 0
168 190 0
171 191 0
170 192 0
169 189 0
171 194 0
174 197 0
171 195 0
170 193 0
170 194 0
172 194 0
168 192 0
173 196 0
169 193 0
174 198 0
171 194 0
171 194 0
173 197 0
171 195 0
172 196 0
169 193 0
174 196 0
169 192 0
171 195 0
167 192 0
173 197 0
174 197 0
171 194 0
172 197 0
174 196 0
175 198 0
172 196 0
166 189 0
171 194 0
171 195 0
173 197 0
173 196 0
173 197 0
177 199 0
170 193 0
175 198 0
171 195 0
171 194 0
171 194 0
171 193 0
173 197 0
174 198 0
173 197 0
168 192 0
171 195 0
171 194 0
170 193 0
175 198 0
169 193 0
171 193 0
171 194 0
174 197 0
172 195 0
171 194 0
168 193 0
173 196 0
173 196 0
170 193 0
174 197 0
172 196 0
166 190 0
171 194 0
174 197 0
169 192 0
168 192 0
172 196 0
171 195 0
171 195 0
172 195 0
170 193 0
175 198 0
168 192 0
170 194 0
166 191 0
174 197 0
166 190 0
170 194 0
173 196 0
167 191 0
172 196 0
171 195 0
171 193 0
169 193 0
172 195 0
167 191 0
171 194 0
172 193 0
170 193 0
173 196 0
173 196 0
170 194 0
172 195 0
172 194 0
169 193 0
171 194 0
171 193 0
167 189 0
171 195 0
169 192 0
171 195 0
168 190 0
172 196 0
169 191 0
167 190 0
171 194 0
170 192 0
168 190 0
171 193 0
171 193 0
168 192 0
170 194 0
172 196 0
171 195 0
171 196 0
168 191 0
166 190 25
77 109 155
62 98 159
62 98 163
61 97 157
62 99 175
62 99 171
62 98 165
62 98 173
61 98 169
62 98 163
61 98 169
63 99 173
63 100 177
63 100 177
62 99 173
61 98 173
63 99 177
62 98 172
62 99 171
62 99 169
62 98 171
63 100 179
63 99 177
63 100 181
62 99 179
62 99 177
63 99 179
63 100 179
62 99 179
62 99 177
62 99 177
62 99 179
61 99 177
63 100 181
60 97 165
61 98 171
62 99 175
63 100 175
61 97 167
63 100 179
63 100 179
63 100 177
63 100 179
63 100 179
62 99 177
62 99 173
62 99 177
62 99 179
63 100 179
62 99 181
61 98 175
62 99 177
61 98 175
63 99 177
61 98 175
62 99 175
62 98 171
61 98 177
62 99 177
62 99 175
62 99 177
63 99 179
62 99 181
61 98 175
62 99 177
62 99 179
62 99 177
61 98 175
62 99 175
62 99 177
63 100 181
62 99 177
62 98 169
61 98 173
61 98 175
62 99 177
62 99 179
62 99 179
62 99 177
61 98 177
62 99 181
63 99 179
62 99 179
62 99 175
61 99 181
62 99 181
62 99 177
63 100 177
63 99 177
63 100 177
62 99 179
62 99 175
62 99 175
61 98 177
62 98 171
61 98 177
62 99 175
61 98 173
63 99 177
62 99 179
62 99 177
62 99 181
61 98 173
61 99 177
62 99 179
61 98 171
63 100 181
61 98 175
61 98 171
62 99 171
62 99 177
62 99 173
62 99 179
62 98 171
61 98 175
63 100 179
62 99 175
61 98 175
63 100 179
62 99 175
61 98 175
63 99 175
62 99 175
62 99 165
63 99 171
62 99 175
62 99 177
62 99 175
61 98 173
62 99 179
62 99 175
63 99 175
62 98 171
63 99 177
63 99 171
61 98 173
61 98 173
62 99 175
63 100 177
62 99 173
62 98 175
62 99 175
61 98 169
63 100 179
62 98 167
61 98 171
63 99 169
62 98 167
61 98 165
61 98 175
61 98 167
63 99 175
62 98 165
63 100 179
62 99 175
61 98 175
61 98 167
62 99 171
62 97 164
62 98 177
62 99 173
61 97 159
62 98 169
61 98 168
61 95 163
61 97 169
62 99 174
62 97 163
61 97 165
57 87 129
83 85 51
82 87 47
79 85 63
95 98 60
106 107 54
108 108 55
104 105 58
109 109 62
112 110 63
102 104 60
116 115 66
123 122 59
117 119 71
110 111 64
124 122 67
129 128 80
136 133 76
139 136 83
136 134 76
118 118 71
115 117 74
122 121 64
136 135 69
134 132 73
131 130 75
136 134 63
133 131 72
148 144 82
144 141 75
147 143 80
166 160 91
149 145 67
147 142 83
140 137 62
149 145 77
159 153 88
155 151 81
160 154 83
154 148 75
164 158 87
155 151 79
154 149 77
160 155 87
158 154 80
163 158 74
158 152 74
156 151 75
151 146 70
172 164 90
167 159 84
162 156 75
160 153 79
154 148 78
157 152 83
164 158 84
170 164 85
167 160 83
149 146 71
162 156 74
158 152 82
160 154 70
163 156 77
172 165 87
163 156 70
163 157 80
159 154 70
163 156 80
161 154 75
153 147 68
159 153 75
161 154 68
162 157 75
154 148 68
161 155 75
148 144 62
153 148 68
160 152 84
156 150 66
164 156 87
160 152 79
163 157 75
148 142 58
157 151 72
152 146 66
144 138 68
157 152 70
147 141 62
147 140 58
154 148 64
142 137 53
144 140 56
133 129 53
150 144 74
144 139 56
154 147 72
129 123 48
133 128 53
122 118 39
136 129 56
129 124 53
125 120 45
123 118 32
113 107 39
131 136 42
172 193 0
172 194 0
173 193 0
169 190 0
175 195 0
173 195 0
166 185 0
168 188 0
172 194 0
171 191 0
165 185 0
172 196 0
172 195 0
166 189 0
170 194 0
173 196 0
172 195 0
172 195 0
173 195 0
173 197 0
172 196 0
176 198 0
170 194 0
173 197 0
174 198 0
173 196 0
174 196 0
174 197 0
171 195 0
173 197 0
171 194 0
175 198 0
173 197 0
173 196 0
170 194 0
169 193 0
173 197 0
175 198 0
171 193 0
173 196 0
176 198 0
172 195 0
174 197 0
172 195 0
171 193 0
171 194 0
167 191 0
174 198 0
172 195 0
173 197 0
175 198 0
170 192 0
173 196 0
169 189 0
172 196 0
173 197 0
170 194 0
172 196 0
170 192 0
166 191 0
170 193 0
171 194 0
167 191 0
166 189 0
174 197 0
171 194 0
171 193 0
172 195 0
170 193 0
173 196 0
170 194 0
172 196 0
172 195 0
166 189 0
171 196 0
174 198 0
169 192 0
173 196 0
171 195 0
172 195 0
169 191 0
171 195 0
171 196 0
173 196 0
169 191 0
172 196 0
174 197 0
170 193 0
171 193 0
172 196 0
167 189 0
173 196 0
171 194 0
173 196 0
169 192 0
166 188 0
170 195 0
170 194 0
170 194 0
158 180 0
168 189 0
170 193 0
170 194 0
173 195 0
169 191 0
170 193 0
172 194 0
170 193 0
169 192 0
170 193 0
170 193 0
172 194 0
168 191 0
170 193 0
163 186 0
169 193 0
164 186 0
172 195 0
167 190 0
172 195 0
168 192 0
167 190 0
169 193 0
174 197 0
173 197 0
148 172 80
62 98 167
61 97 163
62 98 157
62 98 165
62 99 169
61 98 173
63 99 167
61 98 167
62 98 173
62 99 169
62 99 171
62 98 167
62 99 171
61 98 165
63 99 173
62 99 173
63 99 177
62 98 175
62 99 175
62 99 171
61 98 169
62 99 173
62 99 173
62 98 169
62 99 167
62 99 175
62 98 171
62 98 169
63 100 179
63 99 177
62 99 173
62 99 175
62 98 171
62 99 175
62 99 173
61 98 173
62 99 179
61 98 177
62 99 175
61 98 173
63 99 179
62 99 177
62 99 177
62 99 175
61 98 175
62 99 177
62 99 175
63 99 179
61 98 177
63 100 179
62 99 181
61 99 179
62 99 179
61 98 177
63 100 179
63 100 181
62 99 177
63 100 179
61 98 173
63 100 181
62 99 181
62 99 177
62 99 177
62 99 181
62 99 177
62 99 177
62 99 179
63 100 181
63 100 181
62 99 179
62 99 179
63 99 179
61 98 169
62 99 179
63 99 179
62 99 179
62 99 177
62 99 175
62 99 175
61 98 177
63 99 177
62 99 177
62 99 181
63 100 181
62 99 181
62 99 175
61 98 181
62 99 175
62 99 177
61 99 179
61 98 175
62 99 177
62 99 175
63 100 179
62 99 175
62 99 175
62 99 173
62 99 179
62 99 177
62 98 173
61 98 175
61 98 179
62 98 171
61 98 173
62 99 175
62 99 173
61 98 177
61 99 179
62 99 177
62 99 177
61 98 179
62 99 177
62 99 177
62 99 177
62 99 177
63 100 177
63 100 175
62 99 165
62 99 175
63 100 177
62 99 177
62 99 177
62 99 181
62 98 171
61 98 177
63 100 175
63 100 175
62 98 163
63 99 173
62 99 175
61 98 165
61 98 167
62 99 175
62 98 169
62 99 173
61 98 175
63 99 171
62 99 171
62 99 175
63 99 173
62 98 171
62 98 171
61 98 173
63 99 179
62 99 175
62 99 175
62 99 177
61 98 171
61 98 163
62 99 177
63 100 179
61 97 159
62 97 170
62 98 167
62 99 175
61 98 173
62 98 168
62 97 162
61 96 160
61 97 164
62 99 173
60 96 163
63 99 169
60 96 164
62 99 171
60 95 160
62 98 161
61 97 168
61 96 156
61 96 157
67 86 112
81 85 54
98 98 62
78 81 52
82 84 52
111 111 64
92 95 56
120 118 67
115 114 68
112 112 65
112 113 62
105 107 64
117 117 65
104 105 66
112 112 68
121 121 69
128 127 71
124 123 69
130 128 68
117 117 61
133 132 74
126 125 64
149 145 80
142 141 72
132 130 62
146 143 75
131 130 75
140 137 72
138 134 72
155 149 81
141 138 70
155 150 78
153 148 84
153 149 83
156 150 83
154 149 84
162 155 79
158 154 79
157 151 76
162 156 90
160 154 80
161 154 80
165 159 84
152 149 69
163 156 79
160 153 76
168 162 85
171 163 92
167 160 80
161 154 81
159 153 74
154 148 72
151 148 76
156 149 79
162 155 84
168 159 82
158 153 70
159 153 72
159 154 75
153 149 68
155 150 56
167 160 79
158 151 74
171 163 84
172 164 94
162 155 77
164 157 79
157 150 72
159 153 74
163 155 79
154 148 75
157 151 75
160 154 75
155 149 72
146 141 64
162 155 77
154 149 68
162 154 82
157 151 68
158 152 68
155 149 70
156 149 74
147 142 64
146 140 68
146 141 53
143 136 66
157 150 72
163 156 68
141 137 48
157 151 66
140 134 56
145 140 60
129 124 51
148 141 68
150 145 68
131 127 48
143 137 58
120 117 48
149 143 64
133 128 53
110 106 45
123 117 51
124 120 53
160 174 22
172 190 0
171 193 0
174 194 0
171 191 0
173 194 0
168 189 0
165 184 0
170 192 0
169 191 0
170 191 0
167 190 0
171 195 0
174 197 0
174 197 0
172 197 0
171 195 0
171 194 0
174 197 0
172 195 0
169 194 0
173 197 0
171 195 0
172 196 0
169 191 0
174 197 0
168 192 0
175 198 0
176 198 0
176 199 0
170 194 0
173 196 0
171 195 0
171 194 0
172 196 0
174 197 0
170 192 0
174 196 0
173 197 0
170 193 0
173 196 0
171 194 0
170 194 0
174 198 0
172 197 0
170 195 0
174 195 0
171 194 0
171 193 0
169 192 0
173 196 0
168 191 0
176 198 0
172 195 0
173 197 0
173 197 0
170 194 0
172 195 0
168 192 0
174 197 0
172 195 0
170 193 0
172 195 0
166 191 0
173 196 0
169 192 0
172 196 0
171 194 0
174 195 0
171 195 0
169 192 0
170 194 0
172 196 0
173 197 0
173 195 0
169 192 0
169 192 0
171 194 0
168 191 0
174 198 0
172 195 0
170 192 0
171 193 0
168 192 0
173 196 0
172 195 0
173 196 0
173 197 0
172 195 0
169 193 0
159 183 0
171 195 0
173 197 0
169 193 0
171 193 0
169 192 0
170 193 0
169 194 0
171 194 0
166 188 0
166 187 0
173 195 0
172 197 0
165 190 0
173 196 0
170 192 0
168 192 0
170 192 0
171 195 0
170 194 0
170 194 0
169 192 0
173 196 0
170 193 0
172 195 0
170 194 0
170 194 0
169 192 0
172 194 0
165 188 0
158 181 0
170 193 0
169 193 0
171 194 0
167 190 0
167 188 0
77 109 163
61 98 163
62 98 157
61 97 169
63 99 169
62 99 173
62 99 173
62 98 165
61 98 167
63 100 175
62 99 167
63 99 177
61 97 167
61 98 171
61 98 169
62 99 175
62 99 173
62 99 169
61 98 179
62 98 167
62 99 175
62 99 177
63 100 175
63 99 177
62 99 167
64 101 179
62 99 173
61 97 157
63 99 173
63 99 175
62 99 175
61 98 171
62 99 181
62 99 179
62 99 177
62 99 177
61 97 167
63 100 177
63 100 179
62 99 177
61 98 169
62 99 177
62 99 179
61 98 171
62 99 177
62 99 175
63 100 179
62 99 177
63 100 175
62 99 179
62 99 175
62 99 181
62 99 175
63 100 179
62 99 181
62 99 179
62 99 175
62 99 175
62 99 181
61 98 179
62 99 179
61 98 171
62 98 169
60 97 173
61 98 173
61 98 175
63 99 177
62 99 179
63 99 179
62 99 173
61 98 177
62 99 179
63 100 179
63 100 177
62 99 177
62 98 173
62 99 175
62 99 177
63 100 177
63 100 179
62 99 179
62 98 173
63 99 173
62 99 179
62 99 173
62 99 177
62 99 179
61 98 175
63 100 173
62 99 177
62 99 177
61 98 173
63 99 179
62 99 177
62 99 179
62 98 171
61 98 175
62 99 179
61 98 171
61 98 175
63 100 181
62 99 175
62 99 177
62 99 181
62 99 181
62 99 177
62 99 177
62 99 173
61 98 173
62 99 177
63 100 177
63 100 177
62 99 177
63 100 179
62 99 179
63 99 177
62 99 173
62 98 173
61 98 177
62 99 177
61 98 167
62 99 179
63 100 177
62 99 177
61 98 171
62 99 177
63 100 177
62 99 181
62 99 179
63 99 171
63 99 171
63 99 175
62 99 175
63 99 171
64 100 175
61 97 165
61 98 175
62 99 171
62 99 171
62 98 169
61 98 175
63 99 175
61 98 173
62 98 171
62 99 173
62 99 173
62 99 171
62 98 165
63 99 165
61 98 167
62 98 169
62 99 173
62 99 177
62 99 172
63 99 173
63 100 177
62 98 171
62 98 167
61 97 169
61 98 163
62 99 169
63 100 175
64 100 171
61 97 155
61 97 164
63 100 175
61 96 156
63 98 162
61 96 160
61 96 156
61 96 156
59 91 146
95 98 54
96 97 57
101 102 48
83 88 60
98 99 46
88 90 57
107 107 51
97 99 57
115 114 64
116 117 68
94 98 53
116 115 69
107 107 57
131 130 74
125 124 71
133 131 68
136 133 73
132 130 71
125 123 62
119 118 67
135 133 67
135 133 69
127 125 67
142 138 78
134 132 74
145 142 71
135 132 70
130 129 76
145 141 72
136 133 67
156 151 87
154 148 84
150 145 74
155 151 82
150 145 79
157 152 79
155 151 77
160 155 72
154 150 80
159 153 79
158 154 78
157 152 78
157 152 76
158 153 81
152 147 80
161 155 79
165 159 75
162 155 80
166 158 84
157 152 73
163 157 76
156 151 73
159 154 67
157 150 69
167 161 84
159 154 67
154 148 71
162 155 78
161 155 79
168 160 81
154 149 65
158 152 68
160 154 75
155 149 60
168 160 85
163 157 84
160 152 72
165 158 77
162 155 75
156 151 70
159 154 75
165 158 75
159 153 70
164 158 70
156 150 72
159 153 70
145 140 66
149 143 62
148 142 68
148 142 62
136 130 62
153 146 72
146 141 60
149 143 58
139 135 53
145 141 58
145 140 60
137 133 53
143 138 53
150 144 70
145 140 60
139 134 58
135 130 53
147 142 62
131 125 51
139 133 56
127 121 39
126 123 42
131 126 53
137 129 60
126 120 51
122 119 45
168 188 0
169 189 0
169 192 0
170 191 0
170 193 0
170 193 0
167 189 0
170 190 0
169 191 0
168 190 0
170 193 0
173 195 0
173 197 0
171 194 0
173 196 0
174 197 0
170 194 0
172 196 0
171 194 0
172 196 0
171 195 0
168 191 0
172 195 0
172 195 0
173 196 0
171 194 0
173 196 0
169 194 0
171 195 0
173 196 0
170 195 0
170 192 0
173 196 0
170 194 0
170 193 0
170 193 0
174 197 0
172 196 0
171 195 0
164 187 0
172 196 0
168 193 0
176 197 0
173 196 0
171 195 0
173 196 0
169 194 0
169 194 0
168 191 0
170 193 0
171 195 0
174 196 0
174 198 0
168 192 0
174 197 0
166 189 0
171 194 0
169 193 0
172 195 0
171 195 0
169 192 0
170 194 0
170 194 0
172 196 0
168 192 0
172 196 0
172 195 0
167 191 0
169 192 0
168 191 0
172 195 0
173 196 0
175 198 0
167 192 0
169 194 0
169 193 0
175 197 0
170 195 0
167 190 0
174 196 0
166 188 0
167 190 0
169 192 0
175 197 0
171 194 0
173 195 0
168 192 0
174 197 0
167 189 0
169 192 0
166 190 0
169 192 0
169 191 0
174 197 0
174 196 0
172 194 0
171 195 0
169 193 0
166 188 0
160 182 0
165 188 0
168 190 0
170 193 0
166 189 0
167 190 0
171 194 0
165 189 0
173 196 0
172 195 0
169 192 0
167 191 0
168 190 0
170 193 0
172 195 0
167 191 0
171 195 0
169 192 0
166 189 0
169 190 0
173 195 0
170 193 0
169 191 0
163 188 0
172 194 0
169 193 0
151 175 76
62 98 165
60 97 161
62 98 163
62 99 167
62 98 167
61 97 163
61 98 165
63 99 165
61 98 167
63 99 169
61 98 171
62 99 175
63 99 173
62 99 175
62 99 173
63 99 173
61 98 167
63 99 173
62 99 175
63 100 179
62 99 171
62 98 173
63 100 181
61 97 165
62 99 179
62 99 173
62 99 173
62 99 175
63 100 177
62 99 179
61 98 177
62 99 173
62 98 173
63 99 173
62 99 171
62 99 169
62 98 171
62 99 173
62 99 173
63 100 179
63 99 177
63 100 177
61 98 175
62 99 173
63 100 179
62 99 177
61 98 177
63 99 173
63 100 175
62 99 177
63 100 177
62 98 169
63 99 177
62 99 181
63 100 175
62 99 179
61 99 177
61 98 173
63 100 179
62 99 175
63 100 177
62 99 175
62 99 179
63 99 179
61 98 177
61 98 171
62 99 179
62 99 177
61 98 177
62 99 179
62 99 177
63 99 177
63 100 177
62 99 175
61 98 175
63 99 175
62 99 177
61 99 177
61 98 179
62 99 177
63 100 181
61 98 179
63 100 179
63 100 179
63 99 171
62 99 175
62 99 177
61 98 177
62 99 177
63 100 179
62 99 173
62 99 175
61 98 177
62 99 179
63 99 171
62 99 175
62 99 175
62 99 177
63 99 175
62 99 179
63 99 175
62 99 179
62 99 175
62 99 175
61 98 171
62 99 175
62 99 173
61 98 173
63 100 179
63 99 179
62 99 179
61 98 175
61 98 175
62 99 177
62 99 177
61 98 175
61 98 167
62 99 175
63 100 177
62 98 175
61 98 165
62 99 175
62 99 179
61 98 169
63 99 169
63 99 173
62 99 177
64 100 181
62 99 175
63 99 175
63 99 173
63 100 181
62 99 173
62 98 171
63 99 173
62 99 173
62 99 173
63 100 177
63 99 167
63 100 173
62 99 177
63 100 177
63 99 173
63 99 173
62 98 169
62 98 165
62 99 177
61 98 168
62 99 175
61 98 171
62 98 167
62 99 175
62 98 171
62 99 177
62 98 169
62 98 169
62 99 177
63 100 174
61 98 167
63 99 171
61 97 157
60 96 163
60 96 161
63 99 176
63 99 171
61 96 160
61 97 162
62 98 168
62 97 161
62 97 156
62 97 161
60 95 153
72 85 90
86 88 52
82 85 56
107 108 66
100 100 59
95 97 55
103 106 59
94 97 56
105 107 62
106 106 65
112 112 66
111 109 60
135 132 77
113 115 71
135 132 75
136 132 75
132 130 72
141 138 73
131 130 73
142 139 71
142 138 71
146 143 72
152 149 76
133 130 72
136 134 69
140 137 71
132 130 70
144 140 73
140 139 68
143 139 70
160 154 86
142 138 70
149 146 77
145 142 74
156 152 83
145 141 75
147 143 69
154 149 71
154 149 75
162 156 81
149 144 68
163 156 74
158 153 79
169 162 87
157 152 75
166 160 78
155 149 72
161 154 76
167 161 85
166 159 84
167 161 84
165 159 86
167 160 79
169 163 90
164 157 80
159 154 62
159 153 75
163 156 76
156 150 66
167 160 84
156 151 66
162 156 74
154 149 68
159 153 70
170 163 85
160 153 77
159 151 74
160 154 79
153 148 66
158 152 79
156 150 66
165 159 75
154 149 68
148 142 68
157 150 75
156 149 75
148 143 58
159 153 72
157 150 72
147 141 64
151 145 64
144 138 58
151 144 68
153 147 62
148 143 58
143 137 56
148 142 60
136 131 56
148 144 56
145 139 62
136 131 48
149 141 60
141 135 51
142 136 64
145 138 60
145 139 58
140 133 62
141 135 58
120 115 48
135 129 56
127 122 48
138 147 28
174 194 0
167 187 0
171 195 0
166 188 0
164 183 0
171 193 0
170 189 0
173 194 0
172 193 0
167 188 0
174 196 0
168 190 0
172 195 0
172 195 0
171 195 0
174 198 0
171 194 0
169 193 0
173 197 0
171 195 0
171 195 0
169 193 0
170 193 0
174 197 0
167 190 0
173 196 0
173 196 0
173 197 0
173 196 0
171 194 0
170 193 0
172 195 0
174 197 0
172 196 0
168 191 0
173 197 0
170 193 0
170 193 0
174 195 0
172 195 0
172 195 0
170 194 0
171 195 0
171 194 0
172 196 0
172 196 0
172 195 0
173 196 0
172 195 0
170 193 0
173 195 0
170 193 0
168 191 0
166 189 0
173 196 0
174 197 0
172 197 0
172 196 0
172 195 0
172 195 0
168 192 0
168 192 0
173 194 0
167 191 0
169 193 0
172 195 0
168 191 0
171 195 0
167 191 0
169 191 0
171 195 0
168 190 0
168 192 0
171 195 0
167 191 0
168 191 0
171 195 0
170 194 0
173 196 0
170 192 0
166 189 0
168 191 0
171 194 0
172 196 0
173 195 0
166 189 0
168 192 0
170 193 0
170 194 0
173 196 0
172 196 0
172 197 0
170 193 0
168 191 0
167 190 0
171 193 0
172 195 0
165 189 0
171 194 0
167 190 0
174 197 0
168 191 0
165 189 0
172 196 0
163 188 0
168 191 0
167 190 0
163 186 0
163 186 0
168 191 0
171 194 0
175 197 0
173 195 0
171 195 0
167 189 0
165 189 0
165 188 0
167 189 0
170 194 0
165 189 0
169 193 0
171 194 0
166 189 0
166 190 0
172 194 0
115 142 120
62 98 161
62 99 167
62 98 165
63 99 173
62 98 167
63 100 173
63 99 169
61 98 165
63 99 171
63 99 169
63 99 169
61 98 173
63 99 165
61 98 163
62 99 171
62 98 173
62 99 173
61 98 173
63 99 177
62 99 173
62 99 175
63 100 177
61 98 167
62 99 173
61 97 171
62 99 173
62 99 177
63 100 175
61 98 167
62 99 175
61 98 173
64 100 177
62 99 175
62 99 177
62 99 175
62 99 177
63 100 179
62 99 175
61 99 179
63 100 177
61 98 176
62 99 175
62 99 179
61 99 177
62 99 175
63 99 177
61 98 175
62 99 181
61 98 173
63 100 179
63 100 181
62 99 177
61 98 177
62 99 179
62 99 175
62 99 175
62 99 179
62 99 173
62 99 181
61 98 171
61 98 179
63 100 181
63 99 173
62 98 173
62 99 179
62 98 175
62 98 175
62 99 177
62 99 177
63 100 175
62 99 177
63 99 175
62 99 181
63 100 179
62 99 179
62 99 177
62 99 177
62 99 177
62 99 177
62 99 173
62 99 179
62 99 177
62 99 175
62 99 179
62 99 177
63 100 179
62 98 169
62 99 175
62 99 177
62 99 177
62 99 177
62 99 173
62 99 175
62 99 179
61 98 171
62 99 175
64 100 177
62 99 177
62 99 175
62 99 181
62 99 181
62 99 179
62 99 175
62 99 171
63 99 177
61 98 177
62 99 175
61 98 173
62 99 177
63 99 173
62 98 173
62 98 169
62 99 179
62 99 179
62 99 171
62 98 175
62 99 177
63 99 177
63 100 181
62 99 175
62 99 175
62 99 177
63 100 175
62 98 169
62 99 173
63 100 177
61 98 171
62 99 177
62 99 175
63 99 175
61 97 167
64 100 179
63 100 177
63 99 169
61 98 167
62 98 169
63 100 179
62 99 177
62 99 175
62 99 175
63 99 173
62 99 173
62 99 171
63 99 171
63 100 175
61 97 165
62 99 173
62 99 171
63 99 173
61 97 163
63 99 171
63 100 177
64 101 179
62 99 173
62 98 169
60 96 161
64 100 175
62 99 167
62 99 173
62 98 163
61 96 151
63 100 173
60 96 160
62 97 161
62 98 163
62 98 173
62 98 168
61 97 159
62 98 163
61 96 164
59 93 148
61 96 163
71 93 123
75 77 38
103 102 57
89 92 54
90 94 52
107 106 54
85 88 55
110 109 63
97 99 57
112 112 65
116 114 67
100 103 56
113 113 73
105 107 59
117 117 56
119 117 58
129 128 64
123 122 61
147 144 72
130 127 71
124 122 67
127 126 59
119 119 65
143 140 80
153 149 85
143 140 77
137 135 66
144 141 71
153 148 77
147 144 75
140 135 69
141 139 77
135 133 60
139 137 68
137 135 62
149 144 76
148 144 74
151 147 73
138 135 65
158 152 73
152 148 68
157 152 77
158 152 78
158 152 76
153 147 70
156 150 78
157 152 74
166 159 80
156 150 74
159 154 74
162 156 72
160 154 82
157 152 76
153 147 75
161 155 79
154 149 71
162 155 80
159 154 78
163 156 74
162 156 68
156 150 66
160 154 72
169 162 82
152 146 70
164 157 75
149 142 68
152 145 62
160 154 74
156 151 66
165 158 82
154 148 68
162 156 75
159 152 75
151 146 66
151 146 74
151 144 64
159 151 74
156 150 68
160 152 70
142 136 58
149 144 58
150 145 64
162 156 75
147 142 62
147 141 64
134 129 45
141 135 60
143 137 64
137 132 56
133 127 60
149 142 64
145 138 60
137 131 60
139 135 53
134 128 62
135 131 51
131 126 48
124 119 51
130 124 53
119 115 36
126 124 42
167 187 0
165 185 0
171 192 0
169 191 0
169 188 0
170 192 0
169 190 0
171 188 0
167 188 0
172 192 0
170 191 0
169 189 0
168 190 0
171 194 0
173 197 0
170 194 0
172 195 0
171 195 0
170 195 0
172 196 0
173 196 0
173 197 0
172 195 0
174 198 0
172 196 0
173 196 0
170 193 0
172 196 0
174 197 0
170 192 0
170 192 0
174 198 0
172 195 0
173 196 0
171 195 0
173 197 0
172 196 0
173 197 0
175 197 0
171 194 0
171 194 0
175 198 0
174 196 0
171 194 0
173 195 0
173 197 0
176 199 0
172 195 0
173 196 0
169 192 0
174 197 0
172 195 0
172 194 0
169 192 0
170 195 0
166 188 0
168 192 0
172 197 0
177 199 0
169 194 0
174 198 0
173 196 0
170 194 0
172 195 0
169 193 0
176 199 0
170 192 0
168 192 0
169 193 0
173 197 0
170 193 0
172 195 0
170 193 0
173 196 0
169 193 0
170 193 0
168 192 0
169 194 0
169 193 0
173 197 0
177 199 0
169 193 0
171 195 0
172 196 0
164 187 0
172 195 0
172 195 0
173 195 0
170 193 0
172 196 0
170 195 0
172 195 0
169 191 0
170 194 0
170 195 0
167 191 0
168 191 0
174 196 0
173 196 0
167 191 0
170 194 0
170 193 0
173 195 0
170 193 0
168 190 0
172 195 0
169 192 0
166 188 0
174 196 0
168 190 0
170 192 0
167 191 0
165 187 0
166 189 0
169 191 0
173 196 0
165 187 0
169 192 0
167 191 0
173 196 0
170 193 0
169 192 0
164 187 0
168 191 0
173 196 0
167 189 36
68 102 165
63 99 171
62 98 161
62 98 161
62 98 169
61 97 167
62 99 173
62 98 161
62 99 173
62 99 169
61 98 173
63 99 171
61 98 167
63 99 173
62 99 169
62 98 169
63 99 171
63 99 173
62 98 169
62 99 177
62 99 173
62 99 171
62 99 173
62 99 171
62 99 173
63 99 171
62 98 169
62 99 175
62 99 173
61 98 173
62 99 177
62 98 169
62 98 167
62 99 173
62 99 177
63 100 179
62 99 177
61 98 169
61 98 169
62 98 169
62 99 179
62 98 175
62 98 173
62 99 175
62 99 173
63 100 179
62 99 177
62 99 175
63 100 181
61 99 177
62 99 175
62 99 175
62 99 177
61 99 181
62 99 177
61 98 171
62 98 171
62 98 173
62 99 177
64 100 177
63 100 177
61 98 177
63 100 179
61 98 173
63 100 177
62 99 177
63 100 179
62 98 171
62 99 173
61 98 179
62 98 169
63 100 181
62 99 177
63 100 175
61 98 179
63 100 181
62 99 177
61 98 173
62 99 175
62 98 171
62 99 177
62 99 175
63 99 175
63 100 179
62 99 177
61 98 173
62 99 173
63 99 179
61 98 179
62 99 179
62 99 177
63 99 175
63 99 173
62 99 173
63 99 175
62 98 175
62 99 173
63 100 181
62 99 177
61 98 177
64 100 179
61 98 171
63 99 177
62 99 175
63 100 179
62 99 173
63 99 177
62 99 179
61 98 173
62 99 175
62 99 181
63 100 177
63 100 177
62 99 175
61 98 171
62 99 175
62 99 179
62 99 175
63 99 177
63 100 177
61 98 169
63 100 181
62 99 173
62 99 175
63 100 177
62 99 179
62 98 169
62 99 173
63 100 177
61 98 169
63 100 177
62 98 173
62 98 171
63 99 171
62 99 169
62 99 175
62 99 173
62 99 171
62 99 177
63 100 177
61 98 165
63 99 179
62 99 173
63 99 173
62 98 171
63 99 169
63 99 175
62 99 171
63 99 171
61 98 167
61 98 165
63 99 167
63 99 171
62 98 161
62 98 163
62 98 166
63 99 171
62 99 169
62 99 173
62 98 166
62 99 167
62 98 159
61 97 157
61 97 170
61 96 164
61 96 147
59 94 153
62 98 166
61 96 156
63 99 170
62 98 162
62 98 168
61 96 155
60 94 154
93 96 53
93 95 51
69 72 44
97 99 51
84 86 48
97 100 53
91 93 53
103 105 55
95 97 55
111 113 65
116 115 60
110 112 62
108 108 49
106 107 51
109 109 59
115 117 58
121 121 61
130 128 64
126 125 64
133 130 64
132 129 65
137 133 73
128 127 64
143 139 70
124 123 67
134 132 63
144 140 81
146 141 74
141 137 62
149 145 76
141 137 63
154 148 80
140 136 64
148 143 66
154 149 73
156 151 76
150 146 71
158 152 78
152 148 81
154 149 71
160 154 75
163 156 81
143 139 61
169 162 81
160 155 77
155 150 75
157 152 75
164 158 82
165 159 78
153 148 78
160 154 74
155 150 60
149 145 62
165 157 82
166 160 74
148 142 71
161 154 84
162 155 68
158 152 74
154 148 74
153 147 74
156 149 72
168 161 75
155 149 72
154 148 66
168 162 87
157 151 68
160 155 74
154 149 68
160 155 66
149 142 70
160 152 74
150 145 62
156 148 68
159 152 72
154 149 60
157 150 64
167 160 77
147 143 60
149 143 62
147 141 64
148 142 74
148 142 64
144 139 51
140 135 51
141 135 60
144 139 66
144 138 53
141 135 58
138 133 51
136 131 58
138 133 48
135 128 58
130 124 58
147 142 68
118 112 48
114 109 39
131 126 58
130 126 42
138 143 36
173 194 0
172 196 0
168 189 0
173 194 0
169 190 0
168 192 0
171 193 0
167 189 0
165 185 0
170 187 0
166 185 0
169 192 0
173 193 0
167 191 0
175 198 0
173 197 0
176 199 0
173 196 0
176 199 0
168 192 0
168 192 0
173 196 0
175 197 0
172 195 0
174 197 0
171 194 0
170 195 0
172 195 0
174 196 0
166 189 0
173 196 0
170 196 0
169 193 0
174 196 0
173 197 0
170 192 0
170 193 0
170 193 0
173 196 0
171 195 0
171 193 0
169 192 0
175 198 0
169 192 0
176 199 0
170 194 0
174 196 0
172 195 0
174 197 0
171 194 0
174 198 0
169 192 0
172 195 0
168 189 0
173 196 0
174 198 0
165 189 0
171 194 0
171 194 0
174 196 0
175 198 0
169 193 0
166 189 0
172 195 0
169 193 0
170 194 0
170 193 0
167 190 0
171 194 0
172 194 0
166 189 0
172 195 0
169 193 0
171 194 0
170 193 0
168 192 0
168 192 0
175 198 0
170 192 0
175 198 0
169 192 0
169 192 0
171 194 0
165 190 0
169 193 0
168 191 0
172 193 0
168 190 0
171 194 0
169 193 0
172 195 0
166 190 0
171 195 0
171 193 0
169 192 0
172 196 0
170 195 0
173 195 0
172 196 0
166 189 0
170 194 0
169 191 0
171 195 0
173 194 0
174 198 0
176 198 0
169 192 0
169 192 0
171 193 0
167 191 0
171 194 0
167 191 0
169 192 0
171 194 0
170 194 0
169 191 0
165 189 0
166 188 0
169 192 0
169 194 0
168 191 0
161 184 0
175 197 0
173 196 0
165 188 0
148 171 88
62 98 159
62 98 161
62 98 163
61 97 159
62 99 171
62 98 163
62 99 174
62 98 159
63 99 177
62 99 169
62 99 167
62 99 179
62 98 165
63 99 175
63 99 173
62 98 165
62 99 175
61 97 171
62 99 173
63 99 177
63 100 177
61 98 175
61 98 171
61 98 167
61 98 173
62 99 171
62 99 173
62 99 177
62 98 167
62 99 177
62 99 179
62 99 175
60 97 169
61 98 179
63 99 175
62 99 173
62 98 171
61 98 179
63 99 175
62 99 177
62 99 175
63 99 171
61 98 169
61 98 175
62 99 177
62 99 177
62 99 179
62 99 171
62 98 173
62 99 179
62 99 169
62 99 173
63 99 173
61 98 171
63 100 175
61 98 171
62 99 175
62 99 175
62 99 175
63 99 175
62 99 179
62 99 181
62 99 173
62 99 173
62 98 169
63 100 175
63 100 179
61 98 177
62 99 179
62 99 179
63 100 181
61 98 175
62 99 171
63 100 179
62 98 179
62 99 175
62 98 173
62 99 177
62 99 179
63 100 179
63 100 181
62 99 175
62 99 177
62 99 177
62 99 177
63 100 181
62 98 169
62 99 171
62 99 177
62 99 177
61 98 175
63 100 177
61 98 171
63 99 173
62 99 177
62 99 175
62 99 179
62 99 177
60 97 171
62 99 175
61 98 171
62 99 177
62 98 171
62 99 179
63 100 181
63 99 177
62 99 179
62 99 173
62 99 177
62 99 175
61 98 179
61 99 179
62 99 175
62 98 165
62 98 173
63 99 175
62 99 175
62 99 177
62 99 177
63 99 173
62 99 171
62 98 173
62 99 171
61 97 163
62 99 169
62 99 173
63 100 177
62 98 171
62 99 179
62 99 177
63 99 173
61 97 165
62 98 175
62 99 177
62 99 171
62 99 173
62 99 171
62 99 175
63 99 171
62 99 171
63 99 171
62 99 171
62 98 171
62 99 173
63 99 173
62 99 175
62 99 169
63 100 173
62 98 165
62 98 169
63 100 175
62 99 169
62 99 169
62 98 169
62 98 165
62 98 165
61 97 165
61 97 161
62 99 167
62 98 167
62 98 167
61 96 165
61 97 166
62 99 167
62 97 164
63 99 170
63 99 175
61 97 158
61 97 158
61 95 152
62 98 166
63 98 158
62 98 172
59 92 150
63 83 110
91 92 41
96 97 53
109 108 60
90 91 44
105 104 54
117 116 70
102 104 52
113 112 55
113 113 63
125 123 71
110 110 70
110 111 62
118 118 59
125 123 70
112 111 61
139 138 68
133 131 65
122 120 70
130 128 61
149 143 78
109 111 49
144 140 73
142 139 68
132 131 59
141 137 68
138 134 71
127 126 71
137 134 64
146 142 72
135 132 61
165 159 82
153 149 80
144 139 69
149 145 79
149 145 73
151 146 75
152 147 72
163 156 82
160 155 82
155 148 81
153 149 75
158 153 81
161 153 71
165 159 79
156 150 75
162 156 86
166 161 69
162 156 74
157 152 80
159 153 65
153 148 65
160 154 74
159 150 72
162 156 68
149 143 60
162 156 80
157 150 74
157 153 80
159 153 64
156 150 66
156 149 69
144 140 56
155 149 75
158 153 75
157 151 66
154 148 60
150 145 60
157 152 70
153 147 64
156 149 58
150 144 66
156 149 66
162 155 74
153 147 72
149 143 60
159 152 70
147 141 62
165 158 82
142 137 56
151 145 60
155 149 70
143 137 60
135 132 51
142 137 60
138 133 53
156 150 58
156 150 60
137 132 51
149 141 66
137 131 53
143 138 51
132 127 39
117 113 42
123 119 32
134 129 42
113 108 48
122 118 42
120 115 48
167 187 16
168 190 0
169 190 0
173 192 0
171 191 0
174 194 0
170 190 0
171 192 0
168 186 0
170 191 0
170 189 0
170 189 0
168 189 0
166 186 0
169 192 0
174 198 0
170 193 0
169 193 0
172 196 0
172 196 0
173 197 0
172 195 0
173 195 0
165 189 0
175 198 0
170 194 0
173 196 0
171 196 0
171 194 0
169 194 0
174 197 0
169 192 0
169 192 0
173 196 0
173 195 0
170 193 0
172 194 0
171 193 0
165 189 0
174 197 0
173 195 0
174 198 0
170 194 0
171 195 0
170 193 0
173 197 0
172 196 0
173 196 0
172 194 0
168 192 0
170 193 0
171 195 0
168 193 0
171 195 0
171 194 0
171 195 0
165 189 0
169 193 0
170 193 0
171 194 0
171 195 0
171 194 0
170 194 0
172 194 0
169 192 0
169 192 0
171 195 0
166 189 0
169 193 0
167 191 0
171 194 0
168 192 0
170 193 0
171 194 0
174 196 0
170 193 0
169 194 0
169 192 0
174 198 0
171 196 0
169 193 0
166 187 0
169 191 0
173 196 0
170 194 0
171 194 0
171 194 0
164 189 0
170 193 0
170 193 0
171 194 0
174 198 0
171 194 0
171 194 0
170 194 0
172 194 0
170 193 0
171 195 0
166 189 0
172 195 0
169 193 0
171 194 0
170 194 0
173 196 0
171 194 0
172 197 0
171 195 0
170 194 0
166 189 0
170 194 0
165 187 0
166 189 0
166 190 0
165 186 0
169 193 0
167 191 0
170 193 0
166 189 0
166 188 0
168 192 0
173 195 0
169 192 0
167 189 0
166 190 0
166 190 0
168 192 0
103 131 133
62 98 165
60 96 156
60 97 163
62 98 163
62 98 165
61 98 167
62 98 161
62 98 161
62 98 169
63 99 169
62 99 171
61 98 165
62 99 173
62 98 167
63 100 175
61 98 167
63 99 175
63 100 173
61 98 171
62 98 165
61 98 175
62 99 175
63 100 177
63 99 173
62 98 169
61 97 165
62 99 177
62 99 175
62 99 175
61 98 175
62 99 173
63 100 179
62 99 177
62 99 173
62 99 177
61 98 169
62 99 173
61 98 171
62 99 173
63 100 179
61 98 173
62 99 177
63 99 173
62 99 177
61 98 173
64 100 179
62 99 173
63 100 177
61 98 173
62 99 179
63 100 181
62 99 179
63 100 177
62 99 179
61 99 177
62 99 175
62 98 171
61 98 173
63 100 179
61 98 177
62 99 171
63 100 179
61 98 175
62 99 175
62 99 177
63 100 177
62 99 175
61 97 173
62 99 175
62 99 175
62 99 175
63 100 179
62 99 179
62 99 177
62 99 175
62 99 175
62 99 173
61 99 179
63 100 177
62 99 181
63 99 179
62 99 179
62 99 177
62 99 179
62 99 173
62 99 175
63 100 177
63 99 175
62 99 179
62 98 171
62 99 175
61 99 177
61 98 175
62 99 177
61 98 179
62 99 177
62 99 175
61 98 175
62 99 173
62 99 173
61 98 179
62 99 177
62 99 173
62 99 175
62 98 171
62 99 177
61 98 173
62 99 177
62 99 175
61 98 165
61 98 175
63 100 177
62 99 171
62 99 171
62 99 173
61 98 171
62 99 179
63 99 175
63 100 175
62 99 171
62 99 175
62 98 167
61 99 177
62 98 165
63 99 173
61 98 171
62 99 175
63 99 175
61 98 175
60 96 167
61 98 175
63 100 179
62 99 171
63 100 175
62 99 173
62 99 175
63 99 175
63 99 171
62 98 171
63 100 175
61 99 177
62 99 177
62 99 173
63 99 173
63 99 173
62 98 167
61 98 159
62 98 165
62 99 171
62 98 169
62 98 167
62 99 177
61 98 171
62 98 167
62 99 169
62 98 165
61 97 165
63 99 169
63 99 166
61 97 159
62 98 167
62 98 168
61 97 164
62 99 169
62 98 162
62 98 168
61 98 170
61 97 166
62 99 169
60 96 154
61 97 165
61 96 154
61 96 161
61 96 153
64 92 126
83 85 39
77 78 47
95 96 47
104 106 59
94 95 46
97 100 52
116 115 62
99 102 58
100 102 49
111 110 62
116 116 58
97 101 44
114 114 55
122 120 59
118 117 56
115 114 55
120 119 61
126 123 69
130 127 64
139 136 72
131 127 64
143 138 73
135 133 61
138 135 66
127 125 63
149 145 75
136 132 62
146 143 70
149 145 69
144 141 76
148 143 66
150 144 66
149 144 66
154 149 76
144 140 73
147 142 70
143 140 71
157 152 75
155 149 78
150 146 67
153 149 81
153 148 73
157 152 69
157 151 81
156 150 67
158 152 73
156 151 75
162 157 64
152 146 60
152 147 67
159 154 62
161 155 70
160 153 68
157 151 64
154 148 75
167 159 72
165 159 82
167 160 79
158 152 70
149 145 64
162 155 77
157 151 69
149 142 66
146 140 68
153 145 64
163 157 79
157 151 66
161 155 70
166 158 77
159 152 68
161 155 68
154 149 66
152 145 74
146 140 66
145 139 60
152 147 72
143 138 62
145 139 58
159 153 72
144 138 64
136 131 51
140 135 51
150 145 62
141 136 51
141 137 48
143 136 64
139 134 58
133 127 60
137 132 53
133 129 39
131 125 42
135 130 51
136 130 53
137 131 56
133 127 53
127 120 51
135 129 42
121 125 22
168 187 0
168 188 0
171 192 0
165 184 0
170 190 0
169 184 0
168 184 0
169 190 0
172 194 0
172 192 0
170 189 0
171 192 0
165 186 0
172 192 0
172 196 0
172 195 0
167 190 0
173 197 0
172 196 0
173 197 0
172 196 0
170 194 0
170 194 0
168 191 0
168 192 0
174 198 0
171 195 0
173 196 0
169 193 0
174 197 0
175 198 0
172 196 0
174 198 0
176 197 0
174 197 0
174 197 0
172 196 0
176 198 0
175 197 0
171 195 0
169 192 0
173 196 0
172 196 0
165 187 0
170 194 0
169 193 0
174 197 0
173 196 0
173 197 0
173 196 0
166 190 0
175 198 0
164 188 0
169 192 0
169 194 0
174 197 0
167 191 0
172 196 0
174 197 0
172 194 0
171 194 0
173 195 0
170 194 0
171 195 0
170 194 0
172 196 0
170 194 0
170 192 0
171 193 0
172 195 0
168 192 0
169 191 0
174 196 0
170 195 0
168 191 0
172 194 0
172 194 0
169 191 0
175 198 0
173 196 0
165 186 0
173 196 0
171 195 0
171 194 0
172 196 0
172 194 0
173 196 0
171 193 0
169 193 0
172 195 0
171 195 0
163 186 0
175 198 0
171 195 0
169 192 0
167 190 0
168 190 0
174 195 0
172 194 0
171 194 0
169 193 0
169 192 0
172 195 0
172 196 0
168 191 0
172 196 0
166 189 0
165 188 0
171 194 0
170 193 0
167 190 0
167 190 0
170 193 0
169 192 0
174 197 0
173 196 0
167 189 0
171 194 0
167 188 0
170 193 0
171 194 0
167 189 0
171 193 0
175 198 0
165 188 0
161 185 51
62 98 161
61 97 163
62 97 155
61 98 161
62 98 163
62 98 161
64 100 173
61 98 169
62 98 167
61 98 167
62 99 171
62 99 173
62 98 171
62 99 171
62 99 173
62 99 171
62 99 173
63 99 171
62 98 174
62 99 175
62 99 175
61 97 165
61 98 171
63 99 173
63 99 177
63 100 177
61 98 173
63 99 173
62 99 171
63 99 177
63 99 173
62 99 175
62 99 177
62 99 173
61 98 173
62 99 171
62 98 165
62 99 175
63 99 175
62 99 173
62 98 169
61 98 171
63 99 175
62 99 173
62 99 177
62 99 181
62 99 173
62 99 175
61 97 169
62 99 179
62 99 177
61 98 167
63 99 171
61 98 169
62 99 177
63 100 175
62 99 177
62 99 173
63 100 181
62 99 181
62 99 173
62 99 177
62 99 177
62 99 175
62 99 179
61 98 173
61 98 171
61 98 173
61 98 175
62 99 173
63 99 171
62 99 173
63 100 177
63 99 175
62 99 177
62 98 173
62 99 175
62 99 175
62 99 181
62 99 177
62 99 179
62 99 179
63 99 177
61 98 173
63 99 177
63 100 179
62 99 177
63 99 175
63 99 173
61 98 177
62 99 175
62 98 169
62 99 177
63 100 177
62 99 177
63 100 181
62 99 177
62 99 177
61 99 179
63 100 179
62 99 173
61 98 169
63 100 175
63 99 177
61 98 173
62 98 171
61 99 181
62 99 171
62 99 175
62 99 177
61 98 169
63 100 177
62 99 173
61 97 163
62 99 177
60 97 169
62 99 179
63 100 177
62 99 173
62 99 171
61 98 177
62 99 177
63 100 175
61 98 173
63 99 171
62 98 167
61 98 173
63 99 171
62 99 175
63 99 167
63 100 177
62 99 169
61 98 167
61 98 167
62 98 169
62 99 173
62 99 173
63 99 169
61 98 171
64 100 179
61 96 159
63 100 177
62 99 175
61 98 171
62 98 165
61 98 169
62 98 169
63 100 175
62 99 173
62 99 175
62 98 171
62 99 165
61 97 161
62 99 167
61 97 161
62 99 165
63 99 169
61 98 167
62 99 173
62 99 173
63 100 173
62 98 166
61 98 173
62 98 161
61 96 162
63 99 170
62 98 162
63 99 168
61 96 164
61 97 157
62 98 168
61 97 168
61 97 160
62 97 160
59 92 146
60 94 154
81 84 39
86 88 50
93 95 53
110 110 52
94 97 56
113 112 57
95 99 58
107 107 63
111 109 62
114 112 61
130 128 63
105 106 47
126 124 60
120 118 64
128 126 60
134 131 68
118 117 55
123 120 62
123 122 63
127 124 57
115 114 58
136 133 68
115 115 61
140 137 70
126 124 62
150 146 67
137 134 62
133 129 58
157 152 76
150 147 72
149 145 64
136 133 68
148 144 62
141 137 72
149 145 66
144 139 53
143 140 59
159 152 70
158 151 69
149 145 66
157 152 72
155 150 63
149 145 61
150 145 63
155 148 67
152 148 70
163 157 74
164 157 79
153 148 66
161 155 75
156 151 71
157 152 66
162 154 79
151 146 68
157 150 75
147 143 63
157 149 73
162 155 84
159 152 60
155 150 62
159 152 72
159 152 70
159 151 74
158 151 68
155 149 64
161 155 70
163 156 74
152 146 60
154 148 66
137 132 51
153 146 66
156 151 68
154 147 72
156 149 70
153 147 62
157 150 68
147 143 58
147 141 64
146 138 70
132 127 56
153 146 72
150 143 62
143 139 42
140 134 58
132 128 48
145 140 56
133 127 42
132 128 45
140 135 56
126 121 36
125 118 53
135 130 56
111 106 32
127 120 48
120 115 39
132 126 45
101 99 28
159 177 0
173 192 0
171 192 0
172 190 0
173 195 0
172 192 0
170 189 0
166 183 0
172 195 0
169 189 0
171 194 0
168 187 0
171 190 0
171 193 0
171 192 0
170 193 0
172 196 0
168 193 0
171 195 0
175 198 0
170 193 0
169 192 0
171 194 0
170 194 0
172 195 0
172 196 0
171 194 0
170 195 0
174 198 0
172 196 0
170 193 0
170 192 0
168 191 0
174 196 0
173 196 0
171 194 0
172 195 0
170 194 0
174 198 0
172 196 0
174 197 0
172 197 0
175 198 0
170 193 0
174 197 0
169 191 0
167 191 0
169 192 0
172 195 0
169 192 0
170 194 0
174 198 0
168 190 0
171 195 0
174 197 0
170 193 0
171 195 0
170 194 0
173 197 0
174 197 0
173 195 0
170 194 0
173 197 0
165 189 0
174 197 0
172 195 0
172 195 0
172 195 0
174 197 0
169 192 0
167 189 0
170 194 0
170 192 0
169 192 0
175 197 0
167 190 0
170 194 0
167 190 0
172 195 0
170 193 0
171 195 0
172 194 0
168 192 0
174 197 0
165 189 0
169 192 0
171 195 0
173 195 0
169 191 0
169 192 0
172 195 0
172 196 0
174 197 0
170 193 0
169 192 0
169 194 0
173 194 0
168 192 0
170 193 0
175 198 0
169 192 0
170 191 0
170 192 0
171 193 0
170 194 0
169 192 0
170 194 0
167 191 0
171 193 0
166 190 0
172 196 0
172 195 0
167 191 0
168 192 0
170 194 0
165 187 0
168 191 0
174 197 0
170 193 0
164 188 0
168 193 0
162 184 0
170 192 0
164 187 0
172 195 0
170 191 0
133 159 108
61 97 155
63 100 169
61 97 165
63 100 175
63 99 175
61 98 163
62 98 167
62 98 167
62 98 161
61 97 161
61 97 161
61 98 169
62 98 167
64 100 175
63 99 167
62 99 171
63 100 175
62 99 173
62 98 167
62 98 163
62 99 167
62 99 175
63 100 181
61 98 169
61 98 175
63 99 173
62 99 173
61 98 167
62 99 171
63 99 171
62 99 179
62 99 175
62 99 171
62 99 175
62 98 173
62 99 175
63 100 179
62 99 171
61 98 167
62 99 171
63 100 177
62 99 169
62 99 177
62 99 179
61 99 179
62 99 177
62 98 171
61 98 169
63 99 175
62 99 173
63 99 171
63 99 177
62 99 175
63 100 181
62 98 173
62 99 175
62 99 171
62 99 177
63 99 173
62 99 179
62 99 175
63 100 177
62 99 179
63 99 177
61 98 173
62 99 175
62 99 177
62 99 175
62 99 177
62 99 177
62 99 175
62 99 177
63 99 177
62 99 175
63 100 177
62 99 175
62 99 179
61 98 175
63 100 177
62 99 173
63 100 175
62 99 175
62 99 173
63 100 179
62 99 175
63 100 181
61 98 175
62 99 173
62 99 179
62 99 177
62 99 177
63 100 179
62 99 175
63 100 179
63 99 177
62 98 175
62 98 171
62 99 175
62 99 175
62 99 175
62 99 175
62 99 173
63 99 175
62 99 175
62 99 165
62 99 175
62 99 171
62 98 167
61 98 171
62 99 177
64 100 177
63 100 179
61 98 165
62 99 175
61 98 169
62 99 171
63 99 179
62 99 179
61 98 171
62 99 171
62 99 167
62 99 173
61 98 171
62 99 171
61 98 173
62 99 177
62 99 171
62 99 173
62 98 171
61 98 167
62 99 173
62 99 173
61 98 169
62 99 175
62 99 173
62 98 171
63 99 175
63 99 177
62 99 173
62 98 165
63 100 175
63 99 177
62 99 171
63 99 167
62 99 177
62 98 161
61 98 167
63 100 179
61 97 163
61 98 165
62 98 163
62 99 173
62 99 171
62 99 173
63 99 172
63 99 169
62 98 163
61 97 165
62 99 167
62 99 169
62 98 170
63 100 175
61 98 163
61 97 160
62 98 167
62 97 159
60 95 156
61 97 166
61 96 164
61 97 161
62 98 167
60 95 156
63 98 165
62 97 161
61 97 159
61 97 163
75 90 111
96 96 52
103 103 56
109 108 53
99 99 46
103 104 61
98 97 46
114 114 60
92 95 40
111 109 48
107 108 50
119 117 60
123 122 70
108 107 49
112 110 55
121 120 56
127 126 65
125 123 54
136 134 72
116 114 63
131 128 75
134 133 66
140 136 74
130 128 68
152 147 71
132 129 63
128 125 60
145 141 68
139 136 65
142 139 58
139 137 65
150 145 69
160 154 72
145 141 71
147 142 74
151 146 66
142 138 69
148 142 65
145 141 63
153 148 75
154 148 77
148 143 61
154 148 72
145 142 56
150 145 71
161 155 72
158 153 75
149 142 70
153 148 65
153 147 73
154 150 68
156 150 71
151 146 67
160 153 77
154 148 54
147 140 64
149 144 68
158 153 68
163 156 70
151 145 60
160 153 70
150 145 62
156 151 60
150 145 66
143 137 64
161 154 66
146 140 64
155 149 72
157 149 74
159 152 72
153 147 66
155 148 62
154 147 72
149 144 56
147 141 51
146 141 42
148 143 53
146 140 56
148 142 60
145 139 62
132 129 39
151 146 64
143 137 48
146 140 60
147 141 58
140 134 53
140 136 53
124 120 48
131 127 45
139 133 51
131 127 45
134 129 45
138 133 45
130 125 48
129 124 42
118 112 42
144 150 32
170 193 0
166 186 0
170 189 0
168 189 0
173 193 0
165 185 0
166 188 0
168 190 0
168 188 0
172 193 0
172 193 0
170 189 0
170 193 0
172 191 0
170 189 0
169 192 0
172 197 0
169 191 0
169 193 0
173 197 0
173 197 0
170 194 0
172 195 0
173 196 0
174 198 0
173 195 0
174 196 0
171 195 0
169 193 0
171 195 0
171 194 0
171 195 0
171 195 0
164 188 0
170 195 0
174 197 0
170 193 0
172 196 0
169 192 0
166 189 0
172 194 0
173 196 0
170 192 0
172 197 0
172 195 0
171 194 0
171 192 0
170 193 0
169 193 0
174 197 0
173 196 0
170 193 0
175 198 0
175 197 0
170 194 0
173 195 0
170 193 0
171 195 0
172 195 0
170 195 0
174 197 0
172 196 0
169 193 0
170 193 0
172 195 0
166 189 0
173 196 0
168 191 0
171 194 0
171 196 0
174 198 0
170 193 0
168 192 0
171 195 0
170 194 0
174 196 0
171 195 0
171 195 0
165 188 0
167 191 0
172 196 0
174 197 0
167 192 0
173 196 0
167 191 0
172 194 0
170 193 0
162 187 0
167 190 0
169 193 0
165 189 0
171 193 0
166 190 0
169 192 0
170 194 0
170 194 0
170 194 0
170 194 0
172 195 0
172 195 0
167 189 0
165 187 0
172 195 0
170 194 0
170 193 0
165 188 0
169 193 0
167 190 0
172 195 0
160 183 0
168 193 0
170 193 0
169 192 0
167 190 0
172 195 0
165 189 0
169 193 0
169 191 0
167 191 0
167 190 0
164 186 0
170 194 0
168 191 0
167 189 0
168 191 0
164 188 0
106 133 137
62 98 159
62 98 167
60 96 159
61 97 159
62 98 167
62 98 157
62 98 159
61 97 157
62 99 171
61 98 173
61 97 159
62 98 169
62 98 163
62 98 165
63 99 173
62 99 173
61 98 169
61 97 163
61 98 167
61 98 168
62 99 173
63 100 177
61 97 163
62 99 171
61 98 175
62 99 173
63 100 177
62 99 177
61 97 172
61 98 175
62 99 173
61 98 173
62 99 177
62 98 169
62 99 177
62 99 175
62 98 171
61 98 176
62 99 175
62 99 173
62 99 179
62 98 173
61 99 179
62 99 177
62 99 177
63 99 175
63 99 177
62 99 171
62 99 177
62 99 167
62 98 173
62 99 177
61 98 173
63 99 179
61 98 175
62 99 173
61 98 165
63 99 175
62 99 181
61 98 173
62 99 171
63 100 179
63 99 173
62 98 169
61 99 177
62 99 169
61 98 173
62 99 167
62 99 179
62 98 167
61 98 171
63 100 175
62 99 171
62 99 173
62 99 175
62 99 173
62 98 173
62 99 175
61 98 167
62 99 179
61 98 175
62 99 173
62 99 171
62 99 175
63 99 177
62 99 179
62 99 173
61 98 171
62 99 175
63 100 177
62 99 173
62 99 175
62 98 173
61 98 171
61 98 171
63 99 175
62 99 177
62 99 175
63 99 171
62 99 177
61 98 169
63 99 173
63 100 179
61 98 175
61 98 169
63 99 175
62 99 179
63 99 175
62 99 173
63 100 171
62 99 177
62 99 173
62 98 169
62 99 177
61 97 159
62 99 173
62 99 175
62 99 171
61 98 177
62 99 175
62 99 171
62 98 169
62 99 177
62 98 167
62 99 171
62 98 171
62 99 177
63 100 177
62 99 173
62 99 167
61 98 165
62 99 173
62 99 169
61 97 167
62 99 169
62 99 175
62 99 173
62 98 167
63 99 175
63 99 177
63 100 177
63 100 177
62 99 173
62 99 167
62 98 165
63 100 177
62 98 163
62 98 165
62 99 171
62 99 177
62 99 173
62 99 167
62 98 167
62 98 166
62 98 163
62 99 165
63 99 169
62 98 165
63 99 173
62 99 165
63 99 167
61 98 168
60 96 159
64 100 169
62 99 169
61 97 164
63 99 168
62 99 167
62 98 164
59 95 151
60 96 157
60 95 143
60 95 160
61 97 167
62 97 158
59 93 152
79 98 113
98 98 43
83 87 49
102 103 50
92 93 49
97 98 53
101 103 46
113 109 51
105 104 36
95 99 42
101 101 44
133 129 62
114 114 54
116 116 51
125 124 59
121 119 57
126 122 55
120 119 65
137 134 68
141 139 61
125 124 56
139 134 67
122 121 65
149 143 73
139 136 65
141 137 69
134 131 64
142 137 66
132 130 59
138 134 59
132 130 57
149 146 64
146 141 61
153 146 70
151 146 68
150 145 69
147 143 60
143 140 61
151 147 56
155 149 75
156 151 68
153 148 78
158 152 74
150 147 49
159 154 76
153 147 65
151 145 71
160 155 75
155 149 77
153 148 67
155 149 69
153 147 60
154 148 68
156 149 74
144 140 61
148 143 60
157 153 68
161 155 67
154 147 72
159 152 68
157 151 70
145 141 64
159 153 68
148 143 60
155 149 70
157 151 62
151 146 62
151 145 64
164 157 74
155 149 66
152 146 70
159 152 60
148 143 58
153 149 51
140 134 58
146 141 60
141 135 58
148 143 60
139 132 58
141 137 42
138 133 56
139 135 45
151 145 70
139 133 58
151 145 60
135 129 56
136 130 53
134 130 45
118 114 36
146 138 62
129 124 45
140 133 53
123 117 42
134 127 36
125 119 48
111 107 39
167 188 0
165 183 0
163 179 0
171 191 0
168 188 0
167 187 0
169 191 0
170 191 0
171 191 0
172 190 0
170 193 0
171 191 0
170 191 0
171 189 0
172 192 0
170 192 0
172 195 0
172 195 0
170 193 0
172 196 0
175 197 0
171 195 0
169 193 0
172 196 0
167 190 0
169 194 0
173 196 0
172 196 0
171 194 0
174 197 0
175 198 0
170 194 0
170 195 0
172 197 0
172 195 0
172 196 0
172 196 0
174 198 0
175 197 0
173 197 0
170 195 0
169 192 0
170 193 0
171 195 0
169 192 0
171 195 0
175 197 0
168 191 0
173 197 0
172 196 0
168 192 0
174 198 0
173 195 0
167 191 0
173 196 0
172 196 0
172 196 0
163 186 0
169 192 0
172 195 0
169 192 0
167 192 0
173 197 0
172 196 0
171 195 0
171 194 0
168 191 0
169 193 0
175 198 0
171 195 0
172 196 0
166 189 0
166 187 0
172 196 0
167 189 0
166 189 0
172 195 0
170 193 0
174 197 0
167 190 0
170 193 0
166 189 0
175 198 0
169 193 0
169 191 0
173 195 0
173 195 0
173 195 0
170 193 0
174 197 0
167 191 0
166 191 0
171 194 0
173 196 0
173 196 0
173 196 0
171 193 0
170 193 0
165 189 0
167 191 0
171 193 0
171 193 0
168 192 0
166 190 0
167 190 0
170 193 0
167 189 0
171 195 0
168 192 0
166 189 0
170 194 0
171 194 0
167 191 0
166 190 0
170 194 0
164 189 0
168 191 0
172 194 0
168 190 0
166 190 0
165 189 0
162 185 0
170 193 0
170 193 0
170 193 0
171 193 0
165 189 36
61 96 151
63 99 163
62 98 165
63 99 161
62 98 165
62 98 165
63 99 163
61 97 161
63 99 169
62 99 173
63 100 175
62 99 177
62 99 167
61 98 171
62 98 165
62 99 169
61 97 159
62 98 173
62 99 173
62 99 171
62 98 165
62 98 171
63 100 175
61 98 172
61 98 171
62 99 167
62 98 171
63 99 175
62 99 176
62 98 163
63 99 179
63 100 179
62 98 169
62 99 177
61 98 167
62 99 177
62 99 171
61 98 171
63 100 179
62 99 179
63 100 179
62 99 175
62 99 173
63 99 175
62 99 181
62 99 173
61 98 169
63 100 177
61 98 171
62 99 179
63 99 177
62 99 177
61 98 169
62 98 171
61 98 175
62 99 179
62 99 173
62 99 179
63 100 175
62 99 177
62 99 171
62 99 177
61 98 165
61 98 175
61 98 175
61 98 169
62 99 177
62 99 177
62 98 167
62 99 175
62 99 175
62 99 177
62 98 171
62 99 177
62 99 177
62 99 179
62 99 177
62 99 175
61 98 171
61 98 177
62 98 173
62 99 173
62 99 173
62 99 177
61 99 177
62 99 179
62 99 177
61 98 173
63 99 179
62 98 171
62 98 169
62 99 175
61 99 179
62 99 171
64 100 177
62 99 177
62 99 177
62 99 175
61 98 175
61 98 173
61 98 175
62 99 179
63 99 175
62 99 171
63 100 177
63 100 177
62 99 171
62 99 173
62 99 171
62 99 177
63 100 177
62 99 181
62 99 173
61 98 175
63 99 177
63 99 173
62 99 173
61 98 175
62 99 175
62 99 177
62 99 173
62 99 175
62 99 177
64 100 177
61 98 177
62 98 173
62 99 173
61 98 167
62 99 175
62 99 175
61 98 169
63 99 175
62 99 171
63 100 179
62 99 165
63 99 177
62 99 179
62 99 177
62 98 167
62 99 173
63 99 173
63 100 177
63 99 175
61 97 157
61 98 167
63 99 173
63 99 171
62 99 171
62 99 169
62 98 165
61 98 163
62 99 173
61 97 167
63 100 177
63 99 173
62 99 171
62 99 169
62 98 165
62 98 167
62 98 165
62 98 171
63 99 167
62 98 168
64 100 171
62 98 169
62 98 171
63 99 165
62 98 165
61 97 165
60 95 155
62 98 170
62 97 158
62 98 162
59 94 147
61 96 157
61 97 166
60 95 158
62 94 143
82 85 55
97 98 44
89 92 41
95 97 44
100 101 44
102 102 58
113 112 50
96 99 42
110 110 48
101 101 37
125 123 49
127 126 64
124 123 70
117 116 58
120 119 65
130 128 63
135 133 68
121 122 62
134 130 58
127 123 66
133 130 69
126 125 55
138 134 64
134 132 60
132 129 56
146 142 79
145 141 71
145 142 64
128 127 62
138 134 62
143 139 66
145 141 49
142 138 57
154 149 69
156 151 73
149 145 64
148 143 73
142 135 67
150 145 74
153 148 66
154 148 64
161 155 74
157 151 74
157 152 70
153 148 60
146 139 60
155 150 58
153 148 76
139 136 52
147 141 66
163 157 75
152 146 65
155 150 60
157 151 65
155 147 64
163 156 79
151 146 53
148 143 58
162 153 74
151 146 62
136 131 58
148 142 68
150 145 53
151 144 75
149 143 60
151 147 68
150 146 64
155 148 66
157 150 70
161 154 66
156 149 74
147 142 53
137 132 64
138 133 53
149 144 64
145 140 53
143 137 60
129 124 53
137 131 45
147 141 58
143 138 53
143 138 56
141 135 53
135 131 36
146 139 62
147 140 60
149 144 58
136 130 56
131 126 42
118 113 36
125 120 39
129 125 39
120 115 39
127 123 45
151 163 22
167 186 0
169 188 0
167 187 0
166 184 0
168 190 0
166 184 0
170 189 0
169 190 0
167 186 0
171 191 0
165 183 0
167 185 0
171 192 0
169 189 0
168 188 0
167 186 0
174 198 0
169 192 0
165 189 0
174 197 0
172 195 0
169 193 0
168 193 0
170 193 0
176 198 0
174 197 0
168 191 0
173 196 0
173 196 0
172 195 0
174 197 0
168 190 0
171 195 0
173 195 0
172 197 0
171 194 0
172 195 0
172 197 0
172 196 0
175 198 0
171 194 0
165 190 0
171 194 0
170 194 0
171 194 0
170 193 0
173 196 0
171 194 0
175 197 0
170 195 0
171 195 0
171 192 0
172 196 0
170 194 0
173 196 0
171 194 0
170 194 0
170 194 0
168 192 0
170 193 0
172 195 0
170 194 0
170 193 0
173 195 0
173 197 0
170 195 0
172 195 0
169 192 0
172 196 0
172 195 0
173 196 0
169 192 0
173 196 0
170 194 0
173 196 0
177 199 0
174 197 0
168 192 0
173 194 0
166 189 0
169 192 0
167 189 0
168 192 0
167 191 0
164 187 0
170 192 0
174 198 0
169 193 0
170 194 0
174 197 0
169 193 0
172 195 0
169 193 0
171 194 0
172 196 0
174 196 0
171 194 0
175 198 0
165 187 0
170 193 0
172 193 0
171 195 0
172 196 0
165 187 0
170 193 0
165 189 0
164 188 0
169 193 0
172 196 0
164 187 0
172 196 0
170 192 0
167 191 0
169 191 0
172 194 0
162 184 0
170 193 0
167 191 0
167 190 0
167 190 0
172 195 0
169 191 0
167 192 0
170 192 0
171 194 0
170 193 0
134 157 95
62 98 163
62 97 157
61 98 165
61 97 151
61 97 159
62 98 161
63 99 165
62 99 173
62 98 165
63 99 165
62 99 173
61 98 169
62 98 171
60 96 164
61 98 167
61 98 167
62 98 155
62 98 161
62 98 169
62 98 163
62 99 179
62 99 173
62 98 165
62 99 173
62 98 167
63 99 169
62 99 179
62 98 169
62 99 171
63 100 179
61 98 171
63 99 171
63 100 173
62 98 167
62 98 167
62 98 173
62 99 171
62 99 177
62 99 173
63 99 179
64 100 177
62 99 175
61 98 165
63 100 181
61 99 177
61 98 174
62 98 173
61 98 169
62 99 175
62 99 177
62 98 171
62 99 177
62 99 181
62 99 171
62 99 173
62 99 173
62 99 179
62 99 175
63 100 177
62 99 173
61 98 175
63 100 179
63 99 177
61 97 163
62 99 173
62 99 177
62 99 177
62 99 173
62 99 179
62 99 179
62 99 173
63 99 177
62 99 177
62 98 167
62 99 173
62 98 167
61 98 173
62 99 177
61 98 173
62 99 175
61 98 169
62 99 175
62 99 171
62 99 175
61 98 169
64 100 173
62 99 177
63 99 173
61 98 173
62 99 175
63 99 175
62 99 177
62 99 175
62 99 175
63 99 173
63 100 177
62 98 171
63 100 179
62 99 179
62 99 177
63 99 173
61 97 163
62 99 169
62 99 171
62 99 175
62 99 175
63 99 173
62 99 173
62 99 173
61 98 169
63 99 175
62 99 177
63 100 177
61 98 171
62 98 171
62 99 175
63 100 177
62 99 173
61 98 175
62 99 177
62 99 173
63 99 169
62 99 175
61 98 167
62 98 169
62 98 171
61 98 161
62 99 173
61 97 165
63 100 179
61 98 173
63 99 169
61 98 171
62 99 175
63 99 173
62 99 175
60 97 167
62 98 173
63 99 171
62 99 175
63 99 173
64 100 175
64 100 179
61 98 163
63 100 175
63 99 167
62 98 167
61 98 167
62 98 169
63 99 169
61 97 165
62 98 169
62 98 165
62 98 169
62 99 171
61 97 167
63 99 168
62 98 163
62 98 171
62 97 159
61 98 167
62 98 164
63 99 171
64 100 169
63 100 171
62 98 167
63 99 173
61 97 165
62 98 164
61 97 165
62 97 159
63 98 164
61 96 160
60 96 156
62 98 168
60 95 147
61 94 153
61 96 156
72 90 114
100 101 44
99 102 47
96 95 46
95 97 45
101 102 46
85 88 47
101 101 46
95 97 53
124 122 50
108 108 58
112 113 56
122 120 51
121 120 59
113 111 42
124 123 60
131 127 64
130 127 59
128 125 57
136 133 70
140 137 76
133 131 54
136 133 57
132 128 51
143 137 63
124 122 60
133 132 63
152 147 65
145 140 72
140 136 62
148 144 64
150 144 64
142 139 60
143 139 59
155 149 68
151 148 57
150 145 70
158 151 66
153 148 68
157 151 63
148 144 62
161 155 71
159 152 74
165 158 78
156 151 75
156 149 67
155 148 68
162 156 68
159 154 73
151 146 56
152 146 69
153 146 66
145 140 64
160 153 72
149 144 64
163 155 74
148 142 62
146 140 58
161 154 72
146 143 58
145 140 58
155 148 66
151 145 62
154 148 58
146 141 51
158 150 70
147 140 62
149 143 56
154 147 62
148 141 53
157 149 72
143 136 66
151 145 58
151 145 56
135 131 53
152 146 66
149 143 60
144 137 56
144 138 48
136 131 56
147 141 56
125 121 42
132 127 48
148 142 58
140 136 36
131 127 45
133 129 48
131 125 42
134 129 51
135 128 42
122 118 39
116 110 28
115 110 39
126 124 42
165 182 0
173 193 0
162 181 0
164 183 0
170 190 0
171 188 0
168 188 0
171 190 0
170 192 0
168 188 0
173 194 0
172 193 0
170 190 0
170 189 0
169 189 0
165 184 0
172 195 0
168 190 0
171 195 0
166 190 0
173 196 0
174 197 0
172 195 0
172 195 0
172 196 0
172 194 0
169 192 0
173 197 0
170 194 0
171 195 0
171 195 0
172 195 0
167 190 0
169 193 0
170 193 0
171 193 0
171 195 0
171 195 0
169 193 0
172 197 0
171 193 0
175 197 0
174 197 0
170 194 0
168 191 0
171 194 0
171 195 0
173 195 0
169 194 0
173 196 0
175 198 0
172 196 0
174 198 0
174 197 0
170 193 0
175 198 0
167 191 0
165 189 0
171 195 0
173 195 0
170 193 0
172 196 0
173 196 0
171 193 0
172 194 0
170 192 0
173 195 0
174 197 0
168 191 0
175 197 0
170 193 0
165 190 0
173 196 0
173 195 0
170 193 0
171 194 0
171 195 0
171 195 0
170 192 0
163 185 0
168 190 0
171 193 0
168 191 0
171 193 0
166 189 0
169 191 0
167 190 0
170 191 0
169 192 0
173 196 0
169 193 0
173 197 0
164 188 0
171 193 0
171 195 0
169 192 0
172 194 0
173 197 0
168 191 0
173 196 0
168 191 0
171 194 0
171 195 0
167 188 0
164 186 0
165 188 0
169 192 0
165 189 0
167 191 0
169 190 0
167 191 0
165 189 0
168 193 0
167 189 0
168 192 0
168 191 0
171 193 0
171 195 0
167 190 0
167 189 0
162 185 0
171 194 0
167 189 0
170 192 0
165 189 0
167 190 0
168 190 0
115 141 125
62 98 161
63 99 163
62 97 155
62 98 167
61 97 159
62 98 159
62 98 165
61 98 169
63 99 169
61 96 161
62 99 169
63 100 177
63 99 173
63 99 173
63 99 173
62 99 165
63 99 175
62 98 173
61 98 171
62 99 175
61 97 163
62 99 169
62 98 167
63 100 173
62 99 171
60 97 178
62 98 171
63 99 177
62 99 173
62 99 175
61 98 167
62 99 173
63 99 171
63 99 173
63 100 179
63 100 175
62 99 175
63 100 181
61 98 165
61 98 171
61 98 177
61 98 175
62 98 171
62 99 177
62 98 171
61 98 171
62 99 177
61 98 173
62 99 171
62 99 171
62 99 177
62 98 165
62 98 175
62 99 175
62 99 177
62 99 175
62 99 169
62 99 173
62 99 175
62 98 167
62 99 173
63 99 177
63 100 181
63 100 175
61 99 179
62 99 177
62 98 171
61 98 169
62 99 173
62 99 169
61 98 171
62 99 175
60 97 169
61 98 171
61 97 165
62 99 173
62 99 175
61 98 175
61 98 169
62 99 177
62 99 179
62 99 175
62 98 165
62 98 169
62 99 169
62 99 177
61 98 173
62 99 175
63 99 175
62 99 173
63 100 177
62 99 173
61 98 167
61 98 173
62 98 171
62 99 173
62 98 169
63 99 173
63 99 171
63 99 169
63 99 175
63 100 179
62 99 173
63 100 181
63 99 173
61 98 171
61 98 173
62 99 175
63 100 179
63 99 169
64 100 179
62 99 171
62 99 179
63 99 177
62 98 171
63 99 177
62 99 167
62 98 169
63 99 169
62 99 173
62 98 171
63 100 173
60 96 159
62 99 169
62 99 179
62 99 173
61 98 175
63 99 173
61 98 163
63 99 173
62 99 171
63 100 179
63 99 173
62 99 173
62 99 171
62 99 177
63 99 171
63 100 175
62 99 169
63 100 175
62 98 167
62 99 173
62 99 173
61 98 165
63 99 167
63 99 171
63 100 171
62 99 171
63 100 175
62 99 173
62 99 169
62 98 165
62 98 169
62 99 173
62 98 163
62 99 167
61 98 169
62 98 163
62 99 165
62 99 175
61 97 157
61 98 163
62 98 165
62 99 167
62 98 161
60 96 156
62 98 165
62 97 167
60 95 156
62 98 163
61 98 159
61 96 156
62 97 161
61 98 164
62 97 160
62 99 167
61 96 156
60 94 148
68 86 109
93 93 41
80 84 33
106 106 45
90 93 42
97 98 46
90 92 51
94 95 33
105 106 52
117 115 52
115 113 53
123 121 57
116 115 51
113 111 54
129 125 63
123 122 53
133 129 53
131 129 54
121 119 41
116 117 52
133 129 53
138 134 71
132 128 55
144 141 63
135 131 57
128 126 51
134 131 63
133 131 52
144 140 64
142 138 59
145 141 63
146 142 68
152 147 66
141 138 65
151 146 61
145 138 61
139 137 68
152 146 62
151 146 67
146 140 67
154 148 67
144 140 55
162 157 72
148 142 66
145 140 62
140 136 52
154 149 65
153 148 61
156 150 62
159 153 69
161 154 68
157 151 68
145 140 58
153 148 58
139 134 57
152 147 66
150 145 58
156 148 72
150 145 60
152 144 66
151 145 68
147 142 56
146 141 56
146 142 53
153 149 45
156 149 60
151 147 62
153 147 64
160 153 70
153 147 60
162 156 64
150 143 62
152 146 58
143 138 53
148 142 62
153 146 58
151 146 53
139 133 58
151 144 64
132 127 39
129 124 42
145 140 48
151 146 51
145 139 62
134 128 56
140 134 48
142 136 53
139 132 56
121 117 39
135 129 48
107 103 22
109 104 28
126 121 39
146 158 22
176 196 0
162 178 0
170 191 0
172 191 0
168 189 0
171 191 0
171 191 0
169 190 0
167 185 0
168 191 0
172 190 0
170 193 0
175 193 0
171 193 0
170 192 0
168 188 0
170 189 0
170 193 0
170 194 0
169 192 0
172 196 0
172 196 0
169 193 0
172 195 0
172 194 0
172 196 0
175 197 0
172 196 0
171 194 0
167 192 0
170 193 0
174 197 0
173 197 0
171 194 0
171 195 0
173 197 0
170 193 0
167 191 0
171 194 0
174 197 0
172 195 0
171 194 0
169 192 0
174 197 0
168 191 0
170 193 0
174 197 0
169 192 0
175 198 0
170 193 0
170 193 0
168 192 0
171 195 0
166 189 0
172 197 0
172 194 0
173 196 0
171 194 0
171 194 0
172 195 0
171 194 0
169 193 0
173 196 0
173 196 0
171 193 0
172 195 0
173 196 0
168 190 0
170 192 0
167 190 0
173 196 0
170 194 0
170 194 0
172 194 0
171 193 0
171 194 0
171 194 0
170 193 0
174 196 0
172 195 0
172 196 0
172 193 0
175 198 0
174 197 0
171 193 0
165 188 0
171 195 0
166 191 0
172 196 0
167 191 0
170 195 0
167 189 0
172 197 0
173 195 0
170 193 0
169 192 0
169 193 0
167 191 0
168 191 0
166 188 0
172 195 0
167 190 0
170 193 0
170 193 0
171 194 0
170 193 0
169 191 0
165 188 0
174 197 0
173 196 0
167 191 0
173 196 0
169 193 0
170 193 0
169 191 0
168 192 0
168 192 0
169 193 0
169 192 0
172 194 0
171 193 0
164 187 0
162 185 0
169 192 0
168 191 0
172 194 0
163 186 0
83 114 149
62 98 163
62 98 161
60 95 142
61 97 155
62 98 163
62 98 167
61 97 163
60 96 157
61 97 163
62 98 165
61 97 165
62 98 167
62 98 167
62 99 169
62 98 169
64 101 177
62 99 171
63 100 179
61 98 169
62 99 169
62 98 167
63 100 179
61 98 169
62 99 173
60 96 169
62 98 171
64 100 175
62 98 171
62 99 173
62 98 171
63 100 177
62 99 173
62 99 173
61 98 175
62 98 167
62 99 175
63 99 173
62 99 171
62 99 173
62 99 177
62 99 179
61 98 173
63 100 179
62 99 177
62 99 171
62 99 173
62 99 179
62 99 175
62 98 169
61 98 169
62 99 173
62 99 173
61 98 167
61 98 171
62 99 173
62 99 171
63 99 175
62 99 175
61 98 167
63 99 179
62 99 173
62 99 171
63 100 179
61 98 175
61 98 175
63 99 177
62 99 171
62 99 177
63 99 177
62 99 177
62 99 175
62 99 173
61 98 167
62 99 175
61 98 167
62 99 175
63 99 173
62 98 173
63 99 173
61 98 169
62 99 177
62 99 175
62 99 173
62 98 173
62 98 173
62 99 177
63 100 177
62 99 179
62 99 173
62 98 175
62 99 177
62 99 171
60 97 167
63 99 175
61 98 169
61 98 171
61 98 165
61 98 173
62 99 175
62 99 177
61 98 175
61 99 179
62 99 169
62 99 169
62 99 171
62 99 171
61 98 167
63 99 171
63 100 181
62 98 167
61 98 175
63 100 177
62 99 173
62 99 171
62 98 171
62 99 173
63 99 171
62 99 173
62 99 173
62 99 181
62 99 179
61 98 171
62 98 173
62 99 175
62 99 173
63 99 171
62 99 175
62 98 169
62 99 173
63 100 173
61 98 169
62 99 173
62 99 173
62 99 165
62 99 171
62 99 173
62 99 173
63 100 173
62 99 173
63 99 173
62 99 175
63 100 175
63 99 173
61 98 167
62 98 169
62 98 167
63 99 179
62 99 171
61 97 169
63 99 171
62 99 171
62 98 165
62 98 163
61 98 161
62 99 169
62 98 163
62 97 161
61 98 173
62 98 163
61 98 161
62 99 175
62 97 156
63 99 167
60 97 155
60 97 159
63 99 166
61 97 163
60 96 151
62 98 163
60 96 164
62 98 162
62 98 162
61 96 160
62 97 163
61 97 158
62 97 164
61 96 150
61 96 157
61 94 149
95 95 42
98 100 49
98 100 53
88 91 46
88 92 47
106 105 48
115 112 52
104 105 42
117 115 49
116 116 50
104 103 37
131 128 51
115 113 54
121 119 62
129 126 55
113 112 45
131 127 57
120 121 53
128 125 56
124 122 61
118 116 55
132 129 54
138 135 59
123 123 58
131 127 57
147 143 55
146 141 57
131 128 55
121 119 41
139 135 59
138 134 63
151 145 62
148 143 68
140 137 68
153 147 75
152 146 65
150 144 74
151 146 70
155 149 65
147 141 60
146 142 63
156 151 74
146 142 59
149 145 62
162 156 73
159 152 75
160 153 75
159 153 62
151 145 66
145 140 62
158 151 64
154 149 53
153 146 73
157 149 74
151 147 60
146 141 62
159 150 68
152 144 66
161 155 72
145 140 60
154 147 60
151 146 60
148 142 64
150 145 60
155 149 64
148 142 60
149 143 56
154 148 62
144 138 58
145 138 51
140 136 53
145 139 56
147 140 68
149 144 53
146 139 48
152 146 64
140 135 51
145 138 42
144 138 53
133 128 58
148 143 53
148 142 60
133 127 48
134 129 53
137 131 51
135 129 42
135 129 45
121 116 39
111 106 36
125 117 39
110 107 39
122 127 22
168 187 0
167 184 0
166 184 0
164 183 0
168 189 0
167 186 0
168 190 0
170 187 0
167 186 0
168 187 0
168 189 0
170 190 0
169 188 0
161 180 0
167 187 0
166 185 0
174 196 0
170 191 0
173 196 0
171 195 0
170 195 0
169 193 0
169 192 0
170 193 0
172 196 0
172 196 0
172 196 0
171 194 0
169 194 0
166 191 0
169 193 0
170 195 0
174 197 0
175 198 0
174 196 0
170 193 0
173 197 0
174 195 0
173 196 0
173 195 0
172 195 0
167 190 0
176 198 0
173 197 0
173 196 0
172 195 0
172 195 0
173 195 0
172 196 0
173 196 0
176 198 0
169 193 0
170 194 0
170 194 0
173 197 0
172 196 0
168 192 0
167 190 0
172 197 0
171 195 0
171 194 0
171 195 0
171 195 0
172 195 0
169 193 0
168 191 0
170 194 0
172 194 0
174 197 0
171 193 0
171 194 0
171 194 0
173 196 0
167 191 0
169 191 0
171 194 0
165 189 0
173 196 0
177 199 0
170 193 0
173 195 0
166 190 0
174 198 0
171 194 0
168 190 0
163 186 0
167 189 0
168 190 0
173 197 0
169 191 0
164 187 0
173 196 0
166 189 0
175 197 0
170 193 0
168 192 0
172 195 0
173 197 0
167 190 0
169 193 0
163 187 0
168 193 0
168 192 0
168 190 0
163 185 0
167 192 0
166 188 0
164 188 0
163 187 0
172 193 0
172 195 0
170 191 0
172 194 0
168 191 0
167 189 0
171 195 0
166 190 0
167 191 0
169 193 0
168 193 0
165 188 0
175 198 0
165 187 0
167 190 0
165 187 0
161 183 0
171 193 0
152 175 67
62 98 159
61 97 157
60 96 153
61 97 155
62 99 169
60 95 153
61 97 147
62 97 153
62 98 167
62 98 161
61 97 163
62 99 169
63 99 171
60 96 156
62 99 169
62 98 161
62 98 161
62 99 173
62 98 167
63 99 173
63 99 171
62 99 177
62 99 171
62 99 175
62 99 167
62 99 173
62 99 175
60 96 162
62 99 169
62 99 175
62 99 173
63 100 177
62 99 179
61 98 173
61 97 167
62 99 175
62 98 167
62 99 177
63 100 173
63 100 179
63 99 179
63 99 173
61 98 171
63 100 177
61 98 175
61 99 177
62 99 179
62 98 175
62 99 173
62 99 181
62 99 171
62 99 175
62 99 171
63 99 177
61 98 171
63 100 179
62 99 169
62 99 175
62 99 171
62 98 173
63 99 173
62 98 167
63 100 179
63 100 177
61 97 167
64 100 177
62 99 171
61 98 171
61 98 171
61 98 171
61 97 159
61 98 169
62 99 175
62 99 173
63 100 179
61 98 171
62 99 177
62 98 171
62 99 175
62 99 173
61 98 173
62 99 177
63 99 173
63 99 173
62 99 177
62 99 173
62 98 169
62 98 175
63 100 181
61 98 173
62 99 173
62 99 171
62 98 169
61 97 163
63 100 177
62 99 175
63 99 175
61 98 175
62 99 173
61 98 173
62 99 179
62 98 169
63 100 179
62 99 173
63 99 179
63 100 177
61 98 171
62 99 171
62 99 173
62 99 173
63 99 171
61 98 173
63 99 171
61 99 177
62 99 173
63 100 175
63 99 173
62 99 169
62 99 171
62 98 171
62 98 169
62 98 169
62 98 169
61 98 169
62 99 171
62 99 175
62 99 171
63 99 175
61 98 169
61 98 169
60 97 163
63 99 175
63 99 175
61 97 165
62 99 169
61 97 169
62 99 173
63 100 173
63 99 173
62 99 169
63 100 177
62 99 173
62 99 169
62 99 175
62 98 169
62 98 169
62 99 173
63 100 177
61 97 163
61 98 167
62 99 171
62 99 169
62 99 175
63 100 169
62 98 169
62 98 161
62 99 169
63 99 171
62 99 171
62 98 163
61 97 167
62 98 163
63 99 171
62 98 170
61 97 153
62 98 167
60 96 160
61 97 163
63 99 169
63 98 166
60 97 163
62 98 159
62 97 161
63 99 165
61 96 151
62 98 162
61 97 162
61 96 151
61 96 159
61 95 148
84 90 68
84 87 42
84 85 46
92 92 41
98 99 45
96 97 44
89 91 37
89 90 38
114 113 59
99 99 46
114 112 49
109 109 43
107 105 51
119 119 59
122 121 55
131 129 63
129 124 53
140 137 59
132 130 56
120 120 56
132 128 66
143 138 59
142 138 63
121 119 58
139 135 64
133 132 46
138 134 65
130 126 63
130 126 56
147 142 65
143 140 59
148 143 61
151 147 62
150 147 58
145 141 57
150 146 63
149 143 71
141 136 59
153 148 65
161 155 72
149 143 56
153 149 57
152 146 66
158 152 66
150 146 66
158 152 66
154 149 62
159 153 68
144 141 42
155 149 66
156 148 64
155 149 62
157 151 68
157 150 70
160 154 66
139 134 53
145 140 60
152 147 64
156 148 72
146 141 64
153 147 53
149 143 56
152 146 53
148 144 56
141 135 58
150 142 64
146 140 53
148 143 60
149 141 56
146 142 58
146 139 66
134 129 48
134 129 48
137 132 48
145 138 56
139 134 48
136 131 42
140 135 48
144 137 62
144 137 60
147 140 45
132 125 58
140 135 48
121 115 48
130 127 36
126 120 39
129 124 48
125 119 42
122 118 39
108 104 32
121 116 28
161 181 0
168 187 0
168 187 0
173 190 0
168 190 0
170 190 0
161 178 0
164 180 0
171 188 0
168 188 0
167 190 0
170 189 0
169 190 0
167 189 0
163 183 0
172 193 0
168 187 0
166 184 0
170 192 0
171 195 0
175 198 0
173 197 0
172 195 0
168 191 0
170 193 0
176 198 0
172 196 0
176 198 0
171 194 0
173 196 0
171 195 0
168 193 0
171 193 0
172 195 0
168 192 0
174 196 0
175 196 0
173 197 0
166 190 0
173 196 0
171 194 0
175 198 0
173 196 0
174 195 0
168 191 0
173 197 0
174 198 0
172 195 0
172 195 0
172 194 0
168 189 0
171 194 0
168 192 0
171 194 0
173 197 0
169 193 0
170 194 0
168 192 0
165 188 0
169 193 0
171 194 0
174 197 0
169 192 0
165 188 0
168 191 0
171 195 0
169 192 0
174 198 0
168 192 0
170 194 0
172 194 0
172 195 0
170 194 0
169 193 0
168 191 0
172 194 0
169 192 0
167 192 0
168 191 0
172 196 0
177 198 0
164 187 0
174 196 0
170 192 0
172 195 0
167 191 0
173 196 0
170 193 0
170 194 0
172 195 0
175 196 0
168 191 0
173 197 0
172 196 0
170 195 0
163 186 0
166 190 0
172 195 0
171 195 0
168 192 0
169 190 0
171 192 0
168 190 0
164 188 0
168 191 0
171 194 0
170 193 0
165 188 0
171 194 0
168 191 0
168 192 0
169 192 0
170 192 0
166 190 0
163 186 0
167 190 0
162 186 0
171 194 0
162 187 0
170 195 0
169 193 0
165 189 0
165 186 0
171 194 0
167 189 0
162 185 0
171 194 0
169 193 0
131 154 99
61 97 155
61 97 157
60 96 151
63 99 169
60 96 154
61 97 161
61 97 157
61 97 157
61 97 151
61 98 165
61 97 151
61 97 157
61 98 169
61 97 161
63 99 173
61 97 155
62 98 168
62 98 169
62 98 172
62 98 175
63 100 177
61 97 169
61 97 163
61 98 163
61 98 167
63 99 171
62 99 175
62 98 161
62 98 172
62 99 173
63 99 175
62 98 169
62 99 173
62 98 173
63 99 173
61 98 165
62 98 171
62 98 167
62 98 169
63 100 181
62 99 177
62 98 171
62 99 169
62 99 169
62 98 167
62 99 179
62 99 175
62 99 173
62 99 175
63 100 179
62 99 171
62 99 171
62 98 169
61 98 173
63 99 175
62 98 171
62 99 177
62 99 177
62 99 173
62 99 169
62 98 171
61 98 173
63 99 175
63 99 173
63 100 181
62 98 169
62 99 179
62 99 175
62 99 177
62 98 173
61 98 173
62 98 171
61 98 171
63 99 177
62 99 175
61 98 173
63 100 179
62 98 169
62 99 173
62 99 175
61 98 167
62 99 169
62 99 175
61 98 173
62 98 169
63 99 175
62 99 177
62 99 171
63 99 173
63 100 177
62 99 177
62 99 173
62 99 173
62 99 173
62 99 175
63 99 175
63 99 175
62 98 173
62 98 167
62 99 175
63 100 175
63 100 181
61 98 173
61 98 167
63 100 175
63 99 169
62 98 165
63 99 173
62 99 171
63 99 177
60 97 161
62 98 169
62 99 173
61 98 171
62 99 169
61 98 175
63 99 173
63 99 177
62 99 167
62 99 179
63 100 171
63 99 173
62 99 175
62 99 171
61 98 167
62 99 177
62 99 173
62 99 167
61 98 165
62 99 171
63 99 173
62 99 169
61 98 165
63 99 175
63 99 175
62 98 165
62 98 161
62 98 171
63 99 173
62 98 167
62 98 167
62 98 169
62 99 167
62 98 167
62 99 169
63 100 175
62 98 167
61 98 171
61 98 167
63 99 169
63 100 175
61 97 165
63 99 173
62 98 173
61 97 159
62 98 167
63 99 175
63 99 171
62 98 161
63 99 165
63 99 162
62 99 163
63 99 171
62 98 161
62 98 167
62 98 166
62 98 169
62 98 163
62 99 167
63 99 161
63 99 167
61 97 154
62 99 173
62 97 152
61 97 161
60 95 147
63 98 163
59 94 149
62 98 166
60 95 154
79 90 90
89 89 36
110 108 57
104 105 43
90 93 38
111 110 37
106 106 37
124 122 56
118 117 50
114 113 54
123 121 48
115 113 36
117 115 47
127 124 53
121 120 55
129 125 62
129 127 55
120 119 46
115 115 56
135 132 55
132 128 61
135 132 51
145 141 65
130 127 48
132 129 60
142 139 65
133 130 58
143 139 58
131 128 42
138 134 58
147 141 66
133 129 48
147 142 66
139 136 59
154 148 65
154 148 71
145 141 52
152 148 61
146 141 70
157 151 66
152 145 64
150 144 62
161 155 73
148 143 69
154 147 66
161 154 68
143 137 51
143 139 48
150 145 59
149 145 51
151 144 62
152 149 59
150 145 64
149 143 56
147 141 57
153 148 58
144 138 58
143 137 61
146 141 42
161 154 72
129 125 39
152 145 60
152 146 58
143 138 56
138 134 51
140 134 53
148 143 58
149 142 62
145 139 48
135 130 48
150 143 60
143 138 51
140 135 51
135 129 53
145 140 56
146 142 51
137 131 45
139 135 51
142 136 60
141 135 62
144 139 48
138 131 53
133 128 39
137 133 48
136 130 48
130 125 51
123 118 45
137 130 51
114 109 39
125 120 45
147 161 28
163 183 0
162 177 0
166 183 0
168 188 0
167 185 0
167 186 0
171 192 0
166 187 0
162 181 0
164 182 0
170 189 0
170 190 0
165 186 0
172 191 0
169 190 0
164 182 0
169 190 0
167 188 0
167 185 0
173 196 0
172 192 0
170 193 0
168 192 0
174 197 0
172 195 0
172 196 0
172 196 0
172 197 0
168 193 0
167 191 0
169 193 0
174 198 0
171 195 0
171 194 0
171 195 0
170 194 0
170 193 0
172 194 0
172 195 0
173 196 0
172 195 0
171 195 0
174 198 0
172 196 0
172 196 0
175 198 0
172 196 0
172 197 0
175 198 0
172 195 0
173 197 0
172 196 0
171 194 0
173 196 0
171 194 0
169 192 0
172 195 0
170 192 0
168 190 0
171 194 0
171 193 0
170 194 0
172 197 0
170 195 0
171 195 0
169 192 0
170 194 0
169 193 0
174 198 0
171 194 0
164 188 0
172 196 0
171 193 0
164 185 0
171 195 0
169 193 0
164 187 0
172 196 0
171 194 0
169 191 0
168 191 0
170 194 0
171 194 0
167 190 0
169 192 0
170 193 0
168 193 0
171 194 0
172 195 0
166 189 0
167 191 0
169 193 0
168 191 0
170 193 0
169 193 0
173 195 0
167 191 0
167 191 0
170 193 0
164 186 0
170 193 0
160 185 0
169 193 0
166 191 0
168 191 0
161 186 0
168 191 0
160 182 0
169 194 0
169 192 0
166 190 0
166 189 0
173 196 0
169 193 0
170 192 0
170 194 0
168 191 0
171 195 0
159 183 0
167 190 0
162 184 0
168 192 0
171 194 0
169 192 0
166 189 0
167 190 0
171 195 0
167 190 0
107 134 128
60 96 151
62 98 165
61 97 157
60 96 156
62 99 167
62 99 171
61 98 161
62 98 159
62 98 161
61 97 156
62 99 177
62 98 157
63 99 169
64 100 179
62 99 173
62 98 169
62 98 167
62 99 165
61 97 167
61 97 161
62 98 167
61 97 164
62 98 169
63 99 175
61 98 169
61 98 168
63 99 173
62 98 165
62 98 165
62 99 173
61 98 171
62 99 169
63 99 171
62 99 171
61 98 167
62 99 175
62 99 173
62 99 167
63 100 177
62 98 171
63 99 173
62 98 167
62 99 173
61 97 163
62 99 177
61 97 161
62 98 167
62 99 179
62 98 171
61 97 172
62 99 177
63 100 177
61 98 173
63 99 177
62 99 175
62 99 173
62 99 173
62 98 171
63 99 177
62 99 171
63 99 171
62 98 171
61 98 169
61 98 175
62 99 171
62 99 175
63 99 175
63 99 171
62 99 181
63 100 179
62 99 173
61 97 171
62 99 175
61 98 171
61 98 173
63 99 173
62 99 173
62 99 177
63 100 177
61 97 167
63 99 177
62 98 167
62 98 169
62 98 171
63 100 175
61 98 171
62 99 175
63 99 175
62 99 169
63 99 175
61 98 173
62 98 171
63 99 175
63 99 175
63 99 177
63 100 181
63 99 177
62 98 171
61 98 169
61 98 165
62 98 167
61 97 163
63 100 177
63 99 173
62 99 179
63 99 177
62 99 175
62 98 171
61 98 173
62 99 177
61 98 173
64 100 177
62 98 169
62 99 171
62 99 173
62 99 173
63 99 171
62 98 167
63 99 173
62 99 169
62 99 169
62 99 173
62 99 173
61 97 159
63 99 175
63 99 177
63 99 173
62 99 173
63 100 179
62 99 173
62 98 165
63 99 171
62 99 177
62 98 161
62 98 167
62 99 175
61 98 165
63 99 169
62 99 169
63 99 173
62 99 173
62 99 169
62 98 169
62 99 167
63 99 169
62 98 167
62 99 171
63 99 165
63 99 173
61 97 161
62 98 159
62 99 167
63 99 169
62 99 173
62 98 165
62 98 161
61 98 165
61 97 161
64 100 179
62 98 165
63 99 175
61 97 171
60 96 159
62 99 169
62 98 169
63 99 169
62 98 157
63 99 167
62 98 163
63 98 163
62 98 164
60 96 151
63 98 166
63 99 171
60 96 158
59 94 153
61 95 154
61 97 157
62 98 159
61 96 151
70 93 131
90 93 37
95 94 39
84 85 37
107 108 45
98 98 43
94 94 41
120 117 46
92 96 43
111 109 46
110 108 50
113 112 38
118 116 46
108 106 46
122 121 54
120 119 48
130 127 53
132 130 54
133 130 59
126 125 47
121 120 36
133 130 59
138 134 52
119 119 39
112 113 50
131 127 51
138 134 48
144 138 67
146 142 52
134 130 51
138 135 59
135 132 48
145 141 62
149 144 62
142 137 57
147 142 59
154 148 60
153 146 62
144 139 58
139 136 52
153 147 57
140 135 49
143 138 60
148 142 71
151 145 60
152 145 66
143 136 58
149 143 64
142 138 56
159 153 64
150 147 53
147 142 57
152 147 61
157 151 71
149 144 51
141 137 39
143 139 53
150 145 64
144 140 44
160 153 68
151 144 62
155 149 60
143 138 51
138 132 48
138 134 51
143 137 48
154 148 56
136 131 53
139 134 53
151 144 60
144 139 45
146 140 51
140 135 45
138 134 53
143 138 53
139 132 48
127 124 42
152 145 68
138 132 48
143 137 53
140 134 53
137 133 42
145 139 51
114 108 42
119 114 36
127 120 45
131 125 51
120 114 42
124 120 39
143 148 22
165 184 0
162 179 0
172 189 0
166 183 0
170 189 0
169 189 0
160 177 0
164 183 0
165 186 0
165 184 0
172 192 0
170 194 0
167 187 0
166 187 0
167 187 0
168 185 0
173 193 0
167 186 0
166 186 0
170 192 0
172 194 0
174 197 0
174 197 0
172 196 0
175 198 0
172 196 0
170 194 0
172 195 0
174 198 0
169 193 0
172 196 0
170 194 0
175 198 0
170 194 0
171 194 0
170 194 0
173 197 0
174 197 0
170 194 0
172 195 0
168 192 0
172 196 0
172 195 0
170 194 0
171 194 0
171 194 0
171 195 0
172 197 0
166 189 0
174 197 0
174 198 0
169 192 0
170 195 0
167 190 0
174 198 0
173 196 0
169 193 0
169 193 0
166 190 0
166 189 0
168 192 0
164 186 0
170 192 0
171 195 0
175 198 0
168 192 0
170 195 0
172 195 0
170 195 0
168 192 0
166 189 0
177 199 0
174 196 0
168 193 0
169 193 0
173 195 0
168 192 0
165 189 0
167 191 0
171 194 0
167 191 0
171 193 0
168 190 0
165 187 0
168 192 0
171 195 0
164 188 0
172 195 0
169 193 0
172 196 0
170 194 0
169 192 0
172 195 0
172 195 0
168 192 0
169 191 0
172 195 0
172 195 0
172 194 0
168 190 0
170 193 0
163 187 0
170 193 0
169 193 0
171 195 0
168 190 0
169 192 0
165 187 0
169 193 0
171 195 0
173 196 0
169 192 0
168 190 0
165 188 0
171 194 0
170 193 0
170 194 0
169 192 0
166 190 0
169 191 0
172 195 0
168 191 0
172 197 0
166 189 0
171 194 0
166 189 0
168 190 0
167 190 0
172 195 0
83 112 134
61 97 151
62 97 156
61 97 162
61 97 161
61 96 153
61 97 163
61 98 169
62 98 167
63 98 163
61 97 161
61 98 161
61 98 163
62 99 167
63 99 171
62 98 171
62 98 157
62 98 170
61 97 168
61 98 165
62 98 167
61 98 165
61 97 163
62 99 173
62 99 175
63 99 167
62 99 171
63 99 171
63 100 177
62 99 173
62 99 167
62 99 171
62 99 173
62 99 177
62 99 177
62 99 173
62 99 175
62 99 173
62 99 177
62 99 169
63 99 175
61 98 173
62 99 171
62 99 175
62 98 169
63 100 177
62 99 177
62 98 169
62 99 175
62 98 169
62 98 165
63 100 179
62 98 167
63 99 177
62 99 173
62 99 173
63 99 175
63 99 171
63 100 175
62 98 169
61 98 173
63 99 169
62 99 177
62 98 169
62 99 175
63 99 175
62 99 179
62 99 173
61 97 165
61 98 171
62 99 177
63 100 179
61 98 173
62 99 175
62 99 171
62 99 179
62 99 171
62 99 175
62 99 175
62 99 175
62 99 171
61 97 176
63 100 179
62 99 173
63 99 177
62 99 177
62 99 175
63 99 175
62 99 171
62 98 171
62 99 167
61 98 173
62 99 175
62 99 173
62 99 179
63 99 173
62 98 169
61 98 171
62 99 175
63 99 173
62 99 175
62 98 169
62 99 171
62 98 171
61 98 171
62 99 177
62 98 167
62 99 175
62 99 175
61 98 173
62 99 173
62 98 169
61 98 163
63 99 173
63 99 171
63 99 175
62 99 173
63 99 173
63 99 171
63 100 175
62 99 179
63 99 171
62 99 173
62 98 163
62 99 165
62 99 173
62 99 171
62 98 169
62 99 173
62 99 171
62 99 171
62 98 171
62 98 171
62 98 167
61 98 167
62 98 171
62 99 171
62 99 169
62 99 169
61 98 167
63 99 171
63 99 173
62 98 161
61 97 161
63 100 171
62 98 169
62 98 167
62 99 171
62 99 169
61 97 161
61 98 167
61 97 161
62 99 171
62 99 167
61 98 165
62 99 173
62 98 163
61 98 167
62 98 164
62 98 167
62 99 171
63 98 164
62 98 169
61 97 165
61 97 161
61 97 164
62 98 165
62 98 157
61 97 153
62 97 159
62 98 163
62 98 163
62 98 164
60 96 154
62 97 163
61 97 158
62 98 156
62 98 163
60 96 161
60 94 154
61 97 164
70 99 146
84 83 30
91 93 40
99 98 41
98 98 43
110 108 41
87 90 32
104 103 43
109 106 48
100 100 38
128 125 52
111 111 46
116 115 47
113 113 39
124 121 46
111 110 48
113 111 36
110 110 36
116 115 50
125 122 42
124 123 45
132 128 60
136 134 60
137 133 53
137 134 61
125 122 47
137 134 54
137 133 64
131 127 44
144 141 53
135 131 56
138 133 57
156 150 58
145 140 65
145 141 65
134 131 58
147 143 65
137 132 52
151 145 60
136 132 54
157 151 62
158 152 60
150 146 53
151 145 63
153 146 60
142 136 51
140 134 56
142 138 47
162 154 65
142 137 51
149 142 60
148 144 60
145 139 56
143 138 53
142 137 56
145 140 51
154 148 66
145 141 45
140 135 58
155 149 58
142 136 51
145 140 58
143 140 39
136 130 42
147 141 53
141 137 51
148 142 53
135 130 53
147 142 60
142 136 48
151 146 58
139 134 51
136 130 56
141 136 45
142 137 48
142 137 36
137 131 51
137 132 53
136 130 45
141 136 48
143 136 56
145 140 48
134 126 48
138 133 39
130 125 36
124 119 36
125 120 39
110 106 36
120 118 28
161 177 0
166 186 0
163 180 0
162 180 0
170 189 0
168 187 0
171 189 0
166 183 0
167 184 0
164 182 0
166 185 0
171 192 0
170 190 0
172 190 0
165 185 0
164 183 0
172 193 0
167 188 0
174 194 0
166 184 0
169 189 0
169 192 0
172 196 0
167 191 0
172 195 0
166 190 0
174 198 0
170 195 0
169 192 0
167 190 0
173 196 0
174 197 0
169 192 0
166 190 0
174 196 0
177 199 0
175 197 0
170 192 0
171 196 0
174 198 0
175 198 0
175 197 0
172 195 0
169 192 0
173 196 0
174 198 0
173 196 0
172 196 0
170 194 0
170 194 0
175 198 0
173 197 0
174 197 0
174 198 0
175 198 0
173 194 0
173 195 0
169 193 0
171 194 0
172 196 0
169 192 0
171 195 0
172 197 0
171 194 0
172 194 0
172 197 0
169 192 0
169 192 0
173 196 0
175 198 0
170 193 0
167 191 0
173 196 0
169 192 0
172 195 0
167 190 0
175 197 0
173 197 0
167 190 0
173 196 0
172 196 0
167 190 0
169 193 0
166 189 0
170 194 0
171 195 0
175 197 0
164 186 0
172 196 0
168 191 0
172 195 0
173 196 0
169 193 0
169 193 0
168 191 0
170 193 0
170 194 0
164 186 0
169 193 0
170 192 0
166 189 0
166 189 0
171 194 0
170 191 0
164 188 0
175 198 0
167 190 0
166 190 0
169 192 0
166 188 0
169 191 0
171 194 0
170 193 0
168 191 0
169 191 0
170 194 0
171 194 0
168 192 0
163 187 0
166 187 0
170 194 0
163 186 0
167 190 0
166 188 0
166 190 0
166 190 0
164 187 0
160 182 0
165 187 0
165 189 25
59 95 142
61 97 155
62 98 159
60 96 147
62 98 161
60 96 147
62 98 165
60 96 157
62 99 171
61 98 169
62 98 163
62 99 173
61 97 163
62 98 157
63 99 173
62 99 169
62 98 161
63 99 169
61 97 161
62 98 169
61 97 163
63 99 177
61 98 167
61 98 169
61 97 163
62 98 163
63 99 171
62 99 169
62 98 167
61 97 165
62 99 175
62 98 171
62 99 167
63 99 173
61 98 169
61 98 167
62 99 173
62 98 169
62 98 167
61 98 161
61 98 171
63 99 175
62 99 173
63 100 177
62 99 175
63 99 173
61 98 169
62 99 173
62 99 177
63 100 181
62 98 167
64 100 175
62 99 177
62 98 175
62 99 175
62 99 171
62 98 171
63 99 177
62 99 177
61 98 171
63 100 179
62 99 175
62 99 175
62 98 167
61 98 165
62 98 169
62 99 175
61 98 169
63 100 179
62 99 173
62 99 167
62 99 178
63 99 177
62 99 175
61 98 169
62 99 177
62 98 171
62 99 175
62 99 173
62 99 179
63 100 175
62 99 173
63 100 177
62 99 171
62 99 175
62 99 173
62 99 173
61 98 173
62 98 171
62 98 167
61 98 169
62 98 167
62 99 173
63 99 169
62 99 169
63 99 169
63 99 161
61 98 173
62 98 173
62 99 173
61 98 167
62 99 173
62 98 171
62 99 175
62 99 173
62 99 163
62 99 175
62 99 177
62 99 173
61 98 171
62 98 169
61 98 169
62 99 173
62 99 175
62 99 167
62 98 169
62 99 169
62 98 173
62 98 163
63 99 173
62 99 175
64 100 171
60 97 167
61 98 169
62 99 167
63 100 179
61 98 169
62 99 179
62 99 173
62 99 173
62 99 175
62 99 169
61 98 165
64 100 171
61 98 171
63 99 169
62 99 173
63 100 179
61 97 163
63 99 169
61 98 169
62 98 165
63 99 175
62 99 171
62 98 163
61 97 163
62 99 169
61 97 159
61 98 173
62 97 161
61 98 159
63 99 167
62 98 167
62 98 159
62 98 169
62 98 171
63 100 175
62 98 159
61 98 163
63 99 167
62 98 165
62 98 165
62 97 153
63 99 175
61 97 153
62 98 165
61 97 156
63 99 165
62 98 160
63 99 163
62 98 164
61 96 157
63 99 169
62 98 160
62 98 163
60 96 149
62 97 151
61 96 162
60 96 154
60 95 135
60 96 154
59 94 151
93 94 30
99 98 36
101 102 38
103 102 37
107 107 45
101 100 46
108 107 39
114 113 49
110 110 41
115 115 49
115 112 48
117 118 42
112 110 46
117 115 54
123 121 49
129 127 52
111 109 44
121 120 52
114 112 45
126 123 49
127 123 54
112 111 37
135 132 56
133 129 48
141 136 58
135 130 57
135 132 39
146 139 57
148 141 57
142 138 52
148 141 56
155 148 64
145 140 51
142 136 59
152 147 58
125 121 37
147 144 54
157 151 63
142 137 51
149 143 52
144 140 58
155 149 51
151 145 60
136 130 57
147 142 60
145 142 56
142 137 45
142 139 56
141 137 39
146 140 56
146 140 62
148 143 66
145 139 56
137 131 53
146 139 56
148 143 53
136 130 36
152 146 58
134 129 45
141 136 53
141 136 53
134 129 45
157 149 62
154 149 60
147 141 58
140 136 42
145 138 56
152 145 60
150 144 56
142 135 48
145 139 53
141 135 48
144 139 42
126 121 36
141 134 48
139 135 45
137 131 48
138 133 48
128 122 53
126 120 51
143 136 58
125 120 39
116 111 32
129 124 39
132 128 36
133 127 58
120 112 42
153 165 16
166 185 0
168 184 0
166 184 0
163 182 0
163 181 0
168 188 0
164 184 0
169 188 0
165 179 0
169 189 0
164 185 0
166 180 0
169 187 0
165 185 0
167 185 0
167 187 0
170 192 0
170 190 0
171 194 0
165 183 0
168 185 0
167 191 0
173 196 0
171 194 0
173 196 0
173 196 0
170 195 0
170 194 0
173 196 0
171 195 0
173 197 0
172 196 0
167 190 0
169 192 0
171 194 0
170 193 0
173 196 0
170 193 0
170 193 0
170 193 0
170 193 0
171 194 0
172 196 0
172 196 0
170 194 0
174 197 0
174 198 0
172 196 0
171 195 0
169 192 0
169 193 0
171 194 0
175 198 0
171 194 0
171 196 0
168 191 0
173 195 0
168 191 36
175 197 36
170 193 36
170 192 36
176 197 51
172 195 51
167 192 0
178 199 88
170 194 51
174 196 62
170 194 0
171 194 0
171 194 0
176 199 0
171 195 0
172 194 0
169 191 0
167 191 0
173 195 0
174 198 0
174 196 0
168 191 0
169 192 0
167 191 0
173 196 0
165 189 0
172 196 0
167 190 0
166 190 0
167 191 0
167 190 0
170 194 0
169 191 0
168 190 0
170 194 0
170 193 0
175 197 0
163 186 0
161 185 0
169 193 0
172 195 0
167 189 0
165 189 0
165 187 0
164 187 0
171 194 0
168 191 0
173 196 0
167 192 0
168 191 0
171 194 0
168 190 0
169 193 0
165 190 0
164 188 0
165 189 0
169 193 0
169 190 0
171 193 0
168 191 0
170 191 0
166 188 0
164 188 0
166 190 0
161 183 0
162 185 0
166 187 0
166 188 0
162 185 0
169 191 0
170 191 0
168 190 0
152 175 57
62 98 161
60 96 151
63 99 165
62 98 163
61 96 149
61 97 159
62 98 163
62 97 159
60 96 158
62 98 165
63 100 169
61 97 166
62 98 169
63 99 168
62 98 163
60 97 162
62 98 161
62 98 165
62 98 171
63 99 175
62 99 171
62 98 167
61 97 167
62 99 171
63 100 177
62 99 165
62 98 173
62 98 163
62 98 171
62 99 171
61 98 163
62 98 171
63 99 175
61 98 171
62 99 171
61 97 166
62 99 177
62 99 173
61 97 168
63 100 179
63 100 179
63 100 179
63 99 177
62 98 169
62 99 171
63 99 171
62 98 171
61 98 167
62 99 173
62 99 177
61 97 172
62 98 169
62 98 169
62 98 171
63 100 173
62 98 169
62 99 177
62 99 169
61 98 173
62 98 169
61 98 171
61 98 169
62 99 173
63 99 177
62 99 173
61 97 169
61 98 175
62 99 173
62 98 171
62 98 173
62 99 175
62 99 175
62 98 171
62 98 171
62 98 165
63 99 173
61 98 176
63 99 173
63 99 175
62 99 173
62 98 167
62 99 177
61 98 165
63 100 177
61 98 169
61 97 161
61 98 173
63 100 177
63 100 175
62 99 179
63 99 171
62 99 175
63 100 173
62 98 169
63 100 175
62 99 173
62 98 163
63 99 169
62 99 173
61 98 169
63 100 177
62 99 173
62 98 171
62 98 167
62 99 171
63 99 175
62 99 173
62 99 173
61 98 167
61 98 171
63 99 169
62 99 173
61 98 169
62 99 175
61 98 173
62 98 169
63 100 175
62 99 177
61 98 169
62 98 173
63 100 177
61 98 173
63 99 173
62 98 169
62 99 175
62 98 167
62 99 171
63 99 171
62 98 171
61 97 163
62 99 173
61 98 165
62 98 167
63 100 175
62 99 175
62 98 169
62 99 171
62 98 167
62 99 169
62 98 163
62 99 171
62 98 171
63 100 179
62 99 175
62 98 167
63 99 171
64 100 171
63 100 171
62 99 171
63 99 169
61 97 161
62 98 169
62 98 169
61 97 161
62 98 165
62 99 169
62 99 167
62 98 165
63 99 167
62 98 163
62 98 159
62 98 163
63 99 169
62 98 163
62 98 163
61 97 159
62 98 159
63 98 168
62 97 160
63 99 167
62 98 161
62 97 157
61 96 157
62 98 163
61 96 156
61 97 166
63 99 168
63 98 162
60 94 155
62 98 159
62 97 159
59 92 142
74 86 72
97 97 43
107 108 45
89 89 35
92 91 34
104 103 27
97 95 41
126 124 58
99 99 44
115 114 41
125 122 46
122 120 47
116 115 38
112 109 45
120 115 51
106 106 33
116 116 41
119 118 47
128 124 51
133 129 52
129 126 49
147 142 61
127 126 52
132 127 54
132 127 56
128 126 49
133 129 53
144 140 58
151 145 69
146 142 48
135 130 60
147 143 53
145 139 60
143 137 54
144 141 45
126 122 49
144 139 59
138 133 53
151 146 51
142 137 54
140 137 58
144 138 53
139 134 47
143 137 60
151 147 54
140 135 54
132 126 48
144 140 48
146 142 52
143 138 51
147 142 61
134 127 53
142 137 53
146 142 45
140 135 48
153 147 61
147 142 51
152 145 58
142 138 45
137 133 51
159 151 62
139 133 36
143 136 53
143 138 42
139 133 48
145 139 56
128 121 36
137 133 45
154 146 56
127 122 39
143 137 39
146 142 42
147 141 53
147 141 53
141 136 45
137 133 48
123 118 36
147 139 64
131 125 39
136 132 51
135 129 51
138 133 39
119 116 32
123 117 36
126 120 48
106 102 28
141 148 28
170 190 0
164 181 0
170 190 0
164 182 0
164 180 0
171 191 0
162 181 0
166 185 0
168 190 0
169 190 0
164 183 0
168 188 0
172 192 0
165 186 0
168 185 0
164 183 0
168 188 0
170 191 0
167 186 0
163 182 0
169 189 0
170 191 0
167 192 0
175 198 0
174 198 0
170 193 0
171 195 0
172 196 0
170 193 0
174 198 0
170 194 0
175 198 0
169 192 0
174 196 0
171 194 0
168 192 0
170 192 0
167 190 0
174 198 0
171 195 0
169 193 0
173 197 0
171 194 0
171 194 0
172 195 0
165 187 0
168 192 0
170 193 0
171 195 0
179 200 72
177 200 72
177 200 72
177 198 108
187 207 120
189 209 135
182 203 108
182 203 120
187 206 130
188 208 140
186 206 135
194 213 161
180 200 120
187 207 125
185 204 135
181 203 114
187 207 140
184 204 125
190 208 144
194 213 157
186 205 125
182 202 108
187 208 125
186 207 125
186 207 120
188 208 125
180 202 95
170 192 88
175 197 95
170 193 62
169 193 0
169 192 0
172 194 0
172 196 0
171 194 0
170 193 0
170 194 0
166 190 0
168 190 0
173 196 0
172 195 0
167 191 0
167 189 0
165 189 0
170 193 0
166 189 0
169 193 0
170 194 0
170 194 0
169 193 0
170 193 0
168 191 0
175 197 0
163 188 0
166 191 0
169 191 0
165 188 0
171 194 0
166 189 0
168 191 0
168 191 0
170 194 0
170 193 0
170 192 0
174 196 0
167 190 0
164 186 0
169 191 0
167 190 0
168 192 0
167 191 0
169 192 0
168 191 0
167 188 0
165 188 0
169 192 0
171 193 0
167 190 0
170 192 0
170 194 0
168 189 0
142 165 88
61 97 155
62 97 155
61 96 156
62 98 163
61 97 157
63 98 159
60 96 151
61 98 161
62 98 167
62 98 167
61 97 155
61 97 164
62 98 167
61 97 163
62 98 168
62 97 161
62 99 173
62 98 165
62 99 167
63 99 171
62 98 170
62 98 167
61 97 163
61 97 172
62 99 177
60 96 158
61 98 171
62 99 171
61 97 159
63 100 179
62 99 171
62 98 169
62 99 171
61 97 173
62 98 169
61 97 163
61 98 171
62 98 165
62 99 171
62 98 171
62 99 167
62 99 167
62 99 175
63 99 177
61 97 167
62 99 173
63 100 177
62 99 171
62 99 173
62 99 177
61 97 167
61 98 173
62 99 171
62 99 179
62 98 167
62 99 175
63 100 181
62 99 173
62 99 173
62 99 171
62 99 171
62 99 173
62 99 171
62 98 177
63 99 175
62 98 175
62 99 179
61 97 165
62 99 175
61 98 171
62 99 173
61 98 173
63 100 173
61 98 175
63 100 173
62 99 177
63 99 179
61 98 169
62 99 169
62 99 173
61 98 169
62 99 175
62 98 163
62 99 171
62 98 169
62 99 173
62 99 175
62 98 171
62 99 175
62 99 175
62 99 173
62 99 173
62 99 175
62 98 169
62 99 173
62 99 171
62 98 169
61 98 173
63 100 175
63 99 175
63 99 173
63 99 177
62 99 171
61 98 171
60 97 157
62 99 169
62 99 175
62 99 167
62 99 169
62 98 169
61 98 169
62 98 171
63 99 169
62 99 173
63 99 173
62 98 173
62 98 165
61 98 167
62 99 171
63 100 173
62 99 169
62 98 167
62 98 167
62 98 171
63 99 171
63 99 173
63 99 175
61 98 173
62 99 171
63 99 175
62 99 175
62 99 167
62 99 173
62 99 175
63 99 163
63 99 177
62 99 175
63 99 165
62 99 169
62 99 167
60 97 157
64 100 171
61 97 165
62 99 171
63 99 169
62 99 171
63 99 167
62 99 171
62 98 167
62 98 163
62 98 163
63 99 167
61 97 161
63 100 173
63 100 177
61 97 167
63 99 171
62 98 165
61 97 151
61 96 155
63 99 173
62 98 165
61 98 163
62 98 161
62 98 161
62 98 161
62 98 169
61 97 155
62 98 161
64 100 169
61 97 155
62 98 167
62 98 160
62 98 165
61 96 160
62 98 163
62 98 161
60 96 159
61 96 152
62 98 164
59 93 147
59 93 150
87 100 115
102 102 33
90 89 38
99 99 34
95 95 40
84 85 38
108 107 53
118 115 51
126 123 43
105 104 41
109 108 26
112 113 40
123 121 41
125 122 46
112 112 42
117 115 46
106 105 25
114 113 43
120 116 51
106 104 37
118 115 55
132 129 50
139 136 62
136 133 39
110 108 45
135 130 47
139 135 41
134 129 52
134 130 58
149 146 62
139 136 48
129 125 41
127 123 45
143 137 54
136 130 62
134 129 56
147 142 51
137 133 57
148 142 62
135 131 47
131 127 37
152 147 57
135 131 41
156 150 61
139 134 45
137 133 42
152 144 64
145 140 48
142 138 42
147 141 62
149 141 61
148 142 53
151 145 58
144 138 54
143 138 58
153 147 60
138 135 45
145 139 51
151 146 62
134 131 39
141 135 51
137 132 45
145 139 36
143 137 48
141 136 56
142 136 53
134 128 45
124 120 45
147 142 48
130 125 36
131 126 45
139 134 51
137 132 51
136 130 51
134 129 39
124 121 42
145 139 48
133 126 39
134 128 45
117 114 32
137 133 36
113 108 32
123 117 32
114 110 28
109 106 32
125 127 28
165 182 0
165 182 0
169 188 0
160 175 0
171 190 0
166 186 0
167 183 0
167 184 0
166 186 0
167 185 0
169 187 0
167 187 0
165 182 0
164 182 0
170 189 0
166 186 0
165 183 0
170 189 0
168 188 0
166 186 0
164 185 0
168 187 0
170 191 0
175 198 0
172 195 0
173 197 0
171 195 0
173 196 0
173 196 0
171 195 0
168 191 0
167 190 0
171 195 0
172 195 0
170 193 0
166 191 0
173 196 0
174 197 0
171 194 0
173 196 0
171 195 0
168 192 0
173 196 0
173 197 0
176 197 80
179 200 108
187 208 120
180 201 114
193 212 157
187 207 140
187 206 135
177 199 95
186 207 120
184 204 130
190 210 149
192 212 144
187 207 130
185 206 120
181 203 120
181 203 114
178 200 72
184 205 125
183 204 120
189 210 140
191 211 144
183 204 114
180 201 108
177 198 95
181 203 108
184 205 120
184 205 125
179 201 102
181 202 114
181 203 102
179 199 130
189 209 135
183 204 120
186 207 120
191 210 149
184 203 140
187 207 130
182 202 120
182 201 130
176 197 114
178 200 72
168 189 51
176 199 36
169 191 0
165 188 0
170 192 0
172 195 0
171 194 0
170 193 0
172 196 0
170 194 0
173 196 0
166 188 0
170 194 0
170 194 0
167 190 0
162 184 0
163 185 0
169 192 0
169 191 0
165 190 0
164 187 0
171 194 0
170 192 0
165 188 0
166 189 0
168 191 0
168 192 0
166 190 0
172 196 0
167 191 0
165 188 0
166 190 0
169 191 0
168 189 0
167 192 0
171 192 0
172 194 0
165 189 0
168 193 0
167 191 0
169 191 0
158 181 0
164 187 0
168 191 0
166 189 0
169 191 0
106 134 137
60 95 140
59 94 140
63 99 165
62 98 161
60 96 157
62 98 159
63 100 173
62 98 161
60 96 152
60 96 161
62 98 155
61 98 165
62 98 171
61 98 172
61 97 161
62 98 169
62 98 162
63 99 163
62 99 173
62 99 177
63 99 167
62 99 171
63 100 177
61 98 165
61 98 165
63 99 173
61 98 161
61 98 173
63 100 181
61 98 167
63 99 175
62 99 173
61 98 171
60 97 155
64 100 177
62 99 173
63 99 175
63 99 174
62 99 177
62 98 173
62 99 171
62 98 167
61 98 169
62 99 171
62 99 173
62 99 171
62 99 169
63 99 167
62 99 175
62 98 169
60 96 165
63 99 167
62 98 169
61 98 173
61 97 161
62 98 171
62 98 175
62 99 175
62 99 177
62 99 169
62 99 179
62 98 173
63 99 169
61 98 167
62 98 167
62 99 175
62 98 172
64 100 177
63 99 179
63 99 173
63 99 171
63 100 181
63 99 177
62 99 171
61 98 169
62 99 175
63 100 177
62 99 165
62 98 171
61 98 169
62 99 171
63 100 177
61 98 173
63 99 169
62 99 169
62 99 175
62 98 167
61 97 167
61 98 165
63 100 175
62 99 169
62 99 173
63 99 171
62 98 167
61 98 163
63 99 179
61 97 169
62 99 173
62 99 171
63 99 175
62 98 171
61 97 159
62 99 175
62 99 175
62 98 165
61 98 167
62 99 171
61 98 177
63 100 175
62 99 171
62 99 173
63 99 171
62 98 165
61 97 167
63 99 175
62 99 169
63 100 175
63 99 165
61 97 163
63 99 169
62 99 169
63 99 169
62 99 173
61 98 159
62 98 169
62 98 161
63 100 175
62 99 177
61 98 167
62 99 169
62 98 165
63 99 175
62 99 173
61 97 159
61 98 167
63 99 173
63 99 161
62 99 173
63 99 173
62 99 173
61 98 165
62 99 173
62 98 165
61 97 159
62 99 177
62 98 169
62 98 167
63 99 163
63 99 167
61 98 165
62 98 159
62 99 169
62 98 171
62 98 165
62 99 169
63 99 165
61 98 165
63 99 165
61 97 157
63 100 171
63 99 167
61 97 153
62 98 163
63 99 169
63 98 157
62 99 169
63 99 165
62 98 161
63 99 161
63 98 163
61 97 167
62 98 166
63 99 160
62 97 162
61 97 157
62 98 159
60 96 151
61 97 156
61 95 147
61 97 160
60 95 145
62 98 163
85 99 112
102 102 22
101 99 33
99 99 27
97 98 38
113 111 50
106 106 36
127 124 57
116 113 41
110 107 47
113 111 39
109 109 41
116 114 42
125 121 45
101 101 38
128 126 47
113 111 48
119 118 36
133 129 56
135 131 50
121 119 46
119 116 44
130 128 56
131 125 48
132 128 51
129 127 43
132 128 44
134 129 44
131 130 44
124 121 34
133 128 53
143 138 60
132 129 47
143 138 62
128 124 49
135 130 53
143 138 65
146 141 57
145 140 48
137 133 45
146 141 53
147 143 53
144 139 45
150 145 48
144 139 48
146 140 56
137 133 39
151 143 66
145 139 45
144 137 48
141 136 53
151 146 48
144 139 51
135 128 48
151 144 58
144 137 51
147 141 48
121 119 39
141 134 51
139 133 51
147 140 48
148 142 60
127 124 36
138 135 51
140 133 45
133 128 48
145 137 56
138 132 51
144 138 53
145 138 62
133 128 45
138 132 45
133 128 45
145 141 56
119 114 32
110 105 36
132 129 28
136 131 48
123 118 39
125 118 48
120 118 22
121 117 22
114 108 36
114 109 36
122 121 39
159 171 0
161 177 0
162 177 0
154 170 0
167 184 0
168 187 0
172 193 0
167 185 0
168 189 0
166 182 0
165 183 0
166 182 0
168 186 0
174 192 0
167 188 0
166 186 0
168 187 0
170 187 0
169 188 0
169 191 0
170 193 0
167 185 0
171 191 0
168 188 0
168 193 0
171 195 0
174 197 0
172 195 0
171 193 0
174 196 0
171 196 0
171 195 0
173 196 0
170 195 0
170 194 0
176 198 0
167 191 0
172 196 0
168 191 0
170 194 0
178 200 62
169 193 51
179 201 95
189 207 144
192 210 149
182 202 108
190 209 144
192 211 153
184 205 125
181 201 120
183 205 108
188 208 130
188 208 135
183 204 125
183 203 120
179 202 95
181 202 88
180 202 102
186 207 125
178 200 102
177 200 88
186 207 120
183 204 114
182 204 120
177 199 80
180 202 108
181 204 108
185 205 120
179 201 95
188 208 130
187 208 130
181 203 95
186 206 125
176 199 95
182 204 102
179 200 88
176 199 88
184 206 120
188 209 140
178 201 88
185 205 130
183 203 120
189 208 140
186 206 125
184 205 120
183 204 108
194 213 153
183 204 120
180 200 120
180 201 108
176 199 51
174 197 62
171 195 0
174 197 0
165 189 0
170 193 0
170 193 0
170 193 0
169 192 0
165 188 0
170 194 0
169 192 0
165 189 0
169 192 0
163 187 0
171 194 0
166 188 0
166 189 0
170 194 0
171 194 0
167 190 0
168 191 0
162 186 0
165 188 0
171 194 0
165 188 0
168 191 0
169 193 0
163 186 0
172 195 0
171 194 0
168 189 0
169 191 0
165 189 0
164 188 0
170 194 0
170 192 0
169 192 0
159 181 0
163 185 0
167 190 0
166 188 0
87 116 117
63 99 159
60 95 147
62 98 157
61 97 155
61 97 155
61 97 153
61 97 159
62 98 159
62 98 167
60 96 155
62 98 169
63 99 163
61 97 166
61 97 155
62 98 161
62 98 165
61 97 170
62 99 169
61 98 165
62 99 175
62 99 173
61 97 153
61 98 169
62 99 175
61 98 171
63 99 163
63 99 167
62 98 165
62 98 165
63 99 169
63 99 171
61 98 171
62 99 171
63 100 177
62 99 177
62 98 169
62 98 167
62 99 169
62 99 173
63 99 173
61 98 177
63 99 168
62 99 173
61 97 161
62 99 171
63 99 179
63 100 175
62 98 171
61 98 173
63 99 173
63 99 173
62 98 173
62 98 171
61 98 171
62 99 175
63 99 175
62 99 177
62 99 169
61 99 177
62 98 169
63 100 179
62 99 175
63 100 175
62 99 167
61 97 159
62 99 173
61 98 165
63 99 173
61 98 165
61 98 171
62 99 173
62 98 169
61 98 169
62 99 177
63 99 173
62 99 175
63 99 171
62 99 177
62 98 165
62 98 163
63 99 169
62 99 169
62 99 169
62 99 171
62 99 177
62 99 179
61 98 175
62 98 161
63 99 177
63 100 177
62 99 173
61 98 169
62 99 171
62 99 173
61 98 171
62 99 175
62 99 165
62 99 173
62 99 171
60 97 165
61 98 169
62 99 173
62 99 167
62 99 177
63 100 175
62 99 173
62 99 171
62 98 169
63 99 173
63 100 177
62 99 171
63 99 169
62 99 173
62 99 175
63 99 175
63 99 171
62 98 165
62 98 167
61 98 165
62 99 163
63 99 173
62 98 159
62 98 171
62 98 169
63 100 173
62 99 169
62 99 175
63 100 175
62 98 165
63 100 173
63 99 173
62 99 175
61 98 165
63 100 175
62 98 165
64 101 173
62 99 171
62 98 167
62 98 171
62 99 167
62 98 161
62 98 159
63 99 171
63 99 171
62 98 163
61 97 163
65 101 177
62 98 165
62 97 151
63 99 169
64 100 177
61 98 161
62 98 163
63 99 165
62 98 159
61 97 159
61 97 161
62 98 157
62 98 161
61 98 161
63 99 167
63 98 159
63 99 165
61 98 163
62 98 165
61 98 159
62 98 162
61 98 163
62 97 157
61 97 151
61 96 160
61 97 157
62 98 153
62 98 163
63 100 173
61 97 165
62 97 156
60 96 151
60 94 147
61 96 149
61 98 161
62 97 160
69 97 144
105 103 46
97 95 23
91 90 43
109 108 34
105 105 47
93 92 32
100 98 33
102 102 38
111 109 43
114 114 43
113 111 36
110 110 43
119 116 44
114 113 50
126 123 49
118 116 44
127 125 39
129 128 45
120 117 47
125 122 48
119 116 43
125 123 54
134 132 46
122 121 46
127 124 47
129 126 49
138 135 51
132 128 48
139 135 52
144 138 54
134 129 42
144 140 62
135 129 45
148 143 51
138 134 48
135 130 57
148 142 63
140 135 52
148 143 58
145 140 53
152 147 39
137 132 50
151 146 58
141 137 45
148 143 61
155 149 65
144 138 64
134 129 47
143 138 51
144 137 48
148 142 62
144 138 53
145 139 56
145 138 53
146 141 48
154 147 56
161 154 62
134 131 36
147 141 45
140 134 51
134 130 45
145 138 51
157 150 56
141 136 51
139 134 32
136 130 39
143 138 48
125 118 45
134 129 39
135 129 39
143 136 48
126 121 42
114 110 36
132 129 45
140 133 48
137 131 45
133 126 48
131 124 51
123 118 36
127 123 42
132 124 42
115 110 28
122 121 28
159 172 0
163 177 0
160 173 0
168 183 0
170 188 0
163 182 0
165 184 0
171 189 0
165 182 0
172 191 0
168 187 0
159 178 0
166 184 0
166 186 0
170 188 0
162 180 0
166 184 0
166 184 0
160 178 0
171 193 0
170 190 0
166 186 0
164 182 0
169 187 0
169 189 0
174 197 0
174 197 0
167 191 0
172 196 0
171 194 0
171 194 0
174 198 0
173 196 0
176 199 0
170 192 0
169 192 0
167 193 0
173 197 62
176 198 95
182 203 95
187 207 120
190 208 140
190 210 144
190 210 140
190 208 157
182 203 125
186 206 125
184 204 120
176 199 88
180 200 120
191 210 153
183 204 108
183 205 114
177 200 95
185 207 125
177 200 72
180 201 102
177 199 88
180 203 95
186 207 120
178 200 102
182 204 120
177 200 95
175 197 72
183 205 120
183 205 114
184 205 120
184 205 114
183 205 108
182 204 102
185 205 120
177 198 108
183 205 114
178 200 88
176 199 88
181 203 88
184 205 130
181 202 95
183 205 114
187 208 140
184 204 114
181 203 88
182 204 114
178 200 88
182 202 108
187 208 135
182 203 120
185 205 120
187 207 120
177 199 88
187 207 135
181 203 114
184 204 130
188 208 135
175 196 80
182 203 88
169 194 0
167 190 0
165 188 0
169 192 0
170 193 0
167 192 0
168 192 0
173 196 0
166 190 0
168 191 0
166 190 0
172 195 0
168 192 0
162 186 0
168 192 0
167 191 0
166 189 0
166 189 0
166 188 0
161 184 0
168 190 0
165 189 0
164 187 0
169 194 0
171 194 0
158 181 0
171 195 0
159 182 0
170 194 0
169 193 0
165 188 0
169 193 0
163 187 0
168 191 0
170 191 0
170 195 0
163 185 36
61 97 149
60 96 149
60 96 151
61 97 162
62 98 167
62 98 165
60 95 150
61 97 151
61 98 167
62 98 161
62 98 164
61 97 159
62 98 161
62 98 163
60 96 155
61 98 161
62 98 168
60 96 164
62 98 171
62 98 174
62 98 167
61 97 153
61 97 168
63 99 175
62 99 167
61 97 163
62 98 169
62 99 167
62 98 165
61 97 161
62 98 173
62 98 161
62 98 163
61 98 170
62 98 168
62 98 171
62 98 169
63 99 167
60 96 155
63 99 173
61 98 173
62 99 175
62 98 163
63 99 171
62 99 175
62 99 177
61 98 167
62 98 165
62 98 165
63 100 177
64 100 175
62 99 167
62 99 173
62 98 173
61 97 151
62 99 175
62 99 173
62 99 175
62 99 177
62 99 171
62 99 175
62 99 173
61 98 165
63 99 171
62 99 177
62 99 175
61 98 171
63 99 179
62 99 175
63 100 173
62 99 171
63 100 177
62 99 173
63 100 173
63 99 167
61 98 171
62 99 173
62 98 169
62 98 167
61 98 165
61 98 169
62 99 177
63 99 169
62 98 163
63 99 171
62 98 169
62 99 177
63 99 173
62 98 163
63 100 175
63 99 173
62 99 175
62 98 169
62 98 169
61 97 161
63 99 177
62 98 167
63 99 169
62 99 173
62 99 171
62 99 171
61 98 173
63 99 175
62 99 177
62 99 173
61 97 169
62 99 169
61 98 167
62 98 169
62 98 171
63 100 173
62 99 169
62 99 171
63 99 171
62 99 177
63 99 173
63 99 171
63 100 173
62 98 167
63 99 167
62 99 173
63 99 169
62 98 169
61 98 167
61 98 169
62 98 161
62 98 161
62 98 165
62 99 175
61 98 167
63 100 177
62 99 167
62 98 165
62 99 175
62 99 169
63 100 175
63 99 167
62 98 167
63 100 175
63 99 171
61 98 169
63 99 169
61 97 153
61 97 159
62 99 173
63 99 175
62 98 163
63 99 169
62 99 165
63 99 173
62 99 169
62 97 163
63 99 169
62 99 167
62 98 165
61 97 159
61 97 161
62 98 159
62 98 165
61 98 165
64 100 175
62 99 171
62 98 165
61 98 165
62 98 167
62 98 161
62 98 159
62 98 161
61 97 159
64 100 169
62 98 161
62 97 147
60 95 142
62 98 159
62 98 159
63 99 165
60 96 151
60 96 151
60 96 156
61 97 156
61 97 156
61 96 157
63 98 164
64 97 147
107 107 44
105 103 34
97 95 24
115 114 29
99 97 34
117 114 32
114 114 38
96 96 30
97 96 35
113 110 42
137 133 52
126 122 50
108 105 28
119 117 41
108 107 37
119 119 34
120 117 46
115 114 41
134 129 48
128 125 45
124 121 47
139 136 41
137 133 48
142 138 56
145 139 58
131 125 36
120 118 42
132 130 47
147 140 70
134 132 42
136 131 52
117 114 41
119 116 47
143 138 54
145 139 54
145 139 54
136 133 32
139 136 44
153 147 60
145 140 39
138 134 53
140 136 42
138 131 53
136 132 47
145 141 42
140 135 49
140 136 53
138 135 39
138 135 39
135 129 53
154 147 58
147 142 51
141 136 48
146 140 51
139 135 45
134 128 42
131 127 39
149 144 48
138 132 42
140 135 45
139 133 45
132 127 39
134 130 36
134 129 39
154 148 56
142 135 45
123 119 39
135 129 39
128 123 48
136 131 48
127 122 45
139 135 36
125 122 32
133 127 42
123 119 32
120 114 28
120 114 32
126 120 22
127 121 42
125 121 16
126 120 39
115 110 28
153 166 16
165 182 0
168 186 0
168 187 0
162 179 0
164 181 0
169 185 0
169 187 0
164 179 0
168 183 0
165 180 0
162 181 0
170 186 0
167 186 0
165 186 0
163 183 0
172 192 0
170 190 0
164 182 0
174 192 0
168 183 0
171 189 0
171 191 0
171 192 0
168 189 0
161 180 0
170 194 0
173 197 0
171 194 0
170 194 0
167 191 0
172 194 0
172 196 0
170 194 0
174 196 0
176 199 36
180 201 95
185 205 130
187 206 125
190 208 149
188 208 125
180 202 102
184 204 120
183 204 120
187 207 135
187 207 135
181 202 108
183 205 120
186 207 130
181 203 120
185 207 130
182 204 95
181 203 95
184 204 102
186 206 130
183 205 114
180 202 88
177 200 72
180 202 72
182 204 114
179 202 88
180 203 88
184 206 120
179 201 80
176 198 62
182 204 102
176 198 62
179 202 102
180 203 95
183 205 108
176 200 72
180 202 80
177 201 80
177 200 80
179 201 80
177 200 80
187 207 135
183 205 114
177 199 72
185 206 125
182 203 114
178 200 62
180 202 95
185 207 125
181 202 95
183 205 114
181 203 108
184 205 120
185 206 125
189 209 149
180 203 108
189 209 144
185 206 114
187 207 130
180 201 108
184 205 114
185 205 120
184 206 125
179 200 88
174 196 80
172 195 62
172 195 0
168 191 0
166 188 0
169 192 0
167 190 0
172 195 0
171 194 0
169 192 0
161 185 0
164 188 0
170 193 0
167 191 0
169 193 0
168 192 0
167 191 0
168 191 0
169 192 0
164 187 0
170 193 0
171 193 0
167 191 0
166 190 0
168 191 0
173 196 0
167 189 0
165 188 0
170 192 0
167 190 0
161 184 0
162 185 0
169 192 0
168 192 0
159 182 57
62 97 149
62 98 165
61 97 151
63 98 155
61 96 151
62 98 161
62 98 163
61 97 167
62 98 159
63 99 173
60 97 161
61 97 159
61 97 169
61 97 159
60 96 154
62 99 171
62 98 156
62 98 169
61 98 169
62 98 170
61 97 165
62 98 159
62 99 173
61 98 167
61 97 160
62 98 165
62 98 163
61 98 167
62 99 171
62 98 167
62 98 167
62 98 165
63 100 179
61 97 164
62 98 167
62 98 169
61 98 171
62 98 169
61 98 173
61 98 165
63 100 171
61 98 173
62 98 167
63 99 171
61 97 165
61 97 163
63 99 177
61 98 169
62 98 175
61 98 173
63 100 177
61 97 159
62 98 172
62 99 167
62 98 169
60 97 169
63 99 177
62 99 175
63 99 171
62 98 173
61 97 163
61 98 171
62 99 175
63 99 173
62 99 173
62 98 163
61 98 165
61 98 175
63 100 179
62 98 165
62 99 179
62 98 169
63 99 169
62 98 169
61 98 167
62 99 173
63 99 169
61 97 165
62 98 173
62 99 171
62 99 173
62 98 171
62 99 173
61 98 173
61 98 169
63 99 175
62 99 171
62 98 169
63 100 177
63 99 169
63 100 173
62 99 171
61 98 165
62 99 169
62 98 167
61 98 169
63 100 177
61 98 165
62 99 173
63 99 167
63 100 175
61 98 169
62 99 175
62 98 171
62 99 171
62 98 159
61 98 165
61 98 167
61 97 167
62 99 171
63 99 167
61 98 169
62 99 173
62 98 169
62 98 167
63 99 163
61 98 163
61 98 173
62 98 171
62 99 169
62 98 165
62 98 173
63 99 173
62 99 173
64 100 173
62 99 175
63 99 171
62 99 171
63 99 167
63 100 177
61 97 163
63 99 173
61 98 161
61 98 171
62 99 169
62 98 171
61 98 171
61 98 165
62 98 165
62 99 171
62 99 171
62 99 171
61 97 165
62 98 161
63 99 167
62 99 171
62 99 175
61 97 165
62 98 165
62 98 165
64 100 177
62 98 165
62 98 161
61 96 149
62 99 165
62 98 163
63 99 171
62 98 165
61 97 159
63 100 175
63 99 173
64 100 173
63 99 169
63 99 165
63 99 171
62 98 165
62 98 163
61 96 151
63 100 169
62 98 157
62 98 153
62 98 163
62 98 161
62 98 165
62 97 159
61 96 151
61 97 153
62 97 164
60 95 149
61 97 151
61 96 154
61 96 150
60 95 151
61 96 147
87 95 77
110 109 39
90 91 24
106 106 30
112 110 34
117 116 38
110 108 39
109 108 37
110 108 36
112 110 38
108 106 30
125 122 41
123 121 36
116 113 34
114 112 36
131 128 37
114 112 34
117 116 38
127 123 47
120 117 36
130 127 52
128 125 20
127 125 48
136 130 53
142 138 48
132 128 47
134 127 45
134 131 45
134 130 47
143 138 48
134 130 48
135 131 54
134 127 56
118 115 36
140 135 36
143 138 58
139 135 41
127 123 42
131 128 48
142 137 51
129 125 49
150 145 52
150 145 59
139 135 28
145 138 56
143 138 49
145 139 42
138 133 36
145 139 51
141 136 45
154 147 56
141 136 56
144 140 45
135 130 51
141 135 42
133 128 42
125 120 28
147 141 39
137 132 45
137 133 51
140 137 39
153 147 58
148 141 51
122 119 36
135 130 39
142 136 39
142 137 42
135 130 39
135 130 32
139 134 48
114 111 22
125 120 36
122 117 45
121 118 22
111 107 28
136 130 48
119 115 22
130 123 42
115 110 32
103 98 36
111 107 36
144 152 22
164 180 0
163 181 0
161 178 0
166 183 0
168 183 0
165 184 0
160 176 0
160 177 0
165 183 0
165 184 0
165 182 0
167 185 0
165 182 0
168 185 0
162 179 0
168 187 0
164 182 0
161 180 0
169 189 0
166 186 0
168 188 0
169 190 0
162 178 0
167 186 0
163 182 0
166 188 0
173 196 0
170 194 0
175 198 0
173 195 0
172 195 0
177 198 62
175 197 62
186 206 125
187 207 135
189 209 130
187 208 130
191 210 140
184 205 130
185 206 130
183 205 125
186 207 125
181 204 108
189 209 140
182 204 108
181 203 88
190 210 135
178 201 80
183 205 114
177 199 80
183 204 120
183 205 120
181 204 102
177 200 51
178 200 95
181 203 120
181 204 120
177 200 95
179 202 88
179 201 80
179 201 88
182 204 108
180 203 108
178 201 95
177 200 88
182 204 108
180 202 88
178 201 72
181 202 95
179 202 80
180 202 95
184 206 114
180 202 80
179 201 72
177 200 80
177 200 72
181 203 95
180 203 102
183 205 108
180 203 95
182 204 108
185 206 125
180 201 95
181 204 102
181 204 108
174 198 62
181 204 120
177 200 72
180 202 88
177 199 88
177 199 88
182 204 108
181 201 88
182 204 108
184 205 120
188 207 153
182 202 125
188 207 135
178 200 95
177 198 108
187 206 144
170 191 72
173 195 62
172 194 51
166 190 0
171 194 0
169 192 0
170 194 0
165 188 0
167 191 0
165 187 0
168 189 0
171 195 0
171 194 0
166 190 0
166 189 0
172 194 0
169 193 0
168 190 0
167 192 0
159 182 0
169 190 0
158 181 0
168 192 0
165 188 0
164 187 0
163 185 0
169 191 0
168 191 0
171 194 0
165 189 0
167 190 0
171 192 0
154 176 44
60 96 144
61 97 157
62 98 165
60 96 149
60 96 156
61 97 155
61 97 153
62 99 165
62 98 159
62 98 159
62 98 163
61 98 169
60 96 158
60 96 159
62 98 163
61 98 167
63 100 177
62 98 165
61 98 173
61 98 163
60 96 159
62 99 167
61 98 165
62 98 165
60 96 154
61 97 167
61 96 155
62 98 168
62 98 169
62 98 171
63 100 171
61 98 165
62 98 165
62 98 171
63 99 167
61 98 167
62 98 169
62 99 175
61 98 165
61 97 165
62 98 165
62 99 171
63 99 171
61 97 170
62 99 175
62 99 169
61 98 165
63 100 177
62 99 171
64 100 175
63 99 173
61 98 171
62 99 171
62 98 168
61 97 164
62 99 173
62 98 169
63 100 177
63 99 171
62 98 172
61 98 163
61 98 172
62 99 173
62 98 167
62 98 167
62 98 167
61 98 169
63 99 177
61 98 171
62 99 173
62 99 171
62 99 171
63 99 167
62 99 171
62 99 173
62 99 173
62 99 173
62 99 169
62 99 167
62 99 175
62 98 169
62 98 169
62 98 167
62 99 173
62 99 171
63 100 175
62 99 181
61 97 163
62 99 179
62 99 175
62 99 175
62 99 169
61 98 167
62 99 171
63 99 175
61 98 163
62 99 171
62 99 169
61 98 173
62 99 171
62 98 174
62 98 167
62 98 169
63 99 175
62 99 173
62 99 169
61 98 173
63 99 175
62 99 173
62 99 173
62 98 173
62 99 173
62 98 161
61 98 171
63 99 169
59 96 159
61 97 165
62 99 173
62 98 165
62 99 171
63 100 177
62 98 167
63 100 175
62 99 169
61 97 171
62 99 167
63 99 169
60 97 163
62 98 167
62 99 171
63 99 169
62 98 165
62 99 171
62 98 165
63 99 173
63 99 167
62 98 167
62 98 169
62 98 163
62 98 167
62 98 161
63 99 171
63 99 167
63 99 169
63 100 177
61 98 165
64 100 173
62 98 163
62 99 175
61 97 159
62 98 163
62 98 161
61 97 165
62 98 159
61 98 161
62 98 167
62 99 167
62 97 161
61 97 157
62 98 167
62 98 167
61 97 161
63 100 173
61 97 159
61 97 159
61 96 147
62 99 167
62 98 161
62 98 161
62 98 161
61 97 157
60 96 153
62 98 165
62 98 159
61 96 153
62 97 149
62 97 151
62 97 153
62 98 162
62 98 163
60 94 156
61 97 152
61 96 145
60 95 144
83 93 83
96 96 24
94 93 36
93 94 28
112 110 23
113 110 37
108 106 32
109 106 20
94 93 23
112 109 41
118 114 30
94 94 32
117 114 44
119 116 38
121 118 43
122 119 32
122 120 52
127 123 43
125 122 32
130 126 45
135 129 57
133 129 47
119 118 25
118 117 34
128 124 42
122 119 47
136 130 48
135 132 42
131 127 28
152 146 57
134 132 30
131 127 45
134 130 42
141 136 48
130 125 53
136 131 47
140 134 42
123 121 32
135 131 48
135 130 44
141 134 45
138 134 42
131 127 42
135 132 39
144 139 51
137 132 53
142 135 53
144 138 48
143 137 45
144 139 51
129 123 45
136 132 39
136 131 42
129 123 36
142 135 51
123 121 39
142 134 48
128 124 42
129 124 32
141 136 53
133 128 36
131 128 32
139 131 51
133 127 39
141 135 45
135 129 45
138 133 39
138 133 42
123 116 39
137 132 22
131 126 39
124 119 36
122 117 32
132 126 53
127 121 42
113 108 36
117 111 32
115 111 32
120 116 22
120 115 28
146 154 0
164 180 0
164 183 0
161 174 0
167 185 0
165 179 0
165 181 0
165 177 0
165 181 0
164 181 0
169 187 0
163 179 0
162 178 0
165 179 0
169 186 0
166 183 0
167 185 0
160 178 0
168 187 0
167 186 0
167 185 0
171 191 0
166 187 0
167 185 0
170 191 0
159 175 0
169 187 0
163 181 0
171 195 0
171 195 0
173 196 0
173 197 62
176 198 72
185 206 130
188 208 125
192 211 140
188 208 140
188 209 135
185 206 108
182 204 120
178 200 80
181 203 95
185 206 125
183 204 114
181 202 102
184 206 114
179 201 114
183 204 102
184 206 120
181 203 102
180 203 95
179 201 80
185 206 114
180 203 108
176 199 51
177 200 80
183 205 114
178 201 88
179 202 95
179 200 72
175 199 51
181 203 108
177 199 72
180 203 95
180 203 108
175 198 51
183 205 108
180 203 95
182 204 102
179 201 80
178 201 80
176 199 62
176 199 36
176 199 80
177 200 62
180 202 95
181 203 95
178 200 72
182 204 108
182 204 102
176 200 72
180 201 80
179 202 88
181 203 102
181 203 80
180 202 88
180 203 95
181 202 72
182 204 102
181 204 108
179 202 80
178 201 95
178 199 88
179 201 95
180 202 88
183 205 108
186 206 125
184 205 120
177 199 88
185 206 130
175 197 80
181 202 102
188 207 130
182 203 120
183 203 130
187 207 130
185 205 125
177 199 72
167 190 0
165 190 0
166 191 0
171 194 0
172 195 0
173 197 0
173 196 0
172 194 0
168 191 0
171 194 0
169 191 0
167 190 0
164 187 0
161 184 0
166 189 0
162 185 0
162 184 0
171 194 0
169 190 0
170 193 0
161 185 0
169 192 0
170 192 0
171 194 0
167 191 0
166 188 0
168 190 0
136 161 95
61 97 149
61 97 156
61 97 147
62 97 160
60 96 159
62 98 163
61 97 158
61 97 161
60 95 152
61 98 167
61 97 157
61 96 156
61 97 167
63 99 169
61 97 164
62 98 166
61 97 161
62 98 167
61 97 155
60 96 158
61 98 165
63 99 169
61 98 171
61 97 159
60 96 157
61 97 162
61 97 160
60 96 163
61 98 169
62 99 177
62 99 175
61 97 166
63 99 171
62 99 169
62 99 171
61 97 167
62 99 173
61 98 173
63 100 171
62 98 169
62 99 175
63 99 171
62 98 161
62 99 171
60 96 162
62 98 172
63 100 173
61 98 171
63 100 173
61 97 162
61 98 169
63 99 163
62 98 163
62 98 167
62 99 171
61 98 167
63 99 173
62 99 177
62 98 171
62 99 177
61 98 172
62 98 171
63 100 177
62 99 169
61 98 171
61 98 173
62 99 171
62 99 165
62 98 167
61 98 167
62 99 167
62 99 173
63 99 173
64 100 171
62 99 173
62 98 167
63 99 175
61 98 173
61 97 161
61 98 173
62 99 173
63 99 173
62 99 169
63 99 179
63 99 169
62 99 177
62 99 169
62 99 175
62 99 173
63 100 177
63 100 175
61 98 169
63 99 173
62 99 171
63 100 175
62 99 177
63 100 175
62 99 167
62 99 177
61 98 161
62 98 163
63 99 163
62 99 169
63 99 171
62 99 167
62 98 169
62 98 169
63 100 177
63 99 175
62 99 177
64 100 171
63 99 171
61 98 161
62 98 163
63 99 169
62 98 161
62 98 169
62 98 165
62 99 179
62 99 171
63 99 171
63 99 171
61 98 161
61 98 171
63 99 165
61 97 169
63 100 175
63 99 173
62 98 167
61 96 151
63 99 169
62 98 165
63 99 169
62 99 169
62 98 169
61 98 163
63 99 171
63 99 173
63 99 165
60 96 155
62 99 169
62 98 169
63 99 165
62 98 159
62 99 171
62 99 165
62 98 165
62 98 171
62 98 167
63 99 173
62 99 167
62 99 169
62 98 167
61 97 161
62 99 171
63 100 173
60 96 156
63 99 175
62 98 169
62 98 161
63 99 167
61 97 159
62 98 157
62 98 161
62 97 151
62 98 159
61 96 155
61 98 163
61 97 155
62 98 151
62 98 161
60 95 149
62 98 159
62 98 159
61 97 160
63 98 159
62 97 154
62 97 161
60 95 149
61 97 155
62 97 164
61 94 143
61 96 156
61 96 151
74 88 97
94 94 31
97 94 28
93 93 16
95 94 36
104 102 37
106 106 36
95 98 25
112 110 21
107 107 26
122 118 43
106 104 26
123 120 43
132 129 47
110 107 41
113 112 34
123 121 38
123 119 37
122 118 44
116 114 22
130 126 42
115 114 36
133 129 43
118 115 32
121 117 45
132 128 42
125 122 41
139 133 49
139 132 54
142 138 44
137 130 47
137 134 47
131 127 36
143 137 60
132 127 41
143 137 53
130 126 42
124 118 45
141 136 53
134 130 47
133 129 32
140 133 42
129 125 42
143 138 42
148 144 45
139 134 36
144 140 45
148 140 48
136 131 39
144 139 51
134 129 42
134 128 45
148 143 56
136 132 28
131 128 36
140 136 36
144 137 56
140 136 39
127 122 36
128 124 45
133 126 36
133 128 39
130 127 39
139 133 42
136 132 22
148 141 51
129 124 39
126 121 36
130 126 36
121 116 32
110 104 28
131 124 42
122 117 22
119 116 28
114 109 28
125 120 39
116 112 22
130 125 42
113 109 28
133 136 16
166 178 0
162 178 0
169 188 0
169 183 0
156 170 0
164 181 0
158 175 0
168 185 0
160 174 0
162 180 0
165 182 0
170 187 0
167 186 0
166 187 0
161 177 0
166 184 0
168 184 0
171 188 0
167 184 0
169 187 0
169 188 0
168 189 0
172 193 0
169 186 0
160 179 0
161 182 0
170 191 0
168 187 0
170 195 0
180 202 102
189 209 135
182 203 125
185 206 120
188 207 140
188 209 135
184 204 125
190 210 135
192 212 157
182 204 108
182 203 114
182 204 95
179 202 80
177 199 72
182 204 95
176 199 51
182 204 108
185 206 125
183 204 102
183 205 114
182 203 88
178 200 72
179 202 95
179 202 88
179 202 102
180 203 102
179 202 72
181 204 108
176 199 80
178 201 72
184 205 114
179 201 95
189 209 135
198 216 181
199 217 177
206 222 201
196 215 169
206 223 204
208 224 204
204 221 191
210 226 217
206 223 204
203 220 198
200 218 181
204 221 194
197 216 177
191 211 144
197 216 177
193 213 157
184 205 108
180 202 88
178 200 51
179 202 88
178 201 72
178 201 95
178 200 72
182 204 114
180 202 88
177 200 72
178 201 80
180 203 95
176 199 51
181 203 95
183 205 114
177 199 95
176 198 62
182 203 95
174 196 72
177 200 80
180 202 80
177 199 88
184 204 120
182 204 108
183 204 108
182 204 135
184 205 120
177 199 88
181 202 114
181 201 108
179 201 95
181 202 88
169 193 36
170 192 0
174 197 0
171 194 0
171 193 0
168 192 0
169 192 0
171 194 0
166 188 0
163 187 0
171 194 0
173 196 0
165 189 0
167 190 0
164 187 0
167 189 0
165 190 0
156 180 0
172 194 0
169 192 0
171 194 0
164 188 0
166 188 0
169 193 0
167 190 0
127 153 105
60 96 144
61 96 149
62 98 163
62 97 155
60 95 142
60 96 155
62 99 163
61 96 152
62 99 165
61 97 157
61 97 161
62 98 165
60 97 157
61 98 169
60 95 145
61 98 165
62 98 165
63 99 163
62 98 163
60 97 168
61 97 155
61 97 163
62 98 165
61 97 165
63 98 165
61 97 164
61 98 173
62 98 165
62 99 173
62 99 171
63 99 175
63 99 173
62 98 169
63 99 174
62 99 171
63 99 171
62 98 167
62 98 169
61 97 165
63 100 177
63 99 173
62 98 167
61 97 173
62 98 169
61 98 167
62 99 169
63 99 173
62 98 171
63 100 181
61 98 170
61 98 165
63 100 177
63 99 169
62 98 165
61 97 167
62 99 169
62 99 173
61 98 161
61 97 166
62 98 169
61 98 173
61 98 169
63 99 173
62 99 173
62 99 171
62 98 171
62 99 175
62 98 169
62 99 173
62 99 173
62 98 163
64 100 179
62 99 173
62 99 175
62 99 177
61 98 173
61 98 171
64 100 177
61 98 169
62 99 171
62 99 175
62 99 173
62 99 171
63 99 165
63 99 171
62 98 167
63 99 171
62 99 177
62 98 159
62 98 171
63 99 171
62 98 173
63 100 173
63 99 165
62 99 171
62 99 175
61 98 165
62 98 169
62 98 165
62 99 173
62 99 173
62 98 165
63 100 173
62 99 169
63 99 169
63 100 177
61 97 165
62 99 169
62 98 167
63 99 171
63 100 177
61 97 159
62 99 173
62 99 179
63 99 171
63 99 169
62 98 169
62 99 173
63 99 171
63 99 169
61 98 169
63 99 177
62 98 163
64 100 175
62 99 175
61 98 167
62 98 163
63 99 173
64 100 175
62 99 171
62 99 167
62 98 161
64 100 175
60 96 163
62 99 173
62 99 165
62 98 163
63 99 171
60 96 151
62 98 163
63 99 163
62 99 169
63 98 157
62 98 167
61 97 157
62 98 161
61 98 165
63 99 167
62 99 173
61 97 159
60 96 155
63 99 169
63 99 171
62 98 163
61 98 167
63 99 173
61 98 163
61 97 161
63 100 169
61 97 153
63 99 169
63 99 167
63 99 165
62 98 165
63 99 163
61 97 161
60 96 155
62 98 161
62 98 161
63 100 169
60 96 159
62 99 165
62 98 157
61 96 144
61 96 153
63 98 160
60 96 155
62 97 155
61 96 151
61 96 155
60 95 145
61 95 147
62 97 160
61 95 154
77 91 104
100 99 43
95 93 19
109 106 30
106 103 23
93 92 29
110 107 22
104 102 28
112 110 34
119 116 39
102 101 32
108 106 30
113 111 40
107 103 36
122 119 39
113 110 38
121 120 26
107 104 39
119 116 41
132 128 46
123 120 28
121 119 19
134 129 51
131 127 43
137 134 47
124 120 45
132 128 39
146 140 48
133 127 45
141 136 52
136 130 53
133 128 45
136 132 45
133 129 45
121 118 32
139 134 48
137 131 45
127 124 32
144 139 48
137 132 39
137 132 51
144 139 42
131 126 36
136 132 39
153 146 45
134 129 42
144 140 45
123 119 36
142 137 42
143 138 36
136 132 32
118 116 22
135 131 36
143 139 42
144 139 48
134 128 39
144 136 51
126 122 32
137 131 42
133 126 48
125 121 22
137 131 32
124 120 39
134 128 48
138 131 39
131 126 32
127 123 36
129 127 22
135 129 39
129 123 42
127 121 36
135 130 32
132 126 32
134 127 42
122 117 39
123 116 36
108 100 32
112 106 28
135 143 16
168 186 0
163 179 0
158 172 0
168 181 0
164 179 0
159 175 0
163 174 0
156 174 0
159 174 0
160 171 0
161 179 0
165 182 0
168 184 0
159 177 0
161 180 0
165 183 0
164 182 0
170 191 0
163 180 0
166 184 0
168 187 0
165 183 0
163 180 0
163 180 0
161 180 0
166 183 0
162 178 0
168 187 0
172 189 0
185 205 130
186 207 125
191 210 149
186 206 130
188 208 125
178 200 72
185 205 120
179 201 108
178 201 72
178 201 88
187 208 135
180 203 95
181 203 114
180 202 88
181 204 114
175 199 62
181 203 108
180 203 108
179 201 72
179 202 80
182 204 95
177 200 80
177 200 62
180 202 80
183 205 120
195 214 161
193 212 157
204 221 194
220 233 240
211 227 217
218 232 240
218 233 245
224 237 255
222 236 255
221 235 248
221 235 250
224 237 255
222 235 250
223 236 255
221 235 250
221 236 255
222 236 253
221 235 250
220 234 250
222 235 250
222 235 250
222 236 255
221 235 253
223 236 253
219 233 245
221 235 248
220 234 248
221 235 253
219 233 240
208 224 207
210 226 214
201 218 181
187 208 125
186 207 130
178 201 80
176 199 72
181 204 108
177 200 62
177 200 72
180 203 88
182 205 114
178 200 51
176 199 72
178 200 88
177 201 80
183 205 108
172 196 36
177 199 80
178 200 51
175 199 80
179 201 88
179 201 95
184 205 120
183 204 120
187 207 135
184 204 130
185 204 130
180 201 114
181 201 95
175 196 80
162 186 0
166 190 0
170 193 0
167 189 0
170 194 0
171 193 0
167 188 0
166 189 0
165 188 0
168 190 0
172 195 0
161 183 0
170 194 0
165 188 0
160 183 0
168 192 0
164 186 0
169 191 0
172 195 0
162 185 0
167 192 0
154 175 0
106 132 118
61 97 151
60 96 153
61 96 142
62 98 157
61 96 155
60 95 144
61 97 155
61 97 159
61 97 162
62 97 160
60 96 153
61 98 163
60 96 153
61 96 161
62 98 165
62 98 171
60 96 159
60 96 164
61 98 163
62 98 168
61 97 161
62 98 167
60 96 160
61 98 167
61 97 173
63 99 173
63 99 175
61 97 159
61 98 165
63 99 173
62 98 169
62 99 177
63 99 175
62 98 169
62 99 169
62 98 173
62 98 167
62 99 177
61 97 163
61 96 157
61 97 167
61 98 169
62 98 165
61 98 169
61 97 159
62 99 171
63 100 177
62 98 167
63 99 169
62 99 167
61 98 171
61 98 169
62 98 161
62 98 171
61 98 170
62 98 171
61 97 161
62 98 163
62 98 165
62 98 169
63 99 173
62 98 171
62 98 167
62 98 169
61 97 163
63 100 171
62 99 175
60 97 163
62 98 171
63 99 167
62 99 169
63 99 173
61 98 171
62 98 167
63 100 175
63 99 171
62 99 177
62 99 177
63 99 169
63 100 175
62 99 165
62 98 167
62 98 169
62 99 171
63 99 175
61 97 157
62 99 169
62 98 169
63 100 175
62 98 169
62 99 177
62 99 175
61 98 163
61 98 163
62 99 171
62 99 175
63 100 173
62 98 165
64 100 177
62 98 165
61 97 161
61 97 169
62 99 175
61 97 165
61 98 165
62 99 173
62 99 169
64 101 177
62 98 167
63 99 173
63 99 173
62 99 169
61 98 167
61 98 163
61 98 165
62 99 167
61 98 167
62 98 159
63 99 171
63 99 171
63 99 169
61 97 165
63 99 169
62 98 165
63 100 181
63 99 173
62 98 169
62 99 171
63 99 169
63 99 171
61 97 159
62 99 167
63 99 169
62 98 167
62 98 169
62 99 169
62 99 165
63 99 171
61 97 163
62 98 171
62 98 167
63 99 173
62 99 169
62 99 175
61 97 155
60 97 157
62 99 173
62 97 161
62 98 165
62 98 171
62 98 167
63 99 173
64 100 171
60 96 157
62 98 167
63 99 161
63 99 163
63 99 169
62 98 165
63 99 167
60 97 161
61 97 161
63 99 171
61 97 161
62 98 163
62 98 161
62 98 163
63 98 161
62 98 153
63 99 165
61 97 157
61 97 157
62 98 161
61 97 161
61 97 157
61 97 153
61 96 147
61 97 155
61 96 159
60 94 151
60 95 149
61 96 145
61 97 160
61 95 154
85 96 88
87 87 13
109 106 23
100 98 39
106 104 20
94 95 21
111 108 28
122 118 28
112 110 16
102 102 32
100 99 38
115 113 34
105 102 34
134 130 41
133 129 39
117 114 28
126 122 34
121 119 32
122 116 47
121 120 22
109 109 41
123 119 36
107 104 32
123 121 34
133 129 51
130 124 39
129 125 39
137 135 30
131 127 39
129 125 30
138 133 49
131 126 45
138 132 39
138 134 28
141 135 45
142 136 44
139 134 51
129 125 39
128 125 30
147 142 51
130 128 36
121 118 16
140 135 52
138 133 42
130 127 28
139 132 42
144 139 42
147 142 48
131 125 16
143 137 36
126 121 36
143 136 51
129 126 22
138 134 36
139 135 45
137 132 32
136 132 32
130 126 39
142 138 36
142 136 42
137 130 58
126 123 22
123 119 39
131 125 42
133 128 39
127 123 22
135 131 36
150 141 58
128 124 32
118 115 28
130 123 48
133 129 36
130 124 36
133 126 39
114 109 32
105 100 22
109 106 16
141 153 0
158 168 0
155 172 0
165 181 0
163 177 0
160 173 0
163 180 0
166 182 0
168 185 0
172 190 0
168 183 0
167 183 0
166 184 0
169 187 0
167 183 0
162 180 0
166 183 0
163 178 0
165 183 0
159 175 0
163 180 0
168 188 0
163 180 0
170 190 0
165 183 0
166 184 0
164 184 0
161 180 0
170 190 0
171 191 0
164 183 0
186 206 114
189 209 130
184 206 120
181 203 95
174 197 72
185 205 130
180 202 108
182 204 95
180 203 95
177 200 80
182 203 102
172 195 72
178 201 80
183 205 102
177 200 72
176 200 72
179 202 95
180 202 88
178 202 88
178 201 88
199 217 181
201 219 188
213 229 226
219 233 242
222 236 253
223 236 253
224 237 255
221 235 248
222 236 253
218 233 245
217 232 245
221 235 253
219 234 250
221 235 255
221 236 255
219 234 248
218 233 248
220 235 250
220 235 253
222 236 255
219 234 250
220 234 250
221 235 253
221 235 253
219 234 250
221 235 250
220 235 253
221 235 250
220 235 253
222 236 253
221 235 253
220 235 253
218 233 248
222 236 253
223 236 255
218 233 245
221 235 250
223 236 250
224 237 255
221 234 242
210 226 214
198 216 173
192 212 157
186 206 114
178 201 88
182 204 95
182 204 102
178 200 80
178 201 80
179 202 95
182 204 108
177 201 80
176 198 62
174 198 51
179 201 95
178 199 80
183 204 130
185 206 125
181 202 120
184 205 108
173 194 102
185 205 120
182 203 120
178 199 108
185 205 125
177 197 114
181 203 95
168 192 0
170 193 0
168 190 0
169 194 0
166 190 0
164 187 0
164 188 0
173 195 0
166 189 0
163 186 0
164 187 0
164 186 0
160 183 0
166 189 0
164 187 0
164 188 0
168 190 0
168 189 0
166 188 0
156 178 0
97 126 135
61 97 155
62 97 144
60 95 142
61 97 152
60 95 140
61 96 156
62 98 163
62 98 165
61 97 153
60 95 149
60 96 159
62 98 155
62 98 163
60 96 157
61 97 157
61 98 165
61 98 161
60 96 162
62 98 169
60 97 163
62 98 165
62 98 169
62 98 165
62 99 169
63 99 169
61 97 161
63 99 167
62 98 163
62 98 161
62 98 163
62 98 169
61 98 169
62 98 167
63 99 171
63 99 167
61 96 159
62 98 169
63 99 173
62 99 173
62 98 173
64 100 175
62 99 177
61 98 173
63 100 177
62 98 163
62 98 169
61 97 165
62 99 173
62 99 173
62 99 177
61 97 168
63 99 173
62 98 167
62 99 167
62 99 169
63 99 169
62 98 175
63 99 175
64 100 175
62 98 167
61 98 167
61 97 165
63 99 169
62 99 173
61 98 165
61 97 167
62 98 171
62 99 167
62 98 167
63 100 177
62 98 169
62 98 172
62 98 163
62 99 171
62 98 169
60 96 159
62 99 177
61 98 169
61 97 159
62 99 171
62 98 175
62 99 165
61 98 175
61 98 161
61 98 165
63 100 175
61 97 161
61 97 165
61 98 167
62 99 175
63 100 179
62 99 171
62 99 173
62 98 167
62 98 171
62 99 171
61 98 163
62 99 173
61 97 157
62 99 169
62 98 169
63 99 167
62 99 173
62 98 163
62 99 169
62 98 165
61 98 167
63 99 171
61 98 167
62 99 175
62 99 169
63 100 173
61 98 165
62 98 169
62 98 169
61 97 159
62 99 169
62 98 169
62 98 167
62 98 165
62 99 173
61 98 167
63 99 173
62 99 169
62 98 167
61 97 159
62 98 167
63 99 173
62 99 177
63 99 169
62 98 167
61 97 167
62 98 169
61 97 157
62 99 171
63 99 165
63 99 167
61 97 163
62 98 165
63 99 167
60 97 159
62 99 171
61 98 163
61 98 167
62 99 169
63 99 167
61 98 169
61 98 171
61 97 159
63 99 171
62 98 165
63 100 171
62 98 165
62 98 163
63 99 171
63 99 169
62 98 163
62 98 161
62 98 163
62 98 161
61 97 155
63 99 167
62 99 169
62 98 165
62 98 165
62 98 163
60 96 151
62 98 157
62 98 159
62 98 161
62 98 167
62 98 160
62 98 160
62 97 142
61 97 155
60 95 156
61 97 157
62 97 153
60 96 159
62 97 153
60 96 149
59 93 146
61 95 131
59 93 129
77 99 134
109 107 20
103 103 18
99 96 36
104 102 32
121 118 37
87 86 23
120 116 43
115 111 36
106 107 34
110 108 23
106 103 28
119 117 38
123 120 37
117 115 30
122 119 39
115 112 41
113 109 33
124 120 44
122 117 43
135 131 41
128 124 32
118 115 32
123 121 36
127 123 39
127 125 16
125 121 28
143 137 59
121 115 25
125 123 32
123 121 25
132 127 45
133 126 42
131 127 41
122 117 34
142 138 51
134 130 32
114 111 28
141 136 45
144 139 39
125 121 32
141 137 41
127 122 39
142 138 32
133 128 32
137 132 42
138 134 45
127 124 42
136 131 45
136 130 48
139 133 36
129 125 42
142 137 51
128 124 36
138 133 32
141 134 45
137 132 32
125 121 28
137 131 39
139 133 42
126 119 42
138 134 39
130 124 32
133 126 39
120 116 16
128 123 32
142 136 45
123 119 0
120 118 22
119 111 32
122 116 22
127 120 32
129 122 39
111 106 32
114 110 16
111 107 32
130 134 28
171 185 0
168 184 0
164 178 0
161 176 0
160 176 0
167 183 0
163 179 0
167 188 0
154 169 0
161 176 0
164 181 0
162 178 0
164 182 0
162 178 0
167 185 0
164 180 0
161 178 0
170 188 0
160 174 0
163 182 0
167 184 0
170 187 0
163 182 0
155 173 0
164 184 0
161 179 0
165 183 0
169 188 0
165 185 0
164 185 0
170 187 0
187 207 135
182 204 108
182 204 108
187 207 130
183 205 114
183 203 95
185 206 114
180 202 88
179 200 51
179 202 95
179 202 88
178 201 72
176 199 72
179 202 80
178 201 88
183 205 120
189 209 130
200 218 177
211 226 217
221 235 250
223 237 253
224 237 255
221 234 250
221 235 253
221 235 253
222 236 253
216 231 245
220 234 250
219 234 253
220 235 253
220 234 253
218 233 253
216 232 245
219 233 248
218 233 248
220 235 255
220 235 255
220 235 255
218 233 250
214 230 242
217 232 245
216 232 245
218 232 250
218 233 248
218 233 250
218 233 250
218 233 250
217 232 248
217 232 245
218 233 250
220 235 255
220 235 253
219 234 250
218 233 248
216 231 240
219 234 248
219 233 245
220 235 250
222 235 253
221 235 250
224 237 255
222 236 250
222 236 253
220 234 242
218 232 240
207 223 201
196 215 165
181 203 102
177 200 62
179 202 95
179 202 88
178 201 88
176 199 62
177 200 62
178 201 80
177 199 62
181 203 95
179 201 95
177 199 72
179 200 72
185 206 114
182 204 95
178 199 102
191 211 144
184 204 120
177 198 88
184 204 125
184 204 125
177 200 72
168 192 0
166 189 0
169 192 0
155 179 0
166 189 0
168 190 0
167 190 0
166 188 0
163 185 0
162 186 0
170 191 0
166 188 0
169 192 0
166 189 0
170 193 0
162 185 0
168 191 0
167 189 0
91 118 133
61 97 153
60 95 142
61 97 157
62 97 156
61 97 161
61 97 162
60 96 149
61 97 149
60 96 151
61 97 154
61 97 159
63 99 167
63 99 167
62 99 173
61 97 165
61 97 161
63 99 167
61 97 160
61 97 159
61 97 161
59 94 154
61 97 161
63 99 169
62 98 165
61 98 167
62 98 167
61 97 161
62 97 159
61 98 170
61 98 165
63 99 169
62 98 167
61 98 167
63 99 173
61 97 164
62 98 171
62 99 169
62 99 171
60 97 170
61 98 173
62 98 169
60 96 158
62 99 171
62 98 171
63 99 171
63 99 173
62 98 165
61 97 163
62 99 171
61 98 163
61 98 163
61 97 163
60 97 164
63 99 175
61 98 173
62 99 175
62 98 173
62 98 165
61 98 167
62 98 169
63 99 173
62 98 167
63 99 170
63 100 175
61 98 167
61 98 173
63 99 173
62 99 173
62 99 173
62 99 177
62 99 165
62 98 171
63 99 171
62 99 169
62 99 167
63 99 171
63 99 163
61 97 167
62 98 167
61 99 177
61 98 165
62 99 173
63 99 165
62 98 165
62 99 171
62 98 171
63 99 169
63 99 169
62 98 171
61 97 161
60 96 157
62 98 165
62 99 171
62 98 165
63 99 171
63 99 171
63 99 173
62 98 169
61 98 163
62 99 173
63 99 169
61 98 165
62 99 177
63 99 173
62 98 165
62 98 163
60 97 159
62 99 171
61 97 161
62 99 173
63 99 171
62 98 167
63 100 173
61 98 169
62 99 175
62 98 167
62 98 169
61 98 167
62 98 167
62 99 171
61 98 165
62 99 171
61 98 173
63 99 165
63 100 173
63 99 169
62 98 169
61 98 165
62 98 161
63 99 171
63 99 167
61 97 161
62 98 165
63 100 177
62 98 165
61 98 163
64 100 173
62 99 167
62 98 165
63 100 175
62 98 167
61 97 163
62 99 171
61 98 163
63 99 169
61 97 153
63 99 169
61 97 157
62 99 173
63 99 173
60 96 159
62 98 167
62 98 159
62 98 163
62 98 157
63 99 167
61 96 144
61 98 163
62 98 163
62 98 163
63 98 157
62 98 165
62 99 169
62 98 159
62 98 159
63 99 163
62 98 163
62 99 169
62 98 153
62 97 155
61 97 151
59 95 147
61 96 144
63 98 159
62 98 162
61 96 153
61 97 157
61 98 167
60 96 160
61 96 156
62 98 159
62 98 155
61 97 160
60 95 147
70 94 127
102 101 22
106 103 19
93 90 20
112 110 19
99 98 22
93 90 0
110 105 30
99 97 20
118 112 39
121 118 19
113 111 32
116 115 30
126 124 25
113 111 16
125 121 36
110 108 37
115 114 22
112 108 34
127 125 38
128 125 45
113 112 30
119 117 25
126 124 30
120 117 37
136 131 45
126 122 19
112 111 26
119 113 34
127 124 34
124 119 37
129 125 37
124 122 34
129 124 32
139 135 36
132 130 30
132 127 42
136 133 48
135 131 36
140 135 32
128 125 36
146 139 53
137 134 39
135 131 39
138 132 45
137 131 42
131 128 32
121 118 16
143 139 42
137 132 32
138 133 42
139 133 32
129 126 22
133 129 32
119 113 36
126 124 36
141 135 48
141 136 48
133 127 32
131 127 36
128 123 32
124 117 32
121 117 39
143 136 42
134 129 42
110 106 39
128 125 39
130 124 22
112 106 16
126 122 36
120 115 16
131 125 48
121 116 36
111 106 28
119 114 36
150 157 32
167 182 0
164 179 0
161 176 0
157 171 0
163 182 0
162 175 0
162 174 0
164 181 0
156 175 0
158 171 0
160 172 0
161 179 0
161 175 0
169 187 0
165 181 0
165 182 0
166 184 0
168 187 0
162 178 0
163 181 0
162 181 0
169 185 0
163 180 0
171 191 0
167 187 0
168 186 0
169 184 0
169 186 0
168 187 0
166 188 0
161 178 0
166 184 0
181 202 88
179 201 95
179 200 102
177 200 95
178 201 95
176 200 62
177 200 80
177 201 80
183 205 108
180 202 95
180 202 88
176 200 72
187 208 130
195 214 161
215 230 234
223 236 250
223 237 255
220 234 248
223 237 255
219 234 248
220 235 253
220 235 253
220 235 253
218 233 248
218 233 248
218 233 253
220 234 253
220 235 255
215 231 240
219 234 253
219 234 255
218 233 253
219 234 255
218 234 253
218 234 253
217 233 253
215 231 245
218 234 255
215 232 248
216 232 250
215 231 248
218 233 253
217 233 250
216 232 248
217 233 250
216 232 250
216 232 250
216 232 250
218 233 253
218 233 253
216 232 248
215 231 245
217 232 245
218 234 253
219 234 253
220 235 255
219 234 250
217 232 245
220 234 253
217 232 245
218 233 245
219 234 248
220 234 250
220 234 248
223 237 255
221 235 248
222 236 253
219 234 245
204 221 198
203 220 188
186 207 120
180 202 80
182 203 88
184 205 102
181 202 80
179 202 95
178 202 95
176 200 80
177 200 62
180 201 95
178 199 108
183 205 114
180 200 114
178 199 80
182 203 88
178 200 114
185 204 130
184 204 125
190 209 140
177 198 95
171 194 51
171 193 0
165 188 0
164 188 0
172 193 0
169 192 0
170 194 0
166 188 0
169 192 0
165 189 0
168 191 0
164 187 0
160 184 0
172 196 0
167 190 0
160 183 0
167 190 0
64 97 130
59 95 147
62 97 151
61 97 153
62 97 155
60 97 162
60 96 147
62 98 157
61 97 157
61 97 157
60 97 165
62 98 167
60 97 165
62 98 161
61 97 165
60 96 153
60 96 155
63 99 169
60 96 162
61 97 164
62 98 163
61 96 164
61 97 157
62 99 173
62 98 169
62 98 165
62 98 162
61 97 164
60 97 163
62 98 165
61 98 165
62 98 167
62 99 169
62 98 159
63 99 169
61 97 165
62 99 169
62 99 163
62 99 171
61 98 163
61 98 159
62 98 169
62 99 171
61 97 159
61 97 161
62 98 168
63 100 173
62 98 167
61 98 169
62 98 163
63 100 175
61 97 155
61 97 161
62 98 165
61 97 167
61 98 165
62 99 171
62 98 167
63 99 171
62 99 171
62 98 167
61 98 169
61 98 169
62 98 171
62 98 165
62 99 175
61 98 169
63 99 171
61 98 169
63 99 177
62 99 177
62 99 175
62 99 173
61 97 168
63 100 177
61 97 159
63 99 171
62 98 173
61 98 169
62 99 169
62 99 169
62 99 175
62 99 177
61 98 163
61 97 165
62 98 165
63 99 169
63 100 171
61 98 161
62 99 173
62 98 161
61 98 167
62 99 169
63 99 169
62 98 165
62 98 169
61 98 169
62 99 163
62 98 165
62 98 169
62 98 165
64 100 169
63 99 167
63 99 163
62 99 175
61 97 161
62 99 171
63 99 165
62 99 175
63 99 173
63 99 169
62 98 167
62 98 165
62 99 177
63 99 163
62 98 169
61 98 159
62 98 157
62 99 167
62 98 167
61 98 169
63 100 175
61 98 161
62 99 179
62 99 165
62 99 169
61 97 165
62 99 169
62 98 161
61 98 163
62 99 169
63 99 167
62 99 173
62 98 163
62 98 161
62 98 163
62 98 163
62 98 167
62 98 159
63 99 167
63 99 171
61 97 157
62 98 171
63 99 167
61 98 167
63 99 165
64 100 169
63 99 165
62 98 159
61 98 165
63 99 169
62 98 171
62 98 165
62 97 161
62 98 163
62 98 161
62 99 169
63 99 167
63 100 169
61 97 157
62 97 155
63 99 163
62 98 159
62 98 163
63 99 169
61 97 153
62 98 159
63 99 167
62 98 163
62 98 161
62 98 159
61 96 154
61 96 157
60 96 153
63 99 161
62 97 164
62 97 155
59 95 153
62 97 155
61 96 144
61 96 159
61 95 154
63 99 166
60 95 144
61 96 150
67 95 126
101 99 16
109 106 30
109 106 19
88 86 16
101 101 7
100 99 25
107 103 17
110 108 30
113 110 24
116 113 30
110 107 28
113 110 34
112 109 34
126 122 34
129 125 42
122 117 22
76 78 19
116 114 36
122 117 47
108 106 22
124 121 46
122 121 11
117 113 37
121 116 39
120 115 34
127 123 36
126 120 22
123 121 37
116 112 32
132 128 32
124 122 34
124 121 26
124 119 16
128 125 32
120 116 28
137 133 39
138 133 42
131 126 34
147 141 42
142 137 45
138 134 39
130 125 28
135 130 22
137 132 36
112 109 16
123 119 32
137 132 42
137 133 36
126 120 22
138 132 39
126 121 28
129 125 28
135 127 28
120 116 32
120 115 32
131 128 22
133 130 32
116 113 22
127 121 16
117 113 16
130 125 39
107 105 28
131 127 36
133 128 32
111 107 0
121 114 22
123 117 32
110 103 22
115 110 28
114 109 28
111 105 28
120 116 22
119 115 42
151 163 0
160 176 0
160 174 0
160 172 0
163 179 0
154 164 0
160 174 0
150 159 0
160 174 0
161 178 0
160 175 0
156 171 0
166 180 0
158 173 0
168 184 0
154 171 0
163 182 0
165 181 0
166 184 0
153 166 0
164 181 0
167 182 0
168 185 0
166 184 0
172 186 0
171 190 0
166 185 0
167 185 0
171 191 0
164 181 0
165 183 0
165 183 0
171 191 0
164 182 0
183 204 108
180 203 108
174 198 62
184 205 95
182 204 108
179 202 95
182 203 88
178 201 80
177 200 72
184 206 114
208 224 207
218 233 240
222 236 253
222 235 250
223 237 255
220 234 250
220 235 250
219 234 250
218 233 248
221 235 255
215 230 237
219 234 250
218 234 250
218 233 253
219 234 255
218 233 250
214 231 242
216 232 250
216 232 250
217 233 253
216 232 250
215 231 248
217 233 250
218 234 255
214 231 248
214 231 248
214 231 248
214 231 248
217 233 253
217 233 255
216 233 253
216 232 253
216 232 253
214 231 248
215 232 250
216 232 250
214 231 248
217 233 253
214 231 245
214 230 248
214 231 248
218 234 255
216 232 250
217 233 250
218 234 253
217 233 250
217 233 250
218 233 250
217 233 248
218 234 250
217 232 245
218 233 248
219 234 253
220 234 250
220 235 255
222 235 253
220 235 250
222 236 253
222 236 253
223 236 253
219 233 245
209 226 217
190 210 149
182 203 88
176 200 72
178 200 62
179 201 72
179 201 72
177 200 62
178 200 80
180 202 88
176 198 72
181 202 108
186 206 108
181 202 108
179 201 102
183 204 114
181 203 108
180 203 95
184 205 120
179 201 72
185 204 125
168 191 80
166 189 0
163 187 0
163 186 0
159 182 67
143 168 102
147 171 88
157 181 44
163 187 25
166 189 0
165 188 0
160 183 0
168 191 0
168 191 0
161 183 0
69 102 135
61 97 153
62 98 157
60 95 147
62 98 161
61 97 153
61 96 157
61 97 153
60 95 147
60 96 149
62 98 163
60 96 153
61 97 163
61 98 169
62 98 167
61 98 169
61 97 167
61 97 149
61 96 155
62 99 171
62 99 173
59 95 151
61 97 162
61 98 165
62 98 171
63 99 169
61 97 165
61 98 165
61 96 166
62 98 165
60 96 159
61 98 163
62 98 172
61 98 161
61 98 163
62 98 162
62 98 163
64 100 175
62 98 165
62 99 178
62 98 165
61 97 161
62 99 175
63 100 173
61 98 173
61 97 161
62 98 165
62 98 169
62 99 169
62 98 174
61 98 169
62 98 172
62 98 171
63 100 181
61 97 162
63 99 173
63 99 175
61 98 165
61 98 168
63 100 169
62 98 167
62 98 167
62 99 169
63 99 173
63 100 175
63 99 169
62 99 171
62 99 169
62 98 165
62 99 171
62 98 176
62 98 163
62 98 167
61 98 167
62 98 169
62 98 163
63 100 175
63 99 167
63 99 169
62 98 165
63 100 175
63 99 173
60 96 160
61 97 165
62 98 165
61 98 171
61 98 163
62 98 167
62 99 175
61 98 165
62 99 175
62 98 165
63 99 169
63 99 169
61 98 165
61 97 157
62 99 177
62 99 175
62 98 163
62 99 171
62 98 161
62 98 167
62 98 169
62 98 167
63 99 171
61 98 161
63 99 163
62 99 171
61 98 169
61 98 175
62 98 169
62 98 169
63 99 171
63 99 163
63 100 173
63 100 173
61 97 155
63 99 167
61 97 159
63 99 175
62 98 171
62 99 169
62 98 165
62 98 163
61 98 161
61 98 167
62 98 167
64 100 169
62 98 163
61 97 159
62 98 165
63 99 169
63 100 175
61 98 167
62 98 163
61 98 165
63 99 165
62 98 165
62 99 167
61 97 157
61 96 153
60 97 161
63 99 173
60 97 159
62 98 161
61 97 157
63 99 175
63 99 169
62 99 167
62 98 161
62 98 163
63 99 167
62 98 165
62 98 167
62 98 169
63 99 167
62 98 161
61 98 161
62 99 165
62 98 161
63 98 159
62 98 163
61 98 163
59 94 149
62 98 165
61 97 163
61 96 151
62 98 157
61 98 161
62 98 161
63 99 172
63 99 163
62 98 165
62 98 151
60 96 149
62 98 163
62 97 151
62 97 154
61 97 151
63 98 161
61 97 147
60 95 147
63 98 163
60 94 147
60 94 142
63 93 138
109 106 16
100 100 16
94 93 16
96 94 25
100 97 20
102 100 19
112 111 28
108 108 22
114 109 17
117 113 16
109 106 16
108 104 0
122 119 36
109 106 28
115 113 20
114 111 22
119 116 28
114 112 28
118 115 36
123 119 32
128 124 30
118 114 37
121 116 28
128 126 39
119 116 16
118 117 16
137 132 39
115 113 32
126 120 39
132 127 28
132 127 34
124 120 28
129 123 39
124 119 28
136 132 42
112 108 22
114 111 25
122 120 34
131 127 51
136 130 42
138 133 36
135 130 22
135 130 32
123 118 28
116 112 22
131 127 32
124 120 28
136 130 36
114 112 22
127 123 28
116 112 32
122 116 28
141 135 42
123 119 32
130 124 39
131 128 32
126 124 16
140 133 42
139 133 39
125 121 36
133 128 32
121 113 32
110 104 22
134 128 42
117 113 22
119 114 32
126 120 28
128 121 39
115 110 36
121 116 32
115 108 16
127 123 16
151 163 16
162 175 0
156 170 0
162 179 0
153 166 0
163 181 0
152 167 0
163 176 0
160 177 0
161 171 0
162 177 0
165 183 0
165 181 0
167 182 0
162 177 0
160 175 0
163 178 0
165 184 0
161 177 0
165 182 0
161 177 0
164 177 0
170 187 0
163 182 0
165 183 0
168 187 0
172 188 0
171 188 0
165 182 0
168 187 0
164 180 0
165 184 0
160 180 0
164 181 0
170 185 0
182 204 95
178 201 62
178 201 88
177 200 62
179 202 88
175 198 36
180 202 88
199 217 173
219 233 242
223 236 253
220 234 248
223 236 255
221 235 250
220 235 250
221 235 253
220 234 253
220 235 255
218 233 250
215 231 242
220 235 255
217 233 250
219 234 255
218 234 253
218 233 250
217 233 253
216 232 253
215 231 245
216 233 253
216 233 253
216 232 253
216 232 253
214 231 253
213 230 248
213 230 245
214 230 250
215 231 250
215 232 253
215 232 253
215 232 253
214 231 250
213 231 250
215 232 253
215 232 253
214 231 250
213 230 245
216 233 255
214 231 253
213 230 250
214 230 245
211 228 240
217 233 255
215 232 250
216 232 253
215 232 250
213 230 242
217 233 255
215 231 248
216 232 248
217 233 253
217 232 248
219 234 255
215 231 245
219 234 255
219 234 253
219 234 250
220 235 255
220 234 253
220 235 253
220 234 248
220 234 250
219 234 248
223 237 255
218 232 245
220 234 245
211 227 220
197 215 165
180 203 102
179 201 62
175 199 62
182 203 88
178 201 88
182 204 108
174 197 51
182 203 95
182 204 108
179 201 88
173 195 80
178 198 108
182 203 120
182 202 108
182 203 108
178 201 95
185 205 135
188 208 140
168 192 0
173 194 0
140 164 95
146 170 84
130 155 92
129 154 108
119 145 117
135 159 99
155 179 67
161 184 0
166 190 0
168 190 0
161 184 0
63 99 157
61 96 149
59 94 140
62 98 157
61 96 151
60 96 158
61 95 141
62 99 163
61 96 153
61 97 157
60 97 161
62 99 169
61 97 164
62 98 169
62 98 155
62 98 161
61 97 161
62 97 157
62 98 163
62 98 165
61 96 152
62 99 167
62 97 158
62 98 172
62 98 161
61 97 167
60 97 167
61 97 159
61 97 157
62 98 167
61 97 169
62 98 163
62 99 169
61 97 167
62 99 173
61 98 168
62 98 176
62 99 174
62 99 173
61 97 157
61 98 163
63 99 169
61 97 165
61 97 166
61 97 167
62 98 174
62 98 169
61 97 163
62 98 165
61 98 169
62 98 172
62 98 161
61 98 171
61 97 166
62 98 173
62 98 163
62 98 161
61 98 169
62 99 165
61 98 174
60 97 163
62 98 169
62 98 167
61 98 163
61 98 169
62 98 163
62 99 165
63 100 179
62 98 167
63 99 173
61 98 167
61 98 163
61 97 159
62 98 163
63 99 173
62 98 173
62 98 169
63 99 173
62 99 173
62 99 169
61 98 175
61 98 163
63 99 169
62 98 173
62 98 167
62 98 161
62 99 175
62 99 165
62 98 167
61 98 163
63 99 171
62 99 169
62 99 171
62 99 173
62 98 163
62 98 165
63 99 167
62 98 171
62 99 171
63 98 159
62 99 171
62 99 167
62 99 173
62 99 169
62 98 167
62 99 173
62 98 161
61 98 169
61 97 163
62 98 171
61 98 167
62 99 171
63 100 169
62 98 169
62 99 167
62 98 161
62 98 159
63 99 167
62 98 161
62 98 155
63 99 169
62 98 161
62 99 171
62 98 165
63 99 163
62 99 175
60 96 161
63 99 169
62 98 167
60 96 163
62 99 167
63 99 167
62 99 169
61 97 161
62 98 163
62 98 161
63 99 161
62 99 165
61 97 167
62 98 171
63 99 171
60 97 159
63 99 165
61 97 159
62 99 165
61 97 155
63 99 167
62 99 167
62 99 167
63 99 159
62 99 163
62 99 167
63 99 167
60 96 151
62 98 163
61 98 165
63 99 161
63 99 171
61 97 163
62 98 157
61 98 161
62 98 167
62 98 163
61 97 153
62 98 157
63 99 163
61 97 155
62 98 157
61 97 157
61 97 151
62 98 159
63 99 165
61 98 161
62 97 151
63 98 157
61 96 147
62 98 161
62 98 167
62 98 159
62 98 155
61 96 152
61 96 154
62 97 147
62 97 156
59 92 140
59 93 130
84 83 16
105 100 30
100 99 11
101 97 16
105 105 23
105 101 22
105 103 0
118 116 23
110 108 16
98 97 19
104 101 19
111 106 23
109 104 16
117 111 25
113 110 31
124 119 16
125 120 36
117 114 22
117 114 22
119 117 25
113 112 16
125 120 36
113 111 25
118 114 19
121 115 32
112 110 22
123 120 30
120 117 32
136 130 36
131 126 39
120 117 28
136 132 32
130 126 45
134 129 28
134 131 32
127 123 28
135 131 32
135 128 45
132 128 39
131 128 28
130 127 28
129 125 36
111 106 16
131 128 28
134 130 32
132 129 32
137 131 36
130 125 16
124 118 28
116 112 28
119 113 22
129 124 32
129 125 36
131 126 42
124 117 42
129 121 39
133 129 36
123 119 28
125 119 22
130 124 36
127 123 36
124 119 28
130 124 39
126 120 28
125 120 22
119 112 22
117 112 28
121 114 32
119 115 16
108 103 28
121 120 22
155 164 0
164 176 0
166 183 0
159 172 0
164 177 0
160 174 0
162 172 0
167 183 0
162 178 0
158 172 0
161 180 0
163 177 0
159 175 0
167 185 0
163 180 0
158 170 0
161 173 0
166 182 0
166 181 0
164 180 0
167 182 0
156 167 0
167 183 0
159 177 0
164 181 0
168 187 0
165 184 0
167 184 0
167 184 0
173 193 0
168 185 0
169 188 0
171 189 0
170 189 0
166 182 0
166 185 0
176 199 88
175 199 62
175 199 62
182 204 108
200 218 181
213 228 226
222 236 253
221 235 253
222 236 253
222 236 253
221 235 253
220 234 250
219 233 253
215 231 240
219 234 253
219 234 255
217 233 250
217 233 253
218 233 253
216 232 248
216 233 253
215 232 250
217 233 253
215 232 250
215 231 250
215 232 253
213 231 248
215 232 253
214 231 250
213 230 250
215 232 255
212 230 250
214 231 255
214 231 253
214 231 253
213 230 250
213 230 250
213 231 253
214 231 253
213 230 250
212 230 250
214 232 255
214 231 253
210 228 242
214 231 255
213 231 253
213 230 250
213 231 253
214 231 250
212 230 248
213 230 248
213 230 248
214 231 253
214 231 250
214 231 248
213 230 248
214 231 248
216 233 255
215 231 250
215 232 250
214 231 245
215 231 250
216 232 250
215 231 250
217 232 248
217 233 250
215 231 245
217 233 250
219 234 253
218 233 245
220 235 253
221 236 255
220 234 248
222 235 250
222 235 253
221 235 248
216 230 231
206 222 198
185 206 108
177 200 88
178 201 80
178 201 72
178 201 80
176 200 62
181 203 88
177 199 88
182 204 95
179 201 102
179 200 108
182 204 95
183 204 114
176 198 80
174 197 88
189 207 153
180 200 120
171 192 88
145 169 88
148 173 88
139 162 88
146 169 102
136 161 105
120 146 117
108 134 128
140 163 80
166 188 44
160 183 0
166 189 36
62 97 142
60 95 133
60 95 153
62 97 149
62 97 147
62 98 159
60 95 159
62 98 159
62 98 159
62 98 161
60 96 154
61 97 155
62 99 165
63 99 165
62 98 164
61 97 167
62 98 165
62 98 166
62 98 159
61 97 162
61 98 168
61 98 161
61 97 169
62 98 168
58 93 148
62 98 163
61 97 163
63 99 171
61 98 172
63 99 173
62 98 169
62 98 159
62 98 165
63 99 171
62 98 167
62 99 173
62 98 169
61 97 159
61 97 161
61 98 163
62 98 169
62 98 165
63 99 171
62 98 167
61 98 161
62 98 163
62 98 169
62 98 171
62 99 169
62 99 173
63 99 169
61 97 157
63 99 161
63 99 176
62 98 173
61 97 166
62 98 169
62 98 171
62 99 171
61 97 169
62 98 163
62 98 174
62 98 163
62 99 171
61 98 168
63 99 171
62 99 175
62 99 173
63 100 175
62 99 175
62 98 169
61 97 161
62 98 173
61 98 167
62 98 163
63 99 173
61 98 173
62 98 169
61 98 174
62 99 169
63 99 177
62 99 171
62 98 159
63 99 169
62 98 167
62 98 167
62 99 169
63 99 171
63 99 169
62 99 171
64 100 177
62 99 171
63 99 169
63 99 173
62 98 165
63 99 169
63 100 175
62 99 175
62 99 173
61 98 167
62 99 171
62 99 171
62 98 167
63 99 173
61 97 157
62 98 169
61 97 157
64 100 171
62 99 167
61 97 155
62 98 165
63 99 171
63 99 167
62 99 169
62 98 167
63 100 171
63 99 171
62 98 169
62 97 159
61 98 171
63 99 173
62 99 173
61 98 161
62 98 167
62 98 169
61 98 161
62 98 163
62 98 167
63 99 167
63 99 169
61 98 167
61 97 161
62 99 169
62 99 165
63 99 165
60 97 161
62 98 165
62 99 173
62 99 173
63 99 163
61 97 159
62 98 169
62 98 161
62 98 163
62 99 169
63 99 173
62 98 163
62 98 165
62 98 163
63 99 169
62 98 167
62 98 165
61 96 155
61 97 157
63 100 169
62 98 161
63 99 167
62 98 157
61 97 161
61 96 151
62 98 161
62 98 159
62 98 159
63 100 171
63 99 165
63 99 163
63 99 161
61 97 161
62 98 161
62 98 163
61 96 155
60 95 155
60 96 147
63 99 163
62 98 155
62 97 155
63 99 165
60 94 147
62 98 157
60 95 141
60 95 149
63 98 155
62 96 156
60 95 142
57 91 132
60 95 144
105 103 11
107 104 22
104 101 22
95 92 22
107 105 16
95 92 11
110 107 16
107 104 22
95 93 22
112 108 28
123 116 23
117 116 22
120 118 22
115 113 22
112 109 16
97 96 25
114 113 12
116 114 28
118 113 16
123 119 32
97 97 19
128 124 28
122 116 22
121 118 16
120 117 19
119 115 32
131 127 39
131 126 28
129 124 42
122 118 32
117 115 16
135 129 36
129 123 16
119 115 28
112 109 22
132 127 11
125 119 44
129 126 28
122 117 16
123 118 32
128 121 32
122 117 28
125 121 28
129 127 32
124 120 22
128 124 22
126 121 36
127 123 22
123 119 22
133 127 28
144 138 39
131 127 32
123 117 32
123 119 28
120 115 32
115 112 22
134 128 39
122 117 36
111 107 16
127 124 22
128 123 32
120 113 36
120 117 28
123 118 32
115 108 28
118 112 28
107 103 0
127 119 28
101 94 28
108 109 16
156 167 16
159 171 0
157 165 0
158 172 0
168 181 0
164 181 0
164 177 0
156 167 0
154 164 0
163 177 0
168 184 0
156 165 0
164 179 0
164 180 0
164 180 0
164 178 0
163 178 0
156 171 0
168 184 0
162 180 0
164 182 0
164 180 0
156 173 0
169 185 0
167 187 0
164 181 0
168 189 0
164 185 0
165 181 0
171 192 0
166 184 0
166 182 0
165 184 0
167 186 0
168 188 0
164 182 0
161 181 0
180 202 95
184 206 120
207 223 204
219 233 245
223 237 255
219 234 248
220 234 250
221 235 253
220 235 253
220 234 253
220 235 253
219 234 253
217 232 248
218 234 255
217 233 250
216 232 250
215 232 250
214 231 250
214 231 245
216 232 253
214 231 250
213 230 248
215 232 253
215 231 250
213 230 250
211 229 248
214 232 255
214 231 253
214 232 255
214 231 255
213 231 253
213 231 253
211 229 248
213 231 255
209 228 245
209 228 242
211 229 250
212 230 250
209 228 242
212 230 253
211 230 250
210 228 245
211 230 250
211 229 248
212 230 253
212 230 250
212 230 253
214 231 255
212 229 248
212 230 248
211 229 245
213 231 253
213 231 253
212 230 250
213 231 253
211 229 245
213 230 248
212 230 248
213 230 245
215 232 255
215 232 253
216 232 253
214 231 248
212 230 245
212 229 242
217 233 253
216 232 250
216 232 248
217 233 248
218 234 253
218 233 250
218 233 250
220 234 253
221 235 255
220 235 253
221 235 253
221 235 248
220 234 248
224 237 255
212 227 214
190 210 130
178 200 72
176 199 51
178 200 88
179 202 88
176 200 80
181 203 95
178 199 88
182 204 95
183 204 95
173 196 62
185 205 125
180 202 80
174 195 88
178 198 88
186 207 120
160 181 111
148 173 88
150 174 84
148 172 76
141 166 95
134 159 102
125 151 120
120 146 125
109 135 126
142 167 88
165 188 25
60 96 147
61 96 149
62 98 155
62 98 153
61 97 153
60 96 144
60 96 151
62 97 155
61 97 155
61 97 153
60 96 163
62 99 173
61 97 157
61 97 162
61 98 167
61 97 159
62 98 163
60 96 157
61 97 161
60 96 160
61 98 167
62 98 170
62 98 167
62 98 167
61 97 163
61 97 164
62 98 161
62 98 165
62 99 178
62 98 163
62 97 159
62 98 165
60 97 167
61 97 169
62 98 163
62 98 167
61 97 162
63 100 173
61 98 161
61 97 166
60 96 168
62 98 159
62 98 167
62 98 170
61 96 161
62 98 171
63 99 167
61 98 165
61 97 170
62 99 173
62 99 171
62 98 169
62 98 176
62 98 167
62 98 165
63 99 171
62 99 175
62 99 169
62 98 167
63 99 171
62 98 171
62 99 169
62 98 169
62 98 171
62 99 173
61 97 163
61 97 160
63 99 171
61 98 167
63 99 169
61 98 165
62 98 171
61 97 159
62 98 171
63 99 173
62 99 167
61 98 167
62 98 167
61 97 157
62 99 167
61 98 165
62 99 171
63 99 175
61 97 155
62 99 173
62 98 161
62 98 171
61 97 165
62 99 171
61 98 171
62 98 165
62 99 171
62 99 177
62 98 165
63 99 169
61 98 165
62 98 163
64 100 173
63 99 173
62 99 171
64 100 173
62 99 169
62 99 171
62 99 171
63 99 171
62 98 165
62 99 167
63 99 175
62 99 171
63 99 171
62 98 167
62 98 159
62 99 171
62 98 163
63 100 171
63 100 177
61 98 171
62 98 159
61 97 163
62 98 165
62 98 165
62 98 161
61 98 169
62 98 167
63 99 175
63 99 165
62 98 161
61 98 173
61 97 163
62 98 163
61 98 165
61 97 159
63 99 163
63 99 165
62 99 169
61 97 151
61 97 159
63 99 167
62 98 161
63 99 165
61 97 159
61 97 159
62 99 167
62 98 169
62 99 167
61 97 157
63 99 169
62 98 157
63 99 169
61 98 165
62 98 167
63 99 167
62 99 165
61 98 165
62 99 171
61 97 159
60 96 149
61 97 161
62 98 161
63 99 161
63 100 171
62 98 161
61 98 165
62 99 169
62 98 159
62 98 159
62 97 153
62 97 147
63 99 165
62 99 165
62 97 153
62 98 157
62 97 151
63 98 159
59 94 149
62 98 153
62 97 163
60 96 151
60 95 151
62 97 155
62 99 163
62 97 149
61 96 151
61 95 155
60 94 151
61 95 150
99 97 36
96 91 19
107 105 25
92 89 0
103 101 12
104 100 11
103 99 12
100 98 11
102 100 28
99 95 16
98 97 25
113 109 23
108 106 25
110 105 16
125 122 32
125 120 22
112 110 20
119 117 25
108 106 11
113 110 28
121 119 16
121 117 28
138 133 45
129 124 41
123 117 32
130 125 36
119 115 32
125 120 16
131 127 36
115 111 28
127 123 28
116 112 16
116 111 0
117 112 28
123 119 11
126 121 28
148 143 36
127 122 28
129 123 32
121 117 28
120 116 22
133 126 28
135 131 32
128 124 32
133 127 22
135 129 42
122 116 32
125 121 36
128 124 28
130 125 32
109 105 16
106 102 28
118 114 0
110 108 22
121 116 22
121 116 36
122 116 28
123 118 22
125 119 28
124 119 32
110 104 0
127 122 39
118 113 28
118 112 28
114 108 22
112 107 32
107 104 16
98 95 16
140 147 22
164 174 0
147 156 0
163 177 0
162 175 0
169 182 0
160 174 0
154 167 0
161 172 0
159 173 0
158 171 0
162 174 0
160 177 0
157 170 0
166 184 0
165 179 0
164 181 0
162 177 0
163 178 0
163 180 0
157 174 0
162 177 0
165 179 0
157 173 0
165 186 0
161 177 0
166 181 0
165 182 0
163 177 0
159 174 0
169 190 0
155 172 0
162 178 0
165 179 0
162 183 0
167 187 0
162 179 0
164 184 0
165 182 0
203 220 194
219 233 242
223 236 250
220 234 248
220 234 250
220 234 250
219 234 250
219 234 250
217 232 248
214 230 240
216 232 250
217 233 250
218 234 255
217 233 253
215 232 250
212 229 240
213 230 245
211 228 240
215 232 253
211 229 248
213 231 250
210 228 240
210 228 242
212 230 250
211 229 245
210 228 245
210 228 245
208 226 237
212 230 250
212 231 255
211 229 250
211 230 253
213 231 253
211 230 253
211 230 253
211 230 253
212 231 255
213 231 255
211 230 255
213 231 255
212 230 255
212 231 255
212 231 255
211 230 255
212 230 255
212 230 255
212 230 255
212 231 255
212 230 255
213 231 255
213 231 255
212 230 255
212 230 250
211 229 250
212 230 250
214 231 255
212 230 250
211 229 248
213 230 250
213 230 248
213 231 253
213 231 250
214 231 253
215 232 253
215 232 250
214 231 248
214 231 248
215 232 250
216 232 253
218 234 255
218 233 253
214 229 242
217 233 250
219 234 255
219 234 250
218 233 248
221 235 253
218 232 245
222 236 253
224 237 255
224 237 255
213 228 220
190 210 144
176 200 80
178 201 72
175 198 62
178 200 80
181 203 88
178 201 80
179 201 80
177 199 80
178 200 88
179 201 72
182 202 114
182 204 114
180 201 108
184 203 140
158 181 57
150 174 67
134 158 102
153 176 67
140 164 88
144 167 95
113 139 122
102 130 125
124 151 122
109 135 120
62 97 151
61 97 155
60 96 144
61 96 149
61 96 147
61 96 153
60 96 153
61 97 149
62 99 169
62 98 161
61 97 157
61 97 160
60 96 156
60 95 154
62 98 164
62 99 169
61 97 160
61 98 163
62 98 157
61 98 167
60 96 157
61 97 161
62 99 173
60 97 155
61 98 175
61 97 159
62 99 169
61 98 167
58 94 158
63 98 166
63 99 173
63 99 169
59 96 161
61 97 159
61 98 171
61 98 175
61 98 170
62 99 171
61 97 161
62 99 169
61 98 165
62 99 171
61 98 170
61 97 162
61 97 157
59 94 154
62 98 173
61 97 161
61 97 165
61 98 171
61 98 165
61 98 161
63 99 169
62 99 169
61 97 158
62 98 165
63 99 167
62 98 169
61 97 163
63 99 175
61 98 165
63 99 171
62 98 167
61 97 161
62 98 167
62 98 169
63 99 169
63 99 171
63 99 171
62 98 157
63 99 173
62 99 167
61 98 163
63 99 167
62 98 167
62 98 165
62 99 169
61 98 165
63 100 171
61 97 159
61 98 167
62 99 169
62 98 165
62 98 163
61 97 161
61 98 165
62 99 167
62 98 169
62 99 167
65 101 171
62 98 167
62 98 165
61 98 167
62 98 165
62 98 165
62 99 171
62 99 173
62 99 169
61 97 159
62 99 165
63 99 173
63 99 173
62 99 169
61 97 157
62 99 169
62 98 157
61 98 169
62 99 165
63 100 173
63 99 169
62 99 173
63 99 173
61 98 163
64 100 171
62 98 167
63 100 171
62 98 167
62 98 167
61 98 163
63 99 169
62 99 169
61 97 159
63 99 173
63 99 171
63 99 165
61 98 161
62 98 169
62 98 163
61 97 157
61 97 157
61 98 167
64 100 173
63 99 171
61 97 161
62 98 165
62 99 175
63 100 177
62 98 163
62 98 161
63 99 171
62 98 159
62 98 159
62 99 171
63 99 169
61 97 163
62 99 171
62 99 167
62 98 165
63 100 173
62 98 157
62 98 163
61 97 157
61 97 165
63 99 165
62 99 165
62 99 173
61 97 163
61 98 167
62 97 155
61 97 151
61 97 155
61 97 157
61 97 147
62 98 165
62 98 157
62 98 159
62 98 161
61 96 154
62 99 170
62 98 157
63 99 159
60 95 147
61 96 155
63 98 163
63 98 155
61 97 147
61 96 155
62 97 153
62 97 151
62 97 154
62 98 157
62 97 154
59 93 135
61 97 161
60 94 136
60 95 144
99 102 51
93 91 11
85 83 0
106 101 5
111 108 19
109 106 16
101 97 0
105 100 25
117 114 19
105 102 16
117 113 39
109 103 16
114 109 22
128 123 36
112 109 23
111 108 28
108 105 25
126 121 36
102 98 0
110 106 26
128 123 22
115 113 28
117 113 16
129 125 28
112 108 32
120 116 16
113 110 16
118 114 32
111 106 34
112 109 28
131 125 28
136 131 42
120 115 16
110 105 16
120 117 32
128 122 36
130 125 36
119 116 32
117 115 0
131 127 32
126 121 28
120 116 28
130 126 22
122 117 16
117 112 22
131 125 36
128 122 32
128 122 32
130 125 28
134 128 16
107 100 28
127 119 22
121 115 32
137 133 28
125 121 32
127 122 36
122 116 28
120 115 32
116 110 0
127 123 39
108 104 22
110 105 22
112 108 28
102 99 22
120 114 28
107 104 22
110 111 22
146 154 0
153 161 0
152 165 0
161 176 0
160 170 0
160 172 0
155 166 0
153 165 0
161 177 0
156 173 0
168 184 0
157 170 0
167 185 0
165 177 0
154 170 0
161 179 0
162 178 0
153 171 0
166 183 0
162 178 0
160 176 0
158 171 0
163 181 0
163 182 0
167 184 0
166 183 0
165 181 0
162 176 0
162 179 0
166 182 0
166 182 0
163 180 0
160 173 0
163 177 0
167 183 0
164 181 0
170 188 0
169 190 0
165 184 0
161 178 0
222 235 250
222 236 253
222 236 255
220 235 253
222 236 255
217 232 248
218 233 250
217 233 250
216 232 248
216 232 250
214 231 250
218 234 255
213 230 245
216 232 253
214 231 248
214 231 248
215 232 253
215 232 255
212 230 250
214 231 255
212 230 250
212 230 250
213 231 253
209 228 245
212 231 255
212 230 253
212 230 255
213 231 255
212 230 255
211 230 255
211 230 255
212 231 255
211 230 255
211 230 255
210 230 255
211 230 255
210 229 255
210 229 255
211 230 255
210 229 255
210 229 255
211 230 255
211 230 255
210 229 255
210 229 255
211 230 255
210 229 255
211 230 255
211 230 255
210 229 255
211 230 255
212 230 255
211 230 255
210 229 253
212 231 255
213 231 255
212 231 255
212 230 253
213 231 255
212 230 250
212 230 248
212 230 248
210 229 248
212 230 250
213 230 248
214 231 250
212 229 248
213 230 250
215 232 253
216 233 253
215 231 248
218 234 255
218 234 255
216 232 250
217 233 248
218 234 253
220 234 253
217 232 245
219 234 250
219 233 248
221 235 250
222 236 253
223 236 253
216 230 231
194 213 157
176 199 72
178 201 88
178 201 88
178 201 80
178 201 72
180 202 80
180 201 80
175 197 80
177 199 72
177 199 88
180 200 114
168 189 125
145 168 125
143 168 95
150 173 72
142 168 99
147 172 88
131 155 102
128 153 114
137 161 102
127 151 105
128 154 114
112 138 117
69 103 153
61 96 147
60 95 150
59 94 140
60 95 145
61 97 151
61 97 164
60 97 157
60 96 157
61 96 155
60 96 159
62 98 159
60 95 149
62 98 163
59 94 149
61 97 164
60 96 159
62 98 162
60 96 162
61 96 164
59 95 147
61 97 161
61 97 166
61 97 161
61 97 165
62 98 163
62 98 167
60 96 157
61 97 151
62 98 171
60 96 169
61 97 167
61 98 163
62 98 157
60 96 163
61 97 161
61 98 167
63 99 171
63 99 173
62 99 175
62 98 165
61 97 160
62 98 174
61 97 159
62 98 167
63 99 171
62 98 171
61 97 166
62 98 169
63 99 173
62 99 171
62 99 169
63 99 173
62 98 159
63 99 175
62 99 171
61 97 153
61 97 155
61 98 163
61 97 162
63 99 171
62 98 163
63 99 165
60 97 169
61 98 169
61 98 165
62 99 169
62 98 167
62 98 169
62 99 169
63 99 173
62 99 169
62 99 171
63 100 175
62 98 167
62 99 169
63 99 163
62 99 169
63 99 169
61 98 167
62 98 159
63 99 169
62 98 167
62 99 173
62 98 159
62 99 169
64 100 171
62 98 161
62 99 171
61 98 165
62 98 159
62 98 169
62 99 171
62 99 173
63 99 175
62 98 165
63 99 167
62 99 171
62 98 165
62 99 173
61 97 161
63 99 167
63 99 169
62 98 169
63 99 171
62 99 171
62 99 169
63 99 173
62 98 167
62 99 169
62 98 165
62 99 167
62 98 163
63 99 167
62 99 167
62 98 169
62 98 163
63 99 167
61 97 161
63 99 175
63 99 173
62 97 163
62 98 165
64 100 171
62 98 159
61 97 157
63 99 163
62 99 167
63 99 165
61 97 161
61 97 159
62 98 163
61 98 165
62 98 167
62 99 167
61 97 149
62 98 167
62 99 167
62 99 169
62 99 167
62 98 165
63 99 163
64 100 169
62 97 155
63 99 169
61 98 169
62 99 165
60 96 149
61 97 159
61 98 163
62 98 157
61 97 153
62 98 157
63 99 165
63 99 165
61 97 155
61 97 155
63 99 167
62 97 153
62 98 165
62 98 163
61 97 157
62 98 159
63 98 153
62 97 151
62 98 163
62 98 161
61 96 149
62 97 157
62 99 169
61 95 151
61 97 155
61 97 161
62 97 151
62 98 159
62 98 156
61 96 147
63 99 161
61 96 149
62 97 151
63 98 160
61 95 134
62 98 163
60 95 152
60 95 142
98 94 30
97 93 16
91 89 16
100 98 11
98 96 16
102 99 16
101 98 0
116 112 19
101 97 16
91 89 5
108 103 16
98 97 22
117 112 25
118 115 16
124 119 28
110 110 1
103 101 19
110 107 11
110 108 11
115 109 22
113 111 0
130 124 36
110 108 16
124 118 16
121 115 30
102 99 0
120 116 41
115 113 0
112 109 0
121 118 28
119 117 0
118 115 23
110 106 22
121 117 28
116 113 16
113 107 36
103 100 28
123 119 28
122 119 22
116 113 22
117 112 16
124 118 32
120 116 0
116 112 22
109 105 22
119 115 28
117 114 28
123 120 28
138 131 28
122 118 32
115 111 32
122 118 36
130 124 28
118 113 22
115 109 22
119 113 28
120 114 28
122 117 16
111 105 16
124 116 28
124 120 32
109 105 16
106 101 28
107 103 28
111 102 22
127 128 22
159 170 0
150 160 0
163 174 0
153 164 0
158 167 0
158 166 0
155 169 0
159 172 0
168 184 0
167 183 0
153 164 0
160 174 0
156 168 0
155 171 0
162 178 0
160 175 0
147 156 0
163 178 0
161 177 0
164 180 0
159 173 0
163 179 0
165 181 0
155 171 0
166 183 0
162 178 0
166 183 0
159 172 0
159 173 0
164 180 0
159 174 0
166 187 0
165 180 0
164 181 0
163 180 0
169 188 0
164 183 0
166 183 0
168 186 0
165 185 0
167 187 0
218 233 245
221 235 253
220 234 250
218 233 250
217 233 250
217 233 253
215 231 245
217 233 253
215 231 248
216 232 250
215 232 250
212 229 242
212 229 245
216 232 255
214 232 255
213 231 253
209 227 242
212 230 253
212 231 255
212 230 253
210 229 250
212 230 255
212 230 255
211 230 255
212 230 255
210 229 253
211 230 255
210 229 255
211 230 255
209 228 253
210 229 255
211 230 255
210 229 255
210 229 255
210 229 253
209 229 255
210 229 255
210 229 255
209 229 255
209 229 255
209 229 255
209 229 255
209 229 255
210 229 255
210 229 255
210 229 255
210 229 255
209 229 255
209 229 255
209 229 255
210 229 255
210 229 255
211 230 255
211 230 255
212 230 255
211 230 255
213 231 255
212 230 255
211 230 255
212 230 255
212 230 255
213 231 255
213 231 255
211 229 248
211 229 248
212 230 250
214 231 255
214 231 250
213 230 248
213 230 248
213 230 248
212 229 242
216 232 250
215 232 250
215 231 245
217 233 250
217 232 248
218 233 250
216 231 248
219 234 250
221 235 253
220 234 253
220 235 250
223 236 253
223 236 253
210 226 217
184 206 120
178 200 51
179 202 80
176 199 80
180 202 72
178 201 72
180 203 95
168 190 120
123 147 159
101 128 157
107 132 173
104 129 161
66 101 159
70 104 163
84 115 153
114 140 122
136 162 95
140 164 102
136 160 99
135 158 92
135 159 105
123 148 108
112 138 117
81 111 144
60 95 142
60 96 151
60 95 143
62 97 159
60 96 153
62 98 161
60 95 148
61 97 161
61 95 151
59 95 144
60 97 155
61 97 163
60 95 162
61 97 163
61 98 169
60 96 151
62 98 171
59 95 164
60 96 159
61 97 165
60 96 151
61 97 155
61 97 163
62 97 153
62 98 165
62 98 163
62 98 169
61 97 157
60 97 159
60 96 161
63 99 171
61 98 167
62 99 167
62 99 169
61 97 168
62 98 159
62 98 171
62 99 171
60 96 159
62 98 169
62 99 167
61 98 165
62 98 161
62 98 165
61 98 165
63 99 171
61 98 175
61 97 163
62 99 173
62 98 167
63 99 173
61 98 163
62 98 163
61 98 168
61 98 161
62 98 165
62 98 163
62 98 172
63 99 167
60 96 156
62 98 159
63 99 167
62 99 171
62 98 163
62 98 161
61 97 167
61 98 165
62 98 165
63 99 169
63 99 173
62 99 165
62 98 163
62 98 163
63 99 171
63 100 177
62 98 165
62 98 165
61 97 163
61 98 161
62 98 159
61 97 159
64 100 171
62 98 167
61 98 169
62 98 159
62 99 167
62 99 179
61 98 163
63 99 173
62 99 177
61 97 161
62 98 165
61 97 159
63 99 175
62 99 167
61 97 161
63 99 171
62 99 169
63 99 165
63 100 175
61 97 159
62 98 169
61 98 165
62 98 169
62 97 155
63 99 171
60 96 151
61 98 165
61 97 157
61 97 159
63 99 165
62 98 167
62 98 169
62 99 169
61 97 161
62 98 163
62 98 161
62 98 163
62 98 163
62 98 161
62 98 163
62 97 161
62 98 161
63 100 173
63 99 167
63 99 167
62 98 167
64 100 167
62 99 169
62 97 165
63 99 171
62 99 171
63 99 163
62 98 165
63 99 159
61 96 155
63 99 165
61 98 165
61 97 155
62 98 163
62 98 159
62 99 167
63 99 161
63 99 171
62 98 161
61 97 151
62 99 163
62 98 161
62 97 155
62 98 161
61 97 153
62 98 157
61 97 157
62 98 159
62 98 161
62 98 165
62 98 153
62 98 159
62 97 155
62 98 161
62 98 163
62 98 161
62 98 153
63 99 163
61 97 157
64 99 161
61 97 155
61 96 144
62 98 165
61 96 159
60 95 147
59 94 147
62 97 156
62 98 153
62 97 158
62 97 153
60 95 142
62 97 151
60 96 147
62 97 157
60 94 145
59 93 138
59 93 138
69 70 12
97 94 0
97 92 0
97 95 16
98 97 0
98 96 0
113 108 16
106 101 30
90 91 5
114 108 0
87 84 0
113 108 6
105 104 25
107 101 11
98 96 0
96 94 19
112 107 22
109 106 16
123 118 32
108 104 0
134 129 0
120 115 22
117 110 28
105 104 16
135 130 32
112 109 0
121 117 32
112 107 22
114 110 25
130 126 28
114 112 16
123 119 16
115 111 16
116 111 28
120 116 22
123 119 22
112 109 22
102 99 16
124 118 28
126 121 36
124 115 39
118 113 28
113 109 16
116 110 22
117 113 28
113 107 16
120 116 16
119 116 16
127 124 22
112 109 16
110 107 28
125 120 32
114 112 16
113 107 28
107 102 22
116 112 22
119 114 28
125 118 36
115 109 28
123 116 22
112 107 0
115 107 0
109 101 28
110 106 22
145 152 22
143 149 0
157 172 0
155 164 0
156 168 0
150 161 0
161 171 0
158 172 0
155 166 0
164 175 0
157 165 0
153 167 0
156 170 0
161 175 0
156 170 0
164 177 0
160 174 0
158 170 0
162 175 0
154 168 0
164 180 0
172 189 0
161 176 0
167 182 0
162 179 0
163 179 0
162 178 0
168 184 0
165 181 0
163 182 0
166 184 0
159 175 0
165 184 0
163 179 0
164 184 0
171 190 0
169 187 0
165 182 0
169 189 0
169 186 0
165 185 0
165 181 0
170 190 0
218 234 250
219 234 253
220 235 255
218 233 253
217 232 250
213 230 242
215 232 250
215 231 250
215 231 250
213 231 250
214 231 253
212 230 248
212 230 250
212 230 248
213 230 253
213 231 255
211 230 253
212 230 255
212 230 255
212 230 255
212 230 255
211 230 255
211 230 255
210 229 253
210 230 255
209 229 255
209 229 255
209 229 255
209 229 255
209 229 255
209 229 255
208 228 255
209 229 255
208 228 253
207 227 250
209 228 250
203 223 237
204 224 234
202 221 226
201 221 217
202 221 223
208 226 231
203 222 231
206 225 237
203 222 226
201 220 226
203 223 226
201 220 223
202 222 214
206 225 234
209 228 248
206 226 240
207 227 245
210 229 253
209 228 250
210 229 255
209 229 255
210 229 255
211 230 255
211 230 255
211 230 255
211 230 255
211 230 253
212 230 255
213 231 255
213 231 255
213 231 255
211 229 248
212 230 250
213 231 250
214 231 253
214 231 253
215 231 250
216 233 253
216 232 253
216 233 253
214 231 248
217 233 250
215 231 245
216 232 245
219 234 253
220 234 253
219 234 250
219 234 248
222 235 253
222 236 253
224 237 253
196 215 169
183 204 95
177 200 72
178 201 72
185 206 120
137 161 137
94 122 171
101 127 177
116 140 184
86 115 175
84 113 159
81 112 163
67 101 163
66 101 161
80 112 149
63 98 155
79 110 139
117 142 115
127 151 95
138 162 92
124 148 105
124 149 99
119 144 111
87 116 117
69 102 147
61 97 149
60 96 144
61 98 163
62 98 161
60 96 156
62 98 157
61 97 155
61 97 161
61 97 157
60 95 154
60 96 152
59 94 151
61 98 167
62 98 161
61 97 169
62 98 161
61 98 164
61 97 155
61 98 163
61 97 160
62 98 155
61 97 163
60 97 163
61 98 165
60 95 147
62 98 168
62 99 167
62 98 167
62 98 161
61 98 168
62 99 169
62 99 169
61 97 158
62 98 163
62 98 162
62 99 169
62 99 173
62 97 159
62 99 174
62 98 167
62 98 163
61 98 165
62 98 163
62 98 161
62 99 177
61 97 159
62 98 167
60 96 161
61 97 169
61 97 158
62 99 175
62 98 165
63 99 161
61 97 159
61 97 161
62 98 157
61 97 161
63 99 169
61 97 163
61 98 163
61 97 163
62 98 163
61 97 165
61 97 162
61 97 159
62 98 161
61 98 167
62 98 169
62 99 171
63 99 169
62 98 165
63 99 173
61 97 165
63 99 169
62 98 163
62 99 177
62 98 167
62 98 161
61 97 159
63 99 171
62 98 163
61 98 165
61 98 165
63 99 169
62 98 161
62 98 165
62 99 171
63 100 171
63 99 165
63 100 175
62 99 171
61 98 163
62 99 173
62 98 169
61 98 161
62 98 157
60 96 161
62 98 161
62 99 167
61 97 161
62 98 163
61 97 159
61 98 167
62 98 167
63 99 165
62 98 165
61 98 165
62 98 163
63 99 167
62 98 163
62 98 169
62 99 169
62 98 161
62 99 173
62 98 161
63 99 165
61 97 153
62 98 161
62 98 165
60 97 163
61 97 163
62 98 161
62 98 165
59 95 151
62 98 165
61 97 157
62 98 161
61 96 153
61 97 165
62 97 153
62 97 161
61 97 157
62 98 161
62 99 165
61 98 163
62 98 161
60 96 155
61 97 153
63 99 169
63 100 175
61 97 157
62 98 159
62 98 157
61 97 151
61 97 161
61 97 157
63 98 159
61 97 153
62 98 159
63 99 163
62 98 157
63 98 159
60 95 149
61 97 165
63 98 159
61 97 155
62 98 153
61 97 153
61 97 153
63 99 159
61 97 149
64 100 171
62 97 151
61 97 147
63 98 155
62 97 163
63 99 169
61 96 151
61 96 135
62 98 153
62 98 157
62 98 159
62 97 153
61 97 158
60 95 151
60 95 145
62 98 155
63 99 159
60 95 147
61 96 151
61 96 147
101 97 37
79 77 11
101 97 0
97 94 0
91 87 0
112 108 0
105 103 11
100 98 0
88 87 11
99 96 0
106 105 16
101 96 0
104 103 11
93 90 11
100 99 0
117 112 0
105 103 22
108 105 16
112 107 19
119 114 19
128 123 30
110 108 16
122 118 16
104 100 16
127 121 0
108 105 22
123 117 28
109 105 22
124 118 28
115 112 0
118 114 28
106 103 22
121 117 28
114 110 22
121 117 16
121 115 22
125 120 22
119 115 22
122 117 22
127 123 22
103 97 16
135 127 39
131 125 22
121 116 22
121 117 32
125 121 16
124 119 22
138 132 16
106 101 22
109 103 22
113 110 16
115 111 22
117 112 16
107 104 22
116 109 28
123 119 22
117 114 22
98 92 22
106 100 16
111 106 16
115 111 28
112 105 36
143 148 22
158 169 0
153 167 0
159 170 0
158 165 0
146 156 0
149 157 0
151 160 0
148 158 0
151 164 0
158 172 0
154 167 0
152 167 0
156 171 0
150 164 0
155 165 0
160 174 0
149 159 0
146 155 0
152 163 0
158 170 0
162 176 0
164 178 0
160 174 0
161 176 0
157 173 0
160 174 0
163 177 0
162 177 0
164 179 0
159 176 0
170 189 0
166 179 0
170 185 0
170 184 0
167 187 0
164 179 0
163 183 0
163 182 0
169 191 0
162 179 0
169 184 0
164 180 0
167 185 0
160 181 0
218 234 253
217 233 250
215 231 245
216 232 250
215 232 250
216 233 255
215 232 253
214 231 253
214 231 253
214 231 253
212 230 250
210 228 245
213 231 255
212 230 253
212 230 255
211 230 255
211 230 253
210 229 255
211 230 255
210 229 253
210 229 255
210 229 255
210 229 255
210 229 255
210 229 255
208 228 255
208 228 253
208 228 250
206 225 237
206 225 231
203 222 217
199 219 201
195 214 198
202 220 207
202 220 204
198 217 184
196 215 184
200 218 194
189 209 173
206 224 217
197 216 194
204 223 217
199 219 194
198 217 191
194 213 184
192 212 181
196 215 194
200 218 204
199 217 191
198 217 194
200 218 207
200 219 198
200 218 204
198 216 194
199 218 198
200 219 198
195 215 191
205 223 228
202 221 226
208 227 242
207 226 242
210 229 255
209 229 255
210 230 255
210 230 255
212 230 253
212 231 255
213 231 255
212 230 250
213 231 253
212 230 248
212 230 250
214 231 253
214 231 253
215 232 253
214 231 250
216 233 255
217 233 253
216 232 250
217 233 253
217 232 250
219 234 253
218 234 253
221 235 255
219 234 250
221 235 253
221 235 250
218 232 240
216 231 234
198 216 169
178 201 95
174 197 72
106 132 175
116 140 182
90 119 182
116 140 179
104 131 167
108 133 167
79 109 153
80 111 142
69 103 157
63 99 167
70 104 165
61 97 155
61 96 155
65 100 151
92 122 149
133 157 111
127 150 105
117 141 108
128 152 105
90 119 134
71 104 145
62 97 155
60 96 147
60 95 158
61 97 160
61 97 155
60 96 158
61 97 157
60 95 153
59 94 150
61 97 161
62 98 167
62 98 165
61 97 156
61 97 167
62 97 164
61 97 160
62 98 165
61 98 164
61 98 173
60 97 164
63 99 173
62 98 172
60 96 144
61 96 151
61 98 165
61 98 164
61 97 155
61 98 167
61 98 175
61 97 154
62 98 165
60 96 157
61 98 167
61 97 166
61 97 161
62 99 169
62 99 169
61 97 153
62 99 169
63 99 175
62 98 161
62 98 165
62 99 173
63 99 171
62 98 163
61 97 168
62 99 165
62 98 170
61 98 165
62 98 169
62 99 167
64 100 179
62 98 166
61 97 159
62 98 163
62 98 169
63 98 165
61 97 163
61 97 163
62 98 167
62 98 167
63 99 167
62 99 165
63 100 177
62 98 167
63 99 169
63 99 171
62 98 161
61 98 167
62 98 165
63 99 169
62 99 171
62 99 171
63 99 171
62 98 171
61 98 161
61 98 165
63 99 173
62 98 167
62 98 167
61 98 169
63 99 165
62 98 169
62 99 175
63 99 171
62 98 165
63 99 167
62 99 173
62 98 167
62 98 167
63 100 177
61 97 159
62 99 171
62 98 163
61 97 159
61 97 165
62 98 167
62 99 167
63 99 171
61 97 159
62 98 169
62 98 161
62 98 161
63 100 169
61 97 161
61 97 159
61 97 161
63 99 173
61 97 157
62 98 161
62 99 165
63 99 173
62 98 163
61 98 169
63 99 167
61 98 159
63 99 171
62 97 155
62 98 161
62 98 163
62 99 167
62 98 161
63 99 167
62 99 167
61 97 155
62 99 171
62 97 153
62 98 163
62 98 163
62 98 165
62 98 169
62 98 155
61 97 157
63 99 165
63 99 159
63 99 167
62 99 165
62 98 165
63 98 161
62 98 161
62 98 167
62 98 161
62 98 163
63 99 165
62 98 159
62 98 163
63 98 163
62 97 149
62 98 159
61 97 157
62 98 157
62 98 153
61 97 153
62 98 161
62 98 163
62 98 155
62 97 161
63 99 167
61 98 161
62 98 161
61 96 155
62 97 153
62 97 151
60 96 149
60 96 151
62 98 151
63 98 149
62 97 149
61 96 155
61 96 155
61 96 155
62 97 151
61 96 153
60 96 142
59 94 140
60 95 149
62 97 160
61 96 149
58 92 123
60 93 132
106 102 19
104 100 0
107 103 0
94 91 16
91 88 0
87 84 0
98 93 0
98 97 5
101 99 16
107 101 19
100 98 0
108 106 0
98 96 0
112 107 22
100 96 0
112 108 0
113 108 19
107 106 19
116 112 22
94 89 5
115 110 16
108 105 0
114 109 0
120 115 22
119 117 0
121 118 16
109 106 19
112 107 22
119 115 0
135 128 28
104 98 16
113 109 0
120 116 16
113 110 28
121 115 0
110 107 16
123 117 28
111 107 16
109 106 22
121 117 22
118 114 22
110 106 0
120 114 22
117 112 32
125 120 16
113 108 28
117 112 22
117 111 22
128 123 28
115 110 0
127 121 28
128 122 32
101 97 0
113 107 22
116 111 22
128 120 22
106 101 22
110 106 22
96 89 16
110 101 22
121 124 0
147 156 16
146 155 0
153 161 0
151 162 0
156 167 0
159 170 0
152 154 0
153 164 0
157 169 0
156 168 0
159 169 0
155 165 0
157 169 0
155 166 0
156 171 0
154 166 0
159 172 0
165 179 0
158 169 0
157 173 0
163 178 0
157 171 0
158 173 0
159 174 0
164 180 0
156 169 0
159 174 0
166 181 0
170 188 0
158 170 0
171 190 0
162 176 0
166 184 0
165 179 0
167 184 0
165 178 0
163 182 0
159 177 0
167 185 0
158 173 0
164 179 0
166 183 0
165 181 0
159 175 0
164 183 0
161 178 0
217 233 253
216 232 250
216 232 253
216 233 255
213 230 245
214 231 253
213 231 250
214 231 255
211 229 245
214 231 255
211 229 250
211 229 253
212 230 255
211 230 255
211 230 255
210 229 255
210 229 255
210 229 255
209 229 255
210 229 255
210 229 255
208 228 253
204 223 240
206 226 242
205 224 228
206 225 226
199 218 198
200 220 201
195 214 191
197 216 198
198 217 194
201 219 194
198 216 184
199 217 204
207 224 214
203 220 207
205 223 211
207 225 217
204 221 207
210 227 226
204 222 211
201 219 201
205 223 214
203 220 207
210 227 228
206 223 217
202 220 194
208 224 217
210 226 228
204 222 207
199 217 201
209 225 226
201 219 194
206 223 214
206 223 217
207 223 214
200 218 194
201 220 204
203 221 204
196 216 184
198 218 198
203 222 211
199 218 211
203 222 228
207 226 237
208 228 248
211 230 255
211 230 255
212 231 255
213 231 255
213 231 255
213 231 253
214 231 255
214 232 255
214 232 255
213 230 248
215 232 253
216 233 255
215 231 253
216 232 253
218 234 255
216 232 248
216 232 245
218 233 250
221 235 255
216 231 240
222 236 255
220 234 248
222 236 253
220 234 248
215 229 231
172 194 130
109 135 184
79 111 179
95 123 171
94 122 173
85 114 167
77 109 171
104 130 181
93 120 165
60 96 163
73 106 164
71 105 151
69 103 149
72 105 142
65 100 155
66 101 161
66 101 155
80 111 133
111 136 128
136 160 99
124 148 107
110 136 114
85 115 149
65 99 153
60 95 153
59 95 153
60 94 147
60 95 156
60 95 151
60 96 151
60 96 155
60 96 152
60 96 152
60 96 159
60 96 162
61 97 160
61 96 157
62 99 167
61 96 157
61 97 160
60 97 164
60 96 164
60 96 157
62 98 159
61 98 167
61 97 151
61 97 161
61 98 168
60 96 157
62 98 167
62 99 169
61 97 160
61 97 165
61 97 159
61 97 161
62 98 168
60 96 161
61 97 163
62 98 169
62 99 167
62 98 165
62 98 169
62 98 165
62 99 173
63 100 173
62 98 165
61 97 159
62 98 171
62 99 175
61 97 165
63 99 167
60 96 158
62 98 167
61 97 165
62 99 163
62 98 161
62 98 167
63 99 169
62 99 171
62 98 169
62 98 165
62 99 165
62 99 169
62 99 169
62 98 165
63 99 167
64 100 171
62 98 167
62 98 163
61 97 163
62 98 161
63 99 167
61 98 163
62 99 169
63 100 173
62 99 169
63 99 163
62 98 167
62 99 167
62 98 163
62 99 171
62 98 167
61 97 157
63 99 173
62 98 161
61 97 159
63 99 167
63 99 167
63 99 171
61 97 161
61 98 169
62 98 169
62 98 163
62 99 169
62 98 161
63 99 167
62 98 157
63 99 163
64 100 171
62 99 165
61 97 161
62 98 161
62 98 163
61 97 162
63 99 167
62 99 171
60 97 165
62 98 165
63 99 171
60 96 157
61 98 163
62 98 165
62 99 171
63 100 175
62 98 157
62 99 173
61 97 157
62 98 161
62 98 159
62 98 157
62 98 163
62 98 155
62 98 159
62 98 163
61 97 161
62 98 165
61 97 155
63 98 157
61 96 147
61 96 149
62 98 165
63 99 163
61 97 153
61 98 167
62 98 159
62 98 153
62 98 161
62 98 161
62 98 163
61 98 165
61 97 144
62 98 161
62 98 163
62 97 155
61 97 155
61 97 147
61 97 153
61 97 155
61 97 149
62 97 149
61 97 149
63 98 157
63 99 165
62 98 159
62 98 159
62 98 153
63 100 171
60 96 155
62 97 149
62 97 159
60 96 149
62 98 159
62 98 163
63 99 163
60 96 155
61 97 155
62 98 157
61 96 149
62 98 159
62 97 151
61 97 158
62 98 159
62 97 153
61 96 140
60 94 140
62 97 157
62 97 153
60 96 153
60 95 145
58 91 131
60 95 147
59 93 140
88 86 16
94 90 0
103 97 0
101 95 0
96 93 0
97 96 0
97 96 5
101 97 11
97 94 16
94 91 16
106 102 0
103 98 16
104 102 3
105 103 0
105 103 11
87 87 16
110 107 0
104 100 0
90 86 16
112 109 0
106 100 11
116 113 16
118 113 16
121 117 25
98 95 0
100 94 0
111 107 16
117 114 16
117 111 0
106 103 16
117 112 28
115 110 22
117 111 16
109 105 16
118 114 0
112 107 0
120 115 16
113 109 28
110 106 16
122 117 0
123 117 16
116 111 16
106 100 22
121 116 28
116 112 28
114 109 36
114 109 0
103 99 0
110 105 28
105 101 22
107 104 16
119 113 22
119 112 32
107 103 16
101 95 0
101 93 22
109 102 28
108 99 28
129 123 22
150 151 16
147 156 0
152 160 0
148 151 0
157 164 0
144 156 0
156 167 0
149 157 0
158 166 0
160 172 0
156 166 0
148 157 0
159 169 0
158 169 0
156 164 0
155 167 0
168 182 0
149 163 0
159 172 0
161 177 0
168 183 0
152 167 0
154 167 0
152 164 0
158 169 0
170 185 0
162 177 0
161 176 0
160 175 0
156 169 0
167 185 0
153 169 0
162 181 0
160 176 0
161 179 0
162 177 0
162 180 0
162 177 0
164 180 0
165 185 0
166 184 0
164 181 0
163 178 0
162 177 0
164 183 0
163 178 0
168 187 0
172 191 0
217 233 253
213 230 242
214 231 253
214 231 255
214 232 255
213 231 253
212 230 250
210 229 250
212 230 253
212 230 255
210 229 253
212 231 255
210 229 255
210 229 255
212 230 255
209 229 255
210 229 255
210 229 255
208 227 248
205 224 228
204 223 223
201 220 211
197 216 188
201 220 204
198 216 194
197 217 194
200 219 201
207 224 223
203 220 211
201 220 204
209 226 223
203 220 211
208 225 223
207 224 217
208 225 220
209 225 226
209 225 226
213 229 228
208 224 223
210 226 223
210 226 220
212 228 228
209 226 220
214 229 234
205 222 214
210 226 217
213 229 228
208 224 220
206 222 214
205 222 211
204 221 220
209 225 217
211 226 226
209 226 223
204 220 207
208 224 220
211 227 228
208 224 207
208 225 223
207 224 217
203 220 198
202 220 204
203 221 204
197 215 198
201 219 201
202 220 211
202 220 211
205 224 223
208 227 242
211 230 253
211 230 255
212 230 255
213 231 255
213 231 255
213 231 255
213 230 250
214 232 255
212 230 248
215 231 250
215 232 250
214 231 248
216 232 250
217 233 253
219 234 255
218 233 250
219 234 255
219 234 253
218 233 248
219 234 248
220 235 250
222 236 250
193 209 234
102 129 173
91 119 167
90 119 182
88 118 177
113 138 179
109 134 179
116 140 182
83 112 167
86 116 175
68 102 161
81 113 161
65 100 153
70 104 157
72 106 157
64 100 160
69 103 151
66 100 162
66 100 149
83 114 153
120 144 108
117 144 122
117 143 114
108 134 120
64 99 153
60 96 153
60 95 147
59 94 150
61 96 144
61 96 149
59 94 150
60 96 162
62 98 161
60 96 164
60 96 155
61 97 147
61 97 154
60 96 153
60 96 155
61 98 166
61 98 171
61 98 169
62 99 171
61 97 157
61 96 158
61 97 161
61 97 159
61 96 157
62 98 161
62 98 161
61 97 159
62 98 163
61 97 166
60 96 160
62 98 169
61 96 157
62 99 171
61 97 159
60 97 166
62 98 165
63 99 173
60 96 162
62 99 169
61 98 169
62 98 166
62 98 165
62 98 161
61 98 159
62 98 167
62 98 171
61 97 164
62 98 167
62 98 167
63 99 169
61 97 155
62 98 167
61 98 173
62 98 165
60 96 161
62 98 161
62 98 161
60 97 161
62 98 159
61 98 167
62 98 161
61 97 157
62 98 167
61 98 171
62 98 165
62 99 171
62 98 159
61 97 165
61 98 161
62 98 163
61 98 163
63 99 173
63 99 167
63 99 171
61 98 163
62 98 165
62 98 167
61 97 155
61 98 165
61 97 157
62 98 163
61 97 159
62 98 173
62 98 165
61 98 163
61 98 163
63 99 165
61 97 167
62 98 161
63 100 167
62 98 163
62 98 167
61 98 165
61 98 161
63 99 169
63 99 165
62 98 163
62 99 167
62 98 167
63 99 173
62 98 169
61 97 157
62 99 167
62 98 167
62 99 167
62 99 163
62 98 167
62 98 163
63 99 163
63 100 169
62 99 165
63 99 171
62 98 159
61 97 155
62 98 165
62 98 165
62 98 161
61 97 155
62 98 165
61 97 159
61 97 149
63 99 169
63 99 167
61 97 159
62 98 161
61 97 157
63 99 159
63 99 163
63 100 169
62 98 169
63 99 163
62 98 163
62 98 171
62 98 163
62 98 161
61 97 163
62 98 159
61 97 149
62 98 159
62 98 155
61 97 159
60 96 147
63 99 167
63 99 171
63 98 157
62 97 153
62 98 165
62 98 153
64 100 167
61 96 149
61 97 159
61 97 153
62 98 159
62 98 159
62 98 159
61 97 153
62 98 159
61 97 157
62 98 161
62 98 157
61 96 153
63 99 157
59 94 142
59 94 131
62 97 155
62 97 155
61 97 151
62 97 153
62 97 160
62 98 161
60 95 144
60 95 145
61 97 149
63 98 156
61 96 149
61 96 142
59 94 135
58 91 136
98 95 0
95 92 16
99 94 0
88 86 0
90 84 0
111 105 0
103 98 0
98 93 0
90 88 0
100 95 0
87 84 0
109 105 0
106 102 16
102 96 11
96 92 0
104 99 0
115 110 22
92 90 0
110 106 0
105 100 0
117 111 16
130 124 16
115 110 16
106 104 0
123 120 16
108 105 16
112 108 16
116 112 19
115 108 0
118 115 0
114 110 28
114 109 0
116 111 0
119 115 0
105 103 0
109 104 0
110 107 0
125 121 0
117 112 16
131 125 28
105 102 16
120 115 22
108 103 22
111 106 0
112 105 16
111 104 16
102 99 0
119 114 0
120 114 16
122 116 16
117 112 16
116 111 22
113 108 16
117 112 16
102 97 22
115 107 22
112 105 16
148 150 0
158 163 0
144 150 0
152 159 0
134 140 0
148 157 0
153 161 0
147 157 0
162 173 0
154 162 0
147 153 0
157 170 0
157 166 0
153 165 0
159 167 0
160 174 0
144 155 0
148 158 0
154 167 0
163 179 0
159 173 0
164 178 0
161 177 0
162 173 0
153 164 0
159 170 0
158 170 0
161 171 0
157 169 0
163 181 0
162 178 0
165 184 0
162 182 0
155 168 0
162 176 0
162 176 0
163 176 0
166 184 0
169 186 0
163 179 0
166 183 0
167 183 0
164 182 0
161 176 0
163 181 0
166 184 0
158 174 0
165 184 0
168 184 0
171 190 0
215 232 253
213 230 250
213 231 253
211 228 242
209 228 242
213 231 255
212 231 255
211 230 253
212 230 255
211 229 253
210 229 255
210 229 255
210 229 255
209 229 255
210 229 255
207 226 240
203 223 231
197 216 194
198 217 194
197 216 191
201 220 198
200 218 198
196 214 188
207 224 217
203 220 204
202 219 201
203 220 194
202 219 201
205 222 207
208 224 217
207 223 220
204 221 211
205 221 207
215 230 231
212 228 231
208 224 214
212 227 223
210 225 214
204 221 198
199 217 194
199 217 181
195 213 177
190 210 144
193 211 153
198 217 177
197 216 181
185 206 130
192 212 161
192 212 173
194 214 173
190 208 149
198 217 177
194 213 173
198 215 188
208 225 214
207 223 214
208 224 220
208 224 217
202 219 201
201 218 207
203 219 207
210 225 223
210 226 226
205 222 217
201 219 204
204 221 204
202 219 204
196 215 173
197 215 191
197 216 201
203 220 211
205 224 228
210 229 253
212 230 255
213 231 255
214 231 255
213 231 255
213 231 255
212 230 248
210 228 242
214 231 250
214 230 245
216 233 253
217 233 255
217 233 253
218 233 253
219 234 255
218 233 250
219 234 250
220 235 253
220 234 248
177 193 224
78 110 177
99 126 177
106 133 171
89 119 169
104 130 177
94 121 171
77 108 163
88 117 171
85 115 177
62 99 167
69 103 161
65 101 161
72 104 157
61 97 155
62 98 164
70 104 157
70 104 161
68 102 150
63 98 163
64 98 144
106 133 114
122 148 114
130 156 111
93 120 144
67 100 155
60 95 140
62 98 159
60 95 149
61 96 149
60 95 155
61 96 162
62 98 165
62 98 161
60 95 151
61 98 166
61 96 157
60 95 163
62 98 161
60 96 158
60 96 151
61 97 160
61 97 159
62 98 162
61 96 156
61 97 159
61 98 169
62 99 171
61 98 167
62 98 165
62 98 164
60 96 160
61 97 169
62 98 159
63 99 173
62 98 161
63 99 165
61 97 165
61 96 158
61 97 157
61 97 157
63 99 169
61 97 161
60 97 159
62 98 165
61 97 159
62 98 167
63 99 173
61 97 167
62 98 163
62 99 165
62 99 167
61 97 157
62 98 167
61 98 165
61 97 162
63 99 165
61 98 165
63 99 167
62 98 161
61 97 163
63 99 167
62 99 165
62 98 165
62 98 159
62 98 163
62 98 163
62 99 171
62 98 159
62 98 165
62 98 157
62 99 167
62 98 163
62 98 163
63 99 165
62 98 169
63 99 167
62 99 169
62 99 175
62 98 161
63 99 171
63 99 165
63 99 163
62 98 163
63 99 167
62 99 169
60 97 155
63 99 165
62 98 163
61 97 159
62 99 173
62 99 171
63 100 175
63 99 167
63 99 171
62 99 173
61 97 153
61 97 159
62 98 167
62 98 161
62 98 159
62 98 159
62 98 163
62 98 165
62 99 169
63 99 167
62 98 161
62 98 163
63 99 167
62 98 167
63 99 169
61 98 167
60 96 153
62 98 163
62 98 159
62 98 163
62 98 165
60 96 157
62 99 165
62 99 175
63 99 161
62 98 167
62 99 165
62 98 165
63 99 167
62 98 167
63 99 177
61 97 153
62 98 169
61 97 157
61 97 157
62 98 161
61 96 149
62 97 155
62 98 161
62 98 169
60 96 147
63 100 171
62 98 161
62 98 159
60 96 151
63 99 163
62 98 161
63 99 165
62 98 163
62 98 161
62 98 159
62 98 161
63 99 165
62 98 157
62 98 157
61 97 155
61 97 155
62 98 157
62 98 157
62 98 165
62 98 149
62 97 155
61 96 151
62 98 161
62 98 155
62 97 151
62 98 161
61 97 151
61 96 151
62 98 157
61 97 153
62 97 155
62 98 157
62 98 161
62 98 161
60 96 154
60 94 149
61 96 142
62 98 159
62 98 157
59 94 137
60 95 147
62 97 153
61 97 151
60 95 142
57 86 121
103 100 5
83 80 0
91 86 0
100 94 0
101 101 0
101 96 0
88 84 0
99 94 0
100 97 0
116 110 0
97 94 0
92 85 0
101 97 0
102 99 0
98 94 0
108 101 16
103 100 0
99 96 16
97 88 0
111 108 11
109 103 16
97 95 19
111 106 0
112 106 16
108 105 0
108 103 0
114 110 0
117 112 16
103 100 0
109 105 0
106 102 0
115 110 16
106 102 0
110 106 0
119 114 0
110 107 28
107 105 16
129 124 16
110 104 0
116 110 0
119 114 22
112 108 0
107 103 0
111 106 28
120 115 16
112 104 16
115 110 22
115 112 22
89 84 22
108 103 0
107 101 0
106 99 16
100 95 22
111 105 32
103 100 0
125 128 16
144 149 0
148 158 0
149 156 0
149 156 0
151 159 0
148 157 0
155 165 0
155 165 0
149 157 0
159 168 0
165 181 0
151 161 0
156 166 0
154 166 0
156 165 0
159 172 0
162 173 0
165 178 0
162 175 0
158 172 0
157 169 0
154 168 0
151 159 0
163 178 0
155 169 0
154 165 0
161 174 0
159 172 0
158 170 0
168 183 0
159 174 0
164 182 0
163 176 0
165 182 0
165 181 0
161 178 0
164 182 0
168 185 0
169 186 0
165 185 0
166 186 0
161 179 0
164 182 0
166 181 0
165 181 0
167 185 0
167 185 0
167 186 0
163 181 0
163 181 0
160 180 0
212 230 248
213 231 255
212 230 250
213 231 255
212 230 255
212 230 255
211 230 253
212 231 255
210 229 255
209 229 255
208 228 255
210 229 253
202 222 228
204 223 223
201 219 207
197 216 201
202 220 211
201 219 198
201 220 201
204 222 211
205 222 214
208 224 220
213 229 231
210 226 217
203 221 204
215 230 231
210 226 220
206 221 211
207 223 217
208 224 214
198 217 184
198 215 184
191 211 157
185 206 144
181 203 125
177 200 72
175 199 80
176 200 88
174 197 62
175 199 51
177 201 88
175 198 51
175 199 62
173 198 72
179 201 88
176 199 36
175 199 102
174 198 72
177 200 80
177 200 62
174 197 36
177 200 95
172 195 62
176 199 88
171 195 62
174 197 36
174 198 51
180 202 88
183 204 102
192 212 157
192 211 161
198 215 184
205 222 201
202 219 191
212 227 228
210 225 226
210 225 226
205 223 207
207 224 211
201 218 201
203 220 207
196 214 184
198 217 184
203 222 217
210 229 245
212 230 253
212 230 255
214 232 255
212 230 250
214 231 255
214 231 253
213 231 250
212 229 242
215 232 253
217 233 253
216 232 250
216 232 250
218 234 255
217 232 248
218 233 250
219 234 250
204 219 245
94 123 179
82 113 155
97 125 175
84 115 165
89 118 175
87 117 179
99 126 157
98 125 163
86 115 167
81 111 163
65 99 156
62 99 167
77 109 157
61 96 156
76 107 151
68 102 144
65 101 163
74 106 147
64 98 148
71 103 141
60 96 140
59 94 141
110 135 122
124 151 117
97 126 129
60 95 156
60 95 144
59 94 133
61 98 161
60 96 158
60 96 161
62 98 164
61 97 157
60 95 149
60 96 154
61 97 161
61 98 173
62 98 171
60 95 153
61 97 157
61 97 157
60 96 160
60 96 153
62 98 161
63 99 176
61 96 160
61 98 169
61 98 163
62 98 161
61 97 157
62 98 163
61 97 166
61 97 161
62 98 157
62 98 167
61 96 156
61 98 170
61 97 163
62 98 169
62 98 169
62 98 163
62 98 171
62 98 163
62 98 171
63 99 165
62 99 171
62 99 171
61 97 161
61 98 161
61 98 163
63 100 173
63 99 165
62 98 165
61 98 169
62 99 169
61 97 162
62 98 166
60 96 155
61 97 163
63 99 169
62 98 167
62 99 169
62 98 161
61 98 171
62 99 167
61 97 163
62 98 163
61 97 159
62 98 169
61 97 159
62 99 169
62 99 171
62 98 165
62 98 165
62 98 163
61 97 161
63 99 173
60 96 151
62 99 165
62 98 159
61 97 159
64 100 167
60 95 149
61 98 169
63 99 161
62 98 163
62 99 167
61 97 161
61 98 169
63 99 167
63 99 169
62 99 171
62 99 169
61 98 161
62 99 173
63 99 161
62 99 169
62 99 169
61 97 159
62 98 159
63 99 165
63 99 173
62 97 151
62 98 157
62 98 159
62 98 163
62 98 157
62 98 163
63 99 169
63 100 173
62 98 161
62 99 165
61 97 161
62 98 163
62 98 155
62 98 159
60 97 159
61 98 163
62 98 163
62 98 161
63 99 165
62 98 159
62 98 165
62 98 161
62 98 159
62 98 157
62 98 163
62 98 163
62 98 163
63 99 163
62 98 163
62 98 167
62 98 163
63 99 163
61 97 161
64 100 171
62 98 167
61 97 161
61 98 163
62 98 161
61 97 155
61 97 157
62 98 165
61 98 163
64 100 169
61 98 161
63 99 163
62 98 165
62 98 165
60 97 157
61 96 157
62 98 159
63 98 157
61 97 163
62 98 157
61 97 159
62 98 159
62 97 163
61 96 147
62 98 161
60 96 149
61 97 155
61 97 155
62 98 151
61 97 161
61 96 147
61 97 151
63 98 151
62 98 159
61 96 151
62 97 155
61 96 147
61 96 149
62 97 151
62 97 151
60 95 137
60 95 135
62 97 149
61 96 140
61 96 144
62 87 115
79 76 0
91 86 11
93 87 0
94 89 0
93 89 0
100 94 0
92 90 0
95 90 0
96 90 0
111 106 0
83 81 11
101 98 0
89 85 0
106 102 0
110 105 0
115 111 0
107 104 0
96 91 0
115 108 0
93 89 0
113 106 16
99 94 0
103 96 0
110 107 0
107 103 16
109 103 0
91 87 0
123 116 16
103 96 0
110 104 16
103 99 0
105 99 16
105 101 0
116 110 16
108 104 22
110 107 16
111 107 16
95 87 0
113 109 16
123 117 22
108 104 16
122 114 16
108 102 22
116 112 0
103 100 0
108 102 16
107 100 0
102 98 0
111 106 28
96 89 0
80 74 0
106 100 22
112 111 0
117 119 0
138 142 0
151 158 0
144 153 0
152 163 0
147 158 0
145 152 0
148 155 0
155 162 0
145 154 0
151 161 0
149 156 0
152 163 0
149 158 0
162 175 0
144 156 0
156 164 0
160 172 0
151 165 0
155 167 0
151 162 0
163 175 0
164 179 0
157 171 0
158 170 0
160 175 0
158 171 0
162 178 0
165 181 0
161 176 0
162 177 0
161 174 0
155 169 0
155 170 0
164 181 0
164 178 0
163 180 0
158 174 0
161 176 0
156 173 0
161 178 0
167 186 0
158 174 0
165 184 0
167 182 0
157 173 0
166 184 0
167 180 0
165 182 0
165 184 0
161 179 0
162 180 0
169 189 0
164 183 0
210 229 245
212 230 250
213 231 255
212 230 255
211 230 255
210 229 255
210 229 255
209 228 253
209 229 255
206 226 240
199 219 214
196 215 191
197 217 191
200 219 198
200 219 194
205 223 207
204 222 204
208 225 214
206 223 207
204 221 207
205 222 214
205 221 204
215 230 240
206 222 204
198 216 191
203 221 194
199 217 181
183 205 114
173 197 72
177 199 72
177 201 102
177 201 95
172 194 36
175 198 51
177 201 88
179 202 80
177 199 95
173 196 62
173 198 72
175 199 80
175 198 95
171 195 51
174 198 62
172 197 51
168 193 51
177 200 72
175 198 72
173 197 88
174 198 72
174 198 51
173 197 72
177 200 80
173 197 62
173 195 72
176 199 62
173 197 36
172 197 62
168 192 51
174 198 72
176 200 88
173 197 62
179 201 72
175 198 72
174 198 51
179 202 95
181 202 108
190 209 144
199 217 184
207 223 217
203 220 201
208 224 207
210 226 217
201 219 194
198 216 194
194 214 184
194 213 181
204 223 217
207 226 242
213 231 255
213 231 255
214 231 255
213 231 253
212 230 248
214 231 250
214 231 250
214 231 248
216 232 250
215 232 248
218 233 253
217 233 250
218 233 248
210 225 246
102 129 191
100 128 186
67 102 171
69 103 173
75 107 171
99 126 179
96 124 175
72 105 167
97 124 173
102 129 171
61 97 153
60 96 161
65 99 155
66 100 153
64 98 147
66 101 163
74 107 163
65 99 160
64 99 155
60 96 144
60 96 164
67 100 153
61 97 161
97 124 133
113 138 117
117 142 111
71 103 144
63 99 163
61 97 157
59 95 147
63 99 167
61 97 157
61 97 162
62 98 168
61 96 153
61 97 158
62 98 163
61 96 154
60 95 151
59 94 153
60 96 155
61 98 165
60 96 157
61 97 159
60 96 156
60 97 165
61 98 167
61 97 158
62 98 159
61 97 160
58 94 160
62 98 161
61 98 161
62 98 163
61 98 163
60 97 155
60 97 155
62 98 161
61 98 169
60 96 159
61 97 167
62 98 157
61 98 173
61 96 157
62 98 163
60 96 155
62 99 169
61 97 155
62 98 157
62 99 169
61 97 163
62 99 171
61 98 165
62 98 167
61 97 163
60 97 159
61 97 157
62 98 171
61 97 163
61 97 163
63 99 171
61 97 165
62 98 172
62 98 165
61 97 159
61 97 161
61 97 165
60 96 149
63 99 161
61 97 155
62 98 155
62 98 169
61 97 157
63 99 175
62 98 159
62 98 161
62 98 165
62 98 159
62 99 167
61 97 155
61 97 161
62 99 167
60 96 159
62 98 159
63 99 167
60 97 163
63 99 165
61 98 163
63 99 163
63 99 167
62 98 153
62 98 155
61 97 153
62 98 161
62 98 161
62 99 167
62 98 167
62 98 171
61 97 155
62 99 175
62 98 161
62 98 167
63 98 157
61 98 167
61 97 155
61 97 151
61 96 155
61 98 159
61 98 167
63 99 169
62 98 161
63 99 169
62 98 163
62 98 159
63 99 165
62 98 159
62 98 167
61 97 161
62 99 173
61 97 151
61 97 161
62 99 171
61 97 159
62 98 155
61 97 151
62 98 167
63 99 169
62 98 163
61 97 151
62 99 167
62 99 169
62 98 163
62 97 155
62 98 163
62 97 151
63 98 159
62 98 157
61 97 151
62 98 163
62 97 157
62 98 163
62 98 159
62 97 155
62 98 157
61 97 151
61 97 155
61 97 157
62 98 159
62 98 155
61 97 155
61 96 157
61 97 151
63 99 165
62 97 153
62 98 159
61 97 157
62 98 157
61 97 151
62 98 159
60 95 149
62 97 159
62 98 159
61 97 149
63 98 158
61 96 149
62 98 157
61 96 151
62 98 157
60 95 135
60 94 142
61 96 149
62 97 149
61 96 151
61 96 151
61 97 155
60 95 140
61 96 149
60 95 149
60 95 137
60 93 136
63 84 103
94 90 0
84 83 0
85 83 0
89 86 0
87 82 0
99 91 0
95 90 0
99 94 0
102 97 0
103 96 0
99 95 0
113 106 0
103 98 0
103 99 11
98 94 0
98 93 16
105 101 0
92 90 0
103 98 0
107 103 0
99 96 0
105 101 0
103 98 0
95 92 0
107 102 0
96 90 0
125 122 22
105 101 0
93 87 0
111 106 0
121 115 0
110 102 0
111 106 0
108 103 0
118 114 0
117 109 32
105 100 0
121 116 0
100 96 0
118 111 16
108 102 0
107 102 0
106 101 16
110 105 16
100 95 16
107 102 22
103 98 0
90 85 0
114 106 16
103 96 28
110 106 22
131 136 16
142 152 0
134 138 0
139 141 0
134 136 0
155 161 0
133 141 0
138 140 0
147 153 0
152 160 0
157 167 0
149 157 0
154 162 0
149 156 0
155 165 0
152 161 0
156 168 0
155 163 0
154 166 0
153 162 0
154 166 0
159 171 0
151 163 0
159 172 0
159 171 0
157 171 0
148 158 0
163 176 0
164 179 0
157 168 0
156 170 0
156 172 0
161 175 0
155 171 0
150 165 0
157 169 0
163 178 0
166 180 0
158 173 0
152 163 0
161 178 0
165 184 0
167 182 0
164 175 0
160 177 0
166 180 0
164 178 0
154 167 0
163 182 0
152 167 0
164 180 0
166 183 0
166 183 0
165 182 0
165 181 0
162 178 0
212 230 255
211 230 255
210 229 255
211 230 255
210 229 255
209 229 255
209 228 253
206 226 237
198 218 207
200 218 191
200 218 211
196 215 184
204 222 214
202 220 211
206 223 220
205 221 220
210 226 217
211 227 226
214 229 226
211 227 226
202 219 198
201 219 181
182 203 108
176 200 80
178 201 72
175 199 88
178 202 95
175 197 62
174 198 80
176 199 88
173 197 51
178 200 62
175 199 95
176 200 80
173 196 51
176 200 80
174 199 95
168 191 0
176 200 95
170 195 62
177 200 80
174 198 62
177 201 80
178 201 80
172 195 36
175 199 62
176 200 62
176 199 51
176 200 72
175 199 51
175 198 72
174 197 0
176 200 88
173 196 51
175 198 72
176 199 88
174 198 80
179 202 95
175 198 72
173 196 80
178 201 88
176 199 80
174 197 88
176 199 72
174 197 36
175 199 102
171 194 0
173 196 72
177 199 62
179 202 102
191 212 153
200 217 188
207 223 214
202 219 207
209 225 220
203 221 201
206 223 220
193 212 173
197 216 191
207 225 228
213 230 253
213 231 255
214 232 255
212 230 248
212 230 245
215 232 253
215 232 250
214 231 248
214 231 245
217 232 254
217 232 254
216 231 253
89 119 181
83 114 179
97 126 191
89 119 184
94 123 188
74 107 175
74 107 173
90 119 179
80 111 179
102 128 177
83 113 173
73 106 157
67 102 165
74 106 159
66 101 165
66 102 169
65 101 165
62 97 166
75 108 147
61 97 155
71 105 155
61 97 155
60 96 155
68 101 150
72 105 152
106 133 128
112 139 129
75 107 157
62 98 159
61 96 151
61 96 154
59 95 157
59 95 150
60 96 152
61 98 164
60 96 153
61 96 157
60 95 156
60 96 159
60 95 152
60 96 157
61 98 163
60 96 152
62 97 161
60 96 156
61 97 164
60 96 151
59 95 148
60 97 161
61 97 165
61 97 163
61 97 165
59 95 154
60 97 165
60 96 159
62 99 169
59 95 152
61 97 159
61 97 165
61 97 161
61 97 164
62 98 166
62 98 169
62 98 165
61 98 163
61 97 157
60 96 158
61 98 167
62 99 169
60 96 153
63 99 175
61 97 157
62 99 171
63 99 171
61 97 153
62 98 161
63 99 167
62 98 163
61 97 157
62 98 160
61 96 147
62 97 161
61 97 159
63 99 171
62 98 167
62 98 163
63 99 165
60 96 155
62 98 157
63 100 177
62 98 159
62 99 167
62 98 167
62 99 165
61 97 161
61 98 165
63 99 171
62 99 167
62 98 167
63 99 173
62 98 163
62 98 163
63 99 171
62 99 167
63 99 167
61 97 159
63 99 169
62 98 159
60 96 155
62 98 171
61 97 167
61 97 161
62 98 159
63 99 165
62 98 165
63 99 163
62 98 163
62 97 151
62 98 165
60 96 159
63 99 167
62 98 157
62 98 159
62 98 165
63 99 173
62 98 157
62 99 167
61 97 155
61 97 159
62 99 171
63 99 171
62 98 169
62 99 167
61 97 161
62 98 161
62 99 167
63 99 163
61 98 163
62 97 161
64 100 175
63 99 165
63 99 169
62 99 167
61 98 165
63 99 163
60 96 163
62 98 163
61 97 157
62 98 163
62 98 161
62 98 161
61 97 157
62 98 161
61 97 163
62 98 167
62 98 167
60 96 151
63 98 161
61 97 155
63 99 165
62 98 157
62 98 159
61 97 157
61 97 155
63 99 165
61 97 163
63 99 159
62 98 163
61 97 151
60 96 159
61 97 153
61 97 149
61 97 153
61 97 151
62 98 155
61 97 149
61 97 151
63 99 157
61 96 137
60 95 157
62 97 153
62 98 163
61 97 163
63 99 161
62 98 157
61 96 147
62 98 159
62 98 155
62 98 157
62 97 153
62 97 151
60 95 137
61 97 153
60 96 144
60 95 142
63 98 164
60 95 140
60 94 135
60 94 144
59 93 125
70 87 95
87 83 0
83 78 0
102 93 16
87 84 0
97 90 0
103 96 0
91 85 0
100 92 0
94 91 0
88 82 0
86 81 0
91 85 0
99 94 0
110 103 0
111 103 16
113 107 0
111 104 0
97 94 0
102 97 0
100 94 0
115 106 0
105 101 0
96 91 0
109 104 0
117 113 0
104 100 0
115 107 22
117 110 0
108 102 0
117 113 16
91 84 0
101 96 0
107 101 0
107 100 16
97 91 16
110 106 16
95 93 0
86 82 16
120 113 0
97 92 0
114 109 0
110 105 22
98 91 16
114 105 32
104 98 0
106 100 16
113 108 22
107 104 0
110 106 0
133 134 0
136 138 0
138 140 0
143 145 0
136 143 0
145 146 0
148 153 0
141 148 0
146 148 0
144 148 0
148 157 0
154 164 0
155 165 0
145 157 0
144 153 0
155 168 0
147 154 0
149 154 0
149 163 0
150 158 0
163 175 0
162 176 0
154 163 0
163 174 0
157 168 0
161 173 0
154 165 0
160 173 0
164 176 0
151 161 0
155 168 0
152 166 0
166 181 0
159 173 0
156 172 0
155 168 0
154 167 0
164 180 0
159 175 0
153 167 0
161 176 0
157 173 0
158 174 0
167 183 0
166 181 0
166 183 0
154 169 0
162 179 0
163 179 0
158 176 0
161 173 0
163 180 0
169 187 0
166 183 0
165 181 0
163 182 0
159 178 0
173 193 0
212 230 255
211 230 255
210 229 255
210 229 255
206 225 245
203 223 226
198 216 201
194 214 177
200 219 198
204 222 214
205 221 204
210 226 223
210 226 220
209 225 217
208 224 220
210 226 217
209 226 226
196 214 177
185 207 135
176 199 80
171 195 62
173 198 80
176 199 51
175 199 72
175 198 62
179 201 72
174 197 80
175 198 62
171 195 80
175 198 95
173 197 51
174 198 88
176 199 51
174 198 72
172 195 36
176 199 51
175 198 88
173 197 36
178 201 80
176 200 88
175 198 95
172 196 0
173 197 62
177 201 80
176 199 72
175 198 62
171 194 51
176 200 80
173 196 51
174 198 36
171 195 62
174 197 72
175 198 62
178 201 80
175 199 80
178 200 72
175 199 62
175 199 72
173 197 36
175 199 72
176 200 80
171 195 72
175 198 62
172 195 51
172 197 80
173 198 62
171 195 72
175 198 51
170 193 51
178 202 108
173 196 62
178 201 88
175 198 51
180 203 125
199 216 184
207 224 207
212 227 226
204 221 201
201 218 201
199 218 191
198 216 173
205 223 226
212 230 250
212 230 253
214 231 253
214 231 253
210 228 237
215 232 250
214 231 250
209 226 249
217 232 253
213 229 250
146 167 211
75 108 179
75 108 177
79 111 177
84 114 179
90 119 186
80 111 175
94 122 179
70 104 163
85 115 182
90 118 177
72 105 165
66 101 171
68 102 164
71 105 165
68 101 151
65 99 153
65 100 159
66 101 167
69 102 151
73 106 161
70 103 151
69 102 137
65 99 156
64 99 152
69 102 151
96 124 142
101 126 134
73 105 145
59 94 157
60 96 156
59 95 156
61 96 147
60 96 155
59 95 157
61 96 150
62 98 164
60 96 144
59 93 147
61 97 155
60 96 160
59 95 155
59 94 156
60 96 161
61 97 157
61 97 155
61 97 157
61 97 163
61 97 157
62 98 161
59 94 154
61 97 171
59 95 156
62 99 169
61 97 161
61 97 167
63 99 165
62 98 161
62 98 167
61 98 167
61 97 159
61 98 165
61 97 161
62 98 167
62 98 165
60 96 159
62 98 159
62 98 164
61 97 162
61 98 167
61 97 155
61 97 157
61 97 159
61 97 159
60 96 159
62 98 159
61 97 165
61 96 154
62 98 169
63 99 167
61 97 161
62 98 165
60 96 147
63 99 169
61 97 160
61 97 165
63 100 171
62 98 169
62 98 161
61 96 157
62 98 157
62 98 161
62 98 165
62 99 169
62 98 161
63 99 165
62 98 163
62 97 161
61 97 157
61 98 161
62 98 163
62 99 167
63 99 169
63 99 169
62 98 161
63 99 161
63 100 173
62 98 167
61 97 153
62 98 163
60 97 157
62 98 157
63 98 157
62 98 165
63 99 173
62 99 167
62 97 155
61 98 163
62 98 157
62 98 163
62 98 161
62 98 163
62 98 157
61 98 161
62 97 161
61 97 163
61 97 157
63 99 171
62 98 159
63 99 167
62 98 161
64 100 167
61 97 159
62 98 165
62 98 161
62 98 163
62 98 159
61 97 155
62 99 169
62 98 163
61 98 165
61 97 159
62 99 169
62 98 159
62 98 161
61 97 159
62 98 157
62 99 167
63 99 167
61 97 155
62 98 161
62 99 163
62 98 161
62 99 173
63 99 163
61 97 159
61 97 155
61 97 155
60 96 149
61 97 159
62 98 163
61 97 155
61 96 161
62 97 153
64 100 175
61 97 161
64 100 165
62 98 159
61 97 155
62 98 161
62 98 157
62 99 167
62 98 163
61 96 144
60 95 140
62 98 155
61 97 149
60 96 151
61 97 153
60 96 147
62 98 155
60 95 140
61 98 159
62 98 163
61 97 163
62 97 157
63 99 157
62 98 153
61 97 155
61 96 147
60 95 140
59 94 133
62 98 157
61 96 151
59 94 133
61 96 153
61 96 145
59 93 133
60 95 151
60 94 142
69 87 111
88 80 0
90 87 0
94 89 0
92 84 0
97 92 0
101 99 0
113 104 0
95 89 0
107 102 0
88 85 0
109 103 0
90 85 0
96 90 0
108 101 0
87 80 0
89 83 0
104 100 0
87 83 0
85 81 0
78 74 0
105 102 0
105 101 0
104 98 0
108 105 0
109 102 16
104 97 0
102 97 0
120 115 0
112 106 0
114 108 16
105 101 0
88 85 0
120 114 16
102 94 16
109 102 0
102 95 0
113 107 0
108 100 0
84 79 0
112 107 32
115 107 0
86 82 16
110 103 22
96 90 0
100 97 16
120 120 0
124 128 0
132 133 0
137 142 0
137 140 0
133 136 0
140 146 0
145 155 0
154 157 0
137 141 0
140 143 0
140 141 0
156 164 0
151 156 0
144 154 0
159 168 0
141 148 0
148 156 0
149 160 0
153 163 0
153 161 0
153 161 0
152 163 0
150 160 0
155 166 0
150 160 0
153 163 0
160 174 0
147 156 0
156 169 0
153 166 0
162 173 0
157 169 0
158 170 0
158 170 0
157 171 0
151 164 0
161 175 0
156 167 0
159 174 0
156 173 0
157 169 0
163 180 0
165 185 0
164 181 0
160 176 0
163 179 0
159 175 0
161 177 0
165 182 0
161 177 0
160 176 0
165 183 0
160 177 0
161 176 0
172 190 0
160 177 0
162 176 0
167 186 0
166 184 0
165 183 0
163 181 0
210 229 255
210 229 255
210 229 253
208 227 240
200 218 198
195 215 181
197 215 188
202 220 198
203 220 204
200 218 191
209 225 217
206 222 207
212 227 226
209 225 211
194 213 165
181 203 88
174 198 80
173 197 62
176 200 88
176 199 62
174 198 51
178 201 80
177 200 88
175 199 88
175 200 88
175 198 72
171 195 80
177 200 88
174 197 62
173 197 80
174 197 36
175 199 72
177 200 72
175 198 51
174 197 80
176 199 95
175 199 51
174 198 62
173 197 80
171 196 36
173 197 80
177 200 72
175 198 72
171 195 51
177 200 72
176 199 95
174 198 95
179 201 95
176 200 72
174 198 36
173 196 80
172 197 51
167 191 51
172 194 62
171 194 62
173 197 62
170 193 72
174 198 72
176 200 72
175 198 88
176 200 80
176 200 80
172 197 80
174 197 72
174 198 62
176 199 62
170 193 51
173 196 62
175 198 88
174 196 72
173 197 80
175 199 88
176 199 36
171 194 51
177 198 62
177 200 72
187 208 135
188 208 125
198 216 184
203 219 211
196 214 191
197 216 181
196 214 181
208 226 231
209 228 245
213 231 255
212 230 248
209 226 249
203 220 245
208 225 250
215 231 254
210 226 249
173 191 227
97 126 189
73 107 177
84 114 179
75 108 181
68 103 177
85 115 184
85 114 173
79 111 173
85 114 174
90 119 181
80 112 175
62 98 165
65 100 161
70 104 167
61 97 161
66 101 163
67 102 163
61 97 163
73 106 161
71 104 159
64 99 147
58 93 137
68 102 163
72 104 152
68 101 136
65 100 159
80 110 122
124 151 108
85 114 134
62 98 157
61 97 159
61 96 161
61 97 162
60 96 151
62 97 159
61 97 159
59 94 150
60 96 147
60 96 155
61 97 162
62 98 165
60 96 156
59 94 145
62 97 157
60 96 153
60 96 165
61 98 163
60 96 160
61 97 155
60 96 155
60 96 165
60 95 153
61 97 160
62 98 161
62 98 163
61 96 153
62 98 155
61 97 161
61 97 157
61 97 155
61 97 159
61 98 167
61 97 153
62 98 164
60 96 149
61 97 167
63 100 173
60 96 157
60 96 159
62 99 167
62 98 161
61 97 159
62 99 167
62 98 157
62 98 161
62 98 163
62 98 165
62 98 163
63 100 171
61 97 161
63 100 171
61 98 163
61 97 153
63 99 161
62 98 157
62 98 167
62 98 159
61 97 159
61 97 157
61 97 160
62 98 169
62 98 157
62 98 165
61 98 159
62 98 169
62 98 157
62 97 153
61 97 157
61 98 159
61 98 165
61 97 151
61 98 171
61 97 159
61 97 159
61 97 155
63 100 179
63 100 169
62 98 159
64 101 181
62 98 160
61 97 159
61 97 159
62 98 165
62 98 159
63 99 167
62 99 173
62 98 159
63 99 169
61 98 161
62 98 163
62 98 167
64 100 171
62 98 161
61 97 155
63 99 169
62 98 165
62 98 163
62 98 157
62 98 163
61 97 159
62 99 167
62 98 163
60 96 157
62 99 169
62 98 163
63 99 165
62 98 163
62 99 165
61 98 161
62 98 159
61 97 155
62 98 163
62 98 163
63 99 165
60 97 157
62 98 165
60 96 155
61 97 151
62 98 161
62 98 169
62 98 155
62 99 167
61 96 157
62 98 167
62 98 163
62 98 163
63 99 157
61 97 161
62 98 159
62 98 153
62 98 161
62 97 151
61 96 147
62 97 159
60 96 155
60 96 151
62 98 157
62 98 159
62 97 153
62 98 159
61 97 161
61 97 159
62 98 157
63 99 161
61 96 151
62 98 159
61 97 153
62 98 153
63 99 161
60 96 155
61 97 153
62 98 153
61 96 147
62 97 149
61 96 144
62 97 147
60 96 144
60 95 142
61 97 151
62 97 147
60 94 138
61 95 137
64 100 166
59 94 135
61 97 157
61 96 144
59 94 138
61 95 135
58 92 125
69 77 73
75 68 0
98 92 0
70 67 0
69 65 0
83 78 0
81 77 0
72 67 0
77 72 0
87 81 0
96 90 0
95 92 0
94 84 0
92 83 0
101 97 0
101 97 0
96 86 0
91 86 0
85 80 0
97 94 0
98 88 0
109 100 0
107 101 0
112 107 0
92 89 0
115 109 0
90 85 0
92 87 0
92 88 0
79 71 0
98 94 0
98 92 0
91 83 0
96 90 0
108 102 0
112 105 16
98 91 0
91 85 16
104 95 0
100 92 0
96 87 16
97 89 16
98 91 0
113 113 0
129 130 16
139 143 0
143 148 0
135 139 0
144 150 0
132 137 0
150 156 0
134 137 0
143 151 0
134 140 0
150 157 0
148 149 0
142 145 0
145 152 0
144 151 0
147 155 0
151 161 0
147 156 0
149 155 0
142 149 0
140 150 0
155 164 0
159 172 0
158 166 0
152 161 0
151 160 0
155 164 0
145 155 0
150 163 0
155 167 0
155 164 0
158 170 0
147 160 0
149 160 0
161 175 0
159 174 0
150 162 0
161 176 0
154 168 0
152 164 0
150 165 0
158 175 0
156 171 0
159 172 0
164 181 0
166 182 0
165 180 0
156 170 0
161 180 0
159 176 0
167 184 0
167 182 0
155 171 0
165 179 0
165 182 0
166 183 0
169 185 0
166 182 0
165 182 0
158 175 0
170 188 0
164 181 0
164 182 0
166 183 0
207 225 242
203 222 217
196 216 188
199 218 194
199 218 204
208 225 226
204 221 194
206 222 214
212 228 226
212 228 226
206 223 207
196 215 169
178 201 95
173 196 51
171 196 80
177 200 80
176 199 88
177 199 62
174 196 62
173 197 72
173 197 72
176 200 88
178 201 62
173 197 51
177 200 80
176 199 80
176 199 62
171 194 36
171 195 51
171 196 80
174 197 62
175 199 72
170 195 51
176 198 36
174 197 51
174 197 36
176 199 62
173 197 62
177 200 80
178 202 102
175 199 102
173 197 72
172 195 62
174 197 72
171 194 80
175 198 80
175 199 80
178 201 88
174 198 88
175 198 62
169 193 36
176 199 62
174 197 62
175 199 72
173 198 88
171 194 62
176 200 80
176 198 62
174 198 95
174 197 62
178 200 80
174 198 62
177 199 62
173 197 51
176 198 62
177 200 80
176 199 62
180 202 95
173 197 88
176 198 72
172 196 80
181 204 114
175 198 80
175 199 88
175 199 72
178 200 95
178 202 95
170 194 72
171 197 72
180 202 120
195 213 173
198 215 184
202 221 201
196 214 188
201 220 198
207 225 223
213 230 248
209 227 250
211 228 253
205 223 249
215 231 254
215 231 253
212 228 252
105 131 188
72 106 179
89 119 188
80 112 184
69 104 175
84 114 173
69 103 171
84 113 171
95 123 189
95 123 188
83 113 171
62 99 175
62 99 171
62 98 167
62 99 171
60 96 155
63 98 161
65 100 157
65 100 164
64 99 157
70 104 163
65 99 153
64 99 162
65 100 154
59 95 155
61 97 166
67 100 153
74 106 153
104 131 120
78 109 149
61 96 151
60 96 154
60 96 158
60 95 158
61 97 154
61 97 164
59 94 144
58 93 155
59 95 156
60 95 157
61 96 155
59 94 152
61 97 157
61 97 156
60 96 164
61 97 165
61 97 161
61 97 153
60 96 161
61 97 159
60 96 160
61 97 159
62 98 161
62 98 161
61 97 167
60 96 165
61 96 159
62 98 161
61 97 170
61 97 157
61 98 167
61 97 159
62 98 168
61 97 153
61 96 158
60 96 166
62 98 165
62 98 163
61 97 158
62 98 159
62 98 160
62 98 166
61 98 159
62 98 164
62 98 167
62 97 158
61 97 161
62 98 163
62 98 157
62 98 163
62 99 167
63 99 165
62 98 167
61 97 159
61 97 167
63 99 165
62 98 161
63 99 171
61 97 157
62 98 163
64 100 171
62 98 165
62 98 159
61 97 161
62 99 175
62 98 157
63 99 173
61 97 165
61 97 161
62 98 163
62 98 161
63 99 167
62 99 163
62 98 165
62 98 161
61 97 159
63 99 165
62 98 161
62 98 153
60 96 155
60 96 149
62 98 163
62 99 163
63 99 161
63 99 169
62 99 163
62 98 159
62 98 157
61 98 165
63 99 171
62 97 155
60 96 151
62 98 157
62 98 159
62 98 167
61 97 157
62 99 165
62 98 161
60 95 151
62 98 161
62 98 161
62 98 163
62 98 163
63 99 169
62 97 159
63 99 169
62 98 163
62 99 167
62 98 163
61 96 153
62 98 157
61 98 167
62 98 159
62 98 161
61 97 161
63 99 167
61 96 153
61 97 153
62 98 157
61 97 155
61 97 147
62 99 165
62 97 151
63 99 169
62 98 155
63 99 167
61 97 159
63 98 163
62 98 157
62 98 163
62 98 159
62 97 159
62 97 149
62 98 157
62 98 155
62 98 159
61 96 144
63 99 157
61 97 155
63 99 157
62 98 167
61 96 153
62 97 151
62 98 157
62 97 151
62 97 149
61 96 151
63 99 167
62 98 157
61 96 149
61 96 147
61 96 147
63 99 157
61 96 144
62 97 153
61 97 155
61 96 157
60 95 140
60 95 140
62 98 153
60 95 135
61 96 155
59 92 125
60 95 140
62 97 144
60 95 142
61 97 149
62 97 151
59 92 142
72 76 62
84 79 0
93 84 0
79 73 0
80 73 0
59 56 0
85 79 0
79 75 0
104 98 0
86 82 0
94 86 16
85 80 0
91 85 0
86 78 0
106 100 0
92 87 0
91 87 0
106 98 0
82 76 0
80 77 0
84 80 0
87 82 0
98 91 0
95 89 0
101 93 0
111 106 0
96 90 0
97 92 16
107 101 0
100 95 0
89 83 16
111 103 0
102 94 0
106 99 0
99 94 16
103 97 0
105 98 0
96 89 0
85 80 0
110 104 0
124 120 0
104 103 0
141 142 0
126 127 0
142 144 0
126 128 0
137 139 0
136 140 0
129 131 0
136 141 0
141 143 0
139 140 0
151 157 0
122 119 0
154 164 0
149 157 0
137 141 0
149 154 0
147 154 0
143 153 0
148 157 0
143 152 0
154 161 0
148 156 0
154 162 0
158 164 0
158 170 0
154 166 0
154 165 0
154 164 0
149 160 0
152 162 0
157 171 0
163 176 0
144 155 0
157 171 0
151 164 0
152 163 0
164 178 0
154 165 0
160 175 0
167 183 0
161 179 0
148 160 0
165 184 0
154 168 0
164 175 0
161 178 0
168 184 0
160 175 0
158 174 0
156 173 0
167 182 0
160 178 0
157 172 0
163 182 0
162 179 0
161 176 0
165 181 0
166 182 0
166 185 0
167 182 0
167 182 0
165 183 0
160 178 0
163 181 0
169 188 0
161 175 0
196 215 184
201 219 201
204 222 220
206 222 217
200 218 198
206 223 207
208 224 214
205 222 211
199 216 184
189 210 149
176 199 88
175 198 72
178 201 108
173 196 62
176 200 88
176 200 88
176 199 80
177 201 95
171 194 72
175 199 102
173 197 88
175 200 80
174 198 62
176 199 72
171 196 36
172 196 62
174 199 80
175 199 80
174 200 95
173 197 51
170 194 36
173 197 62
174 198 72
176 200 80
176 200 80
171 196 88
174 198 72
174 198 80
176 200 72
175 199 62
172 196 80
170 194 51
174 197 72
172 196 88
173 195 62
174 198 80
172 196 51
173 196 72
174 198 88
175 199 72
176 199 88
175 198 36
171 195 62
174 196 72
170 195 102
174 198 80
174 197 72
172 196 62
177 200 72
171 195 72
174 198 36
176 199 80
172 196 62
170 192 0
173 197 72
175 199 95
176 200 88
171 194 51
177 199 62
174 197 51
175 198 72
174 197 51
173 196 95
176 199 62
173 196 36
171 194 62
175 198 72
175 198 95
176 199 62
172 195 80
175 199 62
182 205 120
187 206 140
198 216 181
200 217 188
201 218 191
197 216 191
196 214 227
207 225 244
213 230 254
212 228 252
213 230 252
213 229 252
137 158 209
85 116 184
73 107 171
75 108 182
79 111 179
89 119 184
68 103 177
79 111 181
62 99 179
84 115 181
69 103 175
75 107 169
68 102 167
62 98 171
61 98 167
62 99 167
61 98 167
62 98 167
60 96 161
62 99 169
61 97 163
64 97 145
62 98 163
74 108 163
69 103 153
64 99 160
65 99 147
60 95 153
65 100 156
107 135 128
75 107 143
60 96 157
59 94 152
59 94 147
62 98 167
59 94 143
61 96 156
60 95 153
59 94 150
61 97 155
59 94 145
61 96 155
61 97 153
61 97 158
59 95 157
60 96 160
60 96 158
60 96 155
59 95 159
61 97 162
62 98 169
62 98 163
62 98 166
60 96 154
62 98 167
61 97 159
62 99 173
62 98 167
60 96 158
61 97 157
61 97 161
60 96 156
63 99 171
62 98 161
61 97 155
62 98 161
62 97 161
60 95 147
63 99 161
62 98 161
63 99 173
60 96 153
62 98 161
62 98 159
60 96 155
61 98 159
62 98 163
61 98 159
61 97 159
61 98 165
62 98 167
62 98 165
63 99 169
62 98 165
62 99 173
62 98 157
63 99 163
62 98 167
63 99 169
63 99 163
62 98 167
63 99 163
61 97 165
61 98 161
63 99 161
61 96 155
63 99 161
61 97 157
61 96 160
61 98 159
61 97 157
62 98 161
61 97 149
61 97 149
62 99 171
63 99 169
62 98 159
62 98 157
63 99 161
62 98 159
61 98 165
61 97 161
61 98 167
62 98 163
61 98 161
63 99 161
62 98 161
62 98 159
62 98 163
62 98 167
63 99 161
63 99 165
60 96 155
62 99 163
62 97 153
61 96 157
62 98 165
63 99 169
61 97 163
63 99 171
61 97 155
62 98 163
61 97 167
62 97 163
63 98 157
62 98 161
62 98 161
63 99 165
62 98 159
60 96 147
60 96 151
62 98 159
61 97 151
62 97 153
61 97 153
62 99 163
62 97 155
62 99 169
61 97 155
63 99 165
62 98 161
61 97 159
62 99 169
62 98 159
61 96 153
62 97 159
63 99 159
62 98 163
62 97 155
61 97 155
61 97 155
61 97 155
62 97 153
62 97 159
60 96 151
61 96 140
62 98 157
62 98 159
62 98 151
61 96 144
59 94 144
62 99 165
62 97 155
62 98 157
61 97 155
62 97 153
62 98 155
61 97 153
60 96 149
62 97 153
60 96 147
61 96 147
62 98 151
61 97 149
63 99 161
62 97 155
62 98 159
61 97 147
61 96 151
60 96 144
61 95 149
62 97 155
60 96 147
62 98 151
61 96 157
60 95 140
62 97 156
61 95 142
60 94 147
106 107 44
105 100 0
109 109 0
93 87 0
71 68 0
86 78 0
93 90 0
69 62 0
86 79 0
68 64 0
93 86 0
80 72 0
87 81 0
94 89 0
94 84 0
87 80 0
100 90 0
97 88 0
83 76 0
92 86 0
98 91 0
88 83 0
100 90 0
83 80 0
97 89 0
101 95 0
78 74 0
88 80 0
96 89 0
91 83 0
90 84 0
81 74 0
99 89 0
108 102 0
99 98 0
113 107 0
120 117 0
126 124 0
126 125 0
128 127 0
131 137 0
134 133 0
129 130 0
129 125 0
131 134 0
135 138 0
122 122 0
146 152 0
138 142 0
133 137 0
150 155 0
137 144 0
132 133 0
137 143 0
136 141 0
141 145 0
143 149 0
143 148 0
137 145 0
152 163 0
148 159 0
154 161 0
143 151 0
147 158 0
146 157 0
162 175 0
160 169 0
156 166 0
151 161 0
162 176 0
154 165 0
152 163 0
162 175 0
154 167 0
165 177 0
157 168 0
156 164 0
149 159 0
149 158 0
162 176 0
156 166 0
162 176 0
169 184 0
158 172 0
155 168 0
163 179 0
155 173 0
164 178 0
168 184 0
160 176 0
159 173 0
158 171 0
161 178 0
164 184 0
164 181 0
167 184 0
162 180 0
161 176 0
162 180 0
171 189 0
164 182 0
161 181 0
158 176 0
158 175 0
169 186 0
164 181 0
169 187 0
166 183 0
197 216 191
196 215 184
204 221 211
206 222 217
210 225 220
205 222 211
198 217 188
177 199 95
173 197 72
173 197 88
173 196 80
175 199 72
174 198 88
175 199 72
176 199 62
176 200 88
172 195 62
178 200 72
173 197 51
174 198 88
173 196 62
174 197 72
174 197 72
173 197 51
169 193 80
174 197 80
174 198 51
172 195 51
174 197 88
176 198 0
177 200 62
175 198 72
177 201 88
172 195 62
177 200 88
175 198 80
176 199 62
175 199 80
171 195 62
169 193 51
174 197 62
172 197 51
177 200 72
171 195 62
174 197 72
176 200 80
176 200 88
174 197 62
174 199 72
174 197 51
173 196 51
179 203 114
178 202 88
173 197 62
175 198 0
173 196 62
176 199 72
172 196 62
169 193 72
170 193 51
174 197 72
174 196 62
175 198 80
175 198 51
170 194 36
173 196 88
173 196 51
176 198 72
173 197 80
173 196 72
177 201 102
172 195 51
176 200 102
174 197 62
176 200 80
168 192 0
177 201 88
174 198 72
176 199 88
170 195 51
172 196 80
176 197 62
173 196 80
175 198 62
183 206 125
189 206 186
144 167 177
141 162 153
142 165 163
181 200 220
204 222 248
211 228 253
208 225 249
190 208 240
93 123 188
73 107 182
73 106 175
79 111 182
84 115 182
89 118 181
83 114 179
89 118 182
79 110 177
77 109 177
85 115 181
80 110 167
61 98 165
63 99 171
61 97 165
62 98 168
61 97 161
62 98 167
64 100 166
69 103 160
73 106 153
62 97 159
66 100 161
65 100 159
64 99 150
69 101 145
65 100 155
66 101 160
71 102 150
104 131 125
83 113 142
61 96 159
60 95 147
60 96 161
60 95 154
60 96 150
63 98 160
60 95 161
58 94 155
59 95 153
59 94 145
61 97 164
61 97 157
60 96 160
60 96 158
60 95 154
61 96 158
61 97 158
61 97 162
61 97 157
62 98 164
60 96 153
61 97 161
61 97 151
62 99 171
61 98 165
60 95 151
61 97 169
61 97 162
64 100 171
61 97 159
62 98 159
61 97 164
63 99 169
61 97 161
62 98 165
62 98 163
61 97 159
62 99 169
63 98 165
61 98 165
61 98 163
62 98 167
61 96 153
62 98 161
61 96 158
61 97 161
61 97 159
62 98 161
62 99 169
60 96 164
60 97 164
62 98 165
61 97 161
62 98 168
62 98 163
63 99 163
62 99 171
62 98 165
63 99 163
62 98 161
62 98 169
61 97 168
62 98 165
62 98 163
61 97 157
62 99 165
60 96 151
63 99 165
62 98 159
61 97 157
61 97 163
61 97 147
62 98 161
61 97 153
62 98 163
62 98 163
62 98 159
62 98 165
62 98 159
61 97 155
64 100 167
62 98 161
62 97 155
61 97 155
60 97 157
61 97 159
63 99 165
62 98 161
62 98 165
61 98 159
60 97 163
62 98 167
61 96 149
62 98 163
61 97 161
63 99 161
62 99 163
60 96 142
62 98 157
62 98 167
62 97 151
61 97 155
61 98 159
62 98 155
62 98 161
63 99 171
61 96 147
60 96 149
61 97 144
62 99 171
61 96 151
62 98 157
63 99 167
61 97 153
62 97 159
62 98 167
62 98 163
62 97 147
62 97 159
62 98 163
62 98 163
61 97 159
61 96 149
62 97 144
61 97 157
62 97 157
61 97 153
62 98 157
62 98 155
63 99 161
60 96 147
61 97 155
62 98 155
60 96 147
62 98 167
62 98 155
63 99 167
62 97 149
63 98 157
61 96 147
61 97 151
62 98 165
62 98 159
62 97 151
63 99 161
60 96 144
61 97 151
62 97 153
61 97 151
61 97 149
62 97 159
60 96 151
60 95 140
62 98 161
59 94 144
61 96 155
61 96 153
62 97 153
62 97 142
60 96 145
61 96 147
62 97 155
60 95 137
61 96 137
60 95 137
59 94 138
64 96 135
114 113 36
96 94 0
98 95 0
101 103 0
95 99 0
101 98 0
100 97 0
126 128 0
109 106 0
110 107 0
89 84 0
88 79 0
90 83 0
92 88 0
81 73 0
77 74 0
94 86 0
95 90 0
70 61 0
73 68 0
68 61 0
78 72 0
95 88 0
89 84 16
75 71 0
69 64 0
96 89 16
97 97 0
111 106 0
104 102 0
116 115 0
118 116 0
119 119 0
110 110 0
126 126 0
123 119 0
127 124 0
116 112 0
124 120 0
139 140 0
133 135 0
140 141 0
145 150 0
123 125 0
139 144 0
130 130 0
128 128 0
139 145 0
141 142 0
138 144 0
141 145 0
142 149 0
145 151 0
137 144 0
144 147 0
144 151 0
137 142 0
146 153 0
142 152 0
147 157 0
148 154 0
151 160 0
143 149 0
150 156 0
164 176 0
146 149 0
151 159 0
162 175 0
155 165 0
151 160 0
153 163 0
148 159 0
150 163 0
144 155 0
158 172 0
154 166 0
160 173 0
161 175 0
156 169 0
145 156 0
154 167 0
153 166 0
159 173 0
158 172 0
163 180 0
161 178 0
160 173 0
156 168 0
169 187 0
157 175 0
166 180 0
166 185 0
164 182 0
159 177 0
170 185 0
159 174 0
162 176 0
161 177 0
159 175 0
159 179 0
163 184 0
165 183 0
166 183 0
170 187 0
165 183 0
161 180 0
167 186 0
162 180 0
205 222 211
215 230 228
201 219 204
204 221 191
190 210 144
172 196 36
177 201 95
172 197 72
175 198 72
180 202 72
172 196 62
176 198 62
173 198 72
175 199 62
175 199 95
173 196 36
174 197 95
176 200 72
175 199 51
175 198 51
174 198 80
176 199 102
173 197 62
173 196 36
174 198 80
175 199 51
176 199 80
172 196 80
173 197 36
174 197 62
172 196 62
177 200 88
174 198 51
176 200 62
176 200 72
172 196 51
171 196 80
175 199 80
173 197 51
174 199 72
172 195 80
168 192 62
172 196 62
176 200 95
171 195 80
173 197 62
174 198 80
175 199 88
171 195 72
168 192 51
176 199 62
173 197 62
172 195 62
173 198 72
173 197 62
173 196 72
173 196 62
173 197 51
172 196 36
173 197 72
178 202 114
171 195 80
173 196 62
173 196 72
176 200 62
166 190 51
175 199 80
173 197 51
175 199 51
179 202 102
172 194 36
174 198 80
173 197 62
180 203 102
174 197 62
174 198 80
177 200 102
173 197 51
180 203 108
174 197 80
173 197 51
175 199 62
176 200 72
175 198 80
176 199 62
150 174 120
113 138 133
129 154 140
119 145 142
101 130 151
148 170 173
172 191 221
209 226 248
212 229 253
116 141 196
73 107 181
69 104 179
88 118 186
75 108 177
68 103 173
89 118 182
75 108 179
74 106 171
62 98 167
74 106 169
85 115 175
74 107 175
62 98 164
61 98 173
61 97 163
62 99 169
62 98 168
60 97 162
61 97 162
70 105 161
69 103 164
68 102 153
62 97 161
72 104 145
61 97 164
67 100 152
63 97 149
62 97 157
61 97 165
97 125 129
81 113 150
60 96 151
62 97 159
59 94 142
59 95 161
61 97 157
59 94 144
61 97 158
61 98 161
61 96 155
61 97 157
61 97 162
61 96 153
59 95 152
60 96 156
59 96 156
60 95 153
61 97 155
60 96 154
64 100 167
60 96 156
61 97 159
62 97 155
62 99 167
60 96 155
61 97 157
62 98 157
61 97 160
63 99 163
61 97 165
60 96 155
62 98 171
61 97 151
62 98 164
62 97 162
60 96 155
62 98 157
62 98 159
62 98 169
61 97 161
60 96 155
63 99 163
61 97 159
60 96 152
61 97 165
59 94 142
61 97 159
63 99 167
61 97 155
62 99 169
60 96 161
64 100 177
61 97 161
62 98 159
61 97 163
61 97 161
61 97 159
61 97 149
62 98 157
61 97 153
61 97 163
62 98 161
60 97 159
62 98 171
63 99 169
60 96 150
63 99 169
63 99 163
62 98 159
63 99 163
61 98 163
62 98 165
63 99 165
62 98 163
63 98 159
62 98 159
62 99 165
61 98 163
62 98 153
62 99 169
62 98 165
62 98 159
60 96 149
61 97 159
62 98 163
60 96 157
61 97 153
62 98 163
62 98 163
61 97 155
62 98 167
61 98 161
62 98 165
63 98 165
62 98 157
63 99 163
62 98 157
62 99 165
62 98 159
63 98 159
62 98 169
62 98 161
61 98 161
61 97 149
63 99 161
63 99 161
61 97 155
61 97 155
61 97 157
61 98 159
61 97 153
62 98 159
62 99 171
61 97 155
63 99 163
61 97 155
62 97 153
61 97 155
62 98 161
62 98 159
61 97 155
60 95 157
62 99 163
61 97 153
61 97 163
63 99 163
63 99 161
62 98 155
62 97 151
62 98 157
63 99 165
63 98 159
63 98 163
63 99 165
59 95 147
61 96 144
62 98 163
61 96 142
63 99 165
62 98 155
63 99 161
62 98 155
61 96 144
63 99 163
60 95 137
63 99 165
62 98 159
61 96 147
60 96 142
63 99 159
62 98 155
61 96 153
60 96 153
61 96 147
61 96 147
63 98 157
61 96 137
62 98 153
60 94 137
60 95 138
62 97 149
59 94 144
59 93 135
60 95 140
59 93 130
60 95 135
74 100 128
92 91 0
99 101 0
100 96 0
101 100 0
115 110 0
101 97 0
96 95 0
87 88 0
113 112 0
102 101 0
112 108 0
107 107 0
107 103 0
101 102 0
106 102 0
113 108 0
119 119 0
80 75 0
101 101 0
115 114 0
103 97 0
124 123 0
114 108 0
89 84 0
130 129 0
113 107 0
119 117 0
114 113 0
130 129 0
115 114 0
126 121 0
125 125 0
120 123 0
128 126 0
120 122 0
118 119 0
134 135 0
125 125 0
136 136 0
122 127 0
136 137 0
131 137 0
132 133 0
140 147 0
143 149 0
138 143 0
134 135 0
140 147 0
140 146 0
152 161 0
147 156 0
138 139 0
143 150 0
150 156 0
140 148 0
138 144 0
142 151 0
138 146 0
141 145 0
149 154 0
149 155 0
147 153 0
150 154 0
150 159 0
156 165 0
157 170 0
156 166 0
152 166 0
162 175 0
160 172 0
150 159 0
151 161 0
151 161 0
153 165 0
158 170 0
153 166 0
151 165 0
154 165 0
166 178 0
153 164 0
163 179 0
146 160 0
153 165 0
160 175 0
161 174 0
158 176 0
160 174 0
168 184 0
162 179 0
164 180 0
161 176 0
162 177 0
166 179 0
160 174 0
165 184 0
165 182 0
163 182 0
163 179 0
158 175 0
163 182 0
163 177 0
161 178 0
158 173 0
165 182 0
165 183 0
167 184 0
170 189 0
163 178 0
205 222 214
193 212 177
181 203 108
178 201 88
178 201 95
178 201 102
174 198 36
174 198 88
176 200 95
171 194 62
173 196 51
172 196 36
177 200 80
175 199 72
176 199 72
171 194 80
172 196 51
171 195 80
173 197 62
174 198 72
176 201 95
175 200 102
172 196 51
171 194 62
176 199 51
173 197 72
172 196 80
177 200 51
169 193 72
171 195 51
172 196 72
175 200 102
174 197 62
170 192 51
173 197 95
177 200 72
176 200 80
178 202 95
177 200 80
173 197 80
174 198 72
175 198 72
172 197 102
167 190 62
172 196 80
171 195 36
173 196 72
174 198 88
174 198 72
173 197 95
172 196 51
173 197 51
170 194 88
176 199 80
174 199 72
175 198 51
177 200 102
176 200 72
174 198 88
172 196 88
174 198 72
177 200 72
173 197 51
174 197 88
172 195 72
174 199 80
172 196 51
169 194 36
174 198 88
176 199 51
170 194 72
176 200 72
174 198 80
171 194 62
176 199 80
171 194 36
170 193 88
177 201 108
172 195 51
170 193 36
175 199 62
173 197 51
175 198 72
174 196 62
175 198 72
147 171 125
114 139 142
104 130 142
121 146 136
128 151 125
120 146 161
110 136 161
161 182 209
204 222 246
183 201 236
62 99 181
68 103 175
74 107 181
78 111 179
68 103 177
80 111 181
79 111 179
114 139 193
79 111 177
84 115 181
79 110 176
80 111 177
67 101 166
60 96 162
63 99 167
62 99 169
61 97 157
62 98 159
62 98 167
61 96 157
61 97 163
65 99 160
67 99 146
60 96 159
69 103 156
73 104 151
63 97 150
68 102 152
60 95 150
68 101 144
86 116 124
69 101 147
60 96 158
62 98 165
60 96 157
60 94 149
60 96 159
61 97 153
61 97 159
61 97 158
60 96 158
57 92 148
61 98 165
61 97 155
61 96 157
60 95 156
60 96 151
60 96 151
60 96 152
62 98 163
60 96 155
63 99 171
62 98 167
61 96 155
62 99 167
61 97 157
60 96 144
63 99 169
61 97 163
61 97 157
62 98 157
63 99 169
60 95 160
62 98 167
62 98 161
62 98 165
63 99 169
61 97 163
61 97 159
60 96 155
61 98 167
61 97 161
62 98 164
61 97 153
63 99 163
62 98 165
61 97 159
61 98 163
62 98 159
62 98 163
61 97 159
62 98 155
61 97 153
60 96 157
61 97 155
62 98 159
63 99 167
62 98 155
62 98 163
61 97 157
62 98 155
62 99 163
62 98 163
61 96 155
63 99 167
61 97 159
61 97 165
62 98 157
62 98 169
62 98 159
63 99 171
62 98 163
61 97 155
61 97 153
64 100 172
61 97 157
62 98 157
61 97 157
62 99 171
60 96 155
62 98 163
62 98 157
63 99 159
62 97 157
61 97 155
62 98 159
62 98 157
61 97 157
62 99 165
61 97 157
62 98 161
61 97 157
62 98 161
63 99 169
63 99 161
61 97 153
61 97 159
62 98 161
63 99 169
61 97 155
62 98 165
61 97 155
63 99 165
62 98 161
61 97 159
62 98 157
63 99 161
60 95 147
61 97 161
63 99 167
62 99 163
61 97 153
61 97 163
61 97 157
62 98 163
62 97 151
62 98 161
62 97 153
63 99 161
62 99 165
63 99 161
62 98 157
62 97 157
62 98 155
61 97 159
61 97 155
62 98 159
62 98 159
61 97 153
61 97 153
61 97 159
62 97 153
61 97 153
62 98 159
61 97 151
62 98 159
63 99 161
61 96 147
62 98 159
62 98 163
61 96 151
61 96 147
62 98 153
62 97 155
61 97 159
62 98 157
60 96 142
59 94 140
61 96 151
62 97 155
62 98 157
61 97 151
62 98 161
63 99 155
60 96 137
62 97 151
60 95 149
60 95 140
62 97 151
62 97 154
61 96 142
61 97 142
59 93 128
61 96 142
62 97 147
60 94 145
77 98 125
96 100 0
94 93 0
90 92 0
100 104 0
94 95 0
101 97 0
86 82 0
109 108 0
84 82 0
97 96 0
108 109 0
102 97 0
100 98 0
107 101 0
100 98 0
104 103 0
97 98 0
109 105 0
99 101 0
110 112 0
105 102 0
115 117 0
114 113 0
105 105 0
116 117 0
117 114 0
114 111 0
129 128 0
130 128 0
136 141 0
120 120 0
113 115 0
115 114 0
116 118 0
130 133 0
131 134 0
140 142 0
139 146 0
131 132 0
122 124 0
148 151 0
124 128 0
142 143 0
126 129 0
148 151 0
143 146 0
134 138 0
135 136 0
131 135 0
142 146 0
130 131 0
144 148 0
142 149 0
139 145 0
143 147 0
141 145 0
146 153 0
138 149 0
135 141 0
145 152 0
147 153 0
152 159 0
150 159 0
144 152 0
148 159 0
157 167 0
152 161 0
151 162 0
149 159 0
158 169 0
151 163 0
146 154 0
161 176 0
165 177 0
154 168 0
155 171 0
168 182 0
155 172 0
157 167 0
148 160 0
161 173 0
158 172 0
160 177 0
159 176 0
156 171 0
155 169 0
159 174 0
163 181 0
164 181 0
156 169 0
161 177 0
167 181 0
156 170 0
161 176 0
165 179 0
164 182 0
163 178 0
166 184 0
167 186 0
166 184 0
162 179 0
165 180 0
160 178 0
164 182 0
162 180 0
166 184 0
167 184 0
165 182 0
189 209 130
171 194 51
178 202 102
176 199 62
176 200 80
169 193 36
176 200 80
175 198 88
175 199 51
176 200 72
175 199 62
173 196 72
174 197 62
174 198 80
176 200 88
176 200 88
178 201 80
177 199 95
173 197 80
172 196 72
174 197 72
175 198 62
172 196 95
174 198 72
170 194 51
171 196 62
173 196 62
175 198 80
173 196 51
175 199 88
173 195 51
175 198 80
176 200 72
172 196 95
173 197 36
174 195 80
173 198 95
174 199 88
174 198 72
173 197 80
175 199 62
169 193 72
176 199 88
170 194 62
173 197 72
171 196 80
172 194 62
173 198 80
173 197 51
175 199 102
172 196 72
174 198 80
170 194 62
176 199 62
177 200 88
172 196 80
171 196 95
170 193 72
170 194 72
173 197 88
175 198 51
175 198 62
175 198 62
170 192 72
176 199 88
172 196 62
174 198 80
172 195 51
171 195 72
172 195 51
173 197 88
169 191 62
174 198 80
175 197 80
172 196 36
172 195 62
174 197 80
176 200 80
176 198 88
169 193 72
170 194 62
179 203 108
173 195 88
177 199 80
174 198 72
161 184 133
96 125 159
122 147 144
130 155 147
106 133 135
130 155 130
121 145 159
110 137 161
115 140 165
182 201 224
118 143 201
74 108 182
92 122 191
62 98 175
88 118 181
79 111 181
80 111 177
68 103 173
84 115 182
88 117 174
84 114 177
89 118 181
72 106 169
62 98 167
62 98 165
62 98 170
62 99 171
61 97 160
60 96 159
62 98 168
61 97 159
64 99 154
65 101 165
61 96 155
76 107 147
61 97 154
66 101 163
77 108 145
64 98 156
61 97 162
59 94 140
86 115 140
69 102 149
60 96 149
60 95 151
60 96 155
61 97 161
61 97 154
61 97 163
61 97 151
59 95 159
61 97 159
59 94 155
61 97 153
62 97 156
61 97 151
60 95 159
62 99 169
61 97 164
61 96 155
59 95 152
63 99 163
60 95 144
62 98 171
60 95 162
60 95 155
59 94 151
61 97 154
62 99 171
61 97 157
61 97 159
62 98 165
60 96 159
61 97 159
61 97 159
63 99 165
60 95 147
61 97 149
61 97 159
60 96 147
61 97 162
62 99 169
62 98 163
62 98 165
61 96 160
62 99 165
61 97 161
63 99 167
63 99 165
61 97 166
60 96 156
62 99 167
61 98 161
61 97 161
62 98 167
61 97 155
61 97 153
62 97 159
62 98 161
62 98 165
62 98 163
61 97 157
62 98 161
62 98 163
62 99 173
62 98 159
62 98 163
62 97 161
61 98 163
62 98 167
61 97 155
62 97 155
62 98 168
61 97 159
62 99 165
63 99 173
62 98 165
62 98 161
62 98 155
60 96 151
62 98 159
62 98 161
62 98 165
60 95 142
61 97 159
62 98 157
63 99 165
61 98 165
62 98 155
61 97 153
64 100 167
61 97 153
62 99 165
63 99 167
62 98 159
61 97 151
61 97 153
61 97 159
62 98 161
63 99 159
62 99 167
61 98 159
62 98 159
62 97 161
62 98 165
62 98 161
61 97 157
63 99 169
61 97 159
62 98 161
62 98 157
61 96 144
62 98 167
63 99 167
62 98 161
62 98 165
60 96 151
61 97 157
61 97 161
61 97 159
60 95 149
63 100 171
62 97 153
61 97 163
62 98 165
62 98 157
61 97 163
61 97 144
62 98 157
63 99 159
62 97 153
63 99 163
60 95 144
61 97 157
61 97 147
63 99 165
62 98 153
62 98 159
61 97 153
60 96 144
61 97 149
62 98 155
62 97 155
62 98 161
61 97 155
62 97 151
60 96 144
62 98 149
61 96 151
61 97 151
61 97 155
62 97 149
62 97 149
62 97 147
62 97 144
61 96 147
61 95 135
61 95 137
61 96 142
61 97 142
60 94 142
61 95 135
61 96 144
59 93 135
61 96 144
59 92 128
92 100 88
93 95 0
104 107 0
109 109 0
96 96 0
102 98 0
93 91 0
117 113 0
90 89 0
102 100 0
93 93 0
94 87 0
105 102 0
114 111 0
97 89 0
102 106 0
103 102 0
127 126 0
108 112 0
103 101 0
113 114 0
128 128 0
121 119 0
103 101 0
105 105 0
121 123 0
112 111 0
109 108 0
118 115 0
122 120 0
121 119 0
134 137 0
136 139 0
126 125 0
127 125 0
122 125 0
123 120 0
123 127 0
138 139 0
135 138 0
143 145 0
128 133 0
137 140 0
111 111 0
125 127 0
133 138 0
141 149 0
137 138 0
150 156 0
137 141 0
133 138 0
139 143 0
140 143 0
149 160 0
143 151 0
145 150 0
138 147 0
146 152 0
151 157 0
141 149 0
147 154 0
151 160 0
147 157 0
147 157 0
146 159 0
155 163 0
154 160 0
157 169 0
136 142 0
163 178 0
157 167 0
148 157 0
154 164 0
150 159 0
158 174 0
156 169 0
160 173 0
162 175 0
153 166 0
164 176 0
153 166 0
152 164 0
162 174 0
169 186 0
158 173 0
155 167 0
161 177 0
158 174 0
165 179 0
156 173 0
165 177 0
157 171 0
162 177 0
164 180 0
163 178 0
161 177 0
169 187 0
160 179 0
159 175 0
158 173 0
166 186 0
158 174 0
158 177 0
164 182 0
162 180 0
169 187 0
166 183 0
168 187 0
160 175 0
177 200 62
173 197 95
176 199 72
175 198 62
175 198 72
177 200 62
176 200 62
177 200 62
175 198 80
174 197 62
176 199 80
171 196 72
176 200 95
175 199 80
176 199 80
174 198 72
173 197 62
174 198 108
177 201 95
173 198 51
175 199 62
174 198 72
174 198 80
175 198 51
174 198 62
170 194 62
168 192 0
173 197 51
169 192 36
170 193 80
170 195 80
175 197 72
175 198 80
172 196 62
176 200 80
174 198 80
172 197 95
173 198 88
172 195 72
174 197 80
169 194 51
175 198 72
174 198 51
170 194 72
174 199 80
170 193 62
169 193 80
169 193 88
175 199 108
174 198 36
172 196 62
172 196 80
176 199 102
168 190 36
172 196 62
165 189 0
167 190 72
173 196 72
171 195 102
174 198 62
168 192 51
172 196 62
170 193 62
173 198 80
176 199 95
171 195 80
171 195 62
173 197 51
173 196 62
170 195 80
172 196 80
165 188 95
173 196 51
175 197 51
169 190 36
178 200 95
176 199 80
174 197 72
174 196 62
170 194 62
174 197 51
173 196 80
177 200 51
173 195 51
172 195 62
167 190 120
125 151 161
93 122 142
104 131 130
115 142 155
125 149 154
113 139 157
124 148 144
122 147 165
117 143 147
103 130 165
83 115 188
78 110 184
78 111 181
84 115 181
63 100 177
84 114 181
89 119 182
74 107 173
74 107 173
62 98 163
99 126 184
74 106 172
69 103 171
66 102 171
62 98 170
62 99 169
62 98 163
60 96 155
61 97 169
62 99 167
61 97 170
61 97 159
66 100 155
61 97 159
68 102 148
66 100 157
64 98 153
65 100 154
60 95 147
60 96 157
62 95 148
82 113 147
69 102 147
61 97 160
60 96 153
59 93 143
62 98 161
62 97 154
60 96 163
59 94 149
61 96 157
62 98 155
60 96 152
59 94 147
60 97 162
61 97 156
61 97 157
62 98 161
61 98 163
60 96 155
59 94 153
60 96 157
59 96 156
63 99 169
60 97 163
60 95 158
62 99 165
59 95 144
60 96 151
61 96 159
62 97 155
61 98 163
61 97 153
61 97 155
63 99 167
61 96 155
62 97 153
60 96 151
61 97 158
62 98 163
62 98 155
61 97 159
61 98 161
61 98 171
60 97 160
62 99 169
62 98 161
60 96 157
62 98 159
61 96 151
61 97 167
62 98 155
61 97 157
60 96 157
61 97 163
62 98 167
62 98 159
61 97 159
61 97 157
62 98 165
60 97 159
62 98 163
62 98 163
61 97 155
62 98 157
61 97 157
62 98 167
60 96 155
61 97 155
59 95 147
62 99 167
62 98 163
60 96 149
62 98 157
62 97 157
62 97 153
60 96 147
61 98 163
63 99 163
63 99 165
62 98 157
61 97 163
62 98 163
62 99 163
61 98 159
61 97 159
62 98 165
62 97 161
62 98 157
62 98 159
62 98 157
62 98 157
62 98 165
62 98 155
62 99 165
62 98 163
63 99 165
62 98 157
61 97 155
60 96 157
62 98 157
63 99 159
61 97 144
63 99 167
61 97 149
62 98 161
61 97 157
61 96 151
62 99 165
62 98 157
63 99 163
61 97 153
62 98 161
61 97 153
62 98 161
61 97 157
61 98 163
62 98 165
61 97 159
61 96 147
62 98 165
62 98 165
62 98 153
62 97 155
63 99 159
62 98 155
61 97 151
63 99 165
62 98 163
62 98 155
63 99 167
61 96 157
62 97 161
61 96 149
62 98 153
62 98 161
62 98 161
63 99 161
62 98 161
61 96 147
62 98 155
60 95 144
61 96 147
61 96 147
62 97 147
60 95 135
61 97 144
61 97 155
61 96 137
62 97 151
59 94 130
61 97 151
59 94 140
62 98 153
60 95 137
62 97 159
61 96 144
60 95 147
59 94 133
61 96 142
62 97 153
60 95 144
60 94 142
60 95 137
59 93 142
106 112 68
119 124 0
106 107 0
118 120 0
115 118 0
100 101 0
111 110 0
105 107 0
112 115 0
108 110 0
108 107 0
107 111 0
81 77 0
99 99 0
115 113 0
110 110 0
119 120 0
114 115 0
112 115 0
109 105 0
115 115 0
110 110 0
116 114 0
105 101 0
126 126 0
105 108 0
128 130 0
122 118 0
119 116 0
136 137 0
122 122 0
145 150 0
130 133 0
128 128 0
125 123 0
140 145 0
133 136 0
131 133 0
138 144 0
132 137 0
134 135 0
129 130 0
138 140 0
134 138 0
143 146 0
140 146 0
149 153 0
140 144 0
149 157 0
142 146 0
148 152 0
138 143 0
152 160 0
148 155 0
146 154 0
141 144 0
137 143 0
152 161 0
143 154 0
153 161 0
145 153 0
149 156 0
152 156 0
145 159 0
153 163 0
145 154 0
159 174 0
158 169 0
152 162 0
167 182 0
160 171 0
163 177 0
152 162 0
155 166 0
155 167 0
158 174 0
144 155 0
158 169 0
164 180 0
154 167 0
154 170 0
155 168 0
155 167 0
155 165 0
165 182 0
154 169 0
157 172 0
154 168 0
159 174 0
159 177 0
165 183 0
154 172 0
162 177 0
156 173 0
158 175 0
165 181 0
163 182 0
159 172 0
162 178 0
162 180 0
159 176 0
166 183 0
162 177 0
164 182 0
163 181 0
165 182 0
168 187 0
165 184 0
169 188 0
177 201 102
176 199 88
176 198 51
173 197 62
176 199 80
172 197 36
172 197 62
173 197 36
173 198 80
172 196 80
175 198 95
176 199 72
174 198 80
174 197 51
174 199 72
175 199 80
176 200 88
178 200 88
176 199 36
173 197 80
176 200 88
176 200 72
173 197 62
172 195 51
172 195 72
175 198 62
172 196 80
174 197 62
170 193 102
175 199 62
170 194 36
176 199 80
177 202 102
170 194 51
174 197 36
176 198 80
169 193 62
165 189 80
178 201 88
175 198 95
175 198 36
171 195 72
173 197 51
168 191 62
177 201 108
174 197 95
172 196 80
171 195 51
173 195 51
175 199 51
168 192 80
177 201 95
174 198 62
176 199 72
173 198 80
173 197 80
174 198 72
175 200 95
175 199 88
173 197 80
173 197 80
172 196 72
172 195 36
172 196 72
171 194 88
173 197 102
171 193 62
171 195 62
171 195 62
173 196 102
169 191 51
175 198 62
172 196 80
171 193 51
174 197 72
174 198 80
173 196 51
175 197 51
174 198 62
175 199 51
176 198 72
172 195 51
174 198 51
176 199 72
171 194 72
172 195 80
107 134 137
104 132 161
116 142 153
125 150 155
113 139 137
107 135 144
101 128 128
119 143 140
109 135 149
102 130 163
104 132 159
82 113 177
62 99 173
74 107 181
83 113 176
68 103 179
69 103 169
63 99 177
68 103 173
75 107 176
74 107 169
82 113 171
90 118 173
62 98 170
62 98 171
60 97 163
66 101 157
61 97 161
65 100 166
59 95 149
62 98 163
61 97 159
62 98 167
62 98 168
75 108 157
73 104 152
64 99 157
63 97 148
60 96 155
68 102 153
63 97 151
62 96 139
96 124 129
60 95 145
61 97 155
60 96 157
61 98 161
60 96 158
59 94 144
58 93 147
60 96 150
61 97 167
59 93 149
60 96 155
61 97 155
61 97 158
61 96 160
61 97 159
61 98 159
59 95 153
62 98 161
63 99 169
61 97 157
61 97 161
61 97 163
61 97 157
61 97 153
61 96 157
60 96 153
61 97 156
60 96 163
61 97 161
61 97 157
61 97 149
61 97 155
62 98 167
60 96 160
62 99 165
60 97 159
59 94 151
63 99 165
61 97 165
62 97 153
61 97 163
60 96 153
61 97 151
62 98 157
61 97 151
62 99 171
62 98 157
63 99 167
61 96 153
62 98 163
62 98 161
63 99 163
62 98 159
61 97 157
62 98 161
61 97 159
61 97 161
61 97 153
61 97 155
62 98 157
62 98 159
61 97 157
61 97 163
62 98 161
62 97 159
61 98 159
61 97 163
61 97 153
62 99 163
63 100 171
62 98 161
62 98 159
63 99 169
61 97 155
61 97 157
63 99 163
63 99 163
62 98 165
62 98 157
61 97 163
62 98 163
60 96 153
62 98 163
63 99 163
61 97 157
62 98 155
63 99 163
63 99 167
62 98 165
63 99 167
62 98 165
63 99 169
62 98 157
62 98 159
61 96 147
61 97 157
62 98 161
61 97 155
60 96 149
61 97 151
61 97 155
62 97 155
62 98 153
62 99 163
62 98 159
62 98 157
62 99 167
61 97 155
61 97 157
62 98 157
61 97 151
61 97 153
62 98 161
62 98 159
63 99 161
61 97 149
61 97 153
62 97 157
62 97 159
61 97 157
61 96 151
64 100 169
60 96 147
61 97 153
63 98 157
62 98 153
60 95 140
61 97 155
62 98 161
61 96 149
61 97 149
61 97 153
62 97 147
61 96 144
62 97 147
62 97 157
62 97 147
61 97 153
61 96 155
62 98 149
63 99 163
61 97 149
63 98 153
61 97 155
63 98 155
61 96 147
61 97 149
60 95 144
63 98 159
60 95 137
61 97 159
62 97 153
61 97 144
60 95 130
60 95 138
60 94 140
59 95 137
61 95 147
60 94 125
61 96 147
60 94 137
60 94 133
99 105 44
103 106 0
123 127 0
98 98 0
110 109 0
104 106 0
101 103 0
100 104 0
135 140 0
123 130 0
120 118 0
109 113 0
112 111 0
117 120 0
103 101 0
122 128 0
114 115 0
109 110 0
112 112 0
124 125 0
126 129 0
100 101 0
109 110 0
105 103 0
119 115 0
119 119 0
123 123 0
126 125 0
110 107 0
120 123 0
131 135 0
135 140 0
135 136 0
134 134 0
128 130 0
132 134 0
130 132 0
133 141 0
109 111 0
138 144 0
143 146 0
142 148 0
134 137 0
135 140 0
129 134 0
154 163 0
131 136 0
141 145 0
143 152 0
144 153 0
145 153 0
137 140 0
141 146 0
151 160 0
133 133 0
141 149 0
150 158 0
152 162 0
144 153 0
142 151 0
143 150 0
142 150 0
151 158 0
153 165 0
145 156 0
153 165 0
155 164 0
137 145 0
146 149 0
163 175 0
154 164 0
152 162 0
156 166 0
155 167 0
157 172 0
147 158 0
147 157 0
153 169 0
159 171 0
160 173 0
160 174 0
156 168 0
153 166 0
159 174 0
162 176 0
147 163 0
157 173 0
162 177 0
164 182 0
164 180 0
165 181 0
164 177 0
157 173 0
164 181 0
167 181 0
159 176 0
164 176 0
168 186 0
161 178 0
160 174 0
161 179 0
166 183 0
163 180 0
160 175 0
164 181 0
169 186 0
162 183 0
167 187 0
158 177 0
175 198 72
175 199 95
176 200 62
178 202 108
177 200 102
173 198 51
173 196 62
171 196 72
174 198 51
171 195 36
175 198 80
175 200 95
169 191 51
176 198 72
176 199 51
173 196 51
172 196 36
172 196 72
178 200 62
175 199 72
173 197 62
174 198 80
174 198 95
174 197 62
175 199 102
173 197 62
176 200 95
169 194 88
174 199 88
169 193 62
173 195 62
174 198 62
174 198 88
171 195 80
176 199 88
170 194 72
174 197 0
174 197 51
172 195 51
174 198 72
170 193 51
174 197 95
168 193 80
168 193 72
172 196 80
174 198 62
162 186 62
171 195 62
172 196 95
174 198 62
173 197 80
171 195 72
170 194 72
174 196 72
171 195 62
175 200 102
174 197 88
173 196 36
171 195 88
171 195 51
175 199 72
169 194 51
171 195 72
176 200 80
173 195 72
172 194 62
174 198 51
175 197 62
174 197 88
172 195 88
174 197 62
169 192 62
176 199 62
175 199 62
174 198 80
170 194 80
173 197 72
176 200 72
178 201 80
176 199 62
169 192 62
170 192 0
172 194 80
173 196 80
174 197 80
173 196 62
140 164 122
98 125 155
93 122 165
106 133 155
103 131 163
105 133 147
119 144 148
120 145 168
126 151 142
112 137 159
104 130 151
87 117 163
107 134 185
72 105 175
73 107 181
68 103 181
101 128 191
74 107 173
62 99 171
79 111 179
83 113 171
74 107 173
94 123 182
69 103 172
62 99 171
61 97 161
61 97 162
61 97 162
60 96 159
62 98 169
61 97 165
62 97 165
61 97 165
62 98 169
65 100 155
69 102 158
71 105 153
59 95 158
71 104 145
66 101 163
60 96 156
68 102 144
72 103 135
79 110 139
60 96 148
60 96 150
60 95 152
61 96 149
61 97 165
57 92 145
60 96 151
60 95 162
61 97 163
60 95 157
60 95 141
61 97 160
61 97 159
61 97 161
60 95 151
61 96 151
60 96 143
60 96 153
62 98 159
60 96 165
61 97 159
61 97 157
60 96 151
61 97 151
61 97 153
60 95 147
61 96 151
61 96 153
61 97 162
61 97 155
60 96 153
61 97 159
62 98 163
62 97 151
62 98 169
61 97 166
61 97 157
61 97 159
63 100 173
61 97 160
63 99 169
61 97 157
61 97 153
61 98 167
62 98 157
61 97 161
61 97 153
62 99 163
61 97 155
61 97 153
61 96 157
62 98 157
61 96 156
63 99 163
63 99 169
62 98 167
63 99 165
62 98 163
63 99 161
62 98 161
62 99 167
60 96 149
61 97 159
61 97 151
63 99 169
61 98 161
61 97 159
60 95 142
62 98 161
62 97 151
61 98 161
63 99 165
61 98 161
62 98 163
63 99 159
63 100 175
61 97 155
62 99 165
61 97 159
61 97 159
61 96 149
62 98 159
61 97 157
62 98 163
62 98 157
62 98 155
63 99 163
61 97 155
63 99 165
61 97 155
60 96 142
61 97 153
63 99 163
61 97 153
61 98 165
61 97 151
61 97 153
62 98 157
62 97 149
62 99 165
61 97 155
62 98 163
62 98 159
62 98 163
64 100 165
62 98 163
61 96 147
62 98 159
61 97 153
61 97 157
61 97 155
61 97 153
61 96 149
62 98 171
61 97 149
61 97 153
63 99 165
60 95 149
61 96 155
61 97 161
62 98 163
62 98 153
61 97 153
61 97 159
61 97 153
64 99 163
62 98 157
60 95 142
61 96 153
62 98 157
60 95 137
60 96 149
60 96 149
62 98 153
61 96 137
62 98 155
61 97 149
59 94 142
61 96 147
62 98 159
64 100 163
63 98 155
61 96 144
62 98 159
62 97 151
63 99 165
59 95 137
61 96 147
61 96 153
60 95 140
60 95 142
57 91 122
61 96 142
61 96 149
59 94 130
60 95 142
62 97 149
61 97 142
61 95 140
61 95 133
64 92 120
104 107 0
99 98 0
104 109 0
121 122 0
117 118 0
109 111 0
107 110 0
111 108 0
103 108 0
114 115 0
101 107 0
104 104 0
106 106 0
105 104 0
108 110 0
112 113 0
100 100 0
109 108 0
117 118 0
130 134 0
112 108 0
125 123 0
118 118 0
127 129 0
126 129 0
124 124 0
127 130 0
122 124 0
124 123 0
121 127 0
128 132 0
118 121 0
122 125 0
123 122 0
134 135 0
130 130 0
128 131 0
146 152 0
139 143 0
137 139 0
127 129 0
137 142 0
141 145 0
147 158 0
141 148 0
127 129 0
139 140 0
141 144 0
148 157 0
129 135 0
145 148 0
150 159 0
142 149 0
138 147 0
125 127 0
151 161 0
144 152 0
147 155 0
140 145 0
146 156 0
149 158 0
149 157 0
149 158 0
155 165 0
155 165 0
154 166 0
150 161 0
152 162 0
160 174 0
154 163 0
159 173 0
153 163 0
157 171 0
158 170 0
151 158 0
155 170 0
154 166 0
148 162 0
159 175 0
158 173 0
159 173 0
158 174 0
157 171 0
162 175 0
162 177 0
164 176 0
163 179 0
159 174 0
156 169 0
160 176 0
154 167 0
167 182 0
161 178 0
157 170 0
158 179 0
168 183 0
168 185 0
161 179 0
166 184 0
160 179 0
160 175 0
160 180 0
161 177 0
149 163 0
163 179 0
160 180 0
165 186 0
161 179 0
164 184 0
176 199 72
177 200 72
178 200 72
177 200 88
175 198 80
174 199 72
170 195 72
171 195 62
173 197 62
172 197 80
173 197 62
175 198 62
174 199 95
173 197 80
168 192 51
170 193 0
170 194 62
176 200 88
175 198 72
173 197 95
172 195 36
177 200 88
171 194 51
174 198 51
172 197 51
177 201 88
172 196 62
174 197 80
177 198 36
168 190 51
171 196 62
173 197 72
172 197 62
174 198 62
174 198 80
177 199 80
173 198 95
171 195 62
178 201 102
173 197 88
170 194 72
175 198 51
170 194 72
173 196 95
171 194 62
175 198 62
178 201 80
173 197 88
170 192 51
171 195 95
172 195 62
172 196 72
176 199 72
171 195 36
174 198 62
176 199 62
174 198 72
169 192 72
168 192 72
175 198 72
170 194 51
172 196 88
175 198 72
166 190 62
179 202 88
171 193 51
166 189 62
174 198 80
171 196 72
165 188 62
173 195 80
171 194 88
172 195 0
172 195 80
174 197 72
175 199 80
175 198 72
175 198 62
175 199 95
176 199 102
173 196 62
171 194 51
172 196 51
176 199 72
175 198 72
174 197 62
148 171 99
105 132 161
100 127 153
115 141 165
114 139 144
100 127 151
108 134 152
122 147 149
125 149 135
119 145 157
114 140 167
97 125 159
109 135 136
89 119 175
82 114 182
68 103 177
79 111 184
79 111 182
79 111 179
69 103 169
68 102 171
84 114 169
97 125 179
80 111 179
69 103 171
62 98 169
62 99 173
62 98 168
62 98 167
62 99 171
62 98 161
62 98 169
61 98 165
59 95 158
62 98 170
66 101 167
60 96 157
68 102 157
65 100 157
68 101 153
58 93 131
71 103 143
60 95 151
61 97 159
70 102 150
61 96 152
59 95 147
60 96 154
61 97 157
57 93 152
60 96 149
61 97 160
60 96 151
60 95 154
62 98 161
60 95 150
62 98 166
60 95 156
60 94 152
62 98 157
61 97 165
61 97 161
59 95 148
60 96 151
59 95 148
60 96 155
61 97 153
62 98 163
62 98 167
61 97 153
61 98 163
59 94 148
62 99 165
61 97 161
62 98 167
62 98 159
62 98 155
63 99 165
60 96 152
61 97 163
61 98 167
60 95 154
60 96 155
61 97 149
62 98 161
62 98 161
62 98 163
61 97 159
62 98 162
61 98 159
62 98 161
63 99 167
61 97 157
60 96 149
61 97 155
62 98 165
61 97 149
63 99 167
60 96 158
61 97 159
62 97 155
61 97 155
61 97 149
61 97 153
61 97 159
60 96 153
62 97 151
63 99 163
61 97 153
63 99 163
62 97 155
61 96 155
61 97 157
63 99 175
62 98 155
61 97 163
62 98 159
62 98 163
60 95 144
61 97 157
63 99 165
63 99 167
61 96 151
62 98 157
62 98 159
62 98 163
62 97 153
62 98 157
61 97 159
62 98 165
63 99 161
63 99 171
62 98 155
61 98 159
62 98 157
62 98 155
61 97 153
59 94 130
62 98 157
62 98 159
62 98 157
61 97 161
61 97 153
62 98 157
60 96 142
60 95 147
62 98 155
61 97 147
61 97 151
63 98 155
62 98 159
62 97 153
61 97 153
60 95 151
63 99 165
61 96 144
62 97 147
61 96 157
60 96 149
62 98 157
62 97 161
62 98 163
62 97 144
61 96 149
61 96 155
63 99 169
60 96 144
61 96 144
62 97 149
61 97 147
61 97 155
62 97 147
62 98 151
62 97 147
61 97 155
61 97 147
60 96 147
62 98 155
62 98 149
60 95 157
62 98 157
61 97 151
63 98 159
61 97 153
62 97 159
63 98 151
60 96 149
61 96 149
62 97 155
61 96 147
61 96 144
60 95 142
60 94 133
61 97 154
60 95 128
61 96 147
63 98 161
61 96 147
60 95 147
60 95 142
60 94 145
60 95 147
58 92 123
59 94 138
62 88 95
114 118 0
96 98 0
100 103 0
114 116 0
111 113 0
104 105 0
103 106 0
119 123 0
105 112 0
126 128 0
111 110 0
120 123 0
98 97 0
133 139 0
129 134 0
104 108 0
113 112 0
108 106 0
112 115 0
120 118 0
108 108 0
137 142 0
116 113 0
123 126 0
118 120 0
120 122 0
126 128 0
133 137 0
129 129 0
133 133 0
124 128 0
105 106 0
122 126 0
135 139 0
114 115 0
117 114 0
130 135 0
137 144 0
129 133 0
144 151 0
141 149 0
143 147 0
134 140 0
145 152 0
139 141 0
142 146 0
142 151 0
133 142 0
136 141 0
139 143 0
143 149 0
132 140 0
143 151 0
136 139 0
146 152 0
141 148 0
154 166 0
149 157 0
136 141 0
136 142 0
147 156 0
137 142 0
156 165 0
150 157 0
153 163 0
154 164 0
148 157 0
154 165 0
146 157 0
135 146 0
156 166 0
147 158 0
161 175 0
151 163 0
153 164 0
153 168 0
149 162 0
158 170 0
154 170 0
154 167 0
146 159 0
158 174 0
154 166 0
159 173 0
164 177 0
151 165 0
160 170 0
167 183 0
165 183 0
169 184 0
166 186 0
164 182 0
162 179 0
160 176 0
162 177 0
166 183 0
158 173 0
163 182 0
164 181 0
163 178 0
163 181 0
167 187 0
170 188 0
163 182 0
165 184 0
160 178 0
166 181 0
164 181 0
169 188 0
175 198 72
178 201 88
174 197 80
172 196 36
176 198 62
172 195 72
172 196 80
177 201 108
174 197 72
175 198 72
170 193 72
174 198 36
173 197 62
171 195 88
171 196 51
177 201 80
175 198 80
172 197 51
174 198 95
175 199 95
176 199 72
174 197 72
173 197 51
173 197 62
174 197 62
175 199 51
174 197 62
169 192 72
170 194 88
172 195 36
175 200 80
171 194 36
171 196 102
170 193 72
171 195 51
170 195 95
173 196 51
177 199 62
177 201 108
173 196 51
172 195 51
174 197 72
172 196 62
171 195 72
171 194 62
172 194 36
170 192 36
174 198 80
175 199 72
172 197 88
170 193 51
173 197 72
171 193 36
173 197 51
170 194 62
175 199 72
163 188 62
169 193 51
169 192 51
166 190 72
171 195 72
170 193 72
171 195 72
170 193 80
174 197 62
173 196 72
175 197 80
172 194 80
167 191 51
173 197 95
168 190 72
173 197 108
170 192 36
174 197 72
165 189 80
173 196 88
175 199 80
174 197 95
176 199 80
170 194 36
172 196 62
171 194 62
176 199 95
174 197 72
172 194 80
175 198 95
168 191 72
103 130 153
96 124 142
113 138 140
94 122 153
104 131 149
96 124 151
102 129 149
115 140 165
103 132 142
106 133 165
120 146 157
94 123 165
87 117 158
87 118 171
73 107 181
73 107 177
67 102 169
68 103 179
74 107 175
79 110 169
79 110 171
68 103 175
67 102 167
84 113 166
61 97 170
61 98 165
63 100 173
62 98 169
61 97 160
61 97 157
62 99 169
66 100 151
62 98 155
61 96 158
61 97 164
64 98 152
64 98 160
63 98 149
63 97 145
64 98 157
65 98 147
69 102 155
65 99 153
58 93 144
78 109 137
57 92 144
59 94 157
61 97 163
60 96 155
59 94 156
61 95 157
61 96 149
60 96 156
60 96 158
59 94 144
61 96 149
62 98 163
59 95 154
61 97 161
60 96 151
60 95 158
62 98 160
61 97 155
61 97 156
60 95 150
61 97 149
62 97 164
60 96 151
59 95 147
61 96 152
61 97 170
61 97 157
61 97 161
61 97 155
61 98 163
62 98 161
61 97 161
62 97 151
61 96 159
60 96 153
60 96 149
61 96 158
62 98 163
62 98 159
60 95 149
61 97 159
59 95 154
61 97 161
61 97 157
62 98 161
60 95 144
61 97 155
61 97 155
61 96 157
62 98 163
61 97 155
61 97 159
62 99 171
63 99 163
62 98 163
63 99 169
62 98 165
62 98 157
60 96 149
61 97 151
62 98 161
62 98 161
61 97 155
62 98 165
62 98 157
62 98 161
63 99 165
62 98 161
60 95 144
61 97 161
61 97 155
62 97 167
62 98 155
62 97 151
62 98 163
61 97 157
61 96 155
60 96 153
62 98 163
62 98 159
61 96 147
61 97 155
63 99 167
61 97 153
61 97 159
62 98 161
62 98 155
63 99 165
61 96 151
63 99 163
61 97 157
62 98 163
62 98 159
61 97 157
61 97 155
62 97 159
62 97 149
62 99 169
62 98 159
61 97 151
61 97 151
62 98 161
62 98 153
62 97 151
62 98 161
61 97 153
63 99 163
62 98 157
62 98 157
64 100 165
61 97 159
61 97 153
61 97 153
63 98 157
62 97 144
62 98 161
63 99 165
60 95 140
63 98 157
61 97 151
60 96 149
61 96 149
61 97 151
62 97 149
61 96 142
61 96 149
62 98 155
62 98 157
63 98 155
61 95 137
63 98 159
63 99 161
62 97 149
62 98 155
62 97 151
61 97 147
62 98 155
59 94 137
60 95 137
61 97 151
61 96 144
60 95 137
62 97 149
62 97 147
62 97 151
62 97 151
62 97 153
61 96 147
62 97 155
60 95 142
59 94 133
61 96 144
59 94 130
62 97 157
59 93 135
58 92 137
59 93 133
59 91 128
103 117 92
119 130 0
116 121 0
111 115 0
95 100 0
125 129 0
110 114 0
114 120 0
115 120 0
104 107 0
117 117 0
120 123 0
126 127 0
133 135 0
117 120 0
128 133 0
100 103 0
120 123 0
116 118 0
118 121 0
128 130 0
115 120 0
111 114 0
127 129 0
141 145 0
116 120 0
129 130 0
106 106 0
125 129 0
125 129 0
134 138 0
114 112 0
124 126 0
125 128 0
137 141 0
143 146 0
137 145 0
140 146 0
133 136 0
128 136 0
133 139 0
138 142 0
138 142 0
125 130 0
139 146 0
131 138 0
127 130 0
144 147 0
136 141 0
146 157 0
137 142 0
141 149 0
149 158 0
142 147 0
138 143 0
136 142 0
148 156 0
148 156 0
146 154 0
142 152 0
147 154 0
140 149 0
139 147 0
147 158 0
149 159 0
146 155 0
151 162 0
155 168 0
160 176 0
153 164 0
148 159 0
152 164 0
143 156 0
161 173 0
152 165 0
160 172 0
150 160 0
153 163 0
156 169 0
158 173 0
161 175 0
161 175 0
161 174 0
161 176 0
162 178 0
155 169 0
148 161 0
156 172 0
154 168 0
158 174 0
162 178 0
163 178 0
167 184 0
162 179 0
161 175 0
158 174 0
158 173 0
158 173 0
171 190 0
162 182 0
164 182 0
160 175 0
164 182 0
159 176 0
161 178 0
165 181 0
166 184 0
163 183 0
162 182 0
167 184 0
173 196 51
171 195 88
173 197 62
175 199 88
175 199 95
177 199 80
175 198 62
171 195 80
172 196 62
172 196 80
176 200 80
169 193 36
175 199 80
178 201 108
175 197 36
172 197 88
175 198 36
176 200 88
175 198 72
172 195 62
171 195 62
176 201 102
174 198 51
176 198 72
173 197 72
169 191 36
175 199 88
174 198 88
172 197 80
177 201 108
169 194 72
173 197 72
174 198 80
171 194 80
173 198 88
169 191 36
172 195 62
172 195 62
172 195 72
172 197 80
168 191 72
176 199 72
172 196 62
172 196 95
172 195 72
173 197 72
173 197 108
173 195 51
166 190 62
176 199 51
172 196 88
175 199 72
170 193 51
165 189 80
174 198 62
171 195 88
173 196 102
171 195 80
166 188 72
173 196 88
174 197 72
175 197 51
177 200 88
178 201 88
172 196 80
173 197 51
170 193 80
171 195 72
172 196 80
169 193 72
172 196 102
173 197 95
170 194 80
169 193 88
172 196 80
171 194 88
172 195 72
173 196 72
169 193 51
171 193 72
172 196 72
174 197 80
176 198 80
173 196 62
169 193 72
171 194 80
172 195 62
129 155 137
96 124 147
104 131 173
95 124 153
90 120 151
104 130 151
118 143 169
95 124 153
112 137 157
100 128 149
117 143 141
101 128 140
84 114 151
88 118 142
94 123 163
83 115 177
67 102 173
84 115 181
93 122 184
61 97 171
75 107 175
78 110 173
80 111 179
62 98 165
74 107 173
63 99 171
61 97 159
63 99 167
63 99 171
61 97 169
62 98 157
61 97 163
61 98 161
61 97 161
59 95 159
60 96 153
59 94 145
63 98 158
65 99 160
69 102 155
66 102 169
63 97 144
60 95 154
60 96 151
72 104 147
66 100 142
57 92 135
59 95 155
61 96 145
58 93 141
60 96 151
58 93 148
60 95 147
61 97 157
63 99 172
61 97 163
61 97 155
61 97 159
59 94 144
61 97 153
59 95 151
60 95 154
59 94 156
60 95 149
61 97 159
63 98 155
60 95 154
61 97 157
63 99 167
61 97 153
61 97 159
60 95 153
61 96 157
61 97 159
61 96 153
60 96 155
61 97 153
61 97 163
61 97 155
61 97 159
62 99 165
61 96 149
62 98 160
63 99 165
60 96 161
61 97 153
62 98 164
62 99 165
61 96 151
61 97 159
61 97 158
61 97 151
62 98 163
63 98 155
61 97 155
61 97 159
61 97 159
62 98 159
60 96 159
62 98 157
63 98 155
62 98 161
62 99 167
62 98 162
62 98 159
61 98 165
61 97 157
61 96 151
62 99 167
61 97 155
61 98 163
62 98 161
60 96 151
62 98 161
62 98 159
62 98 157
61 97 157
62 98 167
61 97 159
60 96 151
61 96 149
61 97 161
61 97 157
61 97 155
61 96 144
62 98 161
62 98 159
62 98 161
62 98 159
61 97 155
61 97 157
61 96 144
62 97 153
62 98 159
62 98 163
64 100 171
62 98 159
62 98 157
62 98 161
61 97 151
63 98 157
60 95 144
62 98 159
62 98 155
61 97 157
62 98 157
60 96 153
62 97 149
62 97 156
62 98 157
62 98 159
61 97 159
62 99 169
59 95 142
60 96 142
63 98 155
60 96 155
62 97 147
61 96 147
61 96 151
61 97 144
63 99 161
61 97 153
61 96 147
61 96 149
63 99 163
61 96 144
63 99 155
60 95 147
59 95 155
63 98 155
63 98 159
60 96 142
62 97 155
62 97 151
60 96 149
62 98 159
61 97 144
61 97 153
60 95 144
62 97 151
61 97 153
62 97 140
62 97 149
61 96 142
60 96 153
62 97 149
61 96 144
60 95 137
61 96 142
61 97 147
61 96 144
59 94 133
60 96 144
61 96 149
60 96 144
60 95 137
59 94 128
60 95 144
60 95 140
61 96 140
58 92 133
60 93 135
94 104 76
108 113 0
118 124 0
125 129 0
124 126 0
108 112 0
120 122 0
119 123 0
101 103 0
121 123 0
122 126 0
118 120 0
104 104 0
123 124 0
118 124 0
118 120 0
129 132 0
109 110 0
107 109 0
112 114 0
129 137 0
99 99 0
131 130 0
119 126 0
127 132 0
117 117 0
114 113 0
114 118 0
130 134 0
121 126 0
128 131 0
134 138 0
124 128 0
133 140 0
120 127 0
125 130 0
136 139 0
137 142 0
131 133 0
143 151 0
140 147 0
147 152 0
121 124 0
139 146 0
130 134 0
138 144 0
141 147 0
132 135 0
135 141 0
144 152 0
137 147 0
142 150 0
132 139 0
148 161 0
131 139 0
149 157 0
143 151 0
145 153 0
147 158 0
148 160 0
149 158 0
148 154 0
146 156 0
151 161 0
148 158 0
144 154 0
156 166 0
154 166 0
152 163 0
158 172 0
154 167 0
147 157 0
152 168 0
156 167 0
155 170 0
147 159 0
150 166 0
151 163 0
162 174 0
155 169 0
158 171 0
160 175 0
154 165 0
157 173 0
162 175 0
151 165 0
162 178 0
163 178 0
149 161 0
166 182 0
159 175 0
161 174 0
167 185 0
158 175 0
163 179 0
157 175 0
165 181 0
155 167 0
164 180 0
155 174 0
156 170 0
158 175 0
159 177 0
163 183 0
162 174 0
161 177 0
165 184 0
165 182 0
156 171 0
166 187 0
170 194 36
177 200 80
176 198 0
175 198 72
175 199 51
172 197 62
176 201 102
175 199 72
174 198 88
173 197 51
177 200 62
178 202 95
174 197 80
174 197 0
175 199 62
176 198 62
175 198 0
170 193 36
177 201 102
172 197 62
176 199 62
171 195 95
169 194 88
170 194 62
176 200 108
173 196 62
176 199 88
172 196 80
175 197 62
169 193 72
172 195 80
171 196 72
171 195 62
170 194 72
171 195 36
172 196 72
174 197 51
173 196 80
173 197 95
174 197 62
172 196 72
169 192 62
172 196 88
170 193 72
174 196 72
169 192 62
174 199 108
175 199 72
176 198 0
170 194 72
169 193 80
168 192 51
174 198 72
173 198 88
174 198 80
172 197 102
170 194 51
169 191 51
173 195 72
172 195 51
173 196 80
168 190 51
173 197 80
167 191 72
172 196 80
169 192 80
170 194 72
170 193 51
170 193 72
173 196 80
167 190 51
174 197 72
174 197 36
175 198 108
171 194 102
170 193 80
167 189 62
171 195 36
169 192 36
172 195 72
171 195 62
175 198 72
167 191 72
173 198 72
176 199 80
170 192 36
172 196 72
143 166 111
103 129 149
94 122 159
101 129 155
110 137 142
104 131 140
81 112 163
110 137 140
86 115 140
108 135 145
118 142 144
118 144 143
99 127 145
94 123 144
98 127 157
83 114 153
95 123 175
68 103 180
84 115 182
88 118 184
74 107 173
79 111 173
89 117 175
62 99 169
79 111 171
62 98 167
61 97 166
62 98 163
63 99 163
61 97 161
61 97 168
62 98 164
60 96 155
59 95 162
60 96 157
60 96 155
60 95 148
61 98 163
60 95 159
59 94 149
65 100 165
72 104 154
65 100 160
59 94 160
67 99 139
67 101 153
64 98 151
60 95 144
60 96 156
58 92 134
56 90 122
60 96 153
59 93 144
61 97 157
61 96 151
62 98 161
60 96 160
58 93 148
61 96 149
58 94 159
61 97 158
62 98 157
61 98 159
61 97 157
61 97 157
61 96 156
61 97 159
61 97 153
61 96 150
60 96 154
61 97 169
61 96 144
61 97 153
61 97 159
61 98 161
62 98 169
61 97 159
61 97 154
61 97 157
59 95 143
60 96 151
61 97 159
62 98 161
60 96 154
60 96 155
61 97 157
61 97 159
63 98 159
63 99 167
62 98 157
62 98 159
62 98 153
60 96 157
62 98 169
61 97 161
63 99 163
62 97 153
60 95 153
63 99 165
61 97 158
63 99 163
61 97 153
63 98 149
62 98 165
63 99 167
63 99 167
61 97 153
62 98 167
60 96 157
62 98 159
62 98 151
60 96 155
60 96 144
63 99 161
62 98 153
62 98 159
61 96 149
61 96 149
62 98 157
62 98 153
62 98 159
61 97 159
62 98 161
62 98 157
61 96 151
61 96 149
63 99 173
63 99 165
62 98 159
62 98 161
62 98 159
62 97 153
62 98 159
61 97 153
62 98 155
62 97 151
59 95 147
62 97 159
63 99 163
61 97 155
62 98 167
61 97 153
62 98 159
62 98 153
62 97 149
62 98 163
61 96 144
62 98 161
62 98 157
63 99 163
61 97 153
61 96 142
63 98 153
62 98 151
61 97 159
61 96 147
63 99 161
60 96 147
63 98 155
63 99 161
62 98 161
61 96 142
62 97 153
62 98 151
61 98 159
63 99 165
62 98 161
62 98 163
61 96 142
61 97 153
62 97 151
62 97 153
62 98 153
60 94 137
61 96 155
60 95 149
59 93 128
63 98 157
61 97 151
61 96 149
61 97 155
61 96 149
61 96 147
61 97 149
62 98 153
62 97 147
62 98 155
61 97 144
62 98 151
60 96 140
61 96 137
62 97 157
60 95 128
61 96 155
61 96 149
60 95 142
59 94 140
62 98 149
61 95 130
61 96 144
60 94 135
59 93 128
65 98 131
117 123 0
113 115 0
118 121 0
115 116 0
119 125 0
119 121 0
104 106 0
112 114 0
122 128 0
122 126 0
113 112 0
128 129 0
108 113 0
111 114 0
126 133 0
112 115 0
116 118 0
109 114 0
122 126 0
123 129 0
123 126 0
129 133 0
131 134 0
138 142 0
135 135 0
121 126 0
109 108 0
130 135 0
119 120 0
129 130 0
126 135 0
120 127 0
139 145 0
134 138 0
130 136 0
132 135 0
133 137 0
128 132 0
149 151 0
137 142 0
121 124 0
130 135 0
139 144 0
133 140 0
141 149 0
139 145 0
128 130 0
137 144 0
140 151 0
139 147 0
135 144 0
143 152 0
146 156 0
143 150 0
143 151 0
160 170 0
144 154 0
148 158 0
156 168 0
147 156 0
154 164 0
150 162 0
152 160 0
159 171 0
143 154 0
149 160 0
150 164 0
152 162 0
146 160 0
144 155 0
157 169 0
153 162 0
159 171 0
160 175 0
155 168 0
161 174 0
156 172 0
154 164 0
161 175 0
143 156 0
155 166 0
165 177 0
152 165 0
152 166 0
156 171 0
162 177 0
159 176 0
161 175 0
163 179 0
153 166 0
158 176 0
166 180 0
163 180 0
157 173 0
158 173 0
159 176 0
155 172 0
158 175 0
159 178 0
163 181 0
158 176 0
168 186 0
166 184 0
160 179 0
163 178 0
157 174 0
163 182 0
158 176 0
164 182 0
162 180 0
174 197 51
175 198 80
171 195 72
176 199 51
175 199 88
177 201 95
174 198 80
176 200 62
173 198 51
173 197 95
176 200 72
171 195 51
176 199 72
169 194 72
174 199 62
173 197 72
170 194 0
170 194 72
174 197 36
170 194 80
173 196 51
171 195 51
173 198 72
172 196 62
175 198 80
172 196 80
173 195 62
170 193 62
174 197 51
173 196 51
171 195 80
172 195 62
173 198 62
171 195 72
173 197 80
173 196 72
172 198 108
175 199 62
173 195 62
172 196 80
173 195 62
171 194 36
176 200 72
165 189 62
169 192 72
172 195 36
172 196 62
175 199 80
173 197 72
172 196 62
172 195 51
168 193 95
171 195 62
169 193 102
171 195 80
171 195 72
174 197 62
172 196 88
167 191 80
171 195 72
173 196 95
171 194 36
168 192 72
171 194 62
167 191 62
164 188 72
173 197 80
168 192 51
166 190 0
173 197 62
171 196 72
169 193 62
170 194 80
174 197 51
173 197 88
176 199 88
175 197 72
174 197 62
169 192 62
170 194 80
172 194 62
171 194 80
166 190 51
173 194 62
164 188 51
169 192 62
170 192 72
167 189 72
97 125 147
101 129 155
100 127 142
96 124 152
98 124 143
107 133 140
110 136 144
98 125 136
89 119 151
103 130 159
107 133 142
106 133 161
96 124 147
84 114 155
90 119 167
87 117 157
93 122 164
64 100 177
79 111 181
97 125 179
98 126 188
67 101 172
79 110 174
68 102 161
94 122 175
67 102 169
62 99 179
62 98 164
61 98 172
61 97 157
60 96 158
61 97 162
62 98 161
61 97 168
60 96 156
60 96 159
60 96 156
64 99 157
69 103 149
66 101 161
64 98 147
63 97 155
65 99 151
67 99 136
67 101 149
77 108 138
60 95 143
62 98 157
59 94 147
60 96 156
57 93 148
60 95 148
60 96 151
59 95 154
61 97 155
61 97 151
61 97 159
60 95 142
60 95 144
61 97 157
61 97 150
61 97 153
60 96 155
61 97 157
60 96 145
59 95 150
60 96 147
59 95 148
61 97 157
60 97 155
62 98 159
59 94 142
62 98 159
61 97 147
62 98 163
61 97 155
61 97 157
61 97 157
61 97 163
60 96 156
61 97 159
60 96 153
62 98 161
62 98 155
62 98 159
61 96 149
61 97 151
61 96 155
62 98 159
60 96 147
62 98 163
61 97 155
62 97 155
62 98 163
61 96 159
61 97 153
61 97 157
59 95 147
61 97 161
60 95 149
62 97 155
62 97 149
61 97 153
63 99 167
61 97 155
60 96 155
61 96 149
62 98 157
61 98 161
61 97 165
62 98 161
62 98 159
61 96 153
61 98 161
63 99 165
61 97 159
62 98 157
62 97 151
61 97 155
61 97 159
62 98 163
61 97 155
60 96 147
62 98 159
61 97 153
60 95 142
62 98 157
62 99 165
62 98 161
61 96 147
61 97 149
61 97 163
61 97 155
63 99 163
64 100 167
61 97 155
61 97 155
62 98 163
62 97 149
62 98 161
63 99 169
63 99 159
62 98 155
62 98 161
62 97 151
62 98 163
62 98 159
62 98 151
62 98 159
63 98 155
62 98 159
63 99 167
62 98 157
61 97 151
61 97 155
62 98 155
61 97 151
61 96 147
60 95 142
62 98 165
61 97 149
62 98 147
62 98 157
62 98 155
61 97 153
59 94 144
61 96 149
62 98 147
61 97 151
58 94 137
62 97 155
60 95 147
62 98 163
59 95 140
60 96 144
59 93 135
62 98 155
61 97 149
62 98 159
62 98 151
62 98 153
60 96 140
62 97 151
63 98 157
61 97 147
61 96 153
60 95 137
62 97 144
61 97 155
61 97 147
60 95 140
61 95 144
59 94 133
60 95 130
60 94 135
61 96 140
60 95 147
60 95 142
61 96 144
60 95 142
61 95 145
94 114 111
98 102 0
106 112 0
115 121 0
112 119 0
133 136 0
115 120 0
112 117 0
119 123 0
109 109 0
123 131 0
107 112 0
113 113 0
119 122 0
122 129 0
119 125 0
106 110 0
125 129 0
118 126 0
123 129 0
140 146 0
126 132 0
129 135 0
135 144 0
133 141 0
122 128 0
123 128 0
120 123 0
116 121 0
109 112 0
133 142 0
122 128 0
143 152 0
119 123 0
127 131 0
116 121 0
126 131 0
127 133 0
135 140 0
134 138 0
129 132 0
138 142 0
135 139 0
118 126 0
137 143 0
137 148 0
136 141 0
145 152 0
147 155 0
138 146 0
144 152 0
145 154 0
149 159 0
143 152 0
151 161 0
138 144 0
149 161 0
145 153 0
147 157 0
147 155 0
157 171 0
150 158 0
149 160 0
139 147 0
152 163 0
150 162 0
155 165 0
158 172 0
157 168 0
152 166 0
150 161 0
156 165 0
159 174 0
152 167 0
152 165 0
152 164 0
160 175 0
146 159 0
157 171 0
145 156 0
160 175 0
166 179 0
158 174 0
158 167 0
156 170 0
155 170 0
155 170 0
157 172 0
153 164 0
162 177 0
156 171 0
155 168 0
160 175 0
167 183 0
167 184 0
165 181 0
159 175 0
154 168 0
151 166 0
163 181 0
159 174 0
163 180 0
159 178 0
166 184 0
162 181 0
162 180 0
168 186 0
167 185 0
162 179 0
164 183 0
169 185 0
177 200 102
169 193 36
176 200 88
173 197 72
174 198 36
172 196 62
171 195 72
175 199 72
174 198 95
176 198 62
175 198 62
172 196 88
171 196 80
173 197 51
172 196 51
170 193 80
170 194 95
176 198 88
170 194 51
174 197 51
173 197 72
172 195 80
175 199 72
169 194 72
171 194 72
168 194 95
173 196 80
172 195 62
175 199 72
172 198 80
171 195 62
174 198 51
174 197 80
172 197 72
166 191 62
170 195 95
172 197 88
166 190 72
171 195 51
173 197 88
172 196 62
173 197 80
173 196 88
171 196 88
173 197 72
167 190 62
170 193 36
173 196 72
171 196 95
172 195 72
173 198 80
170 195 88
167 191 0
169 192 51
170 194 62
166 189 95
172 195 72
171 195 62
171 194 62
168 193 80
174 198 72
167 191 72
170 194 72
170 192 51
165 188 51
167 190 0
168 191 62
169 193 51
170 194 72
167 191 72
175 197 80
168 191 51
170 194 72
177 200 102
173 196 36
170 194 95
164 187 36
168 193 72
170 193 72
173 196 88
170 194 72
171 194 88
170 193 72
168 192 88
173 195 72
170 194 72
171 194 51
168 192 88
140 164 120
98 125 149
105 131 163
101 127 149
96 124 139
97 124 130
111 137 167
103 130 151
105 132 165
94 122 150
117 142 158
101 129 157
104 131 140
117 144 165
92 120 136
107 134 140
92 120 151
84 115 174
84 115 183
69 104 179
74 107 179
79 110 180
85 115 177
69 103 173
94 123 186
68 103 167
62 98 167
64 99 166
61 98 173
62 98 171
62 99 169
60 96 165
61 97 164
60 96 159
62 98 167
61 97 152
61 97 157
60 96 155
62 98 161
60 96 158
77 107 139
72 105 152
68 101 158
69 102 160
60 95 154
58 93 144
59 94 145
58 93 144
61 97 157
60 95 153
59 94 149
61 97 153
60 96 149
59 95 135
61 97 153
62 98 160
61 97 156
61 96 158
60 95 142
64 100 177
60 95 149
62 97 151
60 95 151
61 97 162
62 97 153
60 96 151
60 96 149
61 97 162
62 98 163
62 98 155
61 97 155
61 97 157
61 97 147
61 97 149
62 98 162
62 99 165
61 97 149
63 99 163
61 97 159
61 98 163
63 99 171
62 98 157
62 98 153
61 97 159
59 95 145
63 99 159
63 98 158
61 98 159
61 96 151
60 95 144
62 98 159
61 96 153
62 98 159
63 99 171
63 99 163
62 98 167
61 97 151
62 98 161
61 97 157
62 98 153
61 97 153
61 97 151
61 97 157
63 99 165
61 97 159
63 99 171
62 98 153
61 97 149
59 95 135
62 98 157
62 98 165
62 98 153
61 96 151
62 98 159
62 98 159
62 98 161
63 99 155
62 97 153
58 93 137
61 97 155
62 98 161
61 97 151
62 98 155
62 98 157
62 98 159
60 96 151
63 98 159
61 96 135
61 97 153
62 97 155
61 97 155
62 97 155
62 97 151
62 98 155
62 98 155
62 98 153
61 97 157
63 99 163
61 97 151
63 98 159
61 96 153
60 96 151
62 98 155
62 98 151
62 97 149
61 97 157
62 98 155
62 97 153
61 97 161
61 97 153
60 96 153
60 95 149
63 98 159
62 97 151
64 99 165
60 96 140
62 97 155
61 97 155
61 97 155
60 97 155
63 99 159
62 98 157
62 97 157
60 96 147
62 98 153
61 97 159
61 96 142
62 98 155
62 98 153
61 96 147
63 98 157
61 97 159
62 98 157
61 96 142
59 93 140
61 97 151
60 95 135
61 96 144
61 96 155
60 96 144
61 96 147
60 94 133
60 95 135
62 98 153
61 96 140
61 97 147
62 97 149
60 95 151
61 96 144
61 97 147
61 97 151
60 94 142
60 95 137
59 93 135
62 97 147
60 95 140
59 93 149
61 96 142
59 94 144
60 93 137
57 90 124
114 126 69
116 122 0
116 122 0
111 118 0
121 128 0
114 122 0
123 125 0
108 116 0
112 116 0
113 120 0
134 141 0
121 127 0
120 130 0
132 134 0
122 130 0
119 126 0
111 113 0
98 104 0
122 125 0
135 141 0
119 126 0
124 129 0
117 123 0
131 135 0
126 129 0
116 122 0
138 144 0
128 134 0
116 118 0
131 139 0
120 127 0
129 135 0
128 134 0
129 137 0
131 137 0
139 149 0
140 149 0
136 144 0
135 142 0
130 136 0
129 135 0
135 141 0
149 156 0
140 148 0
140 144 0
144 151 0
140 145 0
151 161 0
151 160 0
147 154 0
140 150 0
156 166 0
133 142 0
152 164 0
146 156 0
145 154 0
137 143 0
143 153 0
148 156 0
131 138 0
150 161 0
149 158 0
146 156 0
159 173 0
144 159 0
148 158 0
156 169 0
153 162 0
167 179 0
154 165 0
156 167 0
156 169 0
156 170 0
159 170 0
145 157 0
154 165 0
153 168 0
157 172 0
151 165 0
152 167 0
153 170 0
166 180 0
157 170 0
155 169 0
154 168 0
154 166 0
153 165 0
162 180 0
157 174 0
159 174 0
161 177 0
159 177 0
164 179 0
157 171 0
159 173 0
161 178 0
154 172 0
158 175 0
168 186 0
159 176 0
169 186 0
164 183 0
164 179 0
164 183 0
166 184 0
165 185 0
160 176 0
165 184 0
166 185 0
165 185 0
166 187 0
176 200 88
172 197 72
175 199 80
174 197 72
173 196 62
173 197 80
177 201 102
173 197 62
174 198 72
174 198 72
176 200 72
175 199 88
173 198 95
175 199 72
174 198 72
172 197 80
175 199 72
175 199 72
174 198 95
174 197 62
172 197 88
174 198 51
171 195 62
174 198 62
166 190 51
174 199 95
175 199 88
173 196 72
172 196 95
176 200 80
173 197 80
173 197 62
169 193 80
173 198 88
172 196 36
172 197 108
170 195 62
173 197 62
167 191 80
170 193 62
176 199 88
173 196 80
171 194 80
172 196 88
175 199 72
170 194 95
171 196 95
166 190 51
169 192 36
170 194 80
173 196 80
174 198 62
170 194 62
171 195 36
168 191 36
170 194 95
170 195 72
174 197 80
171 195 88
172 195 95
166 190 72
171 195 72
170 194 72
168 192 88
168 192 88
167 191 80
174 198 102
176 200 80
175 198 102
169 193 88
171 195 62
169 193 72
172 196 62
172 196 80
173 195 62
167 190 51
168 192 72
174 197 51
166 191 80
171 195 80
165 189 51
173 197 102
170 194 62
170 194 62
170 194 95
172 195 88
178 201 114
170 194 102
150 174 67
108 135 153
89 118 151
97 125 147
100 127 159
101 129 149
86 116 140
101 128 171
119 144 155
103 129 163
105 131 162
104 130 147
91 119 136
110 137 147
110 136 149
81 111 147
97 125 161
94 122 158
83 112 153
79 111 184
74 107 175
75 108 179
63 99 173
80 112 179
90 119 182
63 99 177
62 98 167
61 97 163
61 96 153
61 97 168
61 97 163
62 97 155
59 94 153
59 95 158
59 95 159
62 98 165
62 98 157
63 99 165
61 96 155
61 97 155
69 102 158
68 102 152
70 104 151
61 95 147
63 97 133
68 102 149
62 96 145
61 94 125
60 96 151
59 94 153
58 92 134
60 96 150
61 97 158
59 94 154
59 95 143
61 97 159
61 97 158
60 96 147
62 98 163
59 95 150
59 95 151
60 96 147
61 97 153
60 95 147
60 96 147
59 95 145
61 96 152
61 96 148
60 96 155
61 96 151
62 97 153
61 97 155
61 97 160
60 95 142
61 97 153
61 96 151
61 96 150
62 98 159
61 96 157
61 97 155
62 97 155
62 98 161
63 99 168
61 96 147
62 99 165
62 98 157
61 96 147
61 96 150
61 97 149
60 96 142
62 98 159
61 97 157
60 95 151
62 98 159
61 98 165
61 97 163
61 97 147
61 97 157
61 96 153
61 97 157
62 98 157
60 96 151
63 99 159
62 98 161
62 98 153
61 97 161
63 99 167
62 98 155
61 97 157
62 98 159
62 98 155
61 97 157
61 97 155
62 98 153
62 98 153
61 97 159
61 97 153
62 98 155
61 97 155
62 98 165
61 97 151
63 99 161
61 97 157
61 97 142
62 99 167
61 97 155
63 99 159
62 99 167
61 97 147
60 96 157
61 97 155
60 96 147
60 95 149
62 97 153
62 98 161
61 97 161
62 98 157
61 96 149
60 96 151
61 97 153
62 98 155
61 97 151
62 98 153
62 98 159
62 97 149
63 98 157
61 97 151
61 97 151
63 99 165
61 97 159
61 96 153
62 97 153
61 97 153
63 99 163
62 98 159
62 98 159
61 96 153
60 96 142
61 96 155
62 98 155
61 96 147
61 97 147
62 97 157
62 98 159
62 97 144
60 96 149
61 97 151
60 96 149
60 96 147
61 97 155
61 97 144
61 96 155
61 96 144
63 98 157
61 96 144
60 95 149
62 98 155
60 95 140
60 95 147
60 95 140
59 93 142
61 96 142
62 97 153
62 97 151
61 96 142
62 98 153
61 96 144
61 96 149
61 97 151
60 94 130
62 98 147
59 94 130
61 96 142
60 95 142
57 91 122
57 91 117
61 95 144
61 95 142
60 95 144
58 92 125
59 93 125
107 114 44
106 109 0
129 134 0
110 115 0
120 126 0
121 128 0
114 117 0
112 119 0
123 129 0
109 114 0
137 143 0
116 125 0
128 135 0
117 121 0
125 133 0
124 126 0
120 125 0
118 123 0
130 135 0
135 141 0
134 136 0
109 113 0
127 128 0
114 119 0
137 144 0
132 138 0
127 133 0
123 131 0
135 138 0
128 133 0
114 118 0
111 114 0
138 145 0
142 146 0
122 133 0
126 125 0
136 144 0
136 139 0
129 139 0
138 147 0
146 156 0
139 149 0
141 147 0
140 144 0
141 147 0
140 151 0
146 152 0
137 146 0
141 145 0
149 160 0
137 142 0
135 143 0
147 155 0
145 150 0
148 159 0
141 147 0
149 160 0
146 153 0
148 156 0
146 156 0
138 147 0
161 173 0
152 164 0
153 168 0
149 160 0
145 156 0
152 164 0
147 162 0
152 162 0
141 153 0
144 155 0
156 167 0
154 164 0
157 170 0
152 167 0
161 178 0
153 165 0
158 174 0
163 179 0
162 176 0
160 172 0
161 174 0
156 171 0
158 172 0
148 165 0
157 170 0
153 167 0
158 173 0
162 179 0
157 173 0
160 176 0
157 173 0
162 178 0
158 172 0
160 176 0
162 182 0
163 181 0
161 177 0
163 179 0
157 171 0
163 186 0
161 175 0
160 178 0
166 181 0
164 181 0
166 184 0
168 188 0
166 185 0
167 184 0
151 168 0
162 179 0
174 198 88
173 197 62
173 197 72
176 200 72
174 197 72
172 197 88
176 200 80
172 195 51
176 200 88
173 195 62
176 200 95
174 197 36
173 196 62
176 199 62
175 199 80
176 198 80
167 192 88
172 197 51
172 195 62
172 195 80
173 198 88
169 192 51
170 194 88
175 199 80
174 197 72
173 197 80
170 193 88
167 190 62
167 191 51
175 200 88
171 195 51
173 197 62
172 196 72
177 200 72
177 199 95
173 197 72
172 196 80
170 195 72
170 195 80
167 190 36
170 193 62
172 196 72
169 193 51
173 197 62
173 197 95
176 200 88
166 187 62
169 194 88
171 195 51
173 196 95
173 197 95
166 190 36
172 195 80
176 198 36
169 193 62
172 196 36
172 195 51
175 199 88
172 195 62
170 194 80
171 194 80
173 197 72
166 189 80
171 193 80
169 193 80
170 194 51
167 192 62
171 194 51
166 190 72
171 195 51
171 195 80
173 194 88
172 196 72
165 188 62
166 190 36
176 199 62
175 197 80
172 196 51
167 190 72
171 193 72
169 192 62
161 184 51
167 191 62
166 188 62
171 193 88
168 190 88
168 191 72
171 194 80
178 200 95
132 155 126
102 129 159
105 132 147
99 125 134
93 121 144
113 139 155
107 133 149
95 123 144
108 134 162
102 128 155
102 130 135
94 123 155
104 131 148
112 137 159
89 117 148
96 124 165
103 130 157
107 135 150
86 115 144
74 106 169
84 115 177
80 111 179
84 114 173
68 102 171
79 110 171
61 97 163
62 99 169
63 99 173
61 97 166
62 98 161
61 97 164
61 98 159
61 96 148
59 94 157
62 99 171
60 95 160
61 97 160
60 96 157
59 94 149
60 95 150
68 102 155
59 95 144
63 97 151
60 96 158
66 100 156
82 112 142
64 98 147
59 94 142
59 94 151
60 95 154
59 95 145
58 93 144
59 95 152
61 97 149
60 95 155
60 96 149
59 95 156
60 95 148
60 94 148
60 96 151
61 98 163
58 93 141
60 96 160
61 96 151
62 98 153
61 97 161
60 95 149
59 93 135
60 96 147
61 96 144
60 95 149
60 95 149
62 98 157
60 95 144
61 97 151
61 96 155
61 96 151
61 97 159
62 97 155
61 96 153
61 97 155
61 97 151
62 98 159
59 95 152
62 98 165
61 98 161
62 98 157
61 97 153
62 98 161
61 97 157
61 97 157
62 98 155
59 94 144
61 97 159
62 97 159
60 96 153
62 98 164
62 98 157
62 97 155
62 97 157
62 98 159
62 98 159
62 98 159
60 95 149
59 95 151
61 97 155
62 98 161
62 98 161
61 98 159
62 99 167
61 97 157
61 96 151
61 96 151
62 98 157
61 96 147
61 97 161
61 97 153
63 99 163
63 99 159
61 96 153
60 95 151
60 96 149
61 97 144
61 96 147
63 99 165
62 98 163
61 97 151
61 97 153
62 98 163
62 98 159
60 96 147
61 96 144
61 97 155
63 99 167
61 97 157
62 97 153
62 98 163
62 98 155
62 98 157
61 96 151
61 97 151
60 96 147
63 98 155
60 96 151
61 96 149
61 97 151
62 97 153
62 97 155
61 96 147
62 97 151
62 98 155
62 97 149
62 97 157
59 93 140
62 98 161
61 97 151
62 97 151
60 95 147
62 97 151
60 95 140
60 95 147
63 98 151
60 95 140
61 96 147
61 96 155
62 98 159
62 98 151
60 96 142
63 98 155
62 98 153
60 95 159
62 98 151
63 98 157
62 97 144
62 97 151
61 96 142
61 97 149
62 98 157
61 96 135
60 96 140
60 95 130
59 94 140
61 96 144
62 97 159
61 97 147
60 95 140
61 96 151
61 97 144
60 95 130
61 96 142
60 95 140
60 95 135
59 94 137
60 95 133
60 95 135
59 94 125
61 95 135
61 97 147
60 94 128
69 92 108
100 107 0
117 123 0
138 144 0
116 121 0
111 114 0
135 147 0
123 129 0
108 114 0
107 106 0
134 138 0
129 137 0
124 129 0
122 129 0
123 128 0
121 125 0
121 126 0
112 116 0
124 129 0
123 128 0
132 140 0
122 130 0
140 145 0
130 134 0
127 129 0
109 114 0
131 132 0
133 143 0
119 122 0
125 129 0
127 133 0
127 129 0
134 140 0
144 154 0
116 123 0
127 132 0
124 131 0
134 142 0
149 161 0
144 152 0
139 150 0
134 140 0
137 144 0
140 147 0
141 151 0
141 146 0
128 135 0
137 141 0
143 147 0
133 140 0
150 159 0
134 142 0
142 153 0
155 170 0
142 151 0
163 176 0
147 154 0
156 168 0
141 152 0
143 155 0
157 167 0
137 146 0
148 159 0
143 158 0
153 165 0
137 144 0
152 165 0
149 160 0
154 163 0
147 157 0
146 155 0
151 167 0
155 168 0
149 164 0
152 166 0
154 167 0
152 163 0
151 163 0
152 163 0
159 174 0
148 163 0
161 173 0
154 168 0
156 171 0
155 170 0
153 170 0
163 179 0
158 174 0
160 176 0
155 168 0
163 178 0
163 178 0
160 175 0
160 174 0
162 174 0
154 171 0
158 175 0
162 179 0
163 180 0
162 178 0
157 171 0
158 175 0
161 175 0
165 181 0
164 181 0
158 171 0
153 174 0
165 184 0
162 177 0
167 188 0
159 176 0
165 184 0
173 196 80
177 200 80
176 198 51
173 196 51
171 194 36
173 196 36
175 198 72
173 197 36
178 201 88
173 196 62
168 191 72
170 193 62
170 195 62
169 193 51
174 198 72
170 194 72
173 196 72
175 199 108
163 187 62
172 197 80
175 199 62
175 198 80
166 191 72
168 191 80
171 196 80
171 196 88
174 196 62
174 198 72
170 194 51
169 193 51
171 195 51
170 194 72
173 196 80
169 192 72
171 196 88
169 193 80
176 199 51
169 193 88
171 197 102
170 193 72
172 197 80
173 196 62
170 194 72
174 199 102
171 195 80
172 195 36
173 197 51
167 190 36
172 194 80
172 194 62
169 193 72
166 191 62
172 195 51
166 191 51
169 193 62
174 198 62
168 192 80
171 195 80
170 194 62
172 195 102
171 194 72
166 191 72
167 191 51
165 190 72
172 194 72
170 193 51
174 198 72
174 198 72
166 191 72
167 190 51
170 193 80
170 193 95
169 193 72
169 194 72
169 194 95
168 192 88
168 189 72
167 190 80
171 193 62
167 191 62
169 191 88
166 189 72
166 187 51
166 188 102
169 191 51
168 192 95
169 191 62
165 189 95
164 186 80
146 170 76
87 116 144
81 112 142
75 106 156
106 133 122
95 123 144
86 116 140
95 123 152
113 139 157
99 126 151
91 120 144
97 124 143
97 124 136
89 119 155
118 144 144
104 130 135
93 121 147
89 119 151
103 129 151
103 131 167
68 102 171
84 115 182
73 105 163
85 115 175
69 103 169
68 102 168
61 97 169
63 99 169
62 98 165
61 98 165
63 99 163
61 97 159
63 100 171
59 95 158
60 95 151
61 97 171
61 97 157
62 98 162
60 95 149
59 95 152
61 97 164
66 100 157
65 97 140
63 96 143
63 97 151
59 94 143
60 96 150
60 95 150
58 93 143
59 94 150
60 96 155
57 91 133
60 96 160
60 96 159
59 95 156
59 94 144
61 97 157
60 96 161
60 95 157
62 97 153
61 97 151
59 94 154
61 97 151
60 96 153
60 95 156
60 96 154
60 95 144
61 97 159
61 96 153
60 96 151
60 96 154
62 98 159
61 96 153
61 96 154
61 97 149
61 97 155
60 95 149
61 97 159
61 97 149
61 97 157
60 96 151
60 95 142
61 96 144
60 95 153
59 95 133
61 97 158
59 95 140
62 98 155
61 96 153
62 98 163
61 97 151
61 97 149
61 96 155
61 97 151
62 98 157
61 97 147
61 97 157
61 96 157
61 97 147
60 96 157
61 96 151
63 99 167
61 97 151
60 95 149
61 97 151
60 96 149
60 96 151
61 97 153
61 96 151
62 97 155
62 98 153
61 97 155
62 98 155
61 97 157
62 98 163
61 97 151
62 98 157
62 98 155
61 98 159
63 99 161
62 97 149
62 98 157
62 98 161
62 98 159
61 97 151
62 98 157
61 96 153
61 97 155
61 97 149
60 95 137
61 97 149
62 98 161
62 98 157
62 98 161
62 97 151
61 98 159
61 97 151
61 97 157
62 97 153
62 98 157
62 98 163
60 96 147
62 98 161
60 96 149
61 96 142
62 98 153
62 97 149
62 97 151
62 97 155
61 97 157
62 98 157
61 97 157
61 97 159
62 98 161
62 97 153
60 95 130
61 96 151
59 94 135
62 98 157
62 97 157
61 96 149
61 96 140
60 96 147
61 97 153
62 98 157
62 98 151
62 98 161
61 96 151
59 93 140
62 97 149
63 99 161
62 97 153
62 97 147
62 98 157
61 96 153
60 95 142
59 94 135
62 97 153
62 97 159
60 94 130
62 98 151
61 96 149
61 96 142
61 97 149
60 95 142
62 98 155
59 94 140
59 94 122
60 95 135
61 97 144
60 95 135
61 96 142
60 95 130
60 95 142
60 95 144
59 94 123
60 94 137
58 91 125
58 93 135
87 104 84
134 142 0
133 143 0
116 125 0
115 125 0
130 133 0
121 129 0
122 128 0
117 121 0
129 132 0
121 125 0
118 125 0
116 124 0
119 128 0
131 138 0
125 131 0
122 130 0
133 139 0
118 124 0
119 124 0
119 124 0
114 116 0
118 128 0
119 126 0
125 129 0
120 124 0
132 135 0
124 133 0
134 139 0
124 130 0
124 133 0
139 146 0
128 134 0
141 148 0
139 145 0
141 149 0
149 159 0
123 127 0
140 149 0
145 154 0
141 148 0
136 144 0
134 140 0
145 150 0
143 151 0
136 146 0
143 155 0
137 147 0
146 155 0
146 153 0
147 157 0
141 147 0
144 155 0
143 150 0
150 162 0
134 145 0
154 166 0
146 156 0
147 159 0
145 151 0
157 169 0
141 154 0
143 153 0
155 168 0
151 164 0
149 159 0
155 168 0
149 158 0
146 153 0
158 171 0
152 162 0
156 168 0
154 169 0
147 158 0
148 161 0
163 179 0
163 176 0
153 165 0
154 169 0
149 164 0
158 172 0
153 165 0
146 160 0
154 171 0
153 166 0
159 174 0
149 162 0
158 174 0
156 172 0
153 170 0
154 169 0
153 166 0
167 185 0
166 181 0
152 169 0
142 156 0
166 186 0
156 174 0
163 183 0
163 178 0
161 177 0
159 174 0
158 176 0
164 181 0
164 181 0
158 171 0
161 180 0
168 187 0
165 185 0
162 180 0
164 183 0
165 182 0
175 199 72
178 201 88
174 198 62
175 198 95
168 193 62
168 192 51
173 196 51
174 198 88
171 194 102
176 200 102
172 196 51
171 194 36
176 200 88
174 197 36
171 195 51
167 191 80
173 197 72
175 199 108
176 198 72
174 199 88
171 195 80
175 198 51
170 194 80
171 194 72
176 199 80
169 193 62
172 195 72
172 195 51
173 198 95
174 198 80
169 192 62
175 200 95
172 196 51
174 196 72
173 198 95
174 198 80
167 190 80
172 198 72
171 194 88
169 193 62
173 197 88
167 191 62
176 199 62
172 194 88
167 190 62
172 195 72
173 197 72
169 192 88
168 192 80
171 195 62
170 196 108
165 189 62
173 196 95
167 190 72
172 196 72
171 194 72
173 195 62
170 194 80
176 200 80
167 191 72
168 192 72
168 193 88
168 191 62
168 193 72
171 195 88
167 190 88
167 192 62
165 189 80
172 194 62
168 190 72
165 188 80
166 190 80
169 194 72
170 194 102
167 190 51
163 185 62
169 193 36
173 196 72
170 195 62
175 199 80
169 191 88
163 187 95
168 189 36
170 193 95
168 191 62
163 186 51
168 190 62
169 191 72
168 191 62
172 195 72
125 150 147
92 121 147
96 124 144
77 109 151
108 135 157
77 108 139
99 126 161
97 125 142
93 120 157
103 130 161
95 123 147
108 133 145
92 122 141
112 138 142
85 113 137
85 113 142
92 120 167
114 139 165
93 121 156
77 109 170
74 108 179
74 107 177
62 98 165
80 111 177
73 105 167
75 107 169
62 98 175
61 96 169
61 97 159
62 98 170
62 98 155
61 97 162
70 104 161
62 99 169
61 96 155
65 100 154
59 94 155
61 97 159
59 95 144
61 96 147
61 96 160
61 96 158
68 101 148
66 100 153
60 96 154
64 98 153
66 97 139
60 96 154
60 95 152
58 92 143
61 96 160
59 94 159
59 94 151
61 96 150
62 98 163
60 96 149
59 93 137
60 96 158
60 95 153
60 96 151
61 96 149
62 97 159
60 96 155
60 96 149
59 95 153
62 98 157
61 96 160
62 98 155
61 96 154
61 96 153
62 97 153
61 97 157
62 98 160
60 95 153
61 97 161
61 97 152
61 98 159
61 97 153
59 94 147
61 97 157
62 98 159
61 98 159
61 97 151
60 95 144
61 96 142
62 98 159
63 99 161
61 97 156
60 96 151
61 97 153
62 98 163
61 97 155
61 97 161
62 97 155
62 98 161
61 97 159
61 97 147
63 99 159
59 94 137
62 97 157
60 95 147
63 99 169
63 99 169
61 97 157
60 95 140
62 98 151
63 99 161
61 96 153
61 97 155
61 97 149
61 97 159
62 97 153
61 97 149
61 97 142
62 98 157
61 96 147
61 97 155
62 98 157
61 97 157
63 99 165
61 96 155
61 96 144
58 94 137
62 98 165
61 97 153
61 97 155
61 97 159
62 98 161
59 94 135
62 97 151
63 98 153
61 96 147
63 99 165
62 97 151
61 97 153
61 96 151
62 98 159
61 97 151
62 98 157
61 97 155
60 95 144
63 99 167
61 97 151
61 97 151
61 97 155
63 99 163
62 98 155
61 97 151
63 99 159
61 97 151
63 99 161
61 97 149
62 98 161
63 99 157
61 97 157
61 96 147
61 97 155
61 97 159
61 97 147
62 97 149
61 97 149
62 97 153
61 96 147
61 96 153
61 96 147
62 98 151
62 97 149
63 98 157
62 97 149
62 98 157
59 94 149
61 96 149
62 98 151
62 98 157
60 95 130
61 96 142
61 97 151
60 94 137
61 96 147
61 96 144
61 96 149
61 96 149
62 98 157
61 96 140
60 95 135
62 97 147
60 96 153
62 97 144
61 95 144
61 96 147
60 94 140
62 97 144
59 94 137
63 97 149
60 94 131
57 91 114
58 93 123
62 94 128
107 115 36
124 130 0
120 128 0
131 137 0
123 135 0
115 115 0
125 133 0
129 140 0
121 129 0
126 131 0
112 117 0
128 132 0
116 122 0
110 118 0
121 130 0
128 136 0
127 133 0
113 123 0
127 136 0
133 144 0
139 143 0
128 136 0
113 120 0
134 142 0
127 136 0
141 150 0
126 137 0
117 125 0
132 139 0
125 130 0
140 148 0
130 137 0
138 143 0
129 137 0
134 142 0
141 152 0
135 142 0
116 123 0
144 152 0
137 146 0
132 138 0
143 154 0
125 133 0
135 144 0
149 157 0
137 145 0
149 160 0
141 151 0
153 164 0
144 154 0
146 159 0
136 144 0
145 155 0
150 161 0
142 151 0
155 169 0
133 142 0
154 168 0
138 147 0
151 162 0
145 155 0
147 152 0
150 164 0
146 157 0
140 148 0
146 159 0
148 161 0
157 170 0
149 162 0
162 174 0
158 168 0
146 160 0
155 168 0
150 162 0
145 160 0
158 171 0
160 175 0
160 173 0
161 176 0
151 166 0
156 171 0
156 172 0
155 172 0
153 166 0
157 173 0
149 160 0
147 161 0
150 165 0
156 171 0
161 178 0
156 172 0
160 176 0
161 178 0
160 176 0
163 182 0
158 173 0
158 176 0
163 180 0
165 182 0
160 175 0
162 178 0
163 179 0
162 180 0
158 173 0
166 183 0
163 181 0
160 180 0
164 181 0
163 182 0
161 180 0
163 180 0
163 181 0
177 200 51
177 201 102
167 191 36
174 199 95
173 196 62
174 197 62
178 201 95
171 195 80
172 196 62
169 192 36
175 198 62
176 199 62
172 196 62
167 191 51
176 200 72
172 196 80
177 200 80
170 195 80
170 194 62
171 196 72
175 197 51
171 195 72
174 198 72
169 194 80
173 197 72
172 196 62
172 197 62
166 191 72
167 190 80
170 195 72
172 196 72
170 193 62
169 193 62
173 196 62
170 194 51
171 196 95
163 187 36
172 196 80
166 189 80
161 185 72
174 198 80
170 193 62
170 194 80
166 191 95
172 195 62
164 186 51
171 194 80
166 190 36
172 197 95
171 195 72
171 196 80
175 201 108
175 197 62
169 193 72
166 192 88
161 183 62
171 196 80
174 198 80
158 180 51
165 188 72
170 193 72
168 191 62
171 195 80
170 193 80
167 191 88
166 190 72
171 194 51
169 193 80
170 194 36
172 196 62
169 194 36
165 190 95
165 189 51
171 194 80
169 193 88
168 191 62
168 192 80
172 196 80
170 193 51
169 192 88
169 191 80
170 194 62
167 190 95
166 190 62
170 193 95
165 187 62
166 189 51
171 194 108
165 189 62
169 191 88
146 168 84
69 101 133
86 115 140
90 117 143
90 117 145
90 118 140
94 121 149
92 119 145
102 129 155
108 133 141
92 119 136
129 153 159
104 130 153
105 132 134
106 133 128
88 117 155
105 132 140
96 124 163
92 120 154
105 132 164
86 115 167
79 110 177
84 115 179
89 118 175
94 122 182
69 104 181
74 107 173
61 97 161
60 96 151
61 98 165
61 98 174
62 97 161
61 98 159
61 96 157
62 98 163
62 98 162
62 97 161
61 97 157
60 96 153
58 93 145
59 95 151
65 98 142
64 96 142
60 95 142
71 103 139
64 98 148
58 93 145
57 92 137
60 95 153
59 95 137
59 94 149
61 96 147
59 93 145
59 94 140
60 97 161
60 95 141
60 96 144
61 97 156
60 96 157
59 94 152
59 95 135
61 96 155
60 96 142
60 95 142
59 93 140
58 93 137
62 97 147
61 97 153
59 95 152
60 95 148
59 94 154
62 98 163
62 97 157
61 97 157
60 96 157
60 96 147
62 98 163
62 97 153
60 95 142
61 97 161
61 97 151
61 97 153
59 94 141
62 98 165
60 96 151
61 96 147
61 96 149
61 97 147
62 97 153
61 97 157
61 96 145
63 99 163
59 94 137
62 97 162
62 98 157
62 98 159
61 97 155
62 98 153
61 97 151
61 97 151
61 97 159
61 97 161
61 97 155
61 97 157
62 98 159
61 96 153
62 98 167
60 95 147
61 96 149
62 98 157
62 98 163
59 95 147
62 98 153
61 96 149
62 97 165
62 97 151
61 96 153
63 99 157
61 96 151
61 96 153
61 96 147
62 97 155
62 98 153
62 97 155
60 96 151
62 98 157
62 98 159
62 98 157
63 99 167
60 95 140
59 95 153
62 97 151
62 97 149
63 99 165
61 97 155
61 97 153
62 98 153
62 98 163
61 97 151
61 97 159
62 97 147
62 97 155
62 97 157
60 94 142
62 98 155
62 98 159
60 95 140
61 97 149
62 98 159
62 98 169
62 97 161
62 97 159
62 97 149
62 98 155
63 99 163
62 98 151
60 95 142
62 97 149
61 97 147
59 94 140
61 97 151
61 97 153
62 98 155
60 96 142
61 95 144
60 96 144
60 96 144
60 96 147
61 96 149
61 97 151
60 95 137
60 96 137
60 95 125
60 95 140
59 93 133
60 96 151
59 94 133
63 99 159
59 94 128
60 94 133
61 96 151
59 94 125
61 97 142
62 97 149
60 95 142
58 91 122
59 93 130
60 95 140
61 95 140
62 98 157
59 93 117
61 96 142
61 95 144
57 90 120
59 94 130
58 92 117
60 94 133
81 103 108
136 140 0
120 130 0
128 138 0
105 111 0
125 130 0
125 134 0
115 125 0
113 121 0
114 118 0
128 140 0
126 134 0
119 125 0
126 136 0
142 154 0
128 137 0
119 127 0
125 132 0
121 125 0
127 133 0
121 127 0
127 133 0
137 144 0
128 136 0
132 140 0
125 134 0
129 135 0
144 154 0
131 138 0
137 145 0
146 156 0
146 156 0
134 139 0
139 146 0
137 146 0
143 150 0
123 130 0
138 149 0
140 148 0
133 143 0
128 131 0
136 142 0
143 152 0
139 146 0
142 153 0
151 160 0
144 158 0
136 147 0
144 154 0
146 153 0
143 152 0
133 142 0
149 162 0
149 161 0
153 164 0
153 164 0
149 157 0
146 156 0
136 146 0
150 164 0
147 156 0
149 160 0
151 164 0
148 155 0
159 174 0
154 168 0
157 171 0
155 171 0
149 161 0
153 168 0
150 164 0
144 158 0
153 164 0
156 170 0
154 167 0
156 170 0
148 161 0
144 157 0
164 179 0
158 172 0
147 162 0
155 166 0
154 164 0
157 173 0
155 169 0
159 173 0
160 178 0
148 164 0
156 169 0
162 177 0
153 164 0
156 172 0
162 178 0
164 182 0
167 185 0
158 175 0
157 173 0
163 179 0
161 178 0
157 173 0
161 175 0
167 182 0
162 179 0
165 184 0
164 183 0
163 179 0
162 180 0
166 181 0
165 180 0
158 174 0
166 181 0
164 181 0
165 183 0
172 195 51
174 198 62
176 200 72
173 196 62
177 200 72
172 195 62
175 200 88
176 199 72
171 195 72
170 193 72
176 199 62
173 198 72
174 196 36
172 195 62
166 188 51
174 199 72
173 197 72
173 198 95
175 199 102
173 197 72
172 195 80
173 198 72
170 193 62
174 196 62
171 195 51
173 197 95
165 190 80
171 194 80
174 198 80
175 199 88
167 192 72
171 196 62
167 192 80
169 194 72
172 196 72
170 194 62
168 193 102
169 194 36
172 197 72
174 198 80
169 193 95
168 192 72
168 191 108
169 192 62
172 196 51
166 190 72
169 195 95
163 186 80
168 192 80
175 199 88
174 196 51
175 200 88
169 195 102
170 193 51
169 192 62
164 189 88
173 197 62
170 194 51
170 193 51
167 189 62
173 197 88
164 186 36
168 192 95
171 195 72
168 190 51
167 191 80
171 193 72
165 189 88
165 187 72
167 191 62
170 193 80
165 188 62
168 192 102
168 192 62
169 192 62
171 195 72
169 192 88
167 190 80
162 185 72
162 185 72
168 191 51
166 189 0
166 188 80
160 184 80
170 193 95
172 196 95
166 189 114
172 194 51
166 189 36
173 196 102
155 178 67
90 119 142
112 138 165
92 120 144
100 127 140
90 119 147
94 122 151
95 124 144
88 116 151
103 131 147
84 113 139
107 132 134
110 136 160
101 128 148
100 127 144
101 129 155
101 127 141
100 127 133
70 103 151
88 118 155
101 129 144
86 117 169
69 103 175
67 102 163
80 111 171
73 106 177
68 102 159
67 101 166
61 97 163
60 96 153
63 99 163
59 95 153
60 96 155
62 98 153
61 97 159
61 97 169
59 95 148
60 96 149
58 94 158
60 95 144
58 92 141
62 96 142
60 96 157
67 100 135
59 94 153
60 96 150
71 104 137
59 94 149
58 93 149
60 95 150
58 92 140
59 93 135
60 95 152
59 94 143
59 94 142
58 92 136
62 97 159
59 94 135
61 96 144
61 96 149
58 93 150
59 94 144
59 94 133
59 94 140
61 97 155
60 96 159
62 98 159
60 94 147
62 98 160
60 94 139
61 97 149
61 98 159
61 97 155
60 95 152
61 97 151
60 96 153
62 98 159
60 96 151
61 97 153
61 96 142
61 97 147
61 97 157
60 95 147
60 96 152
62 98 155
61 97 152
62 98 155
61 97 155
60 96 144
61 96 142
60 95 144
61 97 153
61 97 153
61 97 149
61 96 144
61 97 153
61 97 155
61 97 157
62 97 157
62 99 163
60 96 155
61 97 155
61 97 155
61 96 153
61 97 159
60 96 151
62 97 153
62 97 155
60 95 142
62 98 159
61 97 153
60 96 144
61 97 149
62 97 157
62 98 153
62 98 157
63 99 159
60 96 144
62 97 153
62 98 157
61 96 144
61 97 155
61 97 155
63 99 165
61 97 161
60 95 147
62 98 157
61 97 159
62 97 155
62 98 153
63 98 159
61 96 149
61 97 157
62 97 155
62 97 151
60 96 157
61 97 157
62 98 159
61 96 144
61 96 151
62 98 155
60 95 142
61 97 149
62 97 144
62 97 149
62 97 147
63 99 159
62 98 155
61 97 147
62 98 155
62 98 151
61 96 151
62 98 151
59 94 137
62 97 151
62 98 153
61 96 151
60 96 149
62 98 155
63 99 157
62 98 157
61 96 153
61 96 149
61 97 147
61 96 140
62 97 149
61 96 147
63 98 151
61 97 153
60 96 144
62 98 151
62 97 155
63 99 159
61 96 144
61 97 144
62 98 155
62 97 144
60 96 151
61 97 151
57 92 128
60 94 140
59 93 144
61 96 153
62 97 151
59 94 125
58 93 128
60 95 135
61 96 144
60 95 140
61 95 137
59 93 128
61 96 142
59 94 133
61 95 140
58 91 137
58 92 122
60 95 133
105 119 76
129 139 0
120 128 0
123 129 0
126 136 0
118 126 0
130 137 0
114 123 0
129 137 0
104 112 0
120 131 0
132 139 0
122 131 0
125 136 0
128 135 0
129 137 0
123 133 0
137 150 0
132 141 0
112 121 0
120 130 0
127 135 0
129 136 0
133 140 0
130 140 0
129 137 0
141 152 0
124 134 0
125 133 0
137 146 0
132 141 0
136 143 0
136 146 0
143 155 0
131 139 0
139 150 0
141 153 0
137 144 0
137 148 0
130 140 0
134 139 0
148 161 0
139 147 0
126 135 0
139 148 0
141 152 0
132 141 0
134 146 0
142 148 0
137 146 0
144 153 0
144 154 0
144 151 0
141 151 0
153 166 0
154 166 0
149 157 0
161 176 0
150 161 0
152 167 0
142 150 0
153 170 0
151 160 0
152 166 0
151 162 0
149 161 0
151 160 0
148 163 0
145 158 0
144 154 0
146 156 0
152 166 0
147 160 0
149 165 0
157 169 0
158 172 0
155 169 0
149 165 0
162 174 0
147 162 0
148 163 0
156 168 0
161 176 0
149 167 0
143 158 0
163 180 0
152 168 0
158 176 0
158 173 0
155 168 0
154 171 0
156 171 0
165 182 0
162 180 0
164 182 0
165 182 0
156 174 0
164 183 0
154 168 0
164 180 0
160 179 0
164 179 0
165 182 0
167 183 0
162 183 0
161 179 0
162 183 0
168 185 0
165 182 0
165 181 0
162 180 0
163 178 0
156 172 0
174 197 80
166 190 51
172 195 36
170 194 72
172 196 72
173 198 62
171 194 62
172 196 80
175 198 80
171 194 62
174 198 62
171 196 62
175 198 72
171 195 88
176 199 62
172 195 80
169 193 72
171 195 36
171 195 36
171 194 62
173 196 88
175 199 80
170 194 95
171 195 51
171 195 62
170 193 62
172 197 72
172 196 72
172 195 62
171 194 80
170 194 62
171 196 80
171 196 88
174 198 80
172 197 80
172 196 62
174 198 80
170 193 62
168 191 62
174 197 62
171 194 80
170 195 62
170 192 62
168 192 72
167 189 62
170 193 62
171 196 88
173 196 51
171 194 62
167 191 72
169 193 62
171 195 36
172 196 88
169 193 72
170 194 80
173 196 95
165 189 72
169 193 88
174 198 80
175 198 36
166 190 80
170 194 72
164 189 80
170 194 72
172 196 95
173 197 80
169 193 36
167 190 72
173 197 72
173 197 51
174 197 88
167 191 62
169 192 72
163 188 51
170 192 80
167 190 62
163 186 36
164 187 51
163 186 62
171 195 62
165 190 80
163 186 51
164 188 88
165 190 80
172 194 80
165 187 51
168 191 88
169 192 62
163 186 80
163 187 36
163 185 36
124 150 122
91 119 145
81 111 122
109 134 152
87 115 144
105 132 155
83 112 147
100 127 142
90 118 142
101 128 137
108 134 161
104 131 142
107 133 149
86 115 137
91 121 151
96 123 143
97 124 149
105 132 151
94 122 156
99 126 162
83 113 151
90 119 174
80 111 169
74 107 181
89 118 177
79 109 163
74 106 163
62 99 169
60 96 161
61 97 159
61 98 163
60 96 156
62 98 163
62 98 163
60 96 158
59 95 153
61 96 153
59 95 147
61 96 162
60 95 156
57 92 135
66 98 131
66 98 131
63 97 150
64 97 143
62 95 143
70 101 135
57 90 134
58 93 147
58 92 142
60 95 151
58 93 141
60 94 140
59 94 154
58 92 136
61 96 147
63 99 164
59 94 145
61 97 153
62 98 168
60 95 142
60 95 151
58 93 139
61 97 142
61 97 157
60 96 157
60 95 140
61 96 157
60 96 153
61 97 147
61 97 161
61 96 144
60 95 150
62 98 159
60 95 144
59 94 144
62 99 163
59 94 140
62 97 166
60 95 147
62 98 157
60 96 147
62 97 163
58 94 133
62 97 159
60 96 153
61 97 157
60 96 153
60 95 144
61 97 157
62 98 157
61 97 149
61 97 147
61 97 157
61 97 163
61 96 149
61 97 151
62 98 153
63 98 155
62 97 153
60 96 153
61 98 163
62 98 159
61 97 149
62 98 163
61 96 149
61 97 153
62 98 155
61 96 155
61 96 144
62 98 159
60 94 140
60 96 155
61 96 147
62 97 151
61 97 149
62 97 157
61 97 159
62 97 155
60 96 151
62 98 161
61 97 153
61 97 153
63 99 157
63 98 159
62 98 159
63 98 153
61 96 144
62 99 163
62 98 165
62 97 142
61 97 153
62 97 153
59 94 140
61 97 151
62 98 159
62 98 157
63 98 157
61 96 151
62 97 155
61 97 155
61 97 147
61 97 151
62 98 159
63 98 157
61 96 140
60 95 147
61 96 147
62 97 151
60 95 137
61 97 144
62 98 163
61 96 144
61 96 144
59 94 142
61 97 157
60 95 142
60 95 155
60 95 135
62 97 147
62 98 159
60 95 133
62 98 153
61 96 144
61 96 151
62 97 147
63 98 159
62 97 149
61 96 135
62 98 151
60 95 137
61 95 144
61 97 147
60 96 149
61 96 147
61 96 137
60 95 142
61 96 144
59 94 130
60 95 147
61 96 151
61 97 153
61 96 149
61 97 153
60 94 130
60 95 135
59 93 140
60 95 135
61 96 147
61 96 149
61 96 137
60 94 122
60 94 133
61 95 142
58 92 128
59 91 120
124 133 0
118 128 0
123 133 0
127 137 0
142 151 0
125 140 0
121 132 0
129 138 0
127 136 0
129 140 0
116 124 0
129 136 0
122 130 0
122 131 0
120 130 0
128 135 0
140 144 0
121 131 0
129 137 0
135 145 0
134 142 0
135 143 0
133 142 0
139 149 0
133 142 0
126 133 0
129 139 0
131 144 0
122 130 0
123 133 0
136 146 0
129 140 0
127 135 0
126 132 0
137 148 0
137 145 0
136 143 0
144 157 0
144 154 0
138 148 0
141 155 0
128 137 0
145 153 0
129 140 0
130 140 0
139 149 0
132 143 0
137 149 0
144 154 0
138 148 0
146 157 0
143 155 0
144 156 0
132 139 0
150 160 0
145 157 0
152 163 0
147 159 0
148 160 0
151 164 0
150 164 0
146 160 0
154 169 0
159 167 0
149 163 0
157 170 0
158 168 0
144 154 0
151 166 0
155 170 0
158 170 0
142 154 0
158 169 0
141 154 0
152 167 0
155 170 0
159 173 0
154 167 0
151 166 0
161 175 0
148 164 0
154 171 0
153 171 0
151 166 0
163 175 0
156 171 0
154 168 0
168 183 0
162 178 0
162 177 0
156 174 0
164 182 0
153 166 0
159 178 0
168 186 0
156 169 0
158 175 0
165 185 0
156 172 0
166 182 0
159 179 0
163 180 0
168 189 0
160 177 0
165 184 0
168 185 0
167 185 0
164 182 0
160 180 0
158 174 0
165 186 0
160 179 0
163 182 0
174 197 51
171 194 80
171 196 102
172 196 72
173 196 36
177 200 72
175 199 62
175 198 72
170 194 72
174 198 72
175 199 108
173 197 80
169 192 36
173 198 80
174 197 36
173 197 62
175 199 72
173 196 62
175 199 88
172 195 72
173 198 102
174 197 36
174 198 72
175 200 102
173 198 80
172 196 51
167 191 72
175 198 80
176 199 62
166 190 72
176 200 95
172 195 62
168 191 62
170 194 72
169 192 62
168 192 88
175 198 88
171 195 36
166 190 62
172 196 88
172 195 88
166 190 62
167 190 36
169 193 80
171 195 72
167 192 80
172 195 72
169 192 62
167 190 72
168 193 80
170 194 72
167 192 88
167 191 62
170 194 36
165 189 62
174 196 72
167 192 80
171 196 62
167 192 62
172 195 51
170 194 80
169 192 72
170 194 36
170 193 62
167 191 72
170 194 72
166 190 88
168 192 88
169 193 88
172 196 72
173 196 72
169 191 62
167 192 80
172 196 88
168 192 72
164 184 62
169 193 62
171 193 62
166 189 80
172 195 80
161 185 62
164 188 51
164 188 36
166 189 36
166 190 62
170 192 51
163 186 80
167 190 51
168 190 80
161 185 72
165 188 51
157 180 76
86 114 125
98 126 140
94 121 148
86 114 140
105 131 155
80 110 149
94 122 150
91 119 152
84 115 168
109 135 145
105 131 150
91 118 150
103 130 134
85 114 152
103 130 144
100 127 144
98 125 130
103 130 145
102 128 159
80 111 154
88 117 161
72 106 169
89 118 175
74 107 174
84 113 170
85 115 175
68 103 173
62 99 169
61 97 161
60 96 153
61 97 162
62 98 164
60 95 157
62 98 161
61 98 161
62 98 163
60 96 151
64 98 145
60 95 147
59 94 139
58 93 148
65 97 131
61 96 147
63 97 144
62 95 150
61 96 145
58 92 147
56 90 147
60 95 140
59 93 156
61 96 154
59 94 131
58 93 151
61 97 152
60 95 159
61 96 151
60 95 144
61 96 150
60 96 147
60 96 151
60 95 155
61 97 159
61 97 157
59 94 135
61 97 151
59 95 153
61 97 155
62 98 159
61 97 157
61 96 147
60 96 151
61 97 149
59 95 147
61 97 153
62 98 161
61 97 157
60 95 140
60 96 147
62 98 161
60 95 144
61 97 149
59 94 140
60 96 151
61 97 149
60 96 159
61 96 153
62 98 159
61 97 157
62 98 163
60 96 147
62 98 155
59 94 144
61 97 147
62 97 153
62 98 153
61 97 163
61 96 144
61 97 147
61 97 155
59 95 142
60 96 142
59 95 137
62 98 157
61 96 145
61 97 149
61 97 155
62 97 155
62 98 153
62 97 151
61 97 153
59 94 144
61 97 157
62 97 151
60 95 135
62 98 155
61 97 155
61 96 147
62 97 155
62 98 155
62 98 157
62 98 155
63 98 157
62 97 151
60 96 157
62 97 149
62 98 157
60 95 149
61 96 149
61 96 144
62 98 157
62 98 157
62 97 155
62 97 153
63 98 155
62 97 153
63 99 163
62 98 163
61 97 155
61 96 153
62 98 151
60 95 140
61 97 157
61 97 149
59 93 133
60 95 130
61 97 153
60 95 149
61 96 151
61 96 140
60 96 142
61 97 151
59 94 140
61 97 155
61 97 144
63 98 155
63 98 157
62 97 147
61 96 140
62 97 159
61 97 149
61 96 142
62 97 149
62 98 153
60 94 149
61 96 149
62 98 153
61 96 144
61 96 147
61 97 155
61 97 147
59 94 130
60 94 135
62 97 151
61 97 144
62 97 149
61 96 140
61 96 149
61 96 140
61 96 140
61 96 144
61 96 137
59 93 135
60 95 133
61 96 135
60 94 140
62 98 151
61 96 147
60 94 133
60 94 133
59 93 130
58 92 125
59 93 128
59 93 130
60 94 131
82 103 109
142 155 0
127 137 0
110 117 0
135 147 0
118 128 0
121 131 0
124 134 0
121 133 0
122 132 0
133 141 0
131 137 0
116 124 0
129 136 0
110 117 0
135 146 0
114 120 0
124 134 0
122 131 0
123 132 0
119 130 0
143 156 0
135 143 0
126 137 0
128 138 0
133 145 0
125 135 0
138 152 0
131 140 0
130 140 0
131 138 0
137 147 0
122 124 0
123 133 0
130 135 0
135 142 0
124 132 0
137 149 0
135 144 0
133 141 0
130 142 0
137 146 0
147 155 0
135 147 0
136 151 0
139 147 0
133 145 0
142 151 0
149 160 0
149 156 0
153 162 0
152 166 0
145 157 0
148 160 0
140 153 0
142 151 0
149 160 0
143 149 0
146 159 0
146 157 0
147 161 0
142 157 0
151 165 0
140 156 0
148 162 0
150 162 0
148 161 0
151 165 0
156 170 0
151 162 0
148 158 0
158 173 0
143 154 0
140 153 0
153 170 0
161 178 0
149 164 0
158 173 0
150 160 0
156 171 0
157 171 0
154 169 0
149 162 0
151 165 0
153 168 0
153 170 0
158 175 0
157 174 0
146 161 0
157 172 0
164 181 0
165 181 0
164 183 0
151 166 0
150 164 0
161 176 0
161 177 0
153 170 0
153 171 0
147 160 0
158 176 0
158 177 0
158 173 0
161 179 0
156 173 0
162 179 0
163 180 0
161 180 0
159 177 0
169 188 0
161 181 0
153 169 0
155 172 0
170 191 0
169 193 36
176 199 62
169 193 88
166 190 72
175 200 102
172 196 80
176 199 95
171 196 88
174 198 95
173 197 72
170 196 80
175 197 80
172 197 88
171 195 80
173 197 62
170 194 80
169 194 102
174 197 36
174 200 102
175 200 88
169 193 62
172 196 88
171 196 88
167 191 62
173 197 36
171 196 95
170 193 62
175 199 62
170 195 88
170 193 72
166 191 80
169 193 51
175 198 51
173 196 51
174 197 102
168 193 72
172 196 72
171 194 62
164 189 51
173 198 88
175 198 80
170 193 51
172 197 102
168 191 51
165 189 72
171 196 51
173 196 36
169 193 95
175 198 51
169 192 62
163 189 62
173 195 51
161 185 62
172 196 62
171 194 72
172 195 51
173 196 80
171 194 62
171 196 80
162 186 72
161 185 80
168 192 62
169 191 51
162 186 51
167 191 62
169 193 95
163 187 51
168 191 62
154 176 72
164 188 72
173 197 80
170 194 72
170 193 95
162 186 88
169 192 95
166 189 62
165 189 62
166 190 88
168 192 95
164 186 80
168 191 95
167 189 62
165 188 95
169 191 80
169 192 80
171 194 72
167 188 80
167 191 62
165 188 62
169 191 62
169 191 72
165 188 88
99 125 121
88 116 130
81 110 124
89 118 151
92 121 149
99 126 151
112 138 143
100 127 156
100 127 151
91 119 139
92 120 152
104 130 141
94 122 160
92 120 139
75 107 158
87 115 141
101 129 150
100 128 130
87 116 154
94 122 160
94 122 147
90 119 155
63 99 175
80 111 175
74 107 175
62 98 167
62 98 167
61 97 163
61 97 161
61 96 157
63 100 173
67 101 167
61 98 163
62 98 163
62 98 165
62 98 161
61 97 155
61 96 161
60 95 144
59 93 142
61 96 159
62 98 161
67 100 149
61 94 131
60 96 153
59 94 148
75 107 145
57 92 152
60 95 147
60 95 144
58 93 147
60 95 143
59 95 142
59 95 144
60 94 128
60 95 143
60 96 149
61 97 160
61 96 149
60 95 142
58 93 145
59 94 142
59 94 144
60 96 144
59 95 155
60 95 143
61 96 147
60 95 147
58 93 137
61 97 159
60 96 151
60 96 142
60 95 151
61 97 157
61 97 147
64 100 163
60 94 142
61 97 149
61 96 149
61 97 156
61 97 155
61 97 159
61 96 147
61 97 149
57 92 140
61 97 149
61 97 147
62 98 159
62 98 153
61 96 155
61 96 147
63 99 167
61 96 147
60 95 147
63 98 159
60 95 147
60 95 148
61 96 149
61 97 159
61 96 144
61 97 161
61 97 153
62 97 151
61 97 151
62 97 149
61 97 155
61 96 149
60 96 155
62 98 161
60 96 149
62 98 149
62 98 151
61 96 147
59 94 133
62 98 161
61 96 144
60 95 135
62 97 153
62 97 157
61 96 149
62 98 161
62 98 155
62 97 151
60 95 149
62 98 157
63 98 155
61 96 140
62 98 155
61 97 153
60 95 147
60 96 149
58 93 140
62 98 159
61 97 151
61 97 155
60 95 140
60 95 137
61 97 153
61 96 147
62 98 155
61 97 155
60 95 142
62 98 155
59 93 133
62 98 151
61 96 140
61 96 144
62 98 157
61 97 144
60 96 147
62 97 151
61 97 151
62 97 149
62 98 159
59 93 130
61 97 144
62 98 153
60 94 122
59 94 133
61 96 144
60 95 137
62 98 159
60 95 149
61 97 155
61 97 153
60 95 137
62 97 155
61 96 151
61 95 130
61 97 149
59 93 125
61 96 140
61 96 142
61 97 153
62 96 144
58 93 133
62 97 153
60 95 140
61 96 142
60 96 140
59 93 130
63 99 163
60 95 137
60 94 133
60 95 142
62 97 149
60 95 137
59 94 125
60 96 133
59 93 133
59 94 130
59 92 122
58 92 111
57 90 117
106 120 44
124 137 0
119 125 0
114 125 0
115 122 0
118 129 0
117 124 0
124 134 0
129 138 0
123 128 0
126 133 0
126 139 0
135 143 0
124 130 0
136 145 0
104 113 0
131 142 0
116 122 0
137 150 0
119 129 0
118 127 0
145 155 0
131 138 0
125 133 0
140 144 0
139 150 0
116 123 0
124 131 0
123 132 0
141 151 0
147 160 0
148 158 0
125 129 0
123 130 0
135 146 0
123 133 0
142 148 0
145 155 0
138 152 0
148 158 0
149 159 0
139 148 0
141 150 0
138 150 0
141 153 0
143 151 0
136 145 0
134 143 0
137 146 0
137 141 0
140 147 0
146 159 0
148 164 0
153 162 0
138 151 0
150 163 0
150 160 0
156 170 0
143 152 0
145 156 0
145 155 0
152 167 0
149 163 0
142 157 0
146 158 0
151 163 0
155 167 0
154 170 0
150 167 0
149 164 0
157 174 0
146 158 0
153 168 0
155 169 0
151 161 0
149 162 0
154 170 0
155 167 0
161 178 0
156 174 0
155 173 0
150 164 0
157 173 0
157 171 0
149 165 0
151 168 0
155 169 0
155 172 0
158 176 0
160 176 0
154 169 0
160 175 0
151 166 0
158 174 0
156 170 0
154 173 0
156 172 0
161 180 0
152 167 0
153 171 0
162 178 0
159 176 0
162 176 0
154 171 0
168 185 0
158 177 0
160 179 0
162 180 0
164 183 0
156 175 0
162 178 0
160 176 0
166 182 0
168 188 0
167 191 72
172 195 51
175 199 88
172 197 72
171 195 51
171 196 95
176 199 80
172 196 80
170 193 72
169 193 95
174 198 72
176 200 95
168 193 51
167 191 62
171 196 88
171 194 51
169 193 51
169 192 51
175 200 80
171 196 88
172 196 80
169 192 36
170 195 80
173 198 102
170 194 62
169 193 88
169 193 51
171 195 72
169 191 0
173 197 51
169 192 36
172 195 80
171 195 51
169 193 36
174 198 88
173 197 62
170 194 62
168 191 36
173 196 95
166 190 62
166 191 80
168 192 62
172 197 108
171 195 72
170 194 72
167 191 72
169 193 95
173 196 0
169 193 95
166 190 72
169 193 51
171 195 80
169 193 88
171 195 80
172 195 62
169 193 88
166 190 95
171 195 51
171 195 62
171 194 88
161 184 62
169 194 80
172 197 102
171 195 95
168 191 95
165 189 95
166 189 51
166 189 62
170 194 80
165 189 95
163 187 62
163 187 72
172 194 80
170 194 102
169 191 62
162 185 0
167 190 0
164 187 51
168 191 72
170 192 80
163 185 80
167 191 72
166 190 62
163 188 95
166 188 80
160 183 36
169 191 80
160 182 51
161 183 36
164 187 72
168 191 95
169 190 51
134 157 80
95 122 144
110 136 144
102 128 149
88 117 122
91 118 137
108 135 144
107 133 151
95 122 139
107 134 157
92 118 125
97 125 154
109 135 153
92 118 135
86 116 173
88 117 154
99 125 154
95 122 134
100 126 153
103 129 135
99 127 151
86 117 161
95 123 173
98 125 179
103 130 189
94 122 181
79 110 173
75 107 165
61 98 161
60 96 159
62 98 159
61 97 161
63 99 165
58 94 150
59 94 150
61 98 165
61 96 156
60 95 154
62 98 161
58 93 152
60 95 144
62 98 153
68 101 153
63 97 144
64 98 144
57 91 128
57 91 139
64 98 149
58 92 144
61 97 158
56 89 139
61 97 155
59 94 152
59 93 154
60 95 140
61 96 144
58 92 131
57 91 133
60 95 145
57 92 134
60 94 135
60 96 158
60 95 149
61 96 153
60 96 149
61 97 149
60 95 135
60 95 152
60 95 139
61 96 151
61 96 149
61 97 153
62 97 157
60 96 149
60 96 149
61 97 151
60 96 151
61 97 149
62 98 165
60 95 149
61 97 155
59 94 149
61 97 161
61 96 149
60 96 147
64 100 171
60 95 159
60 96 149
60 95 150
62 98 161
62 98 155
61 97 153
61 96 151
62 97 149
61 97 159
61 96 149
62 97 147
63 99 163
62 98 157
61 96 149
62 98 155
61 97 149
61 97 142
61 97 149
60 96 161
61 97 153
60 96 153
62 97 155
62 98 161
61 96 149
59 95 149
62 98 159
59 95 140
61 96 142
63 98 155
61 97 147
62 97 137
62 97 153
61 96 149
61 97 157
61 96 144
60 96 144
61 97 157
63 99 159
61 96 144
60 95 133
60 96 153
61 96 151
62 98 157
60 96 147
62 98 155
63 98 157
61 96 142
59 94 128
61 97 153
61 96 147
63 98 157
62 97 157
62 97 155
62 97 142
59 94 144
60 96 147
61 97 147
61 96 153
61 96 149
61 97 147
63 98 153
59 94 144
62 97 147
62 97 144
60 95 135
61 96 140
61 97 149
62 98 153
62 98 155
60 95 142
61 96 144
61 96 153
61 97 149
61 97 157
62 97 151
59 93 137
61 95 147
60 96 149
63 99 163
61 96 140
60 95 140
62 98 155
60 94 130
60 95 140
60 96 140
62 97 147
60 96 142
62 98 155
61 95 147
60 95 142
61 96 147
61 96 137
62 97 140
62 97 144
61 96 151
60 95 135
62 97 149
59 93 142
60 95 140
57 91 120
61 95 135
60 94 133
60 95 128
62 96 142
59 93 133
60 93 130
59 93 130
72 100 105
118 131 0
124 133 0
126 136 0
125 132 0
120 131 0
125 132 0
120 130 0
125 139 0
137 147 0
115 124 0
138 150 0
135 144 0
125 135 0
133 143 0
119 132 0
126 137 0
127 138 0
120 132 0
111 123 0
125 132 0
120 130 0
137 146 0
138 149 0
119 129 0
132 143 0
128 138 0
137 148 0
137 146 0
148 160 0
139 148 0
140 147 0
144 158 0
129 136 0
145 155 0
137 149 0
144 156 0
147 157 0
133 144 0
134 144 0
127 139 0
141 152 0
153 168 0
131 143 0
139 150 0
138 147 0
150 162 0
134 149 0
158 169 0
149 162 0
138 148 0
145 156 0
144 155 0
146 160 0
145 160 0
135 143 0
146 156 0
143 153 0
155 166 0
149 164 0
145 156 0
140 152 0
156 169 0
151 164 0
146 159 0
156 170 0
156 172 0
144 155 0
155 168 0
153 168 0
152 169 0
153 170 0
155 166 0
156 168 0
148 162 0
167 182 0
157 174 0
152 165 0
148 159 0
157 171 0
158 171 0
156 169 0
156 170 0
148 163 0
151 165 0
156 172 0
149 162 0
160 176 0
165 181 0
156 170 0
157 175 0
160 175 0
160 176 0
166 183 0
156 174 0
162 180 0
160 180 0
157 173 0
153 172 0
158 177 0
151 167 0
157 175 0
157 175 0
154 170 0
168 185 0
164 181 0
160 177 0
157 175 0
158 174 0
155 172 0
165 184 0
161 180 0
157 174 0
163 182 0
158 176 0
173 195 72
176 200 62
173 196 62
174 196 80
174 198 62
172 197 95
173 196 62
174 198 88
172 195 51
173 198 72
172 195 51
165 188 51
173 197 72
171 195 51
169 193 72
169 193 95
173 198 72
171 195 88
172 198 114
170 194 88
170 195 51
167 192 88
166 190 80
173 196 62
169 193 51
171 194 88
171 196 80
172 195 51
173 197 80
176 199 51
173 197 80
170 194 62
176 200 88
170 194 80
163 188 95
173 198 62
173 198 88
170 195 51
174 199 80
171 195 88
170 193 80
173 196 62
164 188 88
173 197 62
164 189 80
168 191 62
169 192 80
168 191 72
162 186 51
169 193 80
169 194 80
169 193 36
169 193 88
166 190 72
162 185 62
168 191 72
167 190 51
169 195 62
170 194 62
167 191 80
169 194 72
174 197 80
165 189 72
165 190 95
167 189 62
169 193 72
168 191 95
171 194 80
164 186 62
168 191 62
163 187 95
159 182 72
167 190 51
163 186 72
170 193 51
166 189 36
171 195 95
167 189 36
166 190 88
162 184 72
160 182 0
168 191 80
161 184 62
159 180 62
168 190 51
166 189 95
161 182 62
166 188 72
154 178 51
168 189 88
161 184 51
164 188 80
154 177 72
107 133 117
97 124 135
100 126 163
95 123 141
94 122 153
94 121 151
89 117 144
90 116 140
86 113 147
87 115 152
110 136 135
85 113 136
114 139 147
90 119 144
96 124 145
108 133 145
98 126 155
100 128 159
106 130 131
97 125 144
98 125 157
93 120 147
76 107 156
79 110 169
80 111 173
68 102 169
68 103 173
68 102 163
62 98 168
61 97 157
60 96 159
61 97 155
61 96 159
59 95 145
61 97 151
60 95 156
60 96 157
60 95 152
60 95 153
56 90 131
60 95 154
59 94 156
65 99 153
68 99 136
55 89 126
73 105 143
64 95 124
59 94 145
59 94 150
59 94 144
60 95 142
58 93 143
61 97 159
61 96 157
58 93 148
60 95 153
60 95 150
62 98 151
62 98 151
59 94 142
60 95 144
60 96 140
61 96 153
59 93 137
61 96 147
61 96 153
60 96 144
61 96 149
59 94 147
61 97 152
62 97 153
61 97 150
59 95 149
61 96 155
61 96 153
59 94 141
62 99 165
61 96 144
62 97 153
60 95 148
61 96 147
60 95 149
60 95 147
59 94 135
62 97 155
62 97 151
61 96 147
62 98 155
63 98 157
62 97 155
62 98 161
60 96 151
61 96 153
62 98 153
60 95 150
61 97 151
60 96 143
62 97 151
62 98 157
60 95 142
62 97 151
61 97 151
61 97 151
61 97 157
62 97 161
62 97 155
61 96 140
61 97 155
60 95 137
61 96 151
61 96 154
62 96 144
63 99 161
63 98 159
61 97 153
61 97 155
63 98 159
59 95 149
63 98 157
61 97 151
63 99 163
61 97 151
61 96 149
62 98 161
62 98 151
62 98 157
60 96 149
63 98 144
62 98 153
61 96 133
62 98 155
62 97 153
60 95 147
61 97 149
61 97 147
62 98 159
63 98 159
61 97 149
62 97 149
61 96 147
60 95 135
61 97 151
61 96 147
62 97 149
62 97 147
63 99 163
61 97 153
61 97 163
60 95 135
59 94 133
62 98 161
61 96 144
61 96 135
62 98 153
61 97 153
62 97 144
62 97 137
62 98 151
62 97 147
60 96 144
60 95 142
61 96 144
60 96 149
62 97 151
60 95 140
60 96 142
61 96 144
61 97 153
61 97 149
60 95 137
60 95 128
60 95 135
60 94 135
57 92 114
61 96 140
62 98 157
59 94 140
58 92 120
61 95 135
61 96 137
59 94 137
60 96 137
59 93 125
60 95 135
60 95 137
61 95 135
61 96 137
60 95 135
59 93 128
61 96 135
58 92 130
58 91 118
95 111 62
127 138 0
128 139 0
129 144 0
130 139 0
133 145 0
131 143 0
119 132 0
137 150 0
128 140 0
136 145 0
126 136 0
124 132 0
133 144 0
132 139 0
127 136 0
134 143 0
139 149 0
127 136 0
135 145 0
143 158 0
123 133 0
124 133 0
131 146 0
124 133 0
133 142 0
133 143 0
139 152 0
140 150 0
139 149 0
134 144 0
141 151 0
134 143 0
144 156 0
132 142 0
147 159 0
130 139 0
137 148 0
141 153 0
139 149 0
133 145 0
137 146 0
141 150 0
139 149 0
147 159 0
133 139 0
141 152 0
145 157 0
137 149 0
139 148 0
142 150 0
143 157 0
148 158 0
154 166 0
146 155 0
137 144 0
147 162 0
150 166 0
126 135 0
154 168 0
147 160 0
152 164 0
154 171 0
147 159 0
152 167 0
150 161 0
153 166 0
137 149 0
155 170 0
138 151 0
161 176 0
158 172 0
158 175 0
151 164 0
154 169 0
152 164 0
151 166 0
150 164 0
155 168 0
161 179 0
162 175 0
147 160 0
156 171 0
153 170 0
159 176 0
164 182 0
154 170 0
162 178 0
155 172 0
163 176 0
159 177 0
162 180 0
159 176 0
160 179 0
154 170 0
166 186 0
169 188 0
162 174 0
166 185 0
159 176 0
163 180 0
160 175 0
157 174 0
150 168 0
160 179 0
158 176 0
169 190 0
163 182 0
164 181 0
164 181 0
166 184 0
161 178 0
159 176 0
164 183 0
164 184 0
172 194 62
169 192 51
174 198 72
171 195 62
174 197 62
170 194 80
166 190 62
174 197 36
174 197 80
170 194 80
172 196 102
174 200 114
167 190 51
173 198 88
174 197 62
166 189 72
172 195 36
172 197 80
165 190 72
174 198 80
166 191 62
175 199 88
168 192 62
164 188 51
171 195 62
174 198 102
173 195 62
169 192 62
170 192 51
170 192 36
168 191 62
174 198 51
172 196 62
164 189 72
170 193 51
168 192 62
168 193 72
173 195 72
171 195 72
170 193 51
172 196 88
172 196 95
172 196 72
173 196 51
168 192 72
172 196 72
170 195 62
170 193 80
169 192 102
163 187 62
165 189 72
167 192 80
169 193 72
169 192 62
165 190 72
161 186 88
170 194 62
167 191 88
167 191 72
170 194 88
165 190 88
170 193 62
168 193 80
160 184 72
166 190 72
169 191 80
167 189 62
165 188 62
166 190 51
167 191 62
162 185 72
168 192 88
170 196 102
170 193 88
171 196 80
167 190 62
163 186 62
168 192 114
164 188 80
171 195 51
170 194 88
165 189 51
169 192 72
173 197 80
168 191 72
158 180 51
165 187 72
162 186 36
163 185 102
164 186 95
162 185 36
168 192 62
156 180 36
148 171 102
94 121 140
69 102 142
103 129 144
93 120 133
83 112 147
99 126 122
108 134 145
95 121 144
102 128 152
105 130 159
107 134 152
108 133 158
104 131 137
99 126 153
98 124 141
92 120 131
84 113 140
96 123 141
100 128 140
73 104 158
98 124 150
93 122 157
69 103 167
79 111 173
86 115 173
74 106 169
69 102 161
61 98 161
61 97 161
61 98 163
61 96 156
61 96 162
62 97 161
62 98 159
61 98 165
61 97 163
58 93 147
58 93 133
58 93 152
60 94 155
60 95 153
60 95 150
62 94 147
65 98 144
62 97 161
65 99 150
61 94 128
58 93 145
60 96 154
60 95 137
60 95 144
59 94 144
60 95 149
61 96 149
61 96 149
59 94 140
61 96 140
58 92 140
59 95 145
60 95 147
60 96 157
60 95 139
61 96 163
60 95 141
60 95 149
60 95 149
62 97 152
61 96 149
61 97 155
61 97 157
61 97 147
60 95 144
58 93 145
61 97 153
61 96 152
61 96 153
60 96 147
62 97 160
61 96 151
60 96 153
62 97 149
62 98 157
60 95 143
62 98 161
59 94 140
61 97 159
61 97 147
60 95 144
62 97 147
60 95 137
60 94 144
59 95 142
61 95 147
61 96 151
62 97 147
62 97 144
62 97 155
62 97 147
60 96 149
60 96 147
61 97 147
62 97 144
62 98 155
62 97 157
61 96 142
60 95 144
61 97 155
61 97 147
61 97 149
61 96 153
62 98 155
61 97 151
60 96 144
62 97 155
61 97 147
62 97 151
62 97 147
62 98 157
61 96 144
62 98 163
61 97 155
63 98 155
61 97 147
62 98 151
62 97 153
61 96 147
61 96 142
61 96 149
62 97 144
62 98 155
62 98 155
61 97 153
62 97 144
60 96 147
61 97 144
60 95 140
61 96 149
62 98 153
61 96 151
60 96 140
60 96 151
63 98 161
62 97 149
61 96 142
60 95 133
64 100 163
62 98 157
60 95 140
61 96 151
61 97 140
60 96 147
62 98 157
60 96 149
62 97 153
62 97 151
61 97 153
60 96 147
60 96 147
61 96 140
61 96 142
63 98 159
61 96 142
62 97 149
61 95 142
60 94 140
60 95 133
60 96 142
59 94 137
61 96 149
56 90 114
62 96 140
60 94 140
59 94 142
61 96 137
61 96 137
61 96 140
60 95 144
59 94 137
59 94 142
61 96 140
61 96 140
61 96 142
58 92 122
58 92 125
61 96 144
61 96 144
61 96 140
62 96 147
59 93 114
59 92 125
62 94 117
119 133 51
126 137 0
125 139 0
122 132 0
115 130 0
111 120 0
130 140 0
130 141 0
122 134 0
129 143 0
95 105 0
124 136 0
115 127 0
121 131 0
136 149 0
132 145 0
111 120 0
143 157 0
130 135 0
150 161 0
123 133 0
110 121 0
127 137 0
131 143 0
144 154 0
130 142 0
147 161 0
131 141 0
130 138 0
132 145 0
144 154 0
122 133 0
149 157 0
128 136 0
147 161 0
134 140 0
137 146 0
136 150 0
143 156 0
139 151 0
143 155 0
144 155 0
143 154 0
138 151 0
155 169 0
138 149 0
153 163 0
131 142 0
146 158 0
152 165 0
151 168 0
148 159 0
156 170 0
145 155 0
143 156 0
148 163 0
131 141 0
146 162 0
139 155 0
147 159 0
154 169 0
159 169 0
145 155 0
150 166 0
143 156 0
140 149 0
151 166 0
157 171 0
147 161 0
149 163 0
153 169 0
153 167 0
160 176 0
153 170 0
150 164 0
152 168 0
154 170 0
151 167 0
154 170 0
157 173 0
153 169 0
152 164 0
164 182 0
158 175 0
161 176 0
153 168 0
158 173 0
158 176 0
153 169 0
158 172 0
157 173 0
159 178 0
159 176 0
161 179 0
161 178 0
150 167 0
160 177 0
158 174 0
153 169 0
163 182 0
164 181 0
149 167 0
162 178 0
163 182 0
158 171 0
167 185 0
160 175 0
158 176 0
160 178 0
164 183 0
162 182 0
166 186 0
158 175 0
164 182 0
166 185 0
175 198 62
177 201 80
175 199 102
170 194 62
172 195 36
175 198 80
171 195 62
171 196 62
170 195 95
173 196 62
172 197 62
172 196 95
171 196 80
174 196 72
171 196 36
164 186 0
171 195 62
167 190 80
169 195 102
172 196 51
172 196 62
168 192 88
174 197 72
175 198 72
169 193 72
172 197 95
172 195 80
173 198 51
167 191 62
169 194 88
169 193 80
171 195 72
167 191 88
159 183 72
165 189 72
172 195 51
167 192 62
168 194 88
170 195 62
167 192 88
172 196 62
174 199 88
170 195 95
169 193 72
168 193 108
170 195 80
165 188 72
166 190 62
165 189 102
168 193 88
165 188 72
166 190 51
171 195 51
170 195 80
170 196 80
171 195 80
166 191 72
161 183 62
172 197 102
165 190 102
161 185 62
165 189 72
158 182 80
167 191 80
174 198 88
163 188 72
167 192 72
164 189 51
172 196 88
167 191 72
163 187 95
168 191 80
168 191 72
169 193 62
165 188 51
169 192 88
165 188 62
172 195 95
162 184 95
168 191 88
170 194 80
169 193 72
168 192 80
169 191 72
171 192 72
157 179 72
162 184 36
165 188 51
168 192 72
169 192 95
163 186 88
170 191 95
170 192 80
156 177 36
113 138 135
76 106 122
75 105 133
88 116 130
112 136 131
81 109 129
95 123 155
85 113 136
97 124 149
107 132 156
80 108 145
97 124 143
108 133 149
100 126 154
93 120 136
82 112 160
93 122 147
92 120 151
90 119 156
88 116 136
101 128 144
92 120 142
96 123 153
74 106 169
67 102 173
81 112 179
63 99 175
62 98 163
61 97 159
61 97 157
62 97 159
62 98 165
63 99 167
65 100 155
61 97 161
61 96 150
59 95 159
60 96 149
61 96 156
55 88 144
59 95 148
60 95 144
70 103 144
62 95 131
68 101 142
61 95 131
61 96 147
64 97 152
58 93 140
60 95 147
58 92 141
61 96 154
58 93 158
60 95 143
59 94 152
58 93 130
59 93 139
59 95 147
58 93 136
60 95 142
60 95 148
60 96 149
61 96 144
59 95 149
60 96 147
62 97 153
59 94 140
60 95 152
60 96 150
60 95 142
61 97 149
60 96 149
59 94 145
58 93 139
59 94 136
60 95 142
59 95 137
60 96 145
60 96 144
61 97 157
62 97 155
59 95 148
61 96 149
62 98 155
59 94 135
62 98 161
60 96 147
62 97 155
61 96 149
61 97 153
62 98 163
60 96 144
61 96 144
59 95 142
62 97 151
63 99 159
61 96 151
61 97 155
63 99 157
62 98 153
60 94 130
61 97 157
61 97 151
60 96 142
60 95 135
60 96 140
61 97 151
59 94 140
60 96 149
61 97 147
61 97 153
61 97 159
61 97 155
61 97 144
62 97 144
61 97 151
62 97 149
62 97 155
62 98 151
60 96 151
61 97 149
61 96 144
61 96 140
62 98 151
61 96 153
63 98 159
61 97 147
61 97 153
61 95 142
62 97 153
60 95 144
62 97 147
62 97 149
61 96 142
62 97 157
61 96 159
61 96 149
60 95 149
61 96 144
62 98 155
62 97 142
61 96 142
61 96 140
60 96 147
61 96 147
60 95 142
61 96 151
63 98 151
60 95 133
60 95 133
61 96 135
62 98 157
61 96 137
58 93 137
60 95 140
60 94 133
61 96 142
59 94 135
60 95 135
62 98 155
62 97 144
61 96 144
61 96 140
61 96 144
61 97 144
60 95 142
61 96 144
61 96 135
60 96 151
61 96 144
62 97 155
63 99 161
60 95 142
58 93 130
62 98 155
58 91 130
61 96 147
61 96 140
61 97 144
62 98 151
61 96 133
60 95 135
58 92 125
60 94 125
60 95 130
59 93 140
62 97 140
61 95 140
59 92 117
60 93 122
99 118 88
124 135 0
125 139 0
123 131 0
128 141 0
111 124 0
140 153 0
121 130 0
130 135 0
127 139 0
133 144 0
127 136 0
126 138 0
138 149 0
129 143 0
135 145 0
132 147 0
130 145 0
133 142 0
129 141 0
126 141 0
128 138 0
134 144 0
128 142 0
151 161 0
129 140 0
136 147 0
113 123 0
127 141 0
136 148 0
142 155 0
148 161 0
141 155 0
131 140 0
143 157 0
136 146 0
130 144 0
133 144 0
146 160 0
144 158 0
130 141 0
135 150 0
139 146 0
145 155 0
140 148 0
153 165 0
145 158 0
142 153 0
147 160 0
147 160 0
154 168 0
130 138 0
139 151 0
148 163 0
147 161 0
139 148 0
154 167 0
143 156 0
146 161 0
138 150 0
152 168 0
145 159 0
153 170 0
150 164 0
153 167 0
142 155 0
153 166 0
142 154 0
161 172 0
156 170 0
159 175 0
159 175 0
147 160 0
151 163 0
161 174 0
144 159 0
157 169 0
160 175 0
155 171 0
152 167 0
154 170 0
158 177 0
162 179 0
163 180 0
154 169 0
148 165 0
154 167 0
153 168 0
148 164 0
151 164 0
157 174 0
163 177 0
156 171 0
167 183 0
159 178 0
161 180 0
154 167 0
156 174 0
157 175 0
160 175 0
161 177 0
164 184 0
158 176 0
162 178 0
150 167 0
163 181 0
161 179 0
159 176 0
156 174 0
171 191 0
165 182 0
164 183 0
161 179 0
160 179 0
163 182 0
155 174 0
175 199 80
174 196 0
171 194 51
172 197 51
176 200 88
172 196 95
171 195 62
167 190 62
169 192 51
172 196 80
170 193 72
171 195 72
172 196 62
168 192 62
175 198 36
173 198 80
171 194 72
170 194 80
169 192 51
173 197 88
169 192 62
170 193 62
169 194 102
177 200 72
164 188 0
171 195 51
170 192 51
173 196 0
165 189 51
174 200 108
174 199 88
171 195 62
170 195 72
172 197 72
169 193 62
174 198 72
168 192 72
161 186 62
171 193 51
169 192 95
170 193 62
170 194 72
167 192 36
166 191 88
167 192 51
170 193 62
174 198 102
173 198 62
164 189 51
171 195 95
172 196 72
165 189 36
166 190 62
173 196 36
170 193 80
161 186 51
172 196 51
165 188 51
167 192 102
171 195 108
172 195 62
161 184 51
161 184 62
169 192 72
171 194 62
167 191 62
169 192 95
161 185 0
165 187 62
169 193 62
166 189 88
161 184 62
162 185 51
161 183 72
162 186 80
169 190 51
171 194 62
166 189 80
167 192 62
156 178 80
162 186 72
166 189 72
174 197 88
161 184 51
164 188 80
169 193 62
160 183 62
166 190 51
159 183 88
168 191 95
156 180 72
172 194 102
158 182 72
171 193 95
143 166 99
101 127 117
79 108 122
87 114 128
72 102 134
90 116 125
96 122 129
84 112 133
89 118 140
107 132 149
104 128 129
101 126 153
97 122 142
92 119 136
85 113 139
79 109 153
101 128 140
91 119 139
87 115 135
92 121 136
83 113 151
91 118 129
79 109 148
78 109 169
80 111 173
75 107 169
79 110 167
89 118 171
62 98 167
63 99 173
61 97 153
60 96 162
61 97 155
61 97 167
60 96 162
63 99 157
61 97 157
60 96 162
58 93 140
58 94 142
58 93 137
59 93 140
67 98 136
60 95 144
68 102 147
64 97 139
63 97 154
66 100 157
59 93 136
61 95 148
59 94 145
59 94 137
60 95 153
59 94 139
57 91 125
60 95 143
60 95 141
61 96 140
61 97 151
60 95 142
60 95 149
61 96 151
59 94 140
58 93 139
62 98 159
62 98 161
60 95 155
60 95 143
59 94 141
60 95 140
60 96 144
62 97 153
62 97 153
61 97 159
58 93 136
60 95 140
61 97 144
60 96 149
60 96 147
60 96 149
63 98 155
60 95 144
62 97 151
60 95 140
61 96 140
61 96 147
59 94 128
62 97 153
62 98 159
61 96 153
61 97 159
60 96 153
58 93 137
61 96 140
61 96 147
60 96 147
60 95 144
60 95 153
61 97 155
62 98 161
61 96 142
61 97 147
62 98 155
61 97 151
60 96 137
61 97 147
61 97 155
61 97 163
61 96 142
61 97 140
61 96 142
61 97 157
61 97 151
63 99 167
62 98 161
60 96 147
61 97 153
61 96 142
61 96 151
61 97 151
60 95 142
62 98 157
61 97 155
62 98 161
59 94 147
61 97 140
61 96 142
63 98 157
63 99 155
62 97 148
62 97 144
59 95 142
64 100 165
63 99 161
62 97 147
61 96 147
60 94 144
61 97 151
61 96 140
61 97 149
60 95 133
62 97 147
59 94 137
61 96 142
61 97 147
61 96 140
62 97 149
62 97 147
62 97 151
62 97 153
61 96 144
62 97 151
62 97 147
60 95 137
61 97 147
60 96 144
59 94 142
61 96 144
59 93 125
62 97 157
60 94 133
61 97 151
61 95 137
60 95 133
61 96 147
61 96 142
60 95 133
60 94 135
61 96 135
61 96 144
61 96 130
61 96 133
61 95 144
62 97 149
60 95 135
60 93 125
59 93 122
59 93 135
61 96 142
60 95 135
61 96 144
59 94 133
61 95 133
60 94 137
62 97 144
59 93 130
58 92 105
58 91 108
58 92 128
59 92 130
127 142 51
129 142 0
111 118 0
120 128 0
120 132 0
122 135 0
110 120 0
120 133 0
123 133 0
113 122 0
126 140 0
126 138 0
119 132 0
134 145 0
130 143 0
141 153 0
137 150 0
132 143 0
118 130 0
128 141 0
125 134 0
129 143 0
142 157 0
132 144 0
133 144 0
124 134 0
138 148 0
135 148 0
139 154 0
125 134 0
132 146 0
131 142 0
147 160 0
156 167 0
145 157 0
144 154 0
140 151 0
137 150 0
142 156 0
128 141 0
133 143 0
143 155 0
141 155 0
141 151 0
155 171 0
155 171 0
140 151 0
137 151 0
145 160 0
144 156 0
147 161 0
140 153 0
142 157 0
145 159 0
146 159 0
150 168 0
144 158 0
154 169 0
147 153 0
149 160 0
154 170 0
153 167 0
144 158 0
148 160 0
157 169 0
146 157 0
151 166 0
153 168 0
154 171 0
147 161 0
160 176 0
154 168 0
154 168 0
150 167 0
156 173 0
154 172 0
156 171 0
158 175 0
159 175 0
149 166 0
154 169 0
150 164 0
149 164 0
160 178 0
155 171 0
160 177 0
162 181 0
162 176 0
164 181 0
152 171 0
159 178 0
159 176 0
155 174 0
152 169 0
161 179 0
165 183 0
167 183 0
159 174 0
158 177 0
165 184 0
159 178 0
157 174 0
165 187 0
161 177 0
161 177 0
164 182 0
155 172 0
159 180 0
161 181 0
169 188 0
168 189 0
164 183 0
163 181 0
166 186 0
166 183 0
163 181 0
172 197 95
172 196 80
168 192 51
168 192 72
169 193 62
172 196 88
170 193 51
172 196 72
170 195 80
173 196 62
166 188 62
173 196 72
166 191 62
173 197 95
169 193 72
174 198 72
167 192 72
171 193 51
173 196 62
170 194 88
172 197 88
169 194 72
173 197 72
173 196 88
172 197 72
166 189 72
172 196 88
168 192 72
170 194 51
168 194 88
172 197 80
172 197 62
168 193 72
172 195 51
166 192 95
169 193 36
167 191 80
167 190 72
174 197 62
174 197 80
165 190 88
169 194 62
170 193 62
170 194 51
168 194 95
161 185 72
167 191 72
164 188 62
170 193 51
163 187 62
173 196 72
170 193 51
169 193 88
167 191 88
163 187 62
160 184 62
170 194 80
166 189 72
167 191 72
168 191 72
164 188 72
164 187 51
165 189 72
158 181 36
166 189 72
167 191 72
162 186 72
166 190 62
168 191 80
166 190 51
166 190 102
169 191 51
172 194 72
163 187 72
167 189 95
163 186 51
169 193 72
165 188 72
165 188 80
165 188 72
164 188 72
164 187 80
167 190 62
161 184 72
166 188 72
156 180 62
156 179 51
165 188 62
159 181 72
168 191 72
155 177 0
149 173 36
167 188 80
158 180 62
154 176 84
109 134 130
108 134 140
80 109 135
76 106 126
102 128 136
92 119 129
104 130 154
90 117 135
78 108 122
105 130 135
110 133 129
101 127 140
108 134 163
86 116 133
85 114 155
97 124 139
106 132 155
106 131 133
101 128 135
98 125 144
95 124 156
96 123 148
85 113 140
67 101 165
73 106 165
68 102 161
74 106 163
84 113 165
61 96 147
61 97 155
61 97 167
61 96 153
60 96 153
61 97 157
59 94 144
58 93 144
58 93 140
65 99 147
58 93 143
59 94 145
60 95 144
60 95 147
65 99 156
64 98 147
76 106 139
67 100 137
72 104 151
56 91 142
61 96 155
58 93 149
60 94 140
58 92 140
57 91 135
60 95 144
61 96 142
61 97 149
56 90 140
61 97 149
61 96 140
60 95 144
60 95 150
62 97 164
61 96 147
61 97 155
60 95 142
60 96 152
61 97 149
60 95 142
62 97 147
61 96 142
62 97 144
60 95 142
61 96 148
62 98 157
61 97 157
60 96 151
60 94 140
61 97 153
58 93 140
61 96 147
61 96 153
60 95 137
61 97 153
60 96 144
61 97 155
60 95 137
61 97 149
62 98 163
61 97 155
59 94 136
61 97 149
62 98 163
60 95 139
59 94 135
61 96 149
62 98 153
60 95 140
60 95 142
61 96 147
61 97 157
62 98 155
62 98 155
62 98 155
61 96 142
59 94 135
62 97 159
61 97 149
60 95 135
60 96 155
60 94 135
62 99 165
59 94 140
61 96 147
61 96 144
61 97 155
60 96 144
62 98 157
62 97 142
61 96 137
63 99 159
60 95 153
62 98 157
62 97 151
61 96 135
61 97 153
62 97 144
61 96 142
62 98 151
60 95 140
61 96 149
61 96 137
60 96 144
61 97 153
61 97 149
63 98 159
61 96 137
60 95 135
62 97 149
63 99 155
61 96 125
61 96 149
62 97 151
61 96 140
61 97 140
59 94 133
61 96 155
60 95 137
60 95 140
61 96 137
60 95 135
61 96 147
59 94 122
61 96 130
62 97 149
62 98 155
60 95 137
62 97 144
59 94 142
63 98 159
62 97 149
61 97 144
61 96 140
60 95 140
62 97 142
61 96 153
61 96 135
61 96 135
62 97 149
60 95 135
60 95 140
62 97 157
58 92 120
61 95 142
58 92 125
62 97 142
61 96 144
60 95 137
61 97 149
59 93 130
61 97 144
59 93 128
60 94 130
60 95 137
59 94 133
61 96 135
60 94 122
58 92 125
57 90 114
99 116 80
123 137 0
127 142 0
131 145 0
128 140 0
131 140 0
131 145 0
130 141 0
131 145 0
126 137 0
138 151 0
111 119 0
144 157 0
131 143 0
114 126 0
137 150 0
125 134 0
143 158 0
144 158 0
125 138 0
117 125 0
112 126 0
124 135 0
131 143 0
125 136 0
129 142 0
142 155 0
133 141 0
134 145 0
138 148 0
146 160 0
133 146 0
144 156 0
132 145 0
143 160 0
140 152 0
135 147 0
140 151 0
120 129 0
124 132 0
153 171 0
143 158 0
150 160 0
148 162 0
150 163 0
137 150 0
147 162 0
135 145 0
155 171 0
142 152 0
152 164 0
146 157 0
145 158 0
151 161 0
148 161 0
150 163 0
146 158 0
148 164 0
151 165 0
155 172 0
141 154 0
148 162 0
152 165 0
160 177 0
155 167 0
155 169 0
153 166 0
157 168 0
163 178 0
160 172 0
158 178 0
156 171 0
148 160 0
152 167 0
159 175 0
155 171 0
159 176 0
153 167 0
150 169 0
155 171 0
160 175 0
148 162 0
155 172 0
160 178 0
153 168 0
161 177 0
165 181 0
157 173 0
154 170 0
161 178 0
161 180 0
157 175 0
152 170 0
153 169 0
161 177 0
146 163 0
149 166 0
157 177 0
162 178 0
160 179 0
162 181 0
162 183 0
160 181 0
165 181 0
161 178 0
159 175 0
160 179 0
164 184 0
158 177 0
163 182 0
162 183 0
162 182 0
165 184 0
159 176 0
161 180 0
158 175 0
162 182 0
175 198 88
170 194 62
171 196 102
170 194 88
168 191 62
174 197 62
165 189 0
172 196 62
172 195 72
170 194 88
169 192 62
176 199 72
166 190 72
171 194 51
162 186 51
170 194 51
163 189 114
167 192 62
171 193 51
165 189 62
167 192 51
176 199 62
175 198 72
168 192 72
166 191 95
171 196 95
172 197 62
174 197 88
173 197 72
169 192 62
170 194 36
173 198 108
168 193 62
169 194 62
171 196 95
171 195 72
171 194 72
168 191 72
170 195 80
174 199 114
175 199 102
169 193 62
170 194 88
164 188 72
170 193 80
168 191 62
172 195 72
173 194 51
172 196 62
170 193 51
168 191 62
167 191 36
166 189 88
163 186 51
167 191 51
172 196 80
170 194 62
162 184 51
166 190 88
171 196 62
170 193 51
171 196 88
166 189 72
171 195 88
168 191 62
165 189 36
174 198 62
170 195 62
173 197 62
168 191 72
171 193 36
164 189 88
171 195 72
163 186 51
168 193 80
162 185 95
158 182 80
173 197 95
163 186 72
162 183 36
166 189 62
171 193 72
167 192 80
161 185 51
163 186 80
166 190 88
163 187 72
169 192 88
166 189 62
167 189 72
154 177 102
171 193 88
162 184 95
170 191 36
160 183 72
136 160 67
82 110 137
93 122 144
100 127 153
92 119 149
96 123 148
97 124 151
102 128 137
103 128 145
105 130 135
95 123 143
100 125 159
100 124 142
78 108 145
94 121 159
85 115 143
110 136 154
98 125 137
112 136 131
89 117 140
78 107 125
103 128 140
92 120 143
87 116 155
79 110 163
75 107 171
74 106 167
81 111 167
66 100 154
60 95 153
61 97 159
62 98 167
61 96 155
61 98 164
61 97 155
64 97 139
60 96 147
61 96 147
61 96 153
58 92 141
65 99 157
61 96 153
61 97 162
61 97 153
63 96 129
57 90 139
64 96 131
62 97 151
65 97 131
59 93 143
57 92 131
60 95 147
60 95 148
61 96 145
58 92 143
59 94 145
60 94 147
59 94 142
60 94 141
59 95 144
60 95 144
61 97 144
62 97 153
60 94 144
61 96 147
62 98 157
61 96 147
62 97 142
62 98 159
61 96 140
60 96 147
58 93 145
61 96 144
60 95 153
61 97 151
62 98 159
60 95 142
62 97 157
61 97 151
61 96 147
61 96 142
61 97 151
61 97 159
60 95 140
59 94 133
60 96 142
60 95 137
62 97 149
60 96 137
62 97 147
60 94 143
61 96 144
61 96 140
60 95 151
61 97 149
63 99 167
60 95 136
62 97 149
60 96 157
61 96 151
60 96 147
62 98 167
61 96 149
61 96 144
60 95 151
62 97 157
61 96 153
61 96 147
60 96 151
60 95 137
58 92 128
60 95 140
61 96 142
60 95 142
61 97 151
61 96 147
63 99 157
61 96 142
62 98 163
60 94 125
59 93 137
63 98 149
61 97 153
61 96 140
61 96 149
61 96 144
61 97 147
60 96 149
60 96 137
60 95 147
61 96 142
61 96 142
58 93 130
62 97 155
62 98 153
61 96 144
61 96 142
60 96 147
59 94 128
61 97 153
61 97 155
61 96 142
63 99 159
61 97 155
59 94 137
61 96 147
64 100 165
61 96 142
59 93 133
60 95 142
61 97 151
61 96 144
58 92 133
61 97 144
61 96 135
58 92 130
61 96 147
61 96 135
60 95 147
63 99 157
61 97 147
61 96 140
61 96 149
61 95 135
60 95 135
60 95 137
62 97 157
58 91 125
61 96 144
64 99 157
59 94 140
63 98 157
63 98 155
58 93 137
61 96 140
59 94 133
61 96 140
59 93 133
61 96 142
61 95 144
61 95 130
60 95 140
57 91 114
58 92 117
56 89 111
59 93 122
58 91 122
66 96 105
122 136 51
140 150 0
125 137 0
126 140 0
128 140 0
132 144 0
121 130 0
122 135 0
125 139 0
153 168 0
139 151 0
124 135 0
134 146 0
127 141 0
134 146 0
115 126 0
112 125 0
140 155 0
124 136 0
111 125 0
133 146 0
138 153 0
143 156 0
137 147 0
130 140 0
139 152 0
114 127 0
142 156 0
124 133 0
131 144 0
129 138 0
136 150 0
144 155 0
140 150 0
150 163 0
129 140 0
143 153 0
129 139 0
142 156 0
142 153 0
139 151 0
147 159 0
137 147 0
137 149 0
142 152 0
140 156 0
147 158 0
140 152 0
146 161 0
157 172 0
136 149 0
132 148 0
143 151 0
147 161 0
150 161 0
139 149 0
157 172 0
152 165 0
142 151 0
158 174 0
147 158 0
154 165 0
150 163 0
139 153 0
155 168 0
155 171 0
156 171 0
149 167 0
152 164 0
145 160 0
161 176 0
149 164 0
160 179 0
149 167 0
157 169 0
158 175 0
153 168 0
158 172 0
155 171 0
151 164 0
140 157 0
156 173 0
161 178 0
148 159 0
153 166 0
157 173 0
151 166 0
163 179 0
164 179 0
152 169 0
157 173 0
155 171 0
156 172 0
160 177 0
159 173 0
162 182 0
154 167 0
157 175 0
164 181 0
155 171 0
154 171 0
161 180 0
154 173 0
163 181 0
159 179 0
158 176 0
157 175 0
164 182 0
165 183 0
159 178 0
164 185 0
164 184 0
158 176 0
152 171 0
165 185 0
166 187 0
163 180 0
172 196 72
173 198 95
169 192 51
167 190 72
165 189 80
168 193 62
161 184 36
175 199 62
170 193 51
172 194 51
170 194 51
173 197 88
174 198 72
172 195 36
175 199 102
173 196 72
169 193 88
170 194 62
174 197 0
165 189 62
168 193 72
169 194 72
177 201 80
173 198 95
172 196 62
166 192 80
173 197 72
166 190 72
166 191 102
168 192 72
174 198 102
162 185 80
170 195 62
169 193 51
164 187 51
169 193 51
169 193 72
168 192 51
169 193 88
170 195 102
169 194 72
167 190 72
170 194 72
171 194 80
172 196 72
171 195 88
166 188 36
167 192 95
166 191 72
171 195 72
168 191 62
168 193 62
169 193 95
175 197 62
172 196 80
168 192 102
167 191 36
168 191 72
169 193 62
165 189 80
165 189 80
171 195 51
165 188 80
167 190 80
165 189 36
160 184 62
168 191 36
170 195 80
164 189 88
164 187 36
171 194 88
166 188 62
163 186 80
155 179 62
161 185 62
156 180 51
166 188 80
158 182 80
160 184 62
169 192 72
164 187 36
164 188 88
153 176 62
158 182 72
165 188 80
158 182 36
164 187 62
150 173 62
165 189 95
160 182 36
162 183 72
159 182 51
155 177 72
153 175 51
160 181 80
154 177 51
106 133 142
81 110 144
91 118 142
100 126 144
102 127 144
92 117 129
98 125 150
86 115 158
58 92 136
93 120 140
104 129 151
90 117 149
85 114 141
80 110 137
89 117 128
95 122 142
107 132 147
85 114 152
98 125 130
104 130 150
93 121 147
97 125 140
95 123 159
94 122 165
75 107 165
74 106 159
85 114 172
59 94 157
62 98 169
61 97 157
61 97 153
61 97 167
61 97 155
60 96 157
61 97 162
61 98 161
60 95 153
62 98 156
60 95 145
62 98 156
59 94 149
60 95 148
59 93 144
64 98 140
69 101 153
64 98 140
62 96 136
64 97 135
59 93 150
58 92 129
59 94 134
59 94 135
60 96 142
56 90 136
60 95 152
58 93 142
62 97 149
57 92 134
61 97 149
61 96 137
61 96 159
59 94 135
59 95 147
60 96 147
61 96 147
60 95 140
58 93 137
58 93 133
61 97 155
60 96 149
61 97 153
60 95 135
60 94 142
61 96 151
62 98 157
61 96 147
61 96 142
60 95 137
61 96 149
61 96 153
61 97 147
59 94 147
62 97 151
61 96 149
59 94 133
61 96 149
61 96 147
59 94 122
60 96 149
62 98 163
61 97 157
63 98 157
61 96 142
61 96 145
60 96 144
60 95 142
62 97 149
61 96 142
61 96 147
61 97 151
60 95 140
61 95 147
61 96 149
60 96 151
60 96 142
60 96 140
62 97 149
61 96 140
62 98 155
62 97 157
60 96 137
62 97 155
63 98 157
60 95 147
63 99 155
62 97 151
60 95 142
60 95 133
62 97 151
61 97 153
61 97 157
61 96 147
62 97 153
60 95 149
61 96 140
60 95 140
60 95 152
60 95 144
61 96 147
60 95 140
60 96 135
60 96 149
59 94 135
61 96 153
61 96 142
61 96 147
60 95 144
61 96 135
62 98 153
60 95 133
61 96 153
62 97 149
61 97 142
60 95 151
61 95 144
59 93 133
61 96 147
60 95 140
61 96 151
59 93 140
60 95 135
60 95 142
62 97 142
61 95 130
59 93 135
58 92 128
61 96 133
61 96 133
61 96 151
61 96 142
62 97 144
60 94 130
59 94 133
60 95 137
59 93 128
61 96 142
61 96 151
59 94 128
60 96 149
60 94 137
60 95 137
61 95 130
59 94 137
58 92 128
62 96 140
60 94 137
58 92 114
60 95 137
60 95 142
60 95 133
60 95 135
57 91 111
62 97 142
58 92 125
57 91 117
61 95 140
93 111 72
117 126 0
122 135 0
127 142 0
111 124 0
133 146 0
119 132 0
134 144 0
123 139 0
121 129 0
127 140 0
130 143 0
142 154 0
130 139 0
138 150 0
136 148 0
126 140 0
130 139 0
128 143 0
130 141 0
141 154 0
142 154 0
142 155 0
144 157 0
133 145 0
122 135 0
135 148 0
119 130 0
142 157 0
145 158 0
129 141 0
137 149 0
137 146 0
132 146 0
140 149 0
146 160 0
151 165 0
136 146 0
135 149 0
141 151 0
146 159 0
152 168 0
145 159 0
135 143 0
129 142 0
129 140 0
144 160 0
153 167 0
146 161 0
150 161 0
145 158 0
142 157 0
144 156 0
139 154 0
153 168 0
147 162 0
149 163 0
152 169 0
142 154 0
146 161 0
145 160 0
143 155 0
143 155 0
159 171 0
150 164 0
146 160 0
141 153 0
148 160 0
152 168 0
151 162 0
154 168 0
147 162 0
159 175 0
162 180 0
155 171 0
153 168 0
146 159 0
152 166 0
159 176 0
152 170 0
155 169 0
153 165 0
156 175 0
158 174 0
155 172 0
153 170 0
152 168 0
146 162 0
156 172 0
152 169 0
161 180 0
157 172 0
159 176 0
155 170 0
161 178 0
154 171 0
152 169 0
164 183 0
164 183 0
153 169 0
156 177 0
164 183 0
163 181 0
163 178 0
169 188 0
164 182 0
162 182 0
163 184 0
160 178 0
165 184 0
158 180 0
166 188 0
165 183 0
157 176 0
164 185 0
167 187 0
165 185 0
159 178 0
171 195 88
169 193 88
170 194 80
172 195 72
172 196 51
173 197 72
165 189 80
173 198 72
175 198 102
177 201 95
171 195 51
171 195 72
169 194 88
173 196 72
170 195 62
173 197 62
174 198 62
168 190 62
170 194 72
172 198 95
173 197 80
165 188 51
167 191 80
166 189 36
173 197 72
169 193 80
168 192 51
170 193 72
160 184 62
171 196 62
169 193 80
170 195 80
174 198 80
169 192 51
169 194 72
172 197 88
167 191 72
167 190 51
170 195 80
172 197 62
173 197 80
171 194 36
167 192 51
174 198 80
169 194 51
165 191 80
170 194 80
169 194 80
169 193 72
168 193 80
167 191 80
161 185 62
164 189 102
165 190 80
168 191 80
165 190 80
161 186 62
169 191 51
172 197 88
165 188 72
169 193 72
169 191 51
165 189 62
168 193 62
169 193 80
165 188 108
169 194 102
167 191 62
168 192 88
166 190 51
168 192 72
170 194 88
157 181 62
170 194 51
166 189 62
165 188 108
153 175 62
168 191 102
163 187 72
159 183 80
161 184 62
167 190 95
151 172 62
165 188 62
162 186 72
172 194 95
154 177 88
157 179 62
163 186 88
153 175 36
160 183 36
163 185 80
158 183 36
156 179 80
159 182 80
165 187 80
112 136 99
83 111 117
93 120 130
79 107 114
99 126 153
93 120 139
106 132 158
104 129 152
80 107 133
99 124 133
75 107 150
83 111 143
89 118 135
94 121 150
88 116 133
105 131 147
63 94 137
84 111 136
92 119 124
104 130 145
98 124 129
77 107 137
83 112 127
97 123 154
79 109 165
70 104 173
86 115 171
69 103 163
61 97 155
62 97 155
61 96 159
62 97 157
61 97 152
60 96 153
60 95 154
60 95 150
61 96 144
61 97 149
59 95 148
61 96 153
60 96 153
59 94 141
64 98 139
69 101 137
63 97 142
68 99 136
60 95 140
68 99 131
57 91 131
59 94 140
59 94 149
62 97 149
60 95 150
59 93 134
61 97 153
61 96 153
60 96 144
61 96 142
59 94 142
59 93 134
57 92 133
59 94 130
63 99 159
61 96 149
61 97 160
58 92 126
61 96 149
59 94 129
60 96 152
59 94 145
61 96 149
60 95 143
61 96 149
61 96 142
58 92 137
61 96 154
59 94 133
60 96 147
59 93 136
61 97 147
62 97 147
60 96 144
60 95 135
62 97 153
61 97 149
61 96 144
60 95 140
60 96 155
61 97 157
61 96 150
60 95 149
62 98 155
61 96 147
62 98 159
61 97 149
62 97 149
61 96 147
63 98 155
63 98 155
61 96 142
61 97 151
61 97 149
60 95 130
61 96 135
62 97 147
61 96 149
61 96 157
61 96 142
59 95 142
61 97 147
62 97 151
60 95 143
60 95 133
60 95 137
61 97 144
62 98 157
61 97 151
61 97 147
61 95 133
63 98 155
62 97 153
59 94 130
62 97 155
62 98 153
60 96 147
61 96 147
60 95 137
61 96 149
62 97 151
60 96 142
61 97 155
60 95 142
60 95 137
62 98 157
61 96 142
65 100 167
61 97 151
60 94 137
62 97 144
61 96 140
59 94 142
62 97 155
62 97 144
61 96 142
61 96 142
62 97 151
60 95 137
63 99 153
61 96 144
60 95 135
60 95 140
60 95 125
60 95 142
63 98 159
62 97 144
61 95 140
62 97 147
61 96 142
61 96 147
60 95 137
60 94 128
60 95 128
61 96 142
60 94 125
61 96 133
60 94 125
61 97 149
59 94 120
61 96 137
59 93 125
59 94 128
59 93 130
60 94 130
59 93 125
59 94 125
59 93 120
60 94 130
59 94 135
59 92 120
59 93 122
58 92 120
59 93 125
58 92 122
59 94 128
58 92 128
60 90 102
122 135 36
127 141 0
127 138 0
125 136 0
134 148 0
129 140 0
115 130 0
137 152 0
137 152 0
130 143 0
136 150 0
127 139 0
118 128 0
143 155 0
138 151 0
126 140 0
135 146 0
121 134 0
132 145 0
120 131 0
130 142 0
125 137 0
147 161 0
143 158 0
143 158 0
126 136 0
138 154 0
129 143 0
134 147 0
147 163 0
145 162 0
140 155 0
140 156 0
128 142 0
145 158 0
145 156 0
137 151 0
148 164 0
141 153 0
127 140 0
128 141 0
136 147 0
134 150 0
143 157 0
141 154 0
143 157 0
145 159 0
146 158 0
146 160 0
139 153 0
146 160 0
154 167 0
129 142 0
132 143 0
149 166 0
153 169 0
139 155 0
140 155 0
152 169 0
147 164 0
143 155 0
136 150 0
143 156 0
157 172 0
142 157 0
156 170 0
149 163 0
154 171 0
153 169 0
151 164 0
156 172 0
147 164 0
161 176 0
149 165 0
158 174 0
154 165 0
150 165 0
149 165 0
163 177 0
165 184 0
160 176 0
145 159 0
154 169 0
164 183 0
165 181 0
158 174 0
163 178 0
156 175 0
145 159 0
160 174 0
150 165 0
161 177 0
161 178 0
155 172 0
167 189 0
166 181 0
162 179 0
156 171 0
157 176 0
169 188 0
162 182 0
161 180 0
167 188 0
157 175 0
163 185 0
160 176 0
164 181 0
167 186 0
163 184 0
164 181 0
163 182 0
165 183 0
163 181 0
154 172 0
158 177 0
161 179 0
169 187 0
167 189 0
171 196 51
169 193 51
168 193 72
174 197 36
168 191 72
170 194 72
174 197 72
168 192 80
173 198 88
171 193 62
166 190 62
171 195 62
167 192 51
174 199 80
173 196 88
172 195 62
166 191 88
172 196 80
169 195 80
171 195 72
168 192 51
173 197 95
170 194 62
172 196 62
172 197 88
167 191 102
169 193 62
171 196 88
167 193 108
172 196 88
168 190 80
166 192 80
166 190 51
171 196 102
170 195 102
171 194 51
171 195 102
165 189 51
169 192 72
167 190 0
167 191 62
167 191 62
173 198 88
170 195 80
166 191 72
164 189 62
170 194 72
170 195 62
169 192 72
162 187 120
171 194 0
170 194 62
171 195 80
170 194 62
167 192 88
167 191 62
167 191 51
168 192 62
168 192 62
168 192 80
162 187 80
170 195 72
170 195 108
169 193 72
164 188 62
169 193 108
155 179 62
170 194 95
169 193 80
163 186 80
162 186 80
171 194 72
156 180 72
160 182 0
163 187 88
164 187 88
166 189 102
168 191 80
168 191 62
161 184 62
165 189 80
160 184 51
165 189 95
170 192 108
163 186 62
169 192 120
165 188 72
166 189 62
161 184 51
171 193 88
162 182 51
165 187 80
165 187 102
158 179 62
157 179 72
169 191 62
143 163 67
88 116 92
74 105 135
91 118 131
83 111 140
78 107 130
83 110 135
108 132 152
98 125 156
85 113 129
104 129 141
94 120 136
88 115 140
106 130 151
89 116 141
81 111 141
81 110 147
94 121 142
97 124 142
115 140 151
95 122 128
78 106 141
97 123 153
85 113 151
85 114 151
79 110 171
75 107 167
95 122 171
79 109 163
62 99 165
62 98 157
62 98 161
61 97 161
61 97 155
60 95 148
60 95 147
59 94 143
59 95 147
60 96 162
58 92 142
61 96 147
60 95 143
59 94 143
72 103 136
65 99 142
58 92 135
73 104 136
72 104 140
60 95 153
63 96 131
60 95 147
60 95 143
61 96 147
57 92 129
59 93 136
61 97 151
59 93 135
57 91 136
60 95 150
57 92 139
59 94 142
60 95 144
60 95 135
60 94 135
61 97 149
60 95 140
59 94 133
59 94 142
60 95 141
60 96 149
60 96 147
59 94 137
60 96 152
60 95 154
60 95 149
59 93 135
61 96 147
60 95 131
61 97 147
60 95 135
59 94 151
61 97 147
59 94 137
61 96 151
60 96 144
62 97 149
60 95 142
61 96 140
62 97 151
60 95 142
61 96 151
62 97 147
62 97 157
61 97 140
61 96 147
62 98 153
60 95 137
61 97 151
60 96 147
59 94 137
62 97 147
60 95 143
61 97 149
60 96 149
61 96 151
59 95 151
61 97 151
62 98 155
61 96 137
60 95 140
61 97 151
61 96 151
62 98 151
60 95 142
60 95 140
60 94 135
61 96 144
60 95 137
60 95 133
61 96 142
60 95 147
62 97 157
61 96 135
60 95 140
61 97 149
61 96 140
59 94 135
60 94 135
61 96 135
59 94 120
60 96 151
61 96 149
62 97 151
59 94 135
60 95 142
61 96 144
63 98 155
58 93 133
62 97 147
60 95 125
62 97 144
61 96 144
61 95 144
62 97 149
61 97 142
62 97 140
59 93 130
61 96 149
61 96 142
59 94 133
62 97 140
60 95 142
59 94 133
60 95 140
61 96 144
60 95 135
61 96 147
61 96 155
58 93 125
61 96 135
60 94 128
60 95 140
60 96 137
61 96 144
60 95 135
60 96 135
61 96 142
61 95 140
61 96 147
60 95 133
60 95 137
62 97 142
60 95 137
61 95 135
60 95 137
59 93 114
60 94 137
61 96 140
59 93 135
59 94 117
60 94 128
57 90 108
59 93 122
58 92 135
59 93 120
94 114 80
123 134 0
132 145 0
124 139 0
127 140 0
111 122 0
119 132 0
125 136 0
131 143 0
122 136 0
131 145 0
126 138 0
122 135 0
125 140 0
135 148 0
129 139 0
136 147 0
137 148 0
133 148 0
135 148 0
121 136 0
138 152 0
136 147 0
134 148 0
133 144 0
127 137 0
131 144 0
138 154 0
128 140 0
146 157 0
138 153 0
134 150 0
128 140 0
144 161 0
142 154 0
133 147 0
149 162 0
123 138 0
139 152 0
140 154 0
129 143 0
144 155 0
142 156 0
136 151 0
140 150 0
139 154 0
140 153 0
143 158 0
142 156 0
139 155 0
147 161 0
139 148 0
154 166 0
156 173 0
138 148 0
152 168 0
152 162 0
150 162 0
158 170 0
134 148 0
137 150 0
142 159 0
145 160 0
149 163 0
144 158 0
144 157 0
144 160 0
155 170 0
151 165 0
149 163 0
147 163 0
147 163 0
158 174 0
158 172 0
148 166 0
152 168 0
155 173 0
155 168 0
152 166 0
159 176 0
149 164 0
155 171 0
144 159 0
151 167 0
160 174 0
158 176 0
148 165 0
162 180 0
166 185 0
159 173 0
155 173 0
163 181 0
152 165 0
163 183 0
152 170 0
157 172 0
158 180 0
161 179 0
164 184 0
157 176 0
153 174 0
166 186 0
155 175 0
162 179 0
160 171 0
163 180 0
169 190 0
166 186 0
157 175 0
169 189 0
154 172 0
158 176 0
159 178 0
160 179 0
154 171 0
166 186 0
163 180 0
163 182 0
164 184 0
171 196 72
165 188 51
173 197 72
170 193 62
174 197 72
174 198 88
172 195 62
172 197 80
167 191 80
171 195 36
168 191 62
170 194 51
171 194 72
172 195 62
167 190 62
172 194 72
175 199 62
170 193 72
170 194 62
174 198 80
172 197 88
164 187 51
164 188 72
173 198 88
174 197 36
168 192 62
169 194 80
170 196 95
173 199 102
165 188 36
166 189 51
167 191 62
168 192 72
170 193 51
169 195 102
170 195 80
167 192 51
163 187 51
171 197 108
171 195 0
173 197 80
166 190 88
168 194 95
169 195 80
171 194 51
169 192 51
167 193 108
165 189 72
170 195 88
166 189 62
167 192 80
164 189 72
161 185 62
167 191 95
170 195 80
166 189 62
169 194 80
166 189 88
166 189 62
165 188 51
169 192 62
163 188 72
161 186 62
159 182 62
166 191 80
170 193 72
170 192 88
163 188 62
166 190 102
162 185 88
158 182 72
164 188 62
154 180 95
169 193 102
171 195 88
168 193 80
171 194 88
155 178 51
165 189 62
164 187 62
160 183 62
163 186 80
161 182 36
156 178 62
161 184 72
157 181 72
161 185 62
168 192 88
158 181 80
168 191 80
155 177 72
162 185 62
156 178 62
157 180 62
163 185 80
149 171 62
161 184 88
134 156 95
101 127 120
99 124 143
96 123 140
94 121 126
104 129 150
98 125 144
87 115 142
93 118 108
90 117 134
95 121 131
95 121 130
96 123 143
108 133 162
85 115 145
82 110 120
87 116 131
98 124 143
99 127 129
97 124 120
104 130 129
93 120 141
79 107 147
99 125 153
88 117 169
69 103 163
60 96 154
90 118 165
61 97 157
61 97 153
62 98 161
61 97 151
60 96 152
62 99 169
60 95 148
66 100 147
60 96 158
61 97 159
60 95 144
62 97 149
61 97 152
60 94 142
60 95 149
62 95 114
58 92 140
59 93 137
59 93 131
68 100 139
64 97 133
58 92 138
58 93 141
59 95 149
59 94 140
60 95 154
60 95 147
57 91 126
58 93 142
61 96 142
59 93 140
58 93 139
62 97 153
61 97 149
61 95 137
61 96 147
62 97 144
60 96 147
60 95 142
61 96 144
59 94 137
61 97 151
60 95 144
60 95 144
60 95 135
60 94 133
60 95 140
59 94 137
60 96 144
59 94 135
62 97 142
60 95 140
60 95 142
62 97 147
59 94 135
61 96 137
60 96 140
60 96 144
60 94 137
60 95 140
63 99 163
61 96 149
61 97 142
61 96 149
61 97 151
62 97 149
61 97 153
61 96 145
61 97 144
61 97 147
61 97 153
60 95 149
60 95 135
60 95 142
59 95 135
59 94 142
61 97 147
60 96 140
60 95 140
60 94 137
61 96 151
60 96 142
60 95 144
61 96 142
61 96 151
60 95 147
62 97 151
62 98 157
60 95 133
60 94 140
61 95 142
63 99 163
60 95 135
60 96 144
60 96 149
59 94 133
59 94 142
59 94 135
61 97 149
59 94 137
61 96 147
60 95 144
61 96 144
61 96 149
62 97 155
61 96 149
60 95 135
62 98 153
62 97 151
61 96 147
59 94 122
58 92 128
62 98 149
62 97 149
62 97 149
60 95 133
62 97 147
61 97 144
60 94 128
63 98 144
63 99 153
58 92 133
60 95 128
62 97 144
60 94 125
59 93 140
60 95 142
60 95 149
62 97 149
58 92 135
61 95 133
60 95 133
61 96 147
62 97 137
60 95 137
61 96 149
59 95 133
59 94 122
60 94 130
60 94 137
60 94 137
61 96 142
59 93 122
61 96 140
60 94 135
59 94 135
61 96 140
61 95 140
59 93 125
58 92 120
59 93 133
58 92 125
60 94 130
58 92 117
59 92 122
61 90 106
127 140 0
130 145 0
126 139 0
132 146 0
120 135 0
123 136 0
126 140 0
135 150 0
129 143 0
122 131 0
120 134 0
138 154 0
137 154 0
122 135 0
131 141 0
136 147 0
119 132 0
128 143 0
135 150 0
115 130 0
132 146 0
121 133 0
134 150 0
130 146 0
131 144 0
138 152 0
138 152 0
135 147 0
126 138 0
131 148 0
143 158 0
143 155 0
147 160 0
130 141 0
145 159 0
135 148 0
138 152 0
140 154 0
149 160 0
143 160 0
129 145 0
151 169 0
146 163 0
135 150 0
147 162 0
150 168 0
136 150 0
133 146 0
152 166 0
156 170 0
138 153 0
149 164 0
146 162 0
139 154 0
145 162 0
150 161 0
141 153 0
144 156 0
157 172 0
157 176 0
147 163 0
158 175 0
155 176 0
145 157 0
155 167 0
147 161 0
152 167 0
143 157 0
145 162 0
148 164 0
152 169 0
147 161 0
155 172 0
157 175 0
148 164 0
148 161 0
158 176 0
155 173 0
155 169 0
161 178 0
156 173 0
147 163 0
158 177 0
151 168 0
158 174 0
156 173 0
162 181 0
151 168 0
154 170 0
159 177 0
155 174 0
155 173 0
159 177 0
159 176 0
161 179 0
165 183 0
155 175 0
155 174 0
158 177 0
158 176 0
161 176 0
161 177 0
164 183 0
162 180 0
157 176 0
163 183 0
157 176 0
167 186 0
165 183 0
169 187 0
160 180 0
169 189 0
162 178 0
153 170 0
159 181 0
164 181 0
165 184 0
161 182 0
164 184 0
171 195 51
172 196 72
170 194 51
170 193 72
174 198 80
172 197 88
176 200 88
172 197 102
170 194 62
167 191 51
169 192 36
173 198 62
176 200 88
166 191 80
169 195 102
168 193 62
173 196 80
171 195 62
169 193 88
170 195 95
174 198 80
172 196 62
170 195 62
169 192 36
169 194 51
167 192 72
173 197 72
171 195 72
171 196 102
165 189 36
171 195 51
169 193 51
168 192 62
168 192 72
165 189 72
177 201 102
168 192 62
170 195 95
168 192 88
169 192 88
167 191 51
169 192 51
172 196 80
168 192 80
164 188 51
164 187 62
163 187 80
171 196 95
171 194 72
164 188 80
169 194 88
167 192 80
162 187 88
169 192 72
167 189 72
171 196 108
168 192 72
158 182 72
166 190 72
167 191 80
161 185 36
162 187 95
159 183 72
165 189 72
163 187 95
165 188 62
167 192 80
161 185 36
161 185 72
163 186 80
166 190 80
168 192 80
161 185 62
168 192 88
160 184 72
158 182 62
163 186 51
167 190 88
154 177 72
165 188 72
166 188 72
157 181 114
171 194 88
168 191 72
157 180 80
160 184 62
156 178 80
162 186 62
160 183 72
154 175 95
154 176 51
151 174 62
162 182 36
154 175 72
155 177 72
159 182 95
156 177 80
148 169 62
109 134 135
82 110 125
91 118 129
84 112 136
111 134 125
95 121 135
88 114 122
94 121 144
96 121 137
101 126 137
69 101 149
96 121 145
75 105 130
97 122 135
75 105 131
101 127 139
96 122 135
82 111 144
106 133 155
100 127 129
90 119 148
86 112 144
109 134 161
80 111 163
86 115 173
81 112 171
68 103 167
69 103 165
68 102 163
61 97 155
62 98 159
60 95 137
61 96 144
62 98 157
59 94 131
60 96 152
60 95 149
61 97 155
61 97 149
59 94 155
61 97 156
59 94 131
59 94 140
69 101 143
61 96 154
60 95 147
65 98 141
68 100 135
65 99 137
56 90 128
58 92 135
60 95 147
60 95 133
60 95 147
60 95 133
58 93 133
57 91 137
61 96 142
60 95 140
59 93 149
60 95 144
60 95 140
59 94 144
61 96 141
59 93 130
60 95 143
59 94 149
59 93 139
60 95 136
60 95 142
60 95 135
60 95 142
60 95 144
61 96 140
60 96 144
61 96 142
61 96 144
62 97 153
59 95 153
60 95 147
60 95 147
59 94 140
61 96 140
62 97 157
60 95 143
60 95 141
60 95 142
60 95 137
60 95 140
61 96 149
60 95 137
60 94 135
60 95 142
60 95 137
61 96 137
63 98 165
61 97 147
60 95 140
62 97 155
61 96 149
60 95 137
60 95 140
61 96 149
61 97 153
59 93 140
62 97 153
60 95 137
58 93 135
60 95 142
61 97 155
62 96 137
60 96 142
62 98 155
62 97 149
61 97 142
60 95 147
61 97 147
62 97 144
63 98 155
60 96 142
61 95 149
60 95 140
61 96 144
62 97 151
62 97 144
61 96 147
62 98 151
62 97 147
62 98 151
62 97 151
61 96 144
60 95 149
61 96 147
60 95 144
60 96 140
62 98 147
62 97 147
61 96 149
62 97 140
60 95 149
61 96 140
61 97 147
61 96 147
61 96 140
59 93 125
62 97 149
59 93 133
61 96 142
61 96 142
60 95 144
61 96 130
60 94 135
60 95 135
59 94 135
60 94 140
60 95 140
59 94 142
60 94 133
59 94 128
58 93 122
63 98 151
61 96 135
61 96 142
62 97 151
60 95 133
59 94 135
61 95 142
60 94 137
60 95 135
60 95 142
59 93 133
57 90 105
60 95 133
59 93 117
59 93 133
59 93 130
58 92 120
59 94 125
59 93 130
57 90 114
60 94 122
57 90 125
112 129 84
122 133 0
127 141 0
130 146 0
123 137 0
122 138 0
132 147 0
128 141 0
122 135 0
120 133 0
140 155 0
124 136 0
124 136 0
140 154 0
130 142 0
119 133 0
113 128 0
139 154 0
133 147 0
131 146 0
134 150 0
122 136 0
138 150 0
115 126 0
133 149 0
129 145 0
134 149 0
136 151 0
140 154 0
145 155 0
140 156 0
135 146 0
143 155 0
132 147 0
150 166 0
142 158 0
141 155 0
133 143 0
148 163 0
135 149 0
140 154 0
135 152 0
155 166 0
149 164 0
145 160 0
143 161 0
135 147 0
141 156 0
155 173 0
144 158 0
157 172 0
143 155 0
148 162 0
143 159 0
145 159 0
145 160 0
143 155 0
150 164 0
155 171 0
149 162 0
155 173 0
142 158 0
146 157 0
143 157 0
142 157 0
148 163 0
148 163 0
159 176 0
153 170 0
151 164 0
155 171 0
155 169 0
159 174 0
159 176 0
158 173 0
161 177 0
150 169 0
154 171 0
154 169 0
159 175 0
155 170 0
152 166 0
155 173 0
155 171 0
165 182 0
160 179 0
162 177 0
157 174 0
159 177 0
155 172 0
156 173 0
154 169 0
157 176 0
149 167 0
162 179 0
152 171 0
162 178 0
163 181 0
160 174 0
150 169 0
167 184 0
163 181 0
158 176 0
162 180 0
153 169 0
156 174 0
162 178 0
166 185 0
161 183 0
160 180 0
168 187 0
159 179 0
165 184 0
153 172 0
164 183 0
163 182 0
160 179 0
163 184 0
164 185 0
159 179 0
174 197 62
171 195 108
174 198 62
172 197 80
175 198 72
172 196 88
170 194 36
170 195 88
176 200 88
176 201 102
172 196 80
173 197 72
170 193 62
169 192 36
167 192 51
174 197 62
176 200 88
168 192 62
170 194 72
168 193 88
168 192 62
167 191 72
170 195 95
168 191 62
160 183 0
173 196 51
168 191 0
165 189 72
173 197 80
170 193 62
170 194 80
171 195 51
171 196 80
164 190 80
168 191 51
172 196 51
164 188 72
172 197 88
173 198 80
169 194 62
168 194 95
171 194 51
164 187 62
171 196 95
167 191 62
168 192 72
170 195 95
164 188 51
169 194 95
162 186 51
170 195 72
160 184 51
169 195 108
168 192 95
167 191 95
168 191 72
166 190 62
168 191 62
166 189 88
168 192 62
174 197 36
168 191 62
159 184 62
158 183 88
168 191 0
164 188 95
163 188 88
164 189 36
161 185 51
162 186 51
167 189 0
161 185 80
160 182 80
158 182 36
164 188 95
161 184 72
162 186 88
166 189 62
166 189 80
161 185 95
167 191 88
167 189 62
168 190 102
153 175 51
168 192 88
160 183 88
169 192 80
154 177 51
168 191 72
163 186 95
160 183 51
163 186 102
166 189 95
157 179 62
152 174 51
160 183 95
156 178 51
164 185 95
147 169 105
93 119 114
98 124 139
85 112 128
97 123 133
76 106 125
96 124 141
115 138 134
109 133 153
106 132 161
95 122 141
103 127 128
80 104 117
79 96 95
99 122 140
105 131 150
95 123 133
96 122 120
104 130 137
106 131 148
95 121 148
91 118 153
99 122 144
96 123 131
73 104 157
80 110 163
91 119 171
61 97 166
69 102 159
61 97 157
61 97 159
60 96 149
60 95 143
61 96 144
61 96 147
61 96 153
60 96 156
60 96 153
61 97 147
61 96 148
60 95 157
60 95 145
71 102 120
68 101 140
62 96 140
64 97 131
62 95 128
59 93 141
75 105 136
60 95 142
60 94 148
57 91 134
59 93 131
60 94 140
57 92 134
61 96 152
61 97 149
60 95 136
59 94 141
61 97 149
60 96 144
61 97 157
61 96 142
59 94 140
60 95 139
58 93 136
60 95 142
60 95 142
61 96 151
59 93 125
61 96 135
61 96 149
60 96 147
58 92 139
57 92 140
59 94 135
60 95 142
63 98 151
59 93 128
59 94 135
60 94 140
62 97 151
59 94 136
60 96 140
62 97 147
60 95 140
60 95 130
59 94 137
59 94 137
62 97 153
60 95 133
59 94 140
59 94 135
61 96 151
60 95 137
61 96 137
61 96 142
60 95 133
60 95 142
60 96 151
61 96 144
61 96 144
60 95 135
61 96 144
61 97 147
60 95 140
62 97 147
61 96 140
60 95 142
62 97 142
62 97 151
59 93 142
60 95 140
61 97 153
62 97 151
58 93 125
60 95 130
61 96 140
62 98 151
60 96 149
61 97 142
61 96 147
62 98 151
60 96 144
60 95 142
60 95 135
62 97 144
60 96 149
58 93 133
60 96 147
61 96 144
60 95 147
60 95 133
60 95 133
59 94 130
61 96 149
61 97 151
62 97 144
61 97 144
61 96 140
62 98 151
61 96 142
62 97 147
61 96 142
61 96 133
61 97 147
60 95 140
60 95 135
61 96 135
60 94 135
59 94 133
62 97 140
61 96 140
62 97 147
59 93 135
59 93 120
60 95 135
60 95 135
61 96 144
60 95 133
58 92 120
61 96 149
61 96 135
57 91 117
60 94 133
59 94 125
57 92 111
60 95 133
59 94 120
61 96 142
59 93 122
59 92 122
61 96 142
59 93 122
55 89 99
59 94 125
59 92 128
62 98 147
58 91 120
59 93 135
58 92 122
97 121 99
137 150 0
127 142 0
133 148 0
134 147 0
127 139 0
126 142 0
123 134 0
136 151 0
141 154 0
115 130 0
126 137 0
127 143 0
134 149 0
139 156 0
130 144 0
138 152 0
137 148 0
133 146 0
134 150 0
130 145 0
147 164 0
127 137 0
143 160 0
125 140 0
138 149 0
132 147 0
137 154 0
140 154 0
128 142 0
146 161 0
151 166 0
133 148 0
130 142 0
141 157 0
135 147 0
141 157 0
133 145 0
146 162 0
146 162 0
134 146 0
129 142 0
139 152 0
142 158 0
154 168 0
147 160 0
156 172 0
154 166 0
144 160 0
144 160 0
143 159 0
133 144 0
134 146 0
150 165 0
146 162 0
150 165 0
141 158 0
150 166 0
147 162 0
143 156 0
158 176 0
149 162 0
149 163 0
156 169 0
147 164 0
161 179 0
145 157 0
154 170 0
161 176 0
151 169 0
160 177 0
152 169 0
153 170 0
154 170 0
151 167 0
156 172 0
158 175 0
142 155 0
158 175 0
154 170 0
161 174 0
160 178 0
155 170 0
151 168 0
148 162 0
149 165 0
162 176 0
152 166 0
159 176 0
158 175 0
158 179 0
160 178 0
158 173 0
162 182 0
161 177 0
153 169 0
161 177 0
164 183 0
159 178 0
159 179 0
158 176 0
153 174 0
159 178 0
158 176 0
164 182 0
162 183 0
165 186 0
163 183 0
154 170 0
170 187 0
162 183 0
159 179 0
157 177 0
157 177 0
160 178 0
150 167 0
161 178 0
164 185 0
167 186 0
165 183 0
163 182 0
175 198 88
167 191 62
169 193 80
173 197 88
176 200 80
171 194 72
172 195 72
168 191 62
173 197 80
165 189 62
172 195 88
172 197 80
171 196 95
170 194 51
174 197 62
173 197 80
173 198 80
171 196 80
168 193 88
172 197 95
165 189 72
172 198 95
171 194 51
173 197 72
165 190 72
172 196 88
170 193 72
168 192 36
166 189 36
168 190 72
169 191 62
170 194 51
170 195 88
167 191 72
169 194 72
167 190 36
166 191 88
168 193 36
166 190 62
167 191 62
168 193 62
165 190 88
168 192 108
165 190 72
166 190 62
166 190 62
170 195 72
167 190 51
169 193 80
162 187 72
170 194 62
169 193 95
164 188 36
171 194 72
173 196 72
168 191 0
162 186 102
166 190 72
168 192 80
172 197 108
173 197 80
170 194 72
166 190 62
170 193 80
165 189 72
165 190 80
169 193 36
161 185 72
164 188 51
166 191 102
168 190 51
163 186 62
172 196 72
161 184 62
165 188 72
158 182 72
155 179 80
167 191 88
158 181 36
162 184 72
161 184 62
150 173 51
163 186 62
166 190 88
166 188 88
167 191 80
163 186 80
166 190 80
160 183 72
163 187 62
159 180 62
158 179 62
166 187 95
160 184 80
162 183 62
166 189 95
152 175 72
155 179 62
153 176 62
108 133 125
98 123 142
92 118 134
80 109 136
93 118 143
70 101 143
95 121 144
92 118 133
102 127 143
97 121 134
102 126 143
79 103 117
62 69 62
87 100 105
98 124 135
78 107 137
91 118 148
88 116 142
115 139 144
104 129 133
108 133 142
86 115 152
88 117 147
78 108 137
86 115 173
69 103 167
68 101 160
86 115 173
61 96 153
60 95 144
63 99 159
62 98 157
62 98 161
63 98 159
60 95 150
62 94 122
61 96 145
60 96 149
65 99 159
60 95 140
60 95 143
60 94 134
71 103 144
75 106 125
66 100 147
63 97 133
64 97 143
65 96 120
58 93 134
59 93 134
62 97 147
60 94 131
61 97 157
59 93 140
60 96 149
57 91 129
60 95 144
56 90 117
59 93 143
59 94 134
61 96 149
59 94 140
60 95 145
61 97 144
60 95 130
59 94 136
58 93 133
61 96 144
60 95 133
59 93 141
60 95 142
62 97 151
59 93 130
62 97 147
60 95 142
59 94 135
60 96 140
59 94 147
61 96 147
59 95 133
61 96 147
60 95 144
59 94 133
60 94 128
62 98 153
59 94 145
58 93 131
59 94 139
63 99 161
61 96 149
60 95 135
62 97 153
60 94 130
60 95 144
59 94 137
61 96 147
62 97 149
61 97 149
61 96 133
61 96 137
61 96 150
62 98 147
62 97 149
61 96 140
60 95 142
62 98 153
61 96 149
60 95 140
62 98 153
62 97 147
60 95 135
62 97 137
62 97 149
62 97 153
61 96 144
63 98 153
61 96 137
60 95 137
62 97 153
60 95 133
61 96 147
61 96 149
62 97 153
61 96 144
60 95 140
59 94 137
60 96 147
60 95 130
61 97 153
61 96 147
63 98 147
62 97 147
61 96 147
61 96 144
60 96 142
61 97 144
61 96 151
60 95 133
59 94 140
61 95 144
62 98 149
59 94 133
60 94 130
59 93 133
59 93 122
61 96 147
62 97 147
61 96 147
59 94 130
61 97 144
58 93 125
60 95 149
61 95 135
59 94 135
61 96 147
61 96 140
60 95 140
61 95 151
59 94 137
61 96 135
62 96 149
61 95 140
60 94 117
58 92 117
60 95 130
59 94 137
60 94 133
59 93 122
59 93 135
59 93 128
57 90 125
59 94 128
57 90 117
59 93 128
59 94 125
59 94 128
58 92 120
60 94 130
59 93 120
57 91 117
131 145 36
128 142 0
112 124 0
132 147 0
125 139 0
142 155 0
123 135 0
126 141 0
129 144 0
130 144 0
118 130 0
129 142 0
125 136 0
130 144 0
139 154 0
123 135 0
131 144 0
122 134 0
134 149 0
135 149 0
138 155 0
141 158 0
134 150 0
134 150 0
136 150 0
134 147 0
139 154 0
135 148 0
137 153 0
142 157 0
124 139 0
132 143 0
134 146 0
128 143 0
142 156 0
141 158 0
135 145 0
146 160 0
150 164 0
147 163 0
143 158 0
146 158 0
142 153 0
133 147 0
140 156 0
137 153 0
144 161 0
144 157 0
142 159 0
154 171 0
147 163 0
149 166 0
155 169 0
140 153 0
143 156 0
144 155 0
141 157 0
151 166 0
145 162 0
147 163 0
147 162 0
143 157 0
149 163 0
155 174 0
158 175 0
155 169 0
149 165 0
153 168 0
153 171 0
153 169 0
153 170 0
152 169 0
148 163 0
155 169 0
160 177 0
154 169 0
157 175 0
159 176 0
157 172 0
147 157 0
152 167 0
160 178 0
157 174 0
153 170 0
155 173 0
154 173 0
153 169 0
152 168 0
158 175 0
153 169 0
156 173 0
163 182 0
157 177 0
170 189 0
157 171 0
155 170 0
165 183 0
160 178 0
162 179 0
158 177 0
159 176 0
169 189 0
161 179 0
160 176 0
158 178 0
162 181 0
164 180 0
155 174 0
158 178 0
159 177 0
161 181 0
166 185 0
165 186 0
161 181 0
170 190 0
157 176 0
160 180 0
165 185 0
157 175 0
157 176 0
162 183 0
171 195 72
170 194 72
172 196 62
169 192 36
172 195 80
170 193 62
171 195 80
168 192 36
173 197 88
176 199 88
164 188 51
170 195 62
174 198 62
171 196 72
167 191 51
168 193 72
175 200 95
169 194 62
171 196 80
173 198 80
163 187 72
167 192 72
171 197 108
175 199 72
169 195 88
170 193 72
172 196 80
168 193 95
169 194 80
170 194 88
170 193 51
173 198 88
168 193 102
169 194 80
167 192 102
162 187 51
169 193 72
167 192 80
171 196 80
173 197 80
175 199 72
164 189 62
169 195 80
168 191 72
167 191 72
169 194 108
171 197 80
163 187 36
168 191 88
170 193 62
168 191 72
165 189 80
171 194 51
166 191 80
165 191 72
166 190 51
164 188 36
166 190 80
163 187 80
164 189 51
164 189 80
171 196 95
165 189 88
161 185 62
163 187 51
165 189 62
170 193 88
169 193 62
161 184 36
166 190 72
162 185 36
160 185 51
172 195 80
166 191 95
163 188 88
165 188 72
159 183 88
166 190 72
164 188 0
160 184 51
159 183 36
158 183 62
159 182 80
157 179 36
168 191 62
165 189 51
158 181 0
160 183 72
149 171 51
156 178 0
149 172 51
164 185 72
163 186 62
153 176 80
159 181 51
156 177 80
153 175 72
152 173 36
153 176 95
137 159 114
76 103 102
80 109 142
80 108 126
87 115 131
93 119 137
93 119 140
92 119 135
74 103 121
106 132 165
93 119 139
95 118 139
100 111 102
82 91 51
67 88 80
85 112 133
86 112 121
90 118 136
88 116 129
98 125 149
117 142 163
88 117 145
81 112 144
97 123 145
81 112 163
79 109 159
68 102 155
67 99 153
86 115 165
59 94 143
61 96 156
60 95 151
60 95 147
61 96 147
60 96 144
61 97 155
61 97 144
61 96 158
60 95 152
59 94 135
61 96 144
59 94 152
64 98 145
66 97 130
69 101 134
65 99 142
68 101 137
56 89 115
70 102 133
57 91 130
59 93 133
57 91 133
57 92 123
57 92 133
56 90 122
56 90 136
62 97 142
59 94 147
61 96 140
59 94 140
60 95 142
61 96 140
61 96 152
60 95 145
57 91 125
58 93 130
59 94 141
60 94 149
61 96 149
60 95 149
60 95 144
60 95 128
59 94 133
61 96 140
61 96 144
61 96 147
61 95 137
61 96 151
60 95 137
60 95 137
61 96 135
61 96 135
60 94 137
60 96 149
60 95 149
62 97 147
61 96 155
61 96 140
62 97 151
61 96 137
59 93 133
60 94 133
61 96 137
62 97 147
62 96 149
61 96 142
60 96 142
61 97 149
60 95 135
62 98 151
61 96 140
61 97 149
60 96 144
61 96 140
62 98 155
62 97 147
59 94 133
62 98 153
61 96 144
60 95 142
60 95 133
62 97 147
61 96 147
61 96 140
60 95 128
61 96 153
61 95 130
61 96 144
62 97 144
62 98 155
61 96 149
61 97 151
61 96 147
60 95 149
62 98 151
60 95 135
59 94 133
61 96 137
62 97 147
60 95 140
61 96 140
59 94 128
59 93 135
60 95 133
61 96 144
61 96 142
62 97 140
61 96 147
59 93 128
60 95 140
61 95 133
59 93 137
60 94 137
60 95 137
62 98 155
61 95 140
60 95 130
61 97 151
61 97 155
61 96 147
60 95 130
59 94 133
61 95 133
60 95 130
63 98 144
60 95 130
60 95 125
60 94 133
60 94 135
60 94 120
59 93 133
58 92 117
59 94 122
59 93 130
60 94 133
59 93 133
60 94 130
60 94 133
61 95 122
58 91 122
59 94 140
59 93 125
57 90 117
58 92 125
56 88 111
60 95 130
58 91 117
57 90 108
57 91 117
89 111 95
130 146 0
127 140 0
122 137 0
128 141 0
123 137 0
127 141 0
132 148 0
139 156 0
142 158 0
133 148 0
129 142 0
133 150 0
138 151 0
135 151 0
130 147 0
122 135 0
126 138 0
129 139 0
124 138 0
124 138 0
130 144 0
137 153 0
123 139 0
127 143 0
125 138 0
130 141 0
133 148 0
143 157 0
140 154 0
133 143 0
152 165 0
137 151 0
138 153 0
142 158 0
129 141 0
135 151 0
152 168 0
151 166 0
144 160 0
142 156 0
145 162 0
138 153 0
147 162 0
141 156 0
146 161 0
149 165 0
145 159 0
147 165 0
139 158 0
141 155 0
149 165 0
139 153 0
148 165 0
144 162 0
152 167 0
157 172 0
148 164 0
149 162 0
149 166 0
153 171 0
145 163 0
153 170 0
159 178 0
143 159 0
148 163 0
150 164 0
158 178 0
152 169 0
153 169 0
152 166 0
151 166 0
153 170 0
149 166 0
139 153 0
147 162 0
149 163 0
144 160 0
159 173 0
148 162 0
155 171 0
143 158 0
146 163 0
160 179 0
150 167 0
147 162 0
156 173 0
152 168 0
158 174 0
150 167 0
161 178 0
157 174 0
159 176 0
148 165 0
154 172 0
159 178 0
156 175 0
151 168 0
154 169 0
163 182 0
160 179 0
163 185 0
161 180 0
163 179 0
163 181 0
158 178 0
157 176 0
161 181 0
154 170 0
159 179 0
164 181 0
154 172 0
167 185 0
157 175 0
156 172 0
165 184 0
164 183 0
169 190 0
162 183 0
163 182 0
165 188 0
168 187 0
170 195 51
174 197 62
173 196 72
170 193 80
175 198 62
170 193 72
172 197 36
174 198 88
169 194 72
170 196 72
174 197 80
173 198 120
172 195 36
170 195 102
167 190 95
170 192 36
174 197 62
167 190 51
169 193 72
167 190 51
170 195 72
169 193 62
169 191 51
167 192 88
169 192 72
166 190 36
168 193 95
166 190 62
175 199 51
166 191 62
167 191 62
169 193 62
170 194 62
168 193 95
164 188 88
165 189 36
174 197 62
169 195 125
170 194 51
168 192 80
168 193 62
166 191 72
166 191 62
168 193 62
166 190 72
165 188 72
163 187 62
170 192 51
165 189 62
171 196 72
167 191 72
173 195 36
170 195 72
163 187 80
167 192 95
167 191 62
165 190 80
164 187 51
163 188 62
164 187 80
160 184 62
165 190 51
164 189 51
167 191 36
168 191 95
166 191 88
165 188 72
169 193 88
161 185 72
163 185 62
163 186 62
158 182 62
160 183 51
167 189 51
172 197 102
167 191 72
162 183 51
152 174 80
156 179 51
157 181 51
157 180 80
161 183 36
162 184 95
157 180 51
156 179 88
158 181 80
153 177 88
148 171 62
146 168 36
157 181 108
164 187 95
161 184 72
160 182 102
160 184 88
159 182 95
161 184 88
157 178 88
158 180 88
158 180 72
153 174 95
103 126 125
88 115 133
105 130 133
94 121 147
93 119 125
103 127 155
101 126 136
93 118 136
88 114 140
99 123 144
80 107 126
89 106 113
86 95 80
83 96 72
89 115 139
106 131 145
86 113 128
90 119 133
101 127 136
93 121 141
100 127 134
84 112 147
110 135 147
87 116 147
74 106 155
75 107 167
81 111 165
85 113 158
69 102 159
61 97 155
63 98 163
60 95 150
59 95 150
60 96 145
59 93 131
61 96 147
62 97 152
60 95 137
60 95 141
59 93 133
60 95 147
65 98 128
63 97 133
68 100 137
59 93 135
59 93 136
68 101 131
72 103 121
57 91 108
61 95 137
59 94 141
61 96 147
59 94 134
58 92 137
58 91 135
59 93 149
58 92 131
61 97 157
60 95 141
60 94 137
60 95 150
58 92 130
60 94 140
56 89 130
60 95 157
59 93 129
60 95 139
60 95 149
60 95 141
59 94 140
61 96 147
62 97 147
59 94 130
59 94 128
60 95 148
61 96 144
61 96 151
60 94 130
61 96 151
62 97 151
59 95 137
60 94 135
61 96 147
61 96 144
60 96 149
59 94 134
61 97 156
61 97 149
63 98 155
60 95 140
59 93 130
60 94 140
61 96 140
60 95 144
62 98 155
59 93 135
60 95 142
59 93 140
61 96 144
59 94 137
62 97 144
61 97 142
60 95 142
57 92 130
61 96 155
60 95 136
60 95 144
59 94 133
61 96 142
60 95 137
60 94 125
61 97 149
60 95 144
58 93 135
61 97 149
62 97 144
62 97 151
60 95 137
60 95 133
62 98 153
60 95 140
62 97 147
61 97 144
61 96 147
61 97 151
61 97 149
60 95 133
61 96 144
62 97 153
60 95 144
61 95 133
61 96 140
61 96 147
60 96 135
60 95 149
61 97 149
59 93 135
61 96 140
61 96 144
60 95 125
61 96 140
60 95 130
61 96 142
61 96 140
59 94 128
59 94 137
61 96 144
60 95 137
59 93 135
60 95 125
63 98 147
59 93 120
61 96 137
60 95 135
60 95 142
59 93 117
58 93 140
59 94 133
60 94 133
59 94 144
60 95 133
60 95 137
60 94 122
59 93 125
57 91 117
57 89 111
59 94 122
58 92 130
59 93 125
59 94 133
57 90 120
59 93 122
57 91 114
59 93 122
57 91 105
57 91 111
56 90 102
74 99 102
121 136 25
127 139 0
119 133 0
120 135 0
122 136 0
116 132 0
112 126 0
131 143 0
127 139 0
116 130 0
115 130 0
117 129 0
134 147 0
130 147 0
140 154 0
130 144 0
136 150 0
141 155 0
126 141 0
139 153 0
137 150 0
145 160 0
140 156 0
140 153 0
137 152 0
132 145 0
148 164 0
139 152 0
134 147 0
144 161 0
140 156 0
135 147 0
144 162 0
142 156 0
138 153 0
149 164 0
142 158 0
141 157 0
142 158 0
141 158 0
136 152 0
142 155 0
138 153 0
147 163 0
145 160 0
130 146 0
140 156 0
141 158 0
154 171 0
145 161 0
141 156 0
143 160 0
147 163 0
144 158 0
156 171 0
146 162 0
148 162 0
148 164 0
146 163 0
150 166 0
145 163 0
146 163 0
152 167 0
155 173 0
145 161 0
147 166 0
149 165 0
157 173 0
147 164 0
157 172 0
155 170 0
162 180 0
150 166 0
149 165 0
157 175 0
158 175 0
141 153 0
146 161 0
155 171 0
160 177 0
152 166 0
147 166 0
158 175 0
152 170 0
149 165 0
158 174 0
153 172 0
154 172 0
151 168 0
157 175 0
155 174 0
163 180 0
143 160 0
155 172 0
157 177 0
155 171 0
148 166 0
157 175 0
151 172 0
154 173 0
161 180 0
168 187 0
159 179 0
155 173 0
164 181 0
162 181 0
165 187 0
159 178 0
166 185 0
166 187 0
161 180 0
159 178 0
167 185 0
157 176 0
162 182 0
164 182 0
163 181 0
162 183 0
165 184 0
161 180 0
165 186 0
165 184 0
171 195 72
171 194 62
166 190 72
170 194 95
173 197 95
170 193 95
170 195 88
171 194 72
174 199 88
174 198 72
168 193 80
170 194 36
173 198 108
166 191 80
175 200 95
169 193 88
169 194 108
175 199 88
173 197 72
163 188 95
174 198 62
171 194 72
166 189 62
165 187 62
167 191 80
170 195 80
169 192 36
169 193 108
163 187 88
167 192 88
170 193 62
169 193 62
173 198 80
172 196 51
170 194 62
165 190 80
162 188 72
171 195 72
163 187 72
163 186 62
165 189 72
166 192 72
173 196 72
164 187 62
171 196 102
160 185 72
166 191 36
171 192 80
162 185 80
171 194 80
167 192 62
160 184 51
171 196 88
172 197 102
170 194 72
170 195 102
168 192 72
168 192 88
157 180 36
164 189 80
167 190 62
160 185 88
161 185 72
164 188 80
162 185 36
162 183 62
165 189 62
155 178 36
155 179 51
167 190 72
170 193 88
162 187 36
161 185 62
155 179 72
167 190 88
157 182 72
163 187 62
162 184 72
155 179 62
168 191 102
154 178 51
161 183 62
160 182 51
166 190 62
160 183 51
168 192 95
165 188 51
165 186 102
155 178 36
155 178 72
157 179 72
155 178 36
152 175 72
147 169 62
152 175 36
152 175 62
146 168 62
160 184 51
162 183 108
162 184 62
139 161 92
91 118 130
102 126 135
85 112 128
102 129 120
101 127 139
78 107 128
87 114 115
92 119 125
92 119 142
92 118 139
100 124 147
79 87 72
76 84 80
95 119 125
91 117 133
102 126 129
87 117 133
98 126 130
107 132 130
103 129 125
85 114 144
97 123 147
92 119 135
87 116 161
68 102 159
86 114 159
90 118 161
73 104 149
61 96 150
62 98 157
61 96 147
60 96 151
60 96 156
60 95 145
61 96 148
60 95 139
60 95 148
59 94 134
60 95 144
58 93 150
58 92 134
68 101 145
61 96 148
65 100 153
61 95 144
58 91 128
75 105 124
59 94 144
59 93 137
59 94 149
60 95 137
59 93 139
60 94 139
60 95 133
59 93 137
60 94 133
58 93 133
61 96 140
58 93 128
58 92 131
59 94 142
60 94 136
60 95 147
59 93 135
58 92 133
59 94 144
59 94 135
59 93 131
62 98 155
61 96 137
59 94 135
58 93 126
60 94 128
59 94 135
60 95 137
63 98 153
61 96 140
60 95 135
58 93 128
60 96 137
60 96 147
61 96 147
61 96 137
60 95 142
62 98 149
59 93 133
58 94 147
61 96 140
60 95 137
62 98 151
60 95 142
60 96 147
59 95 137
60 95 137
61 96 144
61 97 151
62 97 155
59 93 130
61 96 144
60 96 142
62 97 142
61 96 140
60 95 135
61 97 149
60 94 128
61 97 151
59 93 137
61 96 137
60 95 140
60 95 142
60 96 151
61 96 151
61 96 140
59 93 137
61 96 135
62 97 149
59 93 137
61 96 137
61 96 144
62 97 155
61 96 147
61 96 142
63 98 151
60 95 142
60 94 135
61 95 137
60 95 137
62 98 151
60 95 128
59 93 137
61 95 142
60 95 140
61 97 155
60 95 130
60 94 135
58 93 128
60 95 135
61 96 144
62 97 151
61 96 142
61 95 142
62 98 155
62 97 149
61 96 133
59 93 125
60 95 133
59 92 125
61 96 142
59 94 135
61 96 149
62 96 144
59 93 122
60 94 130
59 93 137
61 95 133
62 97 140
60 95 135
60 94 114
60 95 130
61 97 147
59 94 125
61 96 142
59 93 122
61 96 135
61 96 142
60 94 122
59 93 133
59 93 117
58 92 120
59 93 125
57 90 117
60 94 144
59 94 125
60 95 128
58 92 125
65 92 117
123 138 51
126 143 0
114 129 0
133 147 0
119 130 0
135 149 0
126 140 0
134 150 0
121 133 0
131 147 0
129 140 0
121 135 0
133 149 0
127 141 0
121 132 0
127 143 0
138 152 0
138 151 0
123 139 0
141 154 0
137 153 0
122 136 0
145 158 0
127 142 0
139 155 0
122 136 0
139 155 0
137 154 0
135 151 0
135 151 0
129 145 0
133 147 0
142 156 0
138 154 0
134 148 0
149 165 0
145 160 0
136 153 0
149 167 0
134 148 0
134 149 0
145 162 0
128 138 0
139 156 0
140 156 0
136 152 0
149 165 0
147 166 0
152 169 0
152 168 0
145 161 0
137 153 0
150 167 0
150 168 0
143 156 0
150 164 0
149 167 0
157 175 0
150 168 0
159 177 0
130 149 0
139 155 0
154 170 0
155 170 0
151 167 0
153 173 0
153 170 0
157 174 0
154 173 0
161 177 0
151 168 0
152 170 0
154 169 0
156 174 0
148 164 0
160 178 0
149 163 0
149 165 0
146 164 0
151 167 0
141 156 0
150 165 0
157 176 0
153 170 0
159 176 0
154 171 0
164 184 0
160 178 0
157 172 0
154 173 0
160 176 0
161 180 0
159 177 0
162 178 0
151 169 0
157 176 0
144 159 0
155 171 0
158 178 0
156 173 0
162 183 0
166 185 0
156 174 0
157 179 0
168 190 0
158 175 0
163 181 0
155 173 0
165 185 0
165 183 0
163 183 0
163 184 0
161 180 0
162 181 0
156 175 0
166 186 0
164 184 0
163 182 0
156 176 0
157 175 0
161 180 0
162 182 0
161 182 0
170 195 80
174 198 72
174 197 62
169 192 51
172 195 51
173 196 51
172 195 51
170 195 88
169 193 80
173 197 80
172 196 80
169 194 80
167 191 88
167 190 72
169 194 72
173 196 51
167 191 62
172 197 62
169 194 95
168 193 62
167 191 62
174 199 95
172 196 72
168 193 88
168 191 72
163 186 72
169 194 62
170 193 72
168 192 62
168 192 72
167 191 62
166 190 51
170 195 88
170 194 72
171 195 80
171 194 72
173 197 80
162 186 88
165 188 36
169 193 95
167 192 72
163 188 80
168 194 95
173 197 72
168 191 62
168 193 102
169 191 0
158 181 36
160 185 88
164 188 36
162 186 72
162 187 80
157 181 62
166 190 62
167 191 72
165 188 80
165 190 95
168 192 62
162 186 72
172 196 80
165 189 80
168 191 62
167 191 72
161 185 51
167 193 114
168 192 88
161 183 62
162 186 80
160 184 95
162 183 72
159 184 62
164 188 88
160 185 62
167 190 88
154 176 72
166 189 72
163 186 72
153 176 36
156 179 72
172 194 62
157 181 80
155 178 51
156 179 62
159 184 62
155 177 51
173 196 95
167 190 88
149 171 62
156 178 80
156 178 72
158 181 72
167 191 72
154 178 72
163 186 80
158 182 62
153 175 72
149 172 62
157 181 80
140 162 62
154 174 72
157 179 72
107 132 114
78 107 111
99 125 128
93 120 136
85 111 125
97 123 147
80 108 125
102 126 128
105 129 142
100 125 139
107 129 149
79 104 131
51 68 67
81 107 124
89 115 135
103 129 150
95 120 136
103 129 126
104 130 130
118 140 139
93 122 140
97 124 150
81 110 129
102 128 144
68 102 159
80 110 169
81 111 165
87 116 167
73 104 157
61 97 153
61 97 157
60 94 135
61 96 148
59 94 134
62 97 151
59 93 125
61 96 137
60 95 144
59 93 141
62 97 149
64 97 139
59 94 143
72 105 142
58 92 137
59 93 135
61 93 122
62 94 120
68 100 141
59 94 130
60 95 149
58 93 131
61 95 140
59 94 140
58 91 130
58 91 108
59 94 137
60 94 130
61 96 142
59 93 133
58 92 124
58 92 130
60 94 135
58 92 130
60 95 136
59 94 142
60 95 142
58 92 129
60 95 135
59 94 125
59 95 140
61 96 144
59 95 140
60 95 141
59 93 128
57 91 122
60 94 133
60 96 144
60 95 130
61 96 140
58 91 121
60 95 142
61 97 147
59 94 135
62 97 147
61 96 140
60 95 135
59 94 128
60 95 135
61 96 142
60 95 135
61 96 140
62 97 147
62 97 147
62 97 149
59 94 133
60 95 142
61 96 141
61 95 142
61 97 142
60 95 144
59 94 140
60 95 137
61 96 133
59 94 130
61 96 147
62 97 151
60 95 137
62 97 149
61 96 133
61 96 142
61 96 144
60 95 136
61 96 142
61 96 142
62 97 142
61 96 142
61 96 140
61 96 149
61 96 142
62 97 147
59 94 128
58 93 125
60 96 144
61 97 151
59 94 135
59 94 120
60 94 140
61 95 130
61 95 140
59 93 122
60 96 147
60 95 137
61 95 135
61 96 140
61 96 142
60 95 140
61 97 142
60 95 135
60 95 130
61 97 151
60 95 137
60 95 135
61 95 142
61 96 144
60 95 140
59 93 128
58 92 120
61 96 133
59 93 130
60 94 130
62 98 151
63 98 151
62 97 144
62 97 147
58 92 128
61 95 133
60 94 133
60 95 125
58 92 125
61 95 122
59 93 128
60 95 133
59 93 120
58 92 125
60 94 130
60 95 142
59 94 122
57 91 117
58 92 120
57 90 120
59 94 125
57 91 120
57 91 120
56 89 111
58 91 125
96 119 92
119 134 0
131 143 0
126 142 0
131 150 0
132 146 0
123 137 0
140 158 0
145 161 0
139 152 0
138 151 0
141 158 0
136 152 0
123 138 0
132 147 0
128 144 0
121 135 0
126 143 0
136 152 0
133 147 0
135 145 0
143 159 0
138 154 0
135 148 0
135 150 0
144 161 0
132 144 0
142 159 0
131 150 0
136 153 0
134 149 0
142 159 0
127 138 0
140 154 0
161 178 0
137 149 0
144 162 0
139 154 0
138 154 0
152 167 0
135 149 0
139 152 0
135 149 0
148 166 0
149 162 0
137 155 0
148 165 0
149 166 0
164 181 0
141 155 0
138 149 0
148 164 0
136 152 0
155 173 0
154 171 0
142 157 0
153 171 0
150 164 0
154 167 0
143 158 0
154 172 0
155 172 0
146 162 0
144 160 0
151 168 0
144 159 0
158 177 0
142 157 0
155 172 0
149 166 0
148 167 0
159 177 0
152 171 0
152 169 0
151 166 0
155 171 0
156 173 0
160 179 0
150 164 0
150 163 0
158 177 0
160 178 0
140 155 0
165 183 0
156 173 0
156 176 0
142 159 0
150 166 0
149 167 0
168 190 0
161 179 0
160 178 0
162 181 0
155 168 0
151 170 0
163 181 0
158 177 0
159 179 0
165 183 0
158 176 0
156 175 0
161 180 0
164 183 0
156 175 0
163 183 0
166 182 0
159 179 0
161 180 0
163 181 0
166 187 0
167 187 0
164 181 0
159 179 0
165 183 0
159 177 0
159 181 0
163 181 0
159 179 0
157 174 0
168 189 0
167 186 0
162 182 0
160 180 0
159 181 0
169 193 51
172 197 51
176 199 72
170 193 95
170 194 62
163 187 51
173 197 51
167 192 72
174 197 95
166 190 51
169 193 72
167 190 80
169 194 72
170 194 102
169 193 51
170 193 62
166 190 72
168 192 62
170 194 0
169 193 80
171 196 80
170 194 72
169 194 72
176 200 95
170 194 80
166 189 72
170 195 62
169 194 72
167 191 80
167 191 72
172 195 72
170 194 80
168 192 62
173 198 102
160 186 72
164 189 80
165 188 62
167 191 80
166 190 72
169 192 51
165 189 51
163 187 80
166 190 72
169 194 51
168 192 80
170 193 62
164 185 72
166 190 80
163 187 62
163 185 62
168 193 102
172 195 80
165 190 88
169 194 102
161 185 62
163 186 36
166 191 80
172 196 102
161 185 95
175 199 130
162 184 72
163 187 88
166 189 95
164 188 88
160 184 108
167 191 80
161 185 51
158 182 62
164 188 62
167 190 51
165 188 51
165 187 51
169 192 102
170 194 80
170 193 62
155 178 72
168 193 95
165 188 80
148 172 51
161 184 62
161 184 72
156 179 62
160 183 95
151 174 51
159 183 72
154 177 62
159 182 51
151 174 88
158 181 80
161 184 102
162 185 51
163 183 80
164 186 72
163 185 95
159 181 36
156 179 36
151 173 67
153 174 88
151 172 51
137 158 80
149 170 62
149 171 105
81 110 120
95 120 130
94 120 134
86 113 140
85 111 118
85 112 122
99 126 142
113 136 137
78 106 115
103 129 131
92 118 143
92 117 136
105 129 140
105 129 150
73 102 127
96 122 107
77 108 142
97 123 151
94 121 137
98 123 125
75 107 135
111 135 128
92 119 145
75 107 159
68 101 154
69 102 166
67 100 142
79 108 151
60 96 149
61 97 157
61 97 149
60 95 137
61 96 147
61 96 144
58 93 140
60 95 140
59 94 139
58 93 128
60 95 145
60 95 140
60 95 149
66 99 137
64 97 139
58 93 135
56 89 120
67 99 117
78 108 122
59 94 145
57 90 113
59 94 122
58 92 128
58 92 133
58 93 128
58 93 117
60 96 137
60 95 133
60 94 128
58 92 135
57 91 122
60 95 148
61 96 145
60 95 137
60 94 134
60 95 145
57 90 111
57 91 117
59 93 122
61 96 149
60 95 133
60 95 142
61 96 135
59 93 128
60 96 142
60 95 144
61 96 135
59 93 128
59 94 140
61 96 142
61 96 142
61 97 147
60 95 135
60 95 145
60 95 137
61 96 148
58 92 122
61 96 147
61 96 142
60 95 144
58 92 120
60 95 142
61 96 153
60 94 140
62 97 147
60 95 137
59 94 133
62 97 149
59 94 122
60 95 130
58 92 134
60 95 130
62 97 144
61 97 149
60 95 149
60 95 142
60 95 130
62 97 142
61 96 144
60 95 133
61 96 140
60 94 137
59 95 142
59 94 117
61 97 142
59 94 128
61 96 137
59 93 133
62 97 153
61 97 140
60 94 125
60 94 128
61 96 144
59 93 128
57 92 122
61 96 142
59 94 128
61 96 142
58 92 122
62 97 147
59 93 133
59 94 133
59 94 128
61 95 137
61 97 147
60 96 142
62 96 133
57 91 114
60 94 125
60 94 140
60 95 142
60 95 137
62 98 151
60 95 137
60 94 130
61 95 130
61 95 140
61 96 144
59 94 137
61 96 142
60 95 144
60 95 137
58 91 111
62 96 142
62 97 144
60 94 133
58 93 117
58 92 122
59 93 122
59 93 125
58 92 137
59 93 142
62 98 155
57 90 120
60 95 130
58 91 114
59 92 122
60 95 137
59 93 122
58 92 120
58 92 111
59 93 120
56 88 105
57 90 99
57 91 102
79 105 95
127 142 0
120 136 0
126 139 0
130 147 0
122 139 0
130 145 0
123 139 0
128 144 0
121 137 0
124 138 0
125 140 0
129 144 0
133 145 0
133 147 0
136 154 0
135 148 0
124 135 0
142 162 0
133 147 0
120 137 0
134 150 0
141 156 0
131 148 0
136 150 0
133 146 0
138 155 0
146 164 0
126 140 0
146 162 0
131 147 0
138 153 0
137 155 0
144 161 0
145 160 0
133 146 0
133 148 0
149 166 0
146 162 0
134 149 0
143 160 0
149 165 0
137 152 0
148 165 0
136 151 0
146 162 0
148 165 0
148 163 0
135 150 0
150 166 0
146 163 0
150 168 0
146 166 0
143 157 0
148 166 0
157 173 0
159 179 0
151 167 0
162 181 0
143 160 0
155 173 0
153 171 0
151 169 0
144 159 0
148 165 0
150 166 0
155 175 0
144 164 0
149 164 0
156 176 0
155 174 0
158 176 0
151 166 0
152 167 0
151 170 0
151 167 0
155 170 0
153 172 0
146 163 0
147 162 0
154 175 0
162 179 0
158 173 0
149 167 0
164 186 0
162 181 0
160 178 0
160 177 0
166 185 0
158 174 0
153 168 0
150 168 0
158 176 0
157 176 0
159 177 0
161 179 0
161 181 0
169 189 0
162 180 0
168 188 0
154 173 0
158 177 0
160 178 0
164 184 0
158 174 0
155 172 0
157 180 0
166 186 0
153 169 0
160 178 0
160 176 0
153 173 0
163 184 0
162 181 0
158 176 0
155 176 0
168 188 0
160 179 0
166 185 0
162 182 0
163 184 0
159 179 0
162 181 0
166 185 0
161 181 0
170 194 72
172 197 88
171 195 80
171 195 51
170 194 72
172 197 88
165 188 36
167 192 51
170 194 80
177 201 80
166 190 88
168 193 95
171 196 51
165 190 88
173 198 62
166 190 72
170 195 80
168 194 72
168 192 80
173 197 95
167 191 51
170 194 62
172 196 72
171 196 95
173 197 62
169 193 62
171 197 102
168 192 51
169 194 80
162 187 36
165 189 62
170 194 72
166 191 88
164 189 51
172 196 88
170 195 95
169 193 62
170 195 88
168 194 88
167 191 72
166 191 62
167 192 72
171 195 88
169 191 80
165 189 88
170 195 114
170 194 95
170 195 88
164 188 51
173 197 102
157 182 62
175 199 114
170 194 102
173 196 88
170 193 88
176 198 114
165 189 95
164 188 80
169 192 72
165 187 72
167 189 72
168 190 80
173 194 80
169 193 88
168 191 51
164 188 62
167 190 88
161 185 80
164 187 62
161 184 62
168 192 88
164 188 62
153 177 72
163 186 88
158 183 36
160 184 62
157 180 80
165 190 95
153 176 51
163 186 51
166 191 51
161 184 80
154 176 62
159 182 62
161 184 108
159 182 51
160 182 51
163 186 72
152 173 67
159 183 80
150 173 80
164 187 125
159 181 51
151 172 51
157 181 62
159 183 88
160 183 72
160 182 80
155 176 51
163 186 62
150 172 80
148 169 72
127 151 95
104 130 142
108 133 144
96 122 144
97 123 130
93 120 133
93 120 135
87 114 129
89 114 130
93 118 130
119 140 151
89 117 131
93 119 154
91 117 128
106 132 128
83 110 142
85 113 131
106 131 135
82 111 147
100 126 153
99 125 144
72 101 111
103 129 149
87 115 147
75 108 173
86 116 173
84 111 142
80 110 155
58 94 144
61 96 137
60 95 137
59 94 140
61 96 153
59 94 125
61 97 149
59 94 145
60 94 137
57 91 124
59 95 144
59 94 130
63 97 133
63 97 134
72 104 137
73 105 125
59 93 135
66 98 126
78 106 115
60 94 128
58 93 125
58 93 130
59 93 141
60 95 148
59 93 128
56 90 128
58 92 120
58 92 126
59 93 125
59 94 130
59 94 144
59 94 130
57 91 118
59 93 126
59 94 135
59 94 130
60 94 137
59 94 130
58 93 135
59 95 130
59 94 130
58 92 122
61 96 133
60 95 147
60 94 140
59 93 141
62 97 142
59 94 130
59 94 140
59 93 144
59 94 137
60 95 140
59 93 140
60 95 128
60 95 125
59 94 139
58 93 122
59 94 139
62 97 153
59 94 140
61 96 144
61 96 142
58 93 128
59 93 117
61 96 135
59 94 135
59 94 135
60 96 149
60 95 135
60 95 137
59 93 130
59 94 130
62 96 137
61 96 148
61 96 144
63 98 149
61 96 142
61 96 135
60 95 135
60 96 137
61 96 140
61 96 137
62 97 149
60 94 133
60 95 142
60 95 137
59 93 130
59 94 120
60 95 135
61 96 130
61 96 135
58 92 120
60 95 142
60 94 133
60 95 147
60 95 135
59 94 135
59 94 128
61 96 142
60 96 142
60 94 137
59 94 133
60 95 137
61 95 133
61 96 147
60 94 125
61 97 147
60 95 137
60 95 140
61 96 142
60 95 140
59 93 122
59 93 125
59 94 144
60 95 133
59 93 135
58 93 125
62 97 144
62 97 142
59 94 125
59 94 130
61 96 142
61 95 135
60 94 128
62 97 142
59 93 114
58 92 114
60 94 114
60 94 140
61 96 137
60 94 128
58 92 122
60 94 122
60 95 130
57 91 122
58 91 130
60 94 125
57 91 125
58 92 135
58 91 128
58 91 120
59 93 122
58 91 114
58 92 128
53 85 88
110 124 51
127 141 0
127 143 0
111 126 0
119 132 0
108 122 0
118 130 0
118 131 0
116 131 0
117 132 0
127 142 0
116 130 0
134 149 0
120 134 0
140 157 0
131 149 0
124 139 0
128 142 0
130 148 0
133 150 0
124 137 0
119 131 0
128 143 0
138 154 0
140 156 0
129 145 0
147 162 0
128 144 0
144 163 0
140 159 0
144 157 0
136 153 0
137 152 0
147 163 0
153 167 0
135 150 0
142 159 0
141 155 0
152 170 0
145 161 0
146 160 0
148 165 0
146 163 0
147 167 0
147 165 0
153 172 0
144 162 0
149 167 0
149 166 0
138 154 0
155 174 0
144 160 0
146 164 0
146 159 0
151 165 0
138 156 0
140 154 0
150 169 0
151 165 0
159 175 0
140 159 0
144 159 0
150 166 0
149 168 0
136 152 0
148 170 0
152 169 0
157 177 0
147 162 0
150 164 0
155 172 0
147 162 0
149 167 0
154 170 0
139 159 0
145 161 0
152 170 0
154 170 0
158 175 0
150 168 0
161 180 0
148 165 0
160 179 0
148 165 0
154 174 0
158 174 0
146 163 0
148 164 0
159 178 0
164 183 0
157 177 0
158 177 0
160 177 0
157 176 0
156 174 0
153 172 0
153 170 0
158 176 0
163 179 0
157 175 0
152 170 0
160 179 0
159 178 0
151 170 0
159 179 0
160 178 0
161 183 0
162 181 0
161 179 0
160 180 0
160 179 0
162 181 0
164 184 0
164 184 0
165 184 0
157 177 0
164 185 0
160 181 0
166 185 0
164 185 0
167 186 0
157 177 0
164 182 0
163 184 0
161 182 0
170 193 36
172 196 80
173 198 95
173 196 72
165 188 72
174 198 88
173 197 95
171 194 62
172 196 72
172 196 62
168 193 72
171 196 72
167 190 51
174 198 80
170 194 88
174 198 80
162 187 95
175 199 72
171 195 72
167 190 36
170 194 80
169 193 62
172 196 72
171 195 62
167 191 62
175 200 95
171 194 36
170 195 62
168 193 80
167 191 51
173 196 51
174 199 95
170 193 72
168 193 88
171 198 114
167 191 95
167 190 62
173 196 80
171 195 95
172 195 51
171 195 88
164 188 51
162 186 88
171 194 95
162 185 62
166 188 51
166 189 80
166 189 72
167 191 80
162 186 95
173 197 102
155 179 36
177 202 114
163 188 72
167 190 88
161 185 95
167 191 72
161 184 72
166 189 72
171 195 72
172 195 80
165 188 88
167 190 102
159 181 72
167 190 108
161 184 80
170 194 114
165 188 51
163 186 88
166 190 62
170 193 108
173 195 102
162 186 72
161 184 62
158 182 80
170 193 80
166 188 72
161 184 72
150 172 62
161 184 72
168 191 51
167 191 95
159 182 62
163 187 95
167 190 80
161 182 62
154 177 95
145 166 51
156 179 88
159 182 62
155 177 88
150 172 36
147 169 72
151 173 62
162 185 72
154 175 51
140 162 62
155 177 88
158 179 80
155 177 88
145 167 88
145 167 62
150 170 67
97 121 125
88 114 99
107 128 147
105 130 135
87 113 115
86 113 136
79 107 110
107 131 149
93 120 128
89 115 121
93 118 128
101 125 129
113 137 152
91 117 125
101 125 111
110 134 148
100 125 145
93 120 130
100 125 138
101 126 128
88 115 129
106 132 148
82 111 140
71 103 148
60 95 144
80 110 155
86 114 159
67 100 155
61 96 142
59 94 144
60 95 142
62 98 157
61 96 150
59 94 133
63 98 159
61 96 158
61 96 137
63 97 140
61 95 150
61 94 129
62 95 133
67 98 134
67 100 128
60 93 121
58 92 131
60 92 128
71 102 125
56 89 126
58 93 118
60 95 143
60 95 144
58 92 128
57 91 124
58 92 129
60 94 120
61 96 147
58 92 139
59 93 125
59 92 137
60 95 137
59 93 134
60 95 135
59 93 136
58 93 125
59 94 130
60 94 122
59 95 147
58 93 130
61 96 147
61 96 140
59 94 142
59 94 142
61 96 144
56 90 120
61 96 142
62 96 140
59 94 142
59 93 135
60 94 125
58 92 117
58 92 118
60 96 151
60 95 125
61 96 142
61 96 144
60 95 140
60 95 140
59 94 140
62 96 144
61 95 137
59 94 133
61 96 135
63 99 161
61 96 135
60 95 128
59 94 135
59 94 140
60 95 137
61 96 144
60 95 135
59 93 125
61 96 147
59 93 133
59 93 128
60 96 140
64 99 159
62 96 133
61 96 140
60 95 133
61 96 151
60 95 137
58 93 120
60 95 133
59 93 122
60 95 135
60 95 133
59 94 120
61 96 140
59 93 130
59 95 133
60 94 133
59 94 130
62 97 149
60 95 130
61 96 137
58 93 133
60 95 140
60 95 140
60 95 137
58 93 114
60 94 137
61 96 144
59 94 137
61 96 142
60 95 130
59 94 130
60 95 135
62 97 147
61 95 144
61 96 135
60 95 130
61 96 142
60 95 144
59 94 135
60 94 137
61 96 137
60 94 140
62 97 144
59 93 111
60 95 133
60 94 135
59 93 111
58 92 125
59 93 133
60 95 137
59 93 114
60 94 122
60 94 120
59 93 125
59 93 117
56 89 120
60 94 114
59 93 122
57 90 95
57 91 105
57 91 111
56 89 95
58 92 117
56 89 111
55 88 99
62 94 122
106 125 67
145 161 0
127 138 0
135 150 0
127 141 0
133 146 0
126 139 0
114 131 0
149 165 0
124 138 0
126 143 0
129 144 0
130 145 0
121 138 0
132 147 0
128 145 0
140 155 0
129 148 0
134 149 0
135 149 0
138 155 0
132 149 0
126 138 0
134 150 0
137 156 0
132 150 0
139 155 0
143 159 0
147 165 0
139 154 0
134 149 0
134 148 0
148 165 0
135 149 0
132 145 0
144 159 0
146 160 0
142 158 0
128 144 0
142 157 0
150 167 0
143 159 0
139 157 0
143 159 0
140 156 0
143 160 0
153 168 0
140 155 0
139 155 0
141 159 0
143 158 0
138 155 0
151 169 0
136 149 0
141 157 0
154 173 0
135 149 0
150 166 0
145 163 0
148 165 0
147 162 0
153 171 0
150 166 0
159 176 0
153 168 0
154 173 0
144 165 0
158 175 0
150 167 0
149 168 0
148 164 0
153 172 0
157 175 0
146 162 0
147 163 0
145 161 0
153 171 0
147 162 0
153 171 0
149 166 0
151 169 0
155 172 0
158 177 0
158 177 0
163 181 0
154 170 0
160 179 0
156 172 0
156 177 0
160 180 0
155 175 0
151 169 0
159 178 0
160 180 0
155 174 0
152 173 0
163 182 0
159 178 0
160 178 0
160 176 0
158 178 0
155 173 0
163 183 0
156 175 0
156 175 0
148 167 0
156 174 0
163 181 0
157 175 0
164 182 0
160 179 0
152 169 0
167 186 0
165 184 0
154 174 0
158 176 0
162 183 0
165 186 0
170 189 0
164 184 0
163 183 0
159 177 0
162 182 0
166 187 0
165 186 0
157 180 0
165 188 36
172 196 102
163 187 51
170 193 62
169 192 80
173 198 80
174 197 36
168 193 72
175 197 80
169 194 36
171 195 51
170 195 114
170 194 88
173 196 72
170 193 72
168 193 72
163 188 62
173 199 88
167 192 80
170 195 62
175 200 102
165 191 80
166 189 62
163 187 72
169 194 72
170 195 88
168 194 62
167 190 88
166 192 62
165 189 62
169 195 95
172 197 95
170 193 88
174 198 62
172 195 88
165 187 102
167 190 62
172 197 95
175 200 114
167 191 62
169 193 88
176 199 80
173 195 95
169 193 72
166 190 80
172 195 102
171 196 102
171 194 72
166 189 51
176 199 95
175 198 80
169 194 88
166 189 62
171 194 114
167 190 80
172 196 72
166 189 95
171 194 62
162 185 36
165 187 102
171 193 88
166 190 80
166 188 102
167 192 88
161 185 102
164 186 80
171 195 95
161 185 62
161 185 62
162 187 95
170 192 88
166 190 88
157 181 62
170 193 114
165 188 51
161 184 102
166 189 95
156 178 80
160 183 88
163 186 51
154 175 80
166 190 88
160 181 51
160 182 62
159 182 102
162 184 80
156 178 0
159 182 62
152 174 51
154 175 80
161 183 62
156 179 72
154 178 72
159 181 80
151 172 62
152 173 62
146 167 36
156 179 62
164 186 72
156 178 62
141 162 62
154 176 62
168 190 88
122 145 67
94 120 120
89 115 125
88 115 114
94 118 136
84 109 111
85 112 130
99 125 142
87 114 126
86 111 128
93 119 146
88 114 114
88 115 137
83 111 145
93 119 105
88 114 125
82 110 135
86 113 117
93 121 128
85 113 142
106 131 155
95 121 141
89 117 137
93 121 140
73 105 155
92 119 171
75 107 159
60 94 140
69 102 151
62 97 144
60 95 144
65 100 147
62 97 152
61 96 152
60 95 142
60 96 144
59 94 142
59 93 149
59 93 135
57 91 125
69 101 125
62 95 121
65 98 129
76 105 114
60 94 134
63 96 114
103 129 128
58 92 128
57 91 122
60 95 145
59 93 124
60 95 133
62 96 142
58 91 126
59 93 136
57 91 125
57 90 124
61 96 141
58 91 122
60 95 137
59 93 133
61 96 147
57 91 133
60 95 139
58 93 130
58 92 125
58 92 135
59 94 131
61 96 142
61 96 150
59 93 135
60 95 142
60 94 137
59 94 135
59 94 128
59 94 144
59 94 133
59 94 142
63 98 151
60 96 144
60 95 140
59 94 137
59 94 130
61 96 135
61 97 142
60 95 133
59 94 135
62 96 140
62 97 153
61 96 137
59 94 134
62 98 155
60 96 147
60 95 133
59 93 125
61 96 140
60 95 130
58 93 125
59 94 128
61 96 142
58 93 128
60 94 137
60 95 142
60 94 135
60 95 137
60 94 133
59 94 140
61 96 147
61 96 137
62 98 153
61 97 147
61 96 135
63 98 155
61 96 137
60 95 130
62 97 147
59 94 140
62 97 144
61 96 144
57 92 133
62 98 144
60 94 137
60 94 128
60 94 130
57 91 105
58 92 135
63 98 149
61 95 140
60 94 130
60 95 130
60 95 135
61 95 147
59 93 120
61 96 140
60 95 130
60 95 140
59 94 140
60 94 128
61 95 142
60 95 144
61 96 140
59 93 128
60 94 128
60 95 140
60 94 137
61 96 140
59 93 135
61 96 135
60 95 135
59 93 125
60 95 137
57 91 105
59 94 135
58 92 114
61 96 130
60 94 128
56 89 105
59 94 130
59 93 128
56 89 117
61 96 144
58 92 122
56 90 122
58 91 117
57 91 117
59 93 114
58 92 122
59 92 128
59 92 125
57 90 120
89 110 88
128 144 0
120 137 0
114 129 0
122 137 0
106 118 0
123 138 0
128 144 0
130 144 0
121 136 0
118 135 0
129 148 0
113 129 0
131 146 0
129 147 0
136 153 0
141 157 0
129 142 0
117 132 0
134 147 0
135 153 0
134 152 0
140 153 0
137 150 0
131 146 0
143 157 0
134 146 0
153 172 0
144 161 0
133 148 0
143 160 0
122 139 0
130 143 0
135 148 0
137 153 0
145 159 0
141 156 0
146 161 0
152 169 0
143 161 0
141 157 0
136 153 0
141 159 0
144 159 0
149 167 0
136 152 0
148 164 0
147 162 0
135 152 0
127 145 0
140 151 0
136 155 0
145 160 0
145 162 0
148 164 0
132 148 0
149 167 0
150 167 0
145 159 0
148 166 0
144 160 0
146 164 0
143 161 0
150 165 0
150 170 0
136 153 0
149 166 0
152 171 0
155 176 0
150 167 0
148 163 0
145 162 0
155 170 0
153 171 0
159 182 0
154 171 0
160 179 0
153 173 0
163 183 0
160 179 0
157 174 0
157 173 0
155 174 0
160 179 0
149 164 0
164 184 0
151 168 0
159 176 0
158 174 0
155 174 0
156 175 0
156 171 0
153 172 0
156 175 0
152 170 0
151 169 0
160 177 0
156 176 0
158 175 0
160 179 0
157 174 0
164 180 0
158 177 0
160 181 0
169 190 0
157 179 0
161 180 0
163 182 0
154 173 0
158 179 0
159 177 0
162 181 0
164 184 0
160 177 0
166 187 0
153 172 0
162 178 0
161 179 0
166 187 0
167 189 0
165 186 0
166 186 0
166 186 0
148 165 0
168 187 0
162 181 0
168 187 0
173 197 95
172 196 80
170 194 88
170 193 80
169 193 72
172 197 88
169 193 72
173 198 114
170 194 102
169 194 95
173 197 62
172 196 72
174 199 102
172 197 88
167 192 88
171 194 51
172 194 36
174 197 51
168 192 72
170 194 72
168 192 62
168 192 51
165 189 51
171 196 88
166 191 62
172 196 80
166 189 0
175 199 72
172 196 95
170 194 72
165 191 80
168 192 80
177 201 88
168 191 88
174 197 80
166 190 80
165 188 51
175 199 88
171 194 80
172 195 72
160 185 80
169 193 72
174 196 80
166 189 80
172 196 102
163 189 88
175 198 80
170 193 102
165 188 95
169 191 108
170 193 88
166 189 72
166 189 36
167 190 95
171 194 72
170 193 95
171 195 125
176 200 130
174 197 125
167 189 88
165 188 80
160 182 88
168 191 88
167 190 102
164 186 80
171 194 102
162 186 72
165 188 95
167 189 102
171 193 108
169 192 95
163 186 108
164 186 88
170 193 88
169 192 114
162 184 88
165 189 120
164 187 102
162 185 88
152 174 95
169 193 80
161 182 95
160 184 72
159 183 51
167 190 80
160 183 72
165 188 80
156 180 80
148 168 51
153 175 95
152 175 80
159 181 80
163 185 72
152 174 72
147 169 95
154 176 62
150 171 62
149 171 51
145 165 62
153 174 62
157 180 95
161 184 80
155 176 51
148 169 102
120 142 140
91 117 130
86 112 120
108 133 145
84 110 120
113 136 140
94 118 125
116 139 137
101 126 126
98 123 143
99 124 129
102 127 144
104 128 145
98 123 136
91 118 117
85 112 130
100 125 135
85 113 108
75 104 144
113 138 137
91 117 134
93 119 120
86 114 151
62 98 161
69 103 155
74 104 150
81 110 149
80 109 155
67 99 142
58 93 130
59 94 141
61 96 147
61 96 151
60 95 144
60 95 137
60 95 151
59 93 135
56 90 120
58 92 135
63 97 137
63 95 124
60 96 142
73 103 122
66 98 129
68 100 125
99 125 126
59 93 128
58 92 131
57 90 124
57 90 125
60 95 142
56 90 124
57 90 117
60 94 135
57 91 125
59 94 129
59 94 128
60 94 129
59 93 130
58 91 117
59 94 128
60 95 133
58 93 120
59 94 140
59 93 122
61 96 140
60 95 140
60 95 140
60 95 140
59 94 133
58 92 124
61 96 147
61 95 144
59 93 133
59 94 144
60 95 139
61 96 140
59 93 128
59 93 129
60 95 142
58 93 133
60 95 125
59 94 137
60 95 142
59 93 130
62 97 151
61 96 133
58 93 139
60 95 130
59 94 137
61 96 135
58 92 131
61 96 153
59 93 130
60 95 135
59 93 130
59 94 140
61 96 147
61 96 140
59 93 122
59 94 137
61 96 140
57 91 108
60 95 130
60 95 135
60 95 142
61 96 144
61 96 144
61 96 147
61 95 142
60 95 128
58 92 128
61 95 130
60 95 140
60 94 128
59 94 125
59 93 125
60 95 128
62 98 157
62 98 144
60 95 135
61 95 144
62 96 140
60 94 137
61 96 140
60 94 137
62 97 147
59 94 128
59 93 133
60 95 137
61 96 147
60 96 144
59 93 117
60 94 128
60 95 130
59 93 120
59 93 125
61 96 140
59 93 125
59 94 130
59 93 111
60 95 130
60 95 140
61 95 133
59 92 128
58 92 122
59 94 120
57 90 117
59 93 120
59 93 128
60 95 130
59 93 117
60 94 137
61 96 144
60 95 125
56 89 108
60 95 140
56 89 122
59 94 130
55 88 120
57 90 102
60 94 133
57 91 117
56 89 99
60 94 128
58 91 117
59 92 120
56 89 108
63 92 80
113 131 44
119 133 0
134 149 0
127 144 0
114 130 0
123 140 0
114 125 0
140 156 0
140 158 0
116 132 0
147 166 0
117 131 0
128 144 0
128 143 0
121 137 0
125 138 0
130 143 0
142 155 0
137 156 0
109 125 0
127 142 0
132 150 0
141 160 0
137 152 0
139 157 0
146 164 0
135 154 0
145 163 0
128 142 0
130 144 0
135 151 0
129 142 0
137 155 0
150 167 0
145 163 0
132 150 0
139 151 0
147 163 0
143 160 0
141 157 0
147 164 0
140 155 0
145 160 0
148 164 0
146 163 0
148 165 0
157 178 0
137 155 0
144 160 0
149 167 0
146 165 0
139 159 0
143 159 0
137 156 0
151 169 0
146 163 0
154 172 0
151 168 0
152 170 0
147 165 0
150 165 0
148 163 0
144 160 0
148 160 0
147 164 0
155 175 0
152 171 0
153 173 0
141 158 0
150 166 0
157 175 0
152 168 0
147 167 0
158 175 0
154 173 0
147 164 0
140 152 0
157 177 0
153 171 0
153 169 0
147 163 0
151 168 0
162 181 0
155 175 0
157 177 0
163 184 0
159 178 0
163 182 0
148 167 0
158 174 0
155 173 0
156 175 0
161 181 0
157 176 0
162 182 0
160 181 0
163 180 0
153 170 0
159 175 0
160 179 0
161 179 0
157 175 0
156 174 0
160 179 0
159 179 0
166 187 0
155 176 0
158 176 0
161 179 0
159 181 0
161 180 0
171 191 0
158 177 0
154 171 0
155 178 0
163 183 0
161 182 0
165 182 0
162 180 0
157 176 0
161 182 0
167 186 0
156 177 0
161 182 0
163 181 0
173 192 0
164 185 0
175 199 80
170 195 88
173 196 36
171 196 120
166 191 62
171 195 72
167 191 62
171 195 72
169 193 62
171 195 62
173 198 108
162 186 80
170 195 80
170 194 51
169 195 72
169 194 36
167 192 72
164 189 62
165 191 95
171 195 72
168 194 72
168 192 80
170 194 72
167 191 36
172 196 72
169 194 72
170 193 51
168 190 88
174 196 80
166 191 80
173 197 102
167 191 80
169 193 80
171 193 88
166 190 72
172 196 102
171 194 80
174 196 62
168 191 88
169 193 80
169 192 72
172 194 114
173 196 95
166 189 108
169 192 88
170 194 62
162 185 102
171 195 80
171 194 102
170 193 114
176 199 108
168 192 88
173 196 108
168 191 114
169 194 95
169 193 80
170 192 95
172 195 88
170 190 102
173 196 108
172 196 102
169 192 80
164 187 102
177 198 95
155 179 88
176 198 114
169 193 88
163 185 108
168 191 120
166 189 102
166 190 120
157 180 88
162 185 88
164 186 62
169 192 72
158 180 95
159 183 88
172 195 80
162 185 88
156 179 51
155 178 88
165 187 108
157 180 80
159 183 80
161 183 80
165 188 72
166 189 88
163 185 72
165 188 72
154 176 95
157 179 62
156 178 62
156 177 72
158 180 62
156 178 102
154 177 62
154 176 88
152 174 62
163 185 88
150 170 62
138 158 72
146 168 80
146 168 51
154 175 80
128 149 74
81 107 100
105 129 118
94 119 117
101 125 137
95 121 133
85 112 108
69 99 120
93 118 140
104 128 122
92 117 130
108 131 137
103 127 135
108 133 149
102 126 133
75 104 133
102 127 128
97 122 108
100 125 122
90 118 150
94 120 128
103 129 153
81 111 133
108 131 159
75 107 167
68 101 149
75 106 163
76 107 164
86 114 157
59 93 135
60 94 142
62 97 153
61 97 147
59 94 137
60 95 144
59 94 130
58 92 136
60 95 145
58 92 130
66 97 114
64 98 141
68 100 136
67 100 130
63 96 137
64 98 140
92 119 124
72 103 137
55 88 102
57 91 113
59 93 142
59 93 134
60 94 124
56 90 115
58 93 117
61 96 142
59 94 125
60 94 128
57 90 121
59 93 135
59 93 122
60 94 135
59 93 128
58 93 128
59 93 147
58 93 126
59 94 117
59 93 128
60 94 141
61 96 144
60 95 135
60 94 135
59 94 137
58 93 120
62 97 157
57 91 122
59 93 134
60 94 130
61 96 142
60 94 145
58 93 128
60 95 142
60 95 128
61 95 142
61 96 142
59 94 137
59 93 122
60 95 140
62 97 149
59 93 128
61 96 144
59 93 122
59 94 140
58 92 125
60 95 133
61 97 149
61 95 125
60 95 130
61 96 140
60 95 135
61 97 140
59 94 137
59 94 122
60 94 140
59 93 140
61 96 140
60 95 137
60 95 142
60 94 125
61 95 135
57 91 120
61 96 144
59 93 128
60 95 120
60 95 137
61 96 140
61 96 137
60 95 140
60 95 137
60 94 128
60 94 133
57 91 117
59 94 130
62 98 149
59 93 128
60 95 135
60 95 142
62 97 144
59 93 120
60 95 137
61 96 137
59 93 122
61 95 144
59 94 125
59 93 125
61 95 144
63 98 157
58 92 125
60 95 151
61 96 140
62 97 142
58 92 120
61 96 137
58 92 122
60 95 135
60 94 128
59 93 128
60 95 137
61 95 133
60 95 135
61 95 135
60 95 128
61 95 125
60 95 122
57 91 122
58 92 117
61 95 135
60 95 140
59 94 114
57 90 117
59 93 128
62 97 149
59 93 135
57 90 108
59 93 125
56 89 117
56 89 114
56 88 111
62 91 99
110 125 25
116 133 0
111 124 0
122 139 0
121 135 0
132 149 0
138 151 0
134 150 0
125 142 0
122 138 0
127 141 0
134 152 0
144 161 0
132 148 0
138 154 0
132 148 0
131 149 0
132 147 0
139 156 0
119 136 0
121 135 0
137 152 0
132 151 0
143 160 0
140 156 0
132 148 0
140 158 0
125 143 0
135 151 0
135 151 0
139 155 0
150 166 0
131 146 0
140 156 0
142 157 0
132 149 0
132 151 0
135 150 0
146 164 0
146 164 0
133 150 0
137 152 0
140 156 0
136 152 0
151 168 0
136 150 0
143 161 0
141 160 0
148 165 0
146 163 0
142 159 0
145 159 0
132 150 0
153 171 0
149 166 0
143 161 0
147 164 0
135 152 0
139 155 0
147 161 0
146 164 0
151 167 0
141 157 0
140 157 0
150 169 0
143 158 0
145 162 0
156 172 0
151 167 0
151 167 0
146 166 0
156 176 0
149 167 0
159 176 0
153 172 0
162 181 0
164 183 0
155 171 0
149 166 0
158 177 0
148 167 0
139 156 0
150 165 0
144 163 0
163 180 0
151 171 0
159 176 0
161 178 0
165 184 0
152 170 0
150 168 0
164 182 0
156 177 0
157 173 0
158 178 0
157 177 0
156 173 0
167 185 0
159 180 0
159 179 0
159 179 0
159 179 0
154 172 0
160 180 0
154 171 0
164 184 0
166 183 0
161 182 0
159 178 0
158 178 0
161 179 0
154 176 0
159 177 0
160 177 0
163 185 0
160 178 0
155 174 0
161 181 0
166 184 0
166 186 0
162 182 0
165 185 0
158 178 0
167 187 0
164 183 0
169 190 0
161 181 0
168 187 0
175 199 72
166 190 62
173 197 72
172 196 80
171 195 62
171 195 51
175 199 62
166 190 51
169 194 80
172 197 80
171 195 80
170 195 51
171 197 80
166 190 80
169 194 72
172 196 88
169 193 72
168 193 36
169 194 51
170 194 95
175 199 62
167 193 62
171 195 108
169 193 36
168 192 62
169 191 62
178 202 102
168 193 95
171 196 72
174 197 95
165 191 95
168 193 108
169 193 72
164 189 102
170 195 80
167 191 114
176 200 114
168 191 72
167 193 114
175 199 120
174 196 130
167 190 95
165 188 102
176 198 102
173 196 108
170 192 51
171 194 95
167 189 114
176 199 108
173 197 135
175 199 102
172 196 102
169 193 114
163 188 95
170 192 88
164 187 114
168 189 88
173 195 108
160 183 51
161 183 62
159 183 80
167 190 62
165 186 80
169 193 102
171 193 114
168 189 95
162 184 108
177 200 135
175 197 120
171 195 108
175 197 102
169 191 135
161 183 72
161 183 80
165 188 80
158 182 88
172 195 88
168 191 95
164 187 95
164 186 102
163 185 72
162 185 80
166 189 95
153 175 88
167 191 108
154 177 88
166 189 95
154 177 62
148 171 62
147 168 51
162 185 80
165 189 88
166 189 72
148 170 62
142 163 44
160 182 51
166 190 80
151 172 80
156 178 80
147 168 36
151 172 62
148 169 51
163 184 95
147 167 36
157 178 102
110 130 99
80 108 133
73 102 133
94 117 122
91 117 113
80 108 120
101 127 142
102 126 130
84 110 125
88 115 145
83 111 131
107 130 133
106 130 148
101 127 139
96 123 137
97 122 114
75 105 137
105 131 120
100 126 137
101 128 120
84 112 143
107 132 147
97 123 148
80 110 161
75 106 147
69 102 161
70 103 159
75 106 155
65 99 149
60 95 135
61 97 147
59 94 131
60 95 140
60 95 136
61 95 141
60 96 137
61 96 130
61 95 140
60 95 144
68 101 131
56 89 122
59 93 135
62 94 117
57 90 115
79 108 125
63 95 117
59 93 118
56 89 102
59 94 140
59 93 135
56 90 111
56 90 124
59 94 128
57 90 130
56 89 115
57 91 114
59 93 137
59 92 126
58 92 121
57 91 125
61 96 149
59 93 133
60 96 137
58 93 120
59 94 136
59 94 133
59 94 125
60 95 140
60 95 135
59 93 133
60 95 137
59 93 135
59 93 125
59 94 135
58 92 114
60 95 137
59 93 133
60 95 133
59 94 128
60 95 144
60 95 133
59 93 130
58 92 117
59 94 130
60 95 137
62 97 147
60 94 141
61 96 147
60 95 133
57 91 122
58 93 130
60 94 125
60 95 133
59 93 133
60 94 142
60 94 128
58 93 122
60 94 122
60 95 130
60 94 137
59 93 117
61 96 137
59 94 130
58 93 140
59 94 130
60 95 128
59 94 140
60 95 133
61 96 144
59 93 117
61 96 133
59 93 128
60 94 125
61 96 144
59 94 135
59 94 130
61 95 125
60 95 142
59 93 128
59 93 128
60 95 137
61 96 142
60 95 142
61 96 144
58 93 120
59 93 133
61 95 140
60 94 130
59 93 130
61 96 142
59 94 133
62 97 149
61 96 147
57 91 108
58 93 120
59 94 120
60 95 130
58 91 114
60 94 133
57 91 125
59 93 122
57 91 120
61 95 137
58 92 125
59 93 130
58 92 120
60 94 135
60 95 137
57 91 122
61 97 155
61 96 133
60 94 122
57 91 111
59 93 120
59 93 117
59 93 117
58 91 117
57 91 111
59 92 125
56 90 108
60 94 122
57 91 111
58 91 117
58 91 108
56 89 92
57 90 114
112 129 36
117 134 0
122 134 0
122 139 0
128 144 0
118 133 0
136 152 0
126 142 0
121 135 0
127 144 0
127 141 0
116 131 0
118 135 0
133 152 0
120 137 0
140 156 0
118 133 0
124 140 0
144 159 0
132 147 0
127 141 0
139 157 0
130 146 0
134 150 0
122 137 0
119 133 0
136 150 0
137 154 0
145 159 0
141 158 0
141 156 0
143 161 0
137 152 0
141 159 0
144 161 0
142 160 0
138 154 0
132 149 0
144 159 0
150 168 0
139 155 0
136 153 0
138 155 0
152 167 0
147 162 0
130 146 0
142 156 0
139 153 0
146 163 0
144 162 0
133 149 0
145 163 0
149 168 0
127 145 0
146 163 0
142 160 0
152 170 0
143 159 0
152 170 0
152 169 0
139 158 0
142 161 0
147 164 0
153 171 0
155 174 0
145 162 0
146 162 0
149 166 0
155 174 0
155 173 0
159 180 0
152 171 0
150 167 0
147 164 0
152 171 0
156 173 0
147 164 0
160 179 0
146 165 0
159 178 0
145 166 0
149 167 0
152 170 0
155 176 0
151 170 0
155 175 0
156 172 0
159 178 0
156 175 0
162 178 0
157 175 0
151 166 0
161 182 0
155 174 0
157 176 0
155 171 0
158 179 0
158 175 0
159 180 0
157 178 0
165 187 0
157 178 0
163 181 0
156 176 0
164 185 0
164 182 0
150 167 0
149 165 0
161 181 0
159 178 0
162 183 0
157 176 0
161 181 0
164 181 0
165 186 0
161 179 0
164 184 0
160 180 0
159 178 0
164 185 0
161 181 0
161 181 0
164 184 0
163 182 0
165 183 0
161 181 0
155 175 0
168 189 0
162 182 0
170 193 62
173 198 80
171 196 72
171 195 80
171 195 62
170 195 80
170 196 88
170 194 72
169 194 80
174 197 62
171 195 72
167 191 51
174 199 95
168 193 62
173 196 72
170 193 72
168 192 72
170 193 80
174 199 88
170 196 102
175 197 36
169 195 108
162 187 62
168 191 88
172 193 88
172 195 72
170 194 72
169 193 72
174 198 114
166 191 80
168 193 88
171 194 80
170 195 102
173 196 114
170 193 95
163 187 72
165 189 80
174 196 95
170 195 108
173 196 120
169 193 95
175 199 80
169 193 102
171 195 108
169 192 62
178 200 102
170 193 108
171 195 114
171 195 72
173 196 125
169 190 80
166 189 80
166 190 80
160 184 88
163 185 80
170 193 114
167 192 108
172 194 95
168 192 62
170 193 88
157 179 88
159 180 88
155 177 51
168 191 80
169 193 102
161 184 80
166 188 72
167 190 95
165 188 62
168 191 95
161 183 80
167 188 120
183 204 114
159 182 88
162 185 114
165 188 108
160 182 120
168 191 102
157 179 80
167 190 80
158 180 102
159 181 62
173 195 108
159 182 80
159 183 62
167 189 88
165 187 111
169 189 108
159 181 62
159 180 88
145 168 72
155 179 62
162 185 95
158 181 72
145 165 76
152 173 72
152 175 72
147 170 80
156 179 88
148 169 51
152 173 88
148 170 80
153 174 72
145 167 72
149 169 95
148 168 92
101 126 128
83 110 114
96 122 128
104 127 118
80 107 118
103 127 137
103 126 133
82 108 125
85 111 125
79 107 117
98 123 122
108 132 144
111 134 139
103 126 136
108 132 120
95 121 135
118 141 128
86 114 129
100 126 136
97 123 135
105 130 137
84 113 145
73 103 152
61 96 153
73 104 140
68 101 149
77 107 147
69 103 153
59 94 142
61 97 142
59 93 133
61 96 150
58 92 133
60 95 144
60 95 135
59 93 131
61 94 128
63 97 128
69 101 135
62 95 121
61 94 120
63 96 117
60 95 135
66 98 130
93 119 105
58 91 115
60 95 140
59 94 125
56 89 121
61 96 140
58 93 133
58 92 134
57 91 111
58 92 122
59 93 130
58 92 124
59 93 122
57 91 124
58 93 125
59 94 133
59 93 130
60 95 133
59 95 130
59 94 120
59 94 140
59 94 129
61 96 144
59 93 137
61 96 137
60 95 140
60 95 145
60 95 130
60 95 137
60 94 128
60 95 135
59 94 128
59 94 135
59 93 125
61 96 137
59 94 135
59 93 133
61 96 137
59 94 117
60 94 137
61 96 137
59 93 130
58 91 125
59 93 135
59 93 130
61 96 140
61 96 149
59 94 128
58 93 140
61 96 142
61 97 142
61 96 140
58 92 122
59 93 128
61 96 149
59 95 130
60 95 135
60 95 140
59 94 130
60 94 128
59 94 128
60 95 135
61 95 135
60 95 137
62 97 142
59 94 133
59 94 135
63 98 157
60 95 125
58 93 125
61 96 140
61 97 147
61 95 142
60 95 128
59 94 128
61 96 144
60 95 135
60 95 128
58 93 122
58 91 128
59 94 128
60 94 128
59 93 135
60 95 142
60 95 142
57 90 111
62 97 144
61 96 137
59 94 125
60 94 128
59 93 128
59 93 128
61 96 135
61 95 125
60 94 125
60 95 140
59 93 128
59 94 137
59 93 117
57 90 122
58 92 120
61 95 137
57 90 114
60 96 137
61 96 135
59 93 125
61 96 140
58 93 117
57 90 122
57 90 111
58 91 125
60 94 130
59 93 117
60 93 125
59 94 117
58 91 117
56 89 111
56 90 102
56 89 102
55 88 99
125 138 36
129 146 0
121 136 0
111 129 0
129 142 0
131 149 0
131 146 0
120 135 0
125 141 0
125 141 0
123 141 0
137 154 0
117 132 0
134 150 0
119 135 0
136 154 0
125 144 0
140 155 0
132 149 0
121 136 0
120 135 0
127 144 0
134 149 0
134 150 0
130 145 0
138 154 0
137 151 0
133 147 0
141 157 0
137 154 0
145 162 0
143 158 0
134 148 0
143 161 0
133 150 0
135 150 0
145 161 0
140 156 0
138 155 0
136 151 0
139 155 0
133 148 0
137 156 0
152 170 0
152 172 0
146 164 0
142 158 0
145 163 0
142 160 0
132 149 0
144 160 0
135 151 0
143 159 0
142 160 0
150 168 0
149 168 0
142 159 0
163 181 0
148 165 0
145 164 0
151 171 0
156 175 0
155 173 0
163 182 0
154 172 0
153 172 0
151 166 0
146 166 0
154 171 0
154 172 0
146 163 0
157 174 0
152 170 0
160 180 0
157 177 0
153 173 0
159 177 0
145 162 0
155 172 0
152 171 0
161 180 0
147 166 0
156 173 0
161 179 0
161 181 0
164 183 0
156 177 0
158 178 0
151 169 0
159 177 0
151 170 0
155 174 0
140 157 0
155 173 0
147 166 0
159 179 0
156 175 0
160 179 0
159 180 0
158 177 0
152 172 0
157 176 0
161 182 0
153 170 0
166 186 0
162 181 0
165 183 0
159 176 0
165 183 0
157 174 0
164 180 0
158 175 0
163 181 0
163 185 0
159 179 0
164 185 0
161 182 0
159 178 0
163 184 0
163 182 0
168 189 0
160 178 0
163 183 0
158 180 0
164 186 0
160 180 0
167 188 0
165 188 0
165 186 0
157 176 0
171 195 88
174 197 88
174 198 102
170 194 72
169 192 72
173 197 80
169 194 88
175 198 62
173 196 36
175 198 72
170 194 62
172 196 102
172 197 51
170 194 62
170 194 88
167 192 72
171 195 80
168 193 88
166 191 72
175 200 80
169 192 72
173 197 95
172 195 80
174 199 95
178 200 88
171 193 95
170 195 88
168 191 62
168 192 72
173 196 95
172 195 51
185 207 144
175 197 114
169 192 108
170 193 95
174 197 114
168 191 102
168 190 80
171 195 108
173 196 80
181 202 95
166 189 72
171 196 88
167 191 80
176 198 95
173 197 108
175 198 114
170 193 102
167 190 88
176 199 120
156 180 95
170 194 102
170 194 125
167 191 102
170 193 95
174 195 95
166 190 51
162 185 72
165 188 95
171 193 95
162 186 62
170 193 88
164 189 108
163 185 102
169 192 108
168 190 88
171 193 102
178 198 108
167 190 95
165 189 88
176 198 120
168 189 114
165 186 108
174 195 130
166 190 80
162 186 95
159 182 88
163 185 80
168 189 72
144 165 62
160 183 88
157 180 72
157 181 51
151 174 88
155 177 80
157 179 80
160 182 88
157 179 88
156 177 80
154 176 51
164 185 88
159 180 72
154 175 80
157 179 51
160 182 88
153 176 95
155 177 62
153 175 80
142 164 51
155 175 72
155 177 51
148 169 80
141 160 51
144 165 51
164 186 114
152 173 51
116 138 80
107 131 120
92 117 108
89 115 122
97 122 111
91 117 131
100 122 126
87 114 108
94 121 154
76 106 122
100 125 142
84 111 115
87 114 125
120 143 147
83 109 99
86 112 129
76 104 110
91 117 118
102 126 133
96 121 125
87 114 141
76 106 124
103 130 167
68 101 151
80 109 159
81 110 147
68 101 149
87 116 125
60 95 130
58 93 140
61 95 144
59 93 128
59 94 130
60 94 135
59 93 135
63 97 140
59 94 137
58 92 130
66 99 122
71 102 133
59 93 137
58 93 125
63 95 130
57 91 125
95 120 86
57 92 120
59 93 114
55 88 117
56 88 103
59 93 136
59 93 133
55 88 114
59 93 120
58 93 134
56 90 111
59 93 133
58 92 122
57 91 128
57 91 129
62 97 140
59 94 122
59 93 133
59 93 125
61 96 130
59 93 133
58 93 125
58 92 122
57 90 125
59 94 133
58 93 125
61 95 140
60 94 122
59 94 137
61 95 137
61 96 142
60 95 142
57 91 126
60 95 128
59 94 133
59 94 133
59 94 140
61 96 130
58 93 125
60 95 130
59 94 130
60 94 122
59 93 130
60 95 145
62 97 147
60 95 128
58 93 122
59 93 122
59 93 130
61 96 150
61 96 143
60 95 133
58 93 117
59 94 122
59 93 135
60 95 130
58 91 122
59 94 133
59 94 125
61 95 137
59 93 137
58 92 130
62 97 142
61 96 144
59 93 130
59 94 137
60 94 128
60 95 137
60 95 133
59 94 133
59 94 128
61 96 135
58 92 128
59 94 125
59 94 120
59 94 137
60 95 133
60 95 128
61 96 140
60 94 130
59 94 130
60 95 133
59 94 133
59 94 128
58 93 114
60 94 137
59 93 125
58 92 125
60 94 133
60 95 130
60 95 125
60 95 137
61 96 142
58 92 130
59 93 117
61 95 130
62 97 140
58 92 122
59 94 133
57 90 111
60 94 133
58 93 130
61 95 130
58 92 120
61 96 135
60 94 130
59 93 130
57 91 117
59 93 120
59 94 120
59 93 117
58 93 128
58 92 114
61 95 130
57 90 111
57 90 120
56 88 114
51 82 76
54 86 99
91 114 76
116 130 0
106 121 0
121 136 0
122 137 0
133 149 0
120 137 0
120 136 0
119 135 0
128 143 0
138 154 0
131 146 0
134 151 0
131 145 0
129 147 0
129 144 0
119 135 0
138 155 0
139 157 0
136 153 0
118 133 0
130 147 0
133 150 0
131 147 0
127 143 0
127 143 0
137 154 0
132 147 0
123 139 0
122 135 0
136 152 0
136 152 0
146 165 0
139 160 0
135 152 0
140 157 0
141 160 0
140 157 0
131 146 0
135 156 0
144 161 0
139 156 0
149 169 0
138 159 0
146 164 0
146 165 0
144 163 0
150 169 0
146 165 0
145 161 0
140 152 0
143 160 0
157 179 0
149 163 0
145 161 0
144 164 0
150 165 0
145 159 0
153 173 0
143 161 0
144 163 0
142 158 0
155 173 0
149 165 0
149 166 0
153 170 0
147 164 0
157 176 0
153 170 0
163 181 0
148 167 0
157 175 0
153 172 0
153 170 0
151 172 0
158 179 0
157 175 0
155 174 0
157 174 0
151 170 0
151 166 0
161 181 0
161 179 0
145 163 0
152 169 0
153 172 0
156 174 0
154 171 0
152 170 0
165 183 0
163 182 0
162 181 0
162 182 0
162 181 0
149 168 0
160 178 0
158 178 0
166 186 0
158 180 0
159 182 0
157 177 0
155 176 0
160 180 0
160 179 0
154 171 0
162 181 0
166 186 0
157 179 0
162 182 0
158 177 0
160 180 0
155 176 0
160 178 0
158 177 0
161 180 0
164 183 0
157 178 0
157 177 0
163 183 0
155 175 0
163 182 0
163 182 0
163 182 0
158 175 0
168 190 0
157 178 0
169 190 0
162 182 0
173 194 0
165 187 0
167 184 0
169 193 62
170 195 80
170 193 51
171 194 62
177 200 88
172 197 102
168 192 72
163 187 62
171 194 51
164 189 51
169 194 88
173 197 72
169 193 62
165 188 72
174 198 88
170 194 72
172 196 62
168 193 80
172 197 88
173 196 72
171 196 114
164 188 102
177 202 114
170 194 80
169 192 62
171 195 72
179 202 130
171 194 62
173 196 95
174 197 88
171 195 102
175 199 95
167 190 80
172 195 102
169 191 95
173 196 88
169 193 95
163 187 62
170 194 88
168 190 95
173 196 88
166 191 135
173 198 114
174 197 102
171 194 88
172 194 114
163 187 80
175 199 130
168 191 72
169 193 102
175 198 114
162 185 95
168 191 88
173 197 88
170 193 88
166 188 102
173 196 125
164 189 114
168 192 102
168 191 80
161 184 95
162 186 108
169 193 95
172 196 114
172 194 72
161 183 88
163 187 102
175 199 120
170 192 102
165 187 108
160 182 95
168 191 88
164 187 108
174 197 88
168 189 114
159 182 95
162 183 95
163 185 135
164 186 95
163 186 95
161 182 62
170 192 120
169 192 102
160 182 102
158 181 80
168 190 95
147 169 88
152 176 88
160 182 114
152 174 80
161 183 95
158 178 102
151 172 72
163 186 80
159 181 102
156 176 51
166 188 102
156 178 72
149 169 62
154 175 88
140 159 51
154 176 72
152 173 80
154 173 80
152 172 108
147 168 62
135 155 88
99 123 84
98 122 128
102 127 147
73 101 111
85 111 114
93 118 114
97 123 137
107 131 133
117 138 144
83 111 118
105 128 142
106 129 149
114 137 149
88 114 134
93 120 144
93 119 130
94 120 121
92 118 133
104 130 133
105 130 154
103 128 137
87 115 142
68 101 155
79 108 158
68 101 157
68 100 152
64 98 140
77 108 135
60 95 140
61 96 144
58 93 125
58 93 131
59 94 137
59 94 131
64 96 126
56 90 108
63 96 114
71 102 137
61 94 114
70 101 115
58 92 125
60 94 134
57 91 120
99 125 108
66 97 118
59 92 131
54 86 90
56 90 117
59 93 133
58 92 114
57 91 125
60 95 133
59 93 118
61 96 135
59 93 133
58 91 129
59 93 114
58 92 120
58 92 122
59 93 125
60 95 137
59 93 125
60 94 130
59 93 135
60 95 125
58 93 122
59 93 122
59 93 140
60 96 142
58 93 125
59 93 128
58 92 130
61 96 142
59 93 130
61 96 144
60 96 142
59 93 139
60 94 134
59 93 133
60 94 142
59 94 135
59 93 122
61 96 151
60 94 133
60 95 130
59 93 122
59 93 142
60 95 128
61 95 148
58 92 118
60 95 137
61 96 137
62 97 142
60 95 144
60 94 135
59 94 130
60 94 133
58 92 128
58 92 125
60 94 133
60 95 135
60 94 125
60 94 133
60 95 140
59 94 128
60 95 133
59 93 125
60 94 122
60 94 128
59 93 125
59 93 133
61 95 142
58 93 125
60 95 128
60 94 128
60 94 135
61 96 151
59 93 125
60 95 128
59 93 111
60 95 133
59 93 122
61 96 133
58 93 130
62 97 142
59 93 128
60 94 135
58 93 133
58 92 125
57 91 125
57 91 117
59 93 122
60 94 128
61 96 142
60 95 140
60 95 135
60 94 133
61 96 137
59 93 122
58 92 117
58 91 128
60 95 137
59 94 125
57 91 108
60 94 125
59 92 125
61 95 133
60 94 117
59 94 130
59 94 125
60 94 114
60 95 135
59 92 122
57 90 114
58 91 125
59 92 120
58 92 117
56 88 108
58 92 122
59 93 128
56 89 114
106 127 76
118 135 0
115 128 0
113 129 0
127 141 0
116 130 0
120 137 0
124 141 0
125 141 0
120 135 0
118 135 0
115 131 0
125 140 0
115 132 0
127 143 0
139 158 0
131 150 0
121 138 0
130 146 0
135 150 0
114 128 0
120 135 0
123 140 0
141 159 0
140 157 0
145 164 0
131 149 0
135 154 0
138 152 0
130 145 0
135 153 0
128 142 0
139 157 0
140 157 0
139 155 0
133 152 0
150 169 0
152 171 0
148 163 0
135 153 0
137 154 0
140 159 0
145 164 0
148 165 0
138 156 0
154 175 0
136 155 0
139 154 0
139 155 0
138 157 0
140 155 0
147 164 0
144 161 0
146 164 0
139 156 0
147 162 0
145 162 0
159 177 0
145 162 0
139 155 0
148 165 0
146 163 0
145 163 0
150 167 0
156 175 0
149 167 0
154 171 0
160 182 0
141 156 0
143 161 0
152 170 0
150 166 0
148 167 0
148 165 0
144 160 0
156 173 0
149 169 0
146 166 0
151 169 0
158 175 0
143 159 0
156 173 0
156 175 0
156 174 0
158 177 0
153 169 0
142 161 0
152 171 0
164 183 0
156 174 0
155 174 0
152 172 0
163 185 0
156 179 0
162 182 0
158 175 0
161 180 0
157 175 0
156 175 0
161 181 0
166 189 0
155 174 0
157 176 0
158 180 0
154 173 0
160 179 0
156 175 0
159 180 0
158 180 0
154 172 0
164 184 0
164 187 0
162 180 0
166 186 0
160 178 0
159 175 0
163 180 0
159 177 0
156 175 0
160 180 0
162 184 0
161 182 0
163 179 0
156 175 0
156 176 0
156 175 0
161 182 0
163 183 0
161 180 0
156 174 0
164 185 0
165 184 0
170 194 62
167 190 80
171 195 88
168 192 51
173 196 62
173 196 62
171 195 36
164 188 51
164 186 80
166 191 62
172 197 62
164 187 80
171 196 72
173 196 88
166 191 62
173 197 88
176 199 102
168 192 62
170 194 102
168 193 80
166 192 88
169 194 72
174 198 88
174 197 95
174 196 114
173 196 114
176 199 120
175 197 114
164 187 62
172 195 102
174 197 80
176 199 102
171 195 62
177 200 102
170 195 88
167 191 72
166 190 72
172 195 120
176 198 114
177 200 108
171 195 102
171 195 80
172 194 80
172 196 114
176 199 88
164 186 108
175 199 88
166 188 62
160 184 80
173 195 108
170 193 88
166 189 95
171 195 95
165 188 36
178 201 135
174 197 80
170 193 80
167 191 108
171 193 102
160 183 108
168 191 88
166 189 102
165 187 102
177 201 102
162 184 95
164 186 88
161 183 114
156 180 80
165 189 95
168 191 95
165 188 102
161 184 72
166 188 114
162 186 80
173 194 102
164 187 80
163 186 102
164 186 108
170 191 72
164 186 95
156 180 88
161 184 108
167 189 114
159 180 108
165 189 102
164 186 95
163 185 62
148 170 72
159 183 72
154 177 88
156 179 80
164 186 95
157 179 72
141 163 88
138 160 62
163 185 88
154 176 80
156 179 72
146 168 62
145 167 62
139 160 62
157 179 80
151 171 95
145 166 80
154 174 95
138 158 51
149 171 62
120 140 62
95 119 105
96 121 113
78 104 113
114 136 133
104 128 133
77 105 108
95 119 124
103 126 133
109 133 148
89 114 120
112 134 142
90 114 126
89 115 128
102 126 118
101 126 122
89 115 108
86 113 130
83 110 126
103 129 135
78 107 121
90 118 140
76 108 167
67 100 148
67 100 137
75 105 151
75 106 130
73 105 142
60 95 140
61 97 147
60 95 140
60 94 130
60 95 135
59 94 125
61 96 149
59 93 114
61 94 134
66 99 129
61 94 130
67 100 117
59 90 103
63 97 133
65 96 108
96 121 99
87 114 120
57 90 128
57 91 120
60 95 142
56 89 108
57 91 118
58 92 126
57 91 124
59 93 128
56 90 124
59 93 128
59 92 108
59 93 137
59 93 128
59 94 133
58 92 125
59 93 128
59 93 125
59 93 126
59 94 140
59 94 111
61 96 140
58 92 114
60 94 135
60 95 140
59 94 125
60 95 142
58 93 122
59 94 128
59 93 122
60 95 133
60 94 148
60 95 144
60 95 140
60 95 140
60 94 130
59 93 130
61 95 144
61 96 137
61 96 137
58 93 117
59 93 122
60 95 147
59 93 125
62 97 137
60 95 135
59 93 131
59 93 120
59 94 135
58 92 111
59 93 130
60 95 130
58 92 130
59 94 130
60 94 142
59 94 133
61 96 144
59 94 120
59 93 133
60 95 142
58 92 120
60 94 128
61 96 149
61 96 142
60 95 128
60 95 130
58 92 122
59 94 135
60 93 133
61 96 144
60 94 130
60 94 137
58 92 128
59 94 135
61 96 147
59 93 120
59 92 125
60 94 130
59 93 122
59 94 125
58 93 135
59 94 120
59 93 135
59 94 135
59 93 117
59 94 120
59 93 122
59 92 117
59 93 122
57 91 128
61 95 130
60 94 122
60 94 140
59 93 125
59 93 135
58 92 122
59 93 120
58 92 122
59 92 117
62 97 147
59 93 130
61 95 133
58 92 122
59 93 125
59 93 133
57 91 114
58 91 125
58 91 125
58 92 114
58 92 128
57 91 114
60 94 128
58 92 114
56 89 111
59 93 117
56 88 105
87 108 67
108 123 0
120 136 0
121 135 0
110 125 0
107 121 0
127 144 0
133 150 0
119 133 0
107 123 0
122 138 0
130 146 0
130 144 0
125 140 0
131 150 0
126 145 0
130 145 0
132 148 0
136 153 0
145 160 0
131 148 0
125 143 0
133 148 0
117 134 0
143 163 0
130 147 0
139 156 0
154 173 0
133 150 0
130 146 0
130 148 0
139 158 0
142 161 0
131 150 0
139 157 0
136 152 0
138 155 0
122 136 0
135 152 0
136 153 0
139 158 0
143 162 0
151 172 0
138 154 0
144 160 0
148 167 0
145 163 0
140 159 0
146 165 0
139 156 0
144 163 0
138 152 0
139 156 0
140 158 0
147 166 0
152 170 0
138 157 0
148 166 0
155 172 0
157 176 0
149 168 0
141 160 0
148 165 0
153 173 0
158 175 0
145 158 0
147 166 0
156 173 0
150 170 0
153 171 0
150 168 0
157 175 0
150 167 0
154 173 0
152 169 0
156 176 0
155 174 0
156 175 0
156 175 0
152 171 0
157 177 0
158 176 0
155 172 0
149 169 0
156 177 0
162 179 0
163 184 0
151 167 0
157 173 0
139 155 0
161 180 0
151 172 0
156 175 0
160 179 0
159 177 0
158 175 0
158 178 0
161 181 0
154 170 0
172 193 0
169 188 0
164 185 0
161 181 0
161 179 0
161 181 0
163 182 0
166 187 0
166 184 0
161 179 0
168 189 0
161 184 0
159 181 0
163 183 0
154 174 0
161 180 0
164 186 0
157 176 0
155 173 0
158 179 0
162 184 0
164 186 0
169 187 0
156 175 0
159 180 0
165 186 0
164 185 0
167 189 0
167 187 0
168 188 0
161 181 0
166 187 0
162 182 0
161 182 0
168 192 62
170 195 95
171 194 62
170 195 95
176 200 95
172 196 88
172 197 80
170 194 88
163 187 62
174 197 108
167 191 36
172 197 88
167 191 36
171 195 95
170 194 95
171 194 62
171 195 80
173 198 102
164 188 108
175 197 62
173 197 102
172 195 95
172 196 72
169 192 102
180 202 102
170 192 120
178 202 125
172 195 95
175 198 108
164 187 88
166 189 51
178 201 120
173 197 88
169 193 80
166 190 114
169 193 108
177 201 130
171 194 102
179 202 114
168 190 72
167 189 108
172 196 108
174 197 102
172 196 108
161 185 88
176 199 108
171 196 108
176 200 120
166 188 95
167 191 102
163 187 72
167 190 51
172 196 102
162 184 102
163 186 72
167 189 88
161 183 72
173 195 108
173 195 102
165 188 95
168 191 108
169 192 88
171 193 108
167 189 108
165 187 95
159 182 95
167 190 120
159 183 102
165 189 80
168 190 125
154 175 72
163 186 120
167 188 108
156 178 95
173 196 114
165 186 88
162 184 72
169 192 108
165 188 108
170 192 102
162 184 108
166 187 114
173 196 120
163 185 102
167 189 120
164 185 102
172 194 120
136 158 36
145 167 62
153 175 114
155 178 51
163 185 102
153 174 88
145 168 80
160 181 120
159 179 72
150 170 72
136 156 51
153 176 72
150 172 62
156 179 62
149 171 51
148 170 102
152 173 102
140 160 62
157 178 72
142 162 62
141 161 62
101 123 99
106 129 144
79 106 108
97 122 99
91 116 128
87 112 122
83 109 121
98 123 108
87 111 117
94 120 133
97 122 122
109 131 157
91 115 137
101 125 142
86 114 144
81 109 145
101 127 135
94 121 133
102 127 130
86 113 125
82 110 125
71 103 144
75 105 149
80 108 140
76 107 153
73 105 142
76 108 144
76 107 125
60 94 125
60 96 140
61 96 147
60 94 144
60 96 137
60 95 142
59 93 128
58 93 142
62 96 122
63 96 122
60 92 114
64 96 120
57 90 120
59 90 80
86 112 117
97 121 88
57 91 118
55 87 107
58 93 128
57 90 113
56 90 107
57 90 108
59 93 125
57 91 118
58 91 118
57 90 121
59 94 131
59 93 126
59 94 120
59 92 122
57 91 114
59 93 128
61 95 140
58 92 133
57 91 117
60 94 128
58 92 122
59 92 117
59 93 137
60 94 134
60 95 140
61 95 137
58 93 124
60 95 133
58 92 122
60 95 142
60 94 130
59 94 140
58 92 111
58 93 133
60 94 133
59 94 130
59 93 130
59 93 128
59 94 122
59 94 137
61 96 144
59 93 120
61 96 142
57 91 114
59 93 128
59 94 133
61 96 140
58 92 125
59 94 135
59 94 122
61 95 144
59 94 130
60 94 128
61 95 133
58 92 117
60 94 130
59 94 135
60 95 137
62 97 144
60 95 122
58 92 122
59 94 125
59 93 128
59 93 130
61 97 147
60 95 137
62 97 149
58 91 122
59 93 117
60 94 122
59 93 120
57 91 111
61 96 137
59 94 111
61 97 147
59 94 128
59 93 122
59 93 125
60 94 125
59 94 128
60 94 130
60 95 133
60 94 133
59 93 122
59 93 120
60 94 137
59 94 140
58 92 117
58 91 117
58 91 108
59 94 130
58 92 120
58 92 122
59 94 142
58 92 120
58 92 130
60 94 130
59 93 130
59 93 128
59 94 130
58 92 120
57 90 117
57 91 117
59 93 128
59 93 125
58 92 117
59 93 125
57 90 108
55 87 95
60 94 137
59 92 120
55 87 105
57 90 102
54 85 92
90 114 76
119 134 0
118 135 0
110 127 0
101 117 0
115 130 0
111 126 0
126 141 0
109 126 0
126 142 0
116 132 0
129 145 0
138 152 0
127 146 0
125 138 0
122 139 0
125 137 0
132 148 0
120 137 0
125 143 0
127 143 0
133 149 0
144 162 0
139 157 0
129 148 0
122 140 0
140 158 0
127 147 0
138 156 0
132 149 0
138 154 0
139 158 0
131 149 0
122 139 0
128 145 0
141 162 0
142 161 0
145 162 0
144 161 0
127 143 0
145 162 0
146 162 0
135 150 0
146 163 0
151 170 0
148 165 0
154 171 0
142 162 0
137 157 0
158 176 0
149 164 0
143 161 0
157 177 0
143 159 0
159 178 0
154 170 0
149 168 0
140 160 0
147 167 0
153 169 0
148 166 0
152 172 0
151 168 0
139 158 0
150 168 0
151 168 0
155 174 0
150 168 0
156 176 0
160 178 0
154 172 0
159 180 0
146 163 0
155 173 0
155 173 0
151 169 0
153 176 0
153 170 0
157 177 0
151 170 0
147 165 0
158 180 0
155 172 0
152 172 0
150 167 0
156 174 0
157 175 0
163 180 0
158 178 0
151 170 0
163 183 0
154 175 0
159 174 0
153 173 0
151 169 0
160 179 0
164 186 0
150 171 0
151 169 0
158 178 0
164 185 0
155 175 0
158 176 0
157 179 0
154 173 0
155 172 0
161 182 0
162 181 0
161 180 0
157 176 0
166 185 0
163 183 0
156 176 0
158 178 0
155 173 0
159 177 0
166 188 0
168 191 0
164 184 0
165 184 0
162 182 0
160 179 0
164 185 0
165 186 0
159 181 0
167 189 0
161 180 0
159 179 0
162 184 0
164 184 0
163 182 0
164 184 0
166 186 0
168 188 0
171 196 36
166 189 80
174 197 95
164 188 72
177 201 95
166 191 62
175 199 51
175 199 95
174 198 72
174 196 51
171 196 80
171 194 95
173 197 102
169 193 72
170 193 62
167 191 95
172 196 72
165 189 80
165 188 102
178 202 120
179 202 108
172 196 62
170 194 72
169 193 88
170 195 114
170 193 88
173 196 88
178 200 130
173 196 95
170 192 95
166 190 80
172 196 95
174 197 102
176 199 114
167 189 102
172 196 88
168 192 80
168 192 114
163 187 102
166 191 120
164 187 102
166 190 102
171 194 108
174 198 95
170 193 95
170 193 88
165 189 95
165 188 95
155 178 80
169 191 102
167 191 120
171 193 88
177 199 95
171 193 80
165 190 62
161 184 72
168 194 80
164 188 95
160 182 72
173 197 102
162 185 80
165 188 88
164 186 80
160 180 72
165 187 114
166 189 95
164 188 102
159 183 36
154 178 95
162 184 99
167 189 102
158 181 88
163 186 88
161 184 72
169 191 80
180 202 135
159 183 114
155 178 102
166 189 102
166 189 95
167 190 88
156 178 102
160 184 114
164 184 95
170 191 108
158 180 95
164 186 95
162 184 88
155 178 51
164 184 120
158 181 51
148 170 88
150 172 62
159 180 72
159 181 80
158 179 72
155 177 80
149 171 62
140 162 88
150 170 51
141 163 62
162 184 125
156 178 95
144 166 80
136 156 72
144 165 72
132 151 36
148 168 88
152 172 72
94 118 108
88 112 114
84 110 113
101 125 120
91 116 117
77 104 107
88 114 111
87 114 137
102 127 130
102 127 147
103 127 131
77 104 128
104 128 126
96 121 130
93 121 136
82 111 133
89 116 117
86 113 125
84 111 128
92 119 126
86 113 137
81 111 159
75 106 155
65 100 142
72 104 125
71 103 144
71 104 137
59 94 140
60 95 137
57 91 130
59 94 135
59 93 133
60 95 144
60 94 130
57 91 122
58 92 111
66 97 126
61 94 122
70 101 120
72 104 137
66 96 108
80 107 84
106 131 88
61 95 140
56 90 125
58 92 120
55 88 107
59 94 133
58 91 128
57 91 117
58 91 115
58 91 122
59 93 122
58 91 117
57 90 120
60 94 130
58 93 135
59 93 114
60 94 128
58 93 136
58 91 135
61 95 111
58 92 122
60 94 128
59 94 122
57 91 117
57 92 121
60 94 133
59 94 125
60 95 133
60 95 133
60 95 135
60 94 140
58 92 124
60 94 128
60 95 137
59 93 124
58 93 111
61 96 140
59 94 149
58 92 120
57 90 117
60 95 130
60 94 135
59 94 133
59 94 130
61 96 147
60 95 137
58 92 128
58 93 117
58 92 130
60 94 128
62 96 147
60 95 141
60 95 135
58 92 122
62 97 149
60 95 137
60 94 130
60 94 128
59 93 128
58 93 120
61 96 140
59 93 130
60 94 140
59 94 130
60 95 133
58 91 114
59 94 128
59 94 128
59 93 128
58 92 108
60 94 130
60 94 120
58 91 114
60 95 128
60 95 135
59 93 114
60 95 142
59 93 128
61 95 137
59 93 133
59 94 122
60 94 125
59 93 122
59 94 135
59 94 122
59 93 128
60 94 128
60 94 135
59 94 125
58 92 137
59 94 130
59 93 120
58 92 125
57 91 120
60 95 125
56 90 120
59 94 125
60 95 125
60 94 128
59 94 128
61 96 140
59 93 122
58 91 122
57 90 92
56 89 114
58 92 105
58 92 117
54 88 88
57 90 108
58 92 120
57 90 105
55 87 99
57 90 114
58 91 114
96 117 80
113 133 0
117 133 0
118 135 0
126 141 0
128 142 0
119 137 0
117 135 0
118 137 0
128 145 0
117 134 0
128 145 0
136 153 0
135 151 0
138 156 0
120 138 0
129 145 0
130 147 0
144 161 0
122 137 0
138 154 0
133 152 0
130 145 0
127 142 0
120 136 0
135 149 0
117 132 0
150 170 0
133 151 0
117 134 0
131 146 0
151 169 0
135 153 0
138 156 0
139 156 0
131 150 0
140 158 0
129 146 0
139 156 0
138 156 0
140 161 0
140 157 0
152 171 0
141 160 0
142 158 0
140 158 0
141 159 0
149 169 0
149 169 0
143 160 0
150 168 0
141 162 0
151 170 0
141 160 0
135 154 0
151 171 0
143 161 0
157 177 0
151 169 0
147 166 0
155 173 0
148 165 0
152 171 0
146 162 0
144 160 0
149 167 0
150 170 0
149 167 0
149 168 0
159 178 0
150 172 0
157 174 0
152 170 0
145 165 0
146 161 0
147 165 0
144 162 0
150 166 0
153 172 0
147 166 0
156 174 0
153 175 0
153 176 0
155 173 0
152 171 0
161 181 0
146 166 0
156 175 0
161 180 0
158 176 0
151 169 0
157 176 0
147 162 0
159 178 0
153 173 0
154 172 0
158 175 0
161 181 0
160 181 0
156 172 0
160 181 0
162 182 0
162 181 0
157 178 0
158 176 0
155 174 0
162 180 0
156 175 0
151 170 0
165 187 0
167 188 0
159 180 0
160 181 0
155 174 0
155 176 0
166 187 0
170 190 0
165 182 0
159 182 0
160 182 0
163 183 0
161 179 0
161 179 0
163 181 0
165 185 0
162 184 0
162 182 0
157 174 0
165 186 0
161 182 0
163 185 0
153 171 0
159 179 0
161 180 0
154 169 0
173 198 88
172 196 88
168 192 51
170 194 51
167 190 62
166 190 62
173 198 80
171 195 62
170 194 72
166 189 72
166 191 88
164 190 72
173 195 72
173 197 95
169 193 80
174 197 114
173 197 80
182 204 102
171 193 95
175 198 102
175 198 114
175 198 108
168 191 80
172 195 114
165 188 88
168 191 80
177 199 102
176 199 95
168 192 88
174 198 108
172 195 102
163 186 108
177 199 114
173 197 88
176 200 135
169 193 102
172 194 88
173 196 95
174 197 95
177 199 108
180 203 120
162 186 72
172 196 88
167 190 51
165 190 80
164 188 88
174 199 95
170 194 88
171 194 80
167 189 108
172 196 62
169 192 108
167 191 95
161 185 72
168 192 114
168 189 102
167 190 80
158 180 88
170 193 80
171 194 108
166 190 88
166 189 102
167 189 133
165 187 80
168 190 102
158 180 72
160 182 88
165 187 95
170 192 102
167 188 102
167 189 88
174 198 108
168 190 114
172 194 108
160 183 88
164 186 95
161 183 80
159 181 80
156 178 95
161 183 108
163 184 125
158 181 108
154 175 108
160 181 95
154 175 95
166 189 108
168 190 102
163 184 102
162 183 102
141 163 51
163 183 102
143 165 80
154 175 88
167 188 114
169 192 102
150 171 88
154 174 102
144 163 72
148 169 80
153 174 36
149 171 72
152 174 62
150 170 72
149 170 80
138 158 72
144 165 62
154 175 51
147 169 72
143 162 72
135 157 67
99 122 125
86 111 117
92 118 117
102 123 108
86 113 111
91 117 122
110 133 122
96 121 118
98 122 149
97 122 137
94 118 121
109 133 120
84 111 105
97 123 118
87 113 97
90 115 120
100 125 105
91 117 105
83 110 120
91 119 130
86 114 159
80 109 151
71 103 137
68 101 137
84 114 135
76 106 140
79 109 141
60 94 133
61 95 137
59 93 137
63 96 129
60 94 135
57 91 120
58 92 122
63 96 114
60 93 122
57 91 120
64 97 113
56 88 105
61 93 111
77 102 80
109 133 72
63 95 125
59 92 117
57 91 115
55 87 102
59 93 133
57 91 120
59 93 120
60 95 130
60 95 133
58 92 121
58 92 117
57 91 111
59 94 125
59 92 117
58 91 122
58 92 128
60 95 137
61 96 142
55 88 102
59 93 111
61 96 141
60 94 139
60 95 142
58 92 124
61 95 144
61 96 130
58 92 102
61 96 140
57 90 125
58 93 125
60 95 140
59 93 114
59 93 130
59 93 130
60 94 135
58 92 128
59 93 130
60 94 128
58 92 120
59 93 133
60 94 135
58 92 111
60 94 130
58 92 125
57 91 131
59 94 133
60 95 140
61 95 137
59 93 122
60 94 133
60 94 125
58 93 125
58 92 122
59 93 125
61 96 142
57 92 122
59 93 129
60 94 137
60 94 128
61 95 144
56 90 111
59 93 133
59 94 140
60 94 125
59 93 135
60 95 125
62 97 137
60 94 125
59 92 120
60 94 128
61 96 140
57 91 125
59 94 128
58 92 137
59 94 133
61 95 140
58 92 125
61 96 137
59 93 133
59 94 117
60 94 117
57 91 114
56 90 117
58 91 111
60 94 125
58 91 122
58 92 108
59 93 117
57 91 111
62 97 147
59 93 111
59 93 111
59 93 130
60 95 135
58 92 108
59 93 120
61 95 128
58 92 114
57 92 114
56 90 117
56 89 105
57 91 120
58 92 117
60 93 120
56 89 108
57 91 108
56 89 108
55 88 92
59 93 122
57 90 120
58 91 117
52 84 80
71 94 72
118 138 25
124 140 0
116 133 0
111 126 0
118 135 0
124 142 0
125 140 0
120 134 0
127 142 0
109 127 0
120 137 0
137 154 0
123 139 0
136 154 0
135 152 0
122 138 0
126 142 0
132 151 0
121 137 0
109 124 0
126 145 0
119 134 0
142 163 0
147 163 0
132 149 0
125 140 0
133 148 0
132 149 0
126 143 0
119 136 0
122 137 0
127 142 0
119 138 0
135 154 0
142 160 0
122 140 0
146 162 0
138 154 0
141 159 0
146 165 0
137 158 0
134 152 0
152 173 0
141 158 0
150 167 0
135 150 0
146 166 0
155 174 0
156 175 0
133 149 0
147 164 0
146 166 0
137 155 0
142 161 0
119 135 0
144 163 0
155 177 0
137 157 0
146 165 0
149 168 0
147 166 0
143 163 0
145 161 0
154 174 0
141 162 0
151 171 0
158 176 0
148 166 0
154 174 0
155 173 0
153 170 0
154 171 0
146 164 0
153 169 0
149 165 0
147 163 0
154 173 0
149 165 0
143 161 0
153 168 0
155 173 0
153 172 0
154 172 0
155 174 0
162 182 0
161 183 0
141 159 0
159 183 0
153 171 0
156 175 0
160 177 0
153 170 0
163 184 0
152 171 0
153 174 0
160 181 0
154 172 0
160 180 0
154 171 0
166 187 0
161 181 0
158 176 0
156 177 0
153 173 0
159 175 0
157 176 0
158 180 0
158 177 0
166 185 0
163 184 0
156 175 0
161 182 0
161 180 0
161 177 0
159 177 0
162 183 0
157 175 0
156 176 0
172 191 0
159 182 0
165 186 0
167 188 0
159 181 0
157 176 0
161 183 0
169 191 0
159 179 0
165 187 0
163 185 0
164 183 0
158 180 0
166 186 0
165 188 0
160 180 0
168 190 0
167 190 72
171 196 72
174 198 88
169 193 62
171 196 88
166 189 36
168 192 95
175 197 62
170 193 72
171 195 102
172 195 95
169 194 80
174 198 80
173 196 62
175 199 114
166 190 88
175 198 130
173 196 88
179 201 95
174 197 102
173 195 108
174 198 72
171 195 95
172 195 114
166 190 80
170 194 102
179 202 88
176 199 108
179 201 114
171 194 95
175 197 95
173 197 120
173 197 80
172 196 80
172 195 80
172 196 88
175 197 88
164 187 88
166 190 95
164 189 51
174 199 120
175 199 95
169 192 72
166 190 95
159 182 108
170 193 80
166 190 88
174 197 102
164 188 95
163 185 102
160 184 36
175 198 108
167 191 88
159 181 88
171 194 125
170 193 95
161 184 114
169 192 62
175 199 108
164 188 84
163 186 51
168 193 99
169 193 111
166 189 102
162 186 72
164 187 95
162 185 88
170 193 88
160 184 102
164 186 92
165 188 72
160 183 95
165 188 80
171 192 114
164 187 62
167 190 114
156 178 72
168 190 120
162 184 102
168 190 95
164 185 102
170 192 120
163 186 125
166 189 88
157 178 80
154 175 51
157 178 95
156 178 102
165 186 114
162 183 102
155 177 114
162 183 102
160 180 88
149 170 95
150 171 80
142 164 62
157 179 72
154 175 72
158 179 102
144 164 95
139 159 62
161 182 108
150 170 108
149 170 51
139 160 62
133 152 88
150 169 62
137 156 62
143 162 95
125 144 80
103 125 95
83 109 99
74 104 114
85 111 120
89 116 105
88 112 117
107 130 130
90 115 115
97 122 118
89 115 105
102 126 135
89 114 124
106 131 117
99 122 108
93 120 121
110 134 135
103 128 95
97 122 120
92 119 128
101 126 133
95 121 155
96 122 163
72 103 144
71 103 139
77 109 140
75 107 130
76 107 128
69 101 117
61 96 147
61 96 140
59 94 122
58 92 121
59 93 122
63 96 122
63 95 130
63 95 126
63 97 135
62 95 122
58 92 125
61 93 114
63 95 117
113 136 72
75 105 99
57 90 103
61 96 135
56 89 102
56 90 99
58 92 125
58 92 122
57 90 117
59 93 128
55 88 115
58 92 108
57 91 120
58 92 133
59 93 131
57 90 111
57 91 121
57 91 118
58 92 122
57 90 121
61 96 144
59 93 120
56 90 113
58 92 120
57 91 114
59 94 114
58 92 114
60 95 133
56 90 99
60 94 135
59 93 122
60 95 133
59 93 114
56 89 117
60 94 122
60 95 130
59 93 128
60 95 125
60 95 128
59 93 133
60 95 137
58 92 122
59 94 125
58 91 122
59 94 128
59 92 122
59 93 125
56 90 117
57 91 125
61 95 137
60 94 137
60 94 135
58 92 130
61 95 137
58 92 128
60 94 130
58 91 122
61 96 135
59 94 125
58 91 125
59 93 125
60 94 137
60 94 133
60 94 133
59 93 133
60 94 133
58 92 120
61 95 135
60 94 125
59 93 125
57 91 114
58 93 122
59 94 135
59 93 125
60 95 137
60 94 130
59 94 135
60 94 128
59 92 133
61 95 142
60 95 140
60 94 130
58 92 122
58 92 117
60 95 135
58 92 117
59 93 128
58 92 117
58 92 125
58 92 125
61 96 135
60 95 140
58 92 128
59 93 130
58 92 120
57 91 114
57 90 102
57 90 108
59 93 114
56 88 105
57 91 111
57 89 99
57 91 99
58 92 122
54 86 88
60 94 130
56 90 102
60 95 122
58 91 111
57 90 108
56 88 102
56 88 114
73 99 80
122 137 0
119 132 0
122 138 0
93 110 0
101 112 0
118 134 0
112 125 0
110 127 0
132 150 0
108 124 0
128 146 0
123 135 0
135 152 0
131 149 0
127 145 0
130 146 0
123 139 0
113 127 0
130 147 0
129 147 0
129 146 0
113 126 0
133 150 0
124 139 0
142 159 0
135 154 0
133 151 0
140 160 0
138 156 0
140 155 0
129 147 0
137 155 0
132 151 0
141 158 0
144 163 0
145 163 0
140 158 0
135 151 0
142 161 0
146 165 0
143 161 0
142 160 0
130 148 0
144 164 0
143 160 0
150 166 0
140 160 0
142 160 0
142 162 0
150 172 0
148 165 0
135 151 0
146 165 0
144 164 0
151 170 0
144 163 0
144 163 0
142 159 0
154 171 0
155 171 0
147 168 0
150 168 0
160 180 0
144 162 0
160 177 0
152 171 0
152 172 0
145 164 0
160 178 0
149 168 0
147 165 0
158 178 0
153 167 0
145 165 0
157 178 0
160 179 0
151 170 0
148 167 0
153 172 0
149 169 0
151 170 0
158 174 0
159 178 0
154 172 0
161 182 0
153 171 0
149 167 0
146 162 0
161 180 0
154 173 0
150 172 0
154 173 0
150 170 0
146 165 0
157 177 0
160 179 0
155 174 0
163 184 0
158 177 0
160 179 0
156 175 0
152 170 0
152 171 0
165 186 0
166 186 0
157 179 0
162 184 0
157 174 0
161 178 0
165 187 0
158 178 0
157 176 0
157 180 0
162 180 0
158 175 0
161 179 0
160 178 0
170 192 0
160 180 0
164 185 0
161 182 0
155 175 0
158 179 0
154 172 0
162 182 0
158 178 0
165 187 0
165 186 0
156 176 0
163 184 0
163 185 0
162 183 0
161 181 0
164 185 0
159 178 0
163 184 0
164 187 80
172 196 95
169 192 72
169 193 36
169 194 72
172 196 88
170 194 80
166 189 72
174 198 95
171 194 88
169 192 72
172 194 62
175 198 80
176 200 125
179 203 108
178 200 125
167 191 102
167 191 108
176 199 130
179 200 102
179 202 140
167 191 95
169 194 72
170 193 95
172 195 88
173 196 95
171 194 120
171 196 120
167 189 120
174 198 108
166 190 72
173 196 80
170 194 88
173 196 108
174 197 102
170 194 80
177 200 114
177 200 114
168 193 88
173 196 114
169 192 95
166 189 120
174 198 88
168 191 114
165 187 62
176 197 102
170 194 88
162 184 62
167 190 88
165 188 88
171 193 108
165 187 102
171 195 102
171 193 108
170 193 102
156 180 88
167 191 133
168 191 120
158 180 62
171 193 95
172 195 135
166 190 80
161 184 95
159 182 72
157 180 102
168 192 102
162 186 80
169 192 95
162 184 108
162 185 80
165 189 88
172 194 95
154 177 80
171 194 108
165 186 88
167 190 88
162 183 62
164 188 95
166 188 95
165 188 108
168 189 108
165 186 102
171 192 88
172 195 125
159 181 80
163 185 108
154 176 95
174 194 114
161 183 88
155 176 88
159 179 125
157 179 108
158 180 95
161 181 80
146 167 72
149 170 51
155 176 88
145 166 72
158 179 88
147 168 80
156 177 95
142 164 36
147 168 62
148 168 80
145 164 51
147 166 102
142 161 72
133 154 80
145 166 62
149 169 80
139 158 88
82 107 92
92 117 105
98 121 128
101 124 114
88 112 110
108 132 140
79 104 115
91 117 122
99 122 130
109 132 122
102 127 130
98 123 131
101 127 130
69 100 126
96 120 114
99 123 99
123 145 137
100 125 111
89 115 137
85 113 147
76 107 155
78 108 137
71 104 151
76 108 135
75 105 130
68 101 137
71 103 125
60 95 133
60 94 133
60 95 141
58 92 117
58 91 117
60 95 135
67 98 125
57 90 122
62 95 130
66 97 105
56 89 99
60 92 95
72 101 114
90 115 99
88 115 99
58 92 117
59 93 125
55 88 117
58 92 134
59 93 120
58 92 128
53 86 114
57 90 108
59 93 125
57 90 126
58 93 117
58 91 120
59 93 130
57 90 117
58 93 117
58 91 125
58 92 117
58 91 117
60 95 130
59 93 111
57 91 125
59 93 117
60 93 125
57 91 117
59 94 125
57 90 111
59 92 125
58 91 120
62 96 133
60 94 133
58 92 125
57 91 102
58 92 125
57 91 114
58 93 133
60 95 130
58 91 120
58 92 118
60 95 133
61 96 140
59 93 125
61 95 135
60 95 135
62 96 142
60 95 130
59 93 133
59 93 125
57 91 125
59 93 125
58 92 120
60 94 128
58 92 114
60 95 125
61 95 140
60 94 122
59 94 135
57 90 108
59 94 128
58 92 120
59 93 117
58 93 122
59 94 128
60 95 135
61 95 137
58 93 135
57 91 114
59 93 122
59 93 125
59 93 130
59 93 120
59 93 128
60 94 128
61 96 128
60 95 133
59 94 114
57 90 108
58 93 111
59 93 130
61 96 133
59 93 120
58 91 111
60 94 120
55 87 117
59 93 135
61 96 125
60 95 128
61 96 137
59 93 114
59 94 130
57 92 122
59 93 117
58 91 128
58 91 117
57 91 120
57 91 117
58 92 125
57 91 111
59 93 125
61 95 125
55 87 102
60 94 133
59 93 111
58 92 120
58 90 105
59 93 117
55 88 105
56 89 102
56 89 111
58 91 111
99 120 76
124 141 0
132 148 0
124 140 0
125 140 0
114 129 0
109 126 0
113 133 0
132 150 0
143 160 0
141 161 0
118 134 0
127 143 0
115 131 0
116 135 0
122 138 0
126 144 0
134 153 0
131 147 0
133 148 0
129 145 0
119 134 0
149 166 0
137 152 0
127 144 0
129 146 0
139 158 0
133 152 0
118 133 0
128 149 0
135 153 0
135 151 0
122 137 0
138 154 0
130 146 0
134 153 0
143 160 0
123 139 0
144 163 0
130 147 0
142 159 0
143 161 0
129 148 0
133 149 0
147 166 0
152 169 0
141 156 0
148 167 0
139 156 0
142 161 0
139 158 0
146 167 0
143 162 0
136 153 0
142 159 0
146 167 0
149 166 0
145 162 0
140 158 0
153 171 0
146 164 0
145 163 0
147 166 0
146 165 0
142 156 0
154 173 0
148 167 0
153 170 0
141 159 0
155 174 0
148 167 0
159 176 0
146 166 0
149 168 0
150 168 0
159 176 0
145 167 0
150 170 0
149 168 0
157 176 0
156 178 0
155 175 0
155 174 0
161 180 0
151 173 0
150 167 0
150 170 0
157 177 0
160 181 0
148 167 0
147 167 0
166 185 0
161 179 0
154 172 0
158 176 0
166 184 0
156 176 0
160 178 0
161 179 0
164 187 0
166 186 0
151 172 0
157 175 0
160 182 0
159 178 0
161 182 0
156 176 0
162 182 0
164 185 0
161 179 0
169 191 0
157 175 0
159 178 0
158 181 0
158 175 0
158 176 0
156 173 0
160 179 0
160 180 0
159 179 0
154 174 0
156 178 0
169 189 0
156 178 0
161 184 0
155 171 0
163 184 0
161 180 0
167 186 0
170 191 0
160 181 0
164 184 0
159 179 0
156 177 0
157 176 0
168 187 0
163 184 0
163 183 0
170 196 114
167 192 62
170 193 72
169 193 72
171 196 95
171 195 62
175 199 88
169 193 88
177 199 95
174 198 125
177 199 114
171 195 102
172 194 80
177 199 95
175 198 102
175 199 114
169 192 88
180 204 120
174 198 102
174 198 114
167 191 72
180 204 135
173 196 108
175 198 108
170 194 108
172 196 108
177 200 120
164 188 72
171 195 130
173 198 95
169 192 72
174 198 72
173 195 72
172 195 80
174 198 102
168 192 88
173 197 102
174 197 102
177 198 114
172 195 130
175 199 95
173 195 120
167 190 51
169 193 108
174 197 108
168 192 102
174 196 108
163 186 102
169 193 80
167 189 80
171 195 88
169 192 102
163 184 102
171 196 114
166 190 95
168 191 95
172 195 108
168 192 128
170 193 95
171 195 88
170 194 130
164 186 51
166 188 80
165 186 80
166 189 102
165 189 102
165 189 95
167 190 88
168 191 80
164 187 102
171 194 108
166 189 80
163 186 95
167 190 88
158 181 102
168 189 102
161 184 102
159 181 108
171 194 95
164 185 88
169 190 120
159 181 95
162 185 114
154 177 36
152 174 102
158 180 72
165 186 102
150 172 80
157 178 88
165 186 125
155 177 88
151 173 88
161 183 95
156 178 88
157 177 102
151 173 80
155 176 80
140 163 36
158 180 88
150 170 72
146 168 72
146 166 88
148 168 95
132 153 72
143 164 51
147 169 51
138 157 72
142 162 88
143 163 62
127 145 51
141 161 51
116 136 44
89 115 108
107 128 111
96 121 125
97 123 137
89 113 122
100 123 128
105 128 137
100 124 142
91 117 121
117 139 142
109 133 113
119 143 95
94 117 108
99 124 114
98 124 135
100 124 108
88 115 135
94 119 117
85 112 140
74 105 149
77 108 142
64 96 120
66 98 120
86 116 137
79 108 115
71 103 120
69 100 118
60 95 126
61 96 141
58 92 114
57 91 111
59 92 128
55 87 105
74 103 120
62 92 110
61 93 122
64 94 95
62 95 114
72 102 99
103 128 76
82 108 88
57 90 99
57 90 111
57 91 114
56 89 122
59 93 117
58 92 125
57 91 117
57 90 108
57 91 108
57 91 108
56 90 118
56 89 107
55 88 108
59 94 122
59 93 131
60 94 125
59 93 125
57 90 114
60 94 122
57 90 121
58 92 128
58 92 128
59 93 125
59 92 130
60 95 140
57 90 117
61 95 128
59 93 125
59 94 135
59 94 133
60 95 135
60 95 130
58 92 108
59 94 131
59 93 124
58 92 117
58 92 122
61 96 133
60 95 135
59 94 128
58 93 114
58 92 122
58 92 114
61 95 137
58 92 130
60 94 130
58 93 120
59 93 122
57 92 105
59 94 130
61 96 135
57 91 108
60 94 130
59 93 128
59 93 125
59 94 120
59 94 125
59 94 135
61 95 144
60 95 133
59 93 133
60 94 137
60 95 135
57 91 111
58 92 108
59 93 117
57 91 128
62 96 133
59 94 135
57 90 122
61 95 125
58 92 108
59 94 117
56 89 111
58 92 120
59 93 125
61 96 135
61 95 137
59 93 135
56 89 114
58 92 120
59 94 133
56 89 105
57 91 108
59 93 135
60 94 125
59 93 128
57 90 108
59 93 133
58 92 125
59 93 111
61 95 130
57 89 120
59 93 130
58 92 117
58 91 111
58 91 111
56 88 88
59 93 128
56 89 99
56 89 105
58 92 117
58 91 114
57 90 108
55 88 95
57 91 111
55 87 102
56 88 105
83 104 36
126 142 0
102 119 0
124 140 0
124 139 0
111 126 0
118 134 0
137 155 0
118 133 0
125 143 0
122 137 0
105 120 0
117 135 0
112 127 0
121 137 0
134 153 0
126 143 0
119 137 0
126 143 0
131 150 0
133 151 0
119 137 0
129 147 0
127 144 0
138 152 0
133 152 0
129 148 0
140 159 0
128 146 0
128 145 0
144 161 0
132 151 0
134 149 0
127 144 0
132 147 0
131 151 0
146 162 0
128 144 0
144 162 0
131 149 0
132 148 0
142 161 0
148 165 0
147 165 0
132 152 0
136 154 0
143 161 0
159 177 0
130 150 0
151 170 0
129 146 0
150 169 0
141 158 0
149 167 0
140 155 0
149 169 0
136 156 0
152 168 0
151 170 0
142 158 0
142 161 0
143 162 0
154 174 0
146 163 0
135 154 0
158 177 0
152 173 0
145 162 0
144 162 0
135 153 0
146 167 0
150 168 0
148 166 0
146 165 0
159 178 0
156 175 0
146 165 0
148 167 0
155 174 0
155 173 0
158 180 0
159 179 0
163 182 0
157 175 0
147 165 0
156 174 0
163 183 0
160 178 0
158 175 0
150 171 0
163 182 0
157 177 0
160 179 0
142 159 0
155 173 0
154 173 0
157 178 0
150 168 0
151 172 0
146 163 0
159 180 0
159 179 0
147 166 0
156 175 0
157 177 0
161 182 0
164 187 0
166 186 0
158 177 0
155 173 0
148 167 0
158 178 0
163 181 0
161 180 0
160 180 0
166 186 0
156 177 0
157 176 0
157 175 0
159 178 0
159 178 0
161 182 0
170 190 0
166 186 0
164 187 0
162 181 0
160 181 0
163 182 0
160 180 0
168 189 0
168 189 0
172 193 0
154 172 0
161 183 0
165 185 0
164 184 0
163 186 0
158 180 0
167 188 0
172 196 72
171 195 95
169 193 62
174 196 88
167 190 72
169 194 102
171 196 88
172 195 62
171 195 88
172 195 88
173 197 95
166 190 72
170 192 72
172 196 102
175 198 102
164 187 80
174 197 114
175 199 114
176 200 102
173 195 88
171 193 108
176 200 108
166 191 102
170 194 95
175 199 80
175 196 108
170 194 102
170 193 102
168 193 95
168 192 80
174 198 102
176 201 135
172 196 102
171 195 114
171 194 102
173 196 95
173 195 80
170 193 88
166 191 88
166 188 102
168 191 95
169 193 88
171 193 80
173 197 88
163 187 114
164 189 102
165 188 125
173 195 120
178 202 114
171 194 95
170 194 102
171 194 88
165 189 95
166 190 80
165 189 80
173 196 102
163 187 105
163 186 102
164 186 84
157 182 95
168 191 102
166 188 72
163 186 88
164 186 95
168 191 108
167 191 125
159 181 102
156 178 88
160 182 88
173 196 125
165 188 88
163 186 102
172 195 120
158 179 102
170 194 114
167 189 120
160 182 80
163 186 114
166 187 108
163 186 102
166 188 125
168 191 80
162 185 88
159 181 51
156 178 72
155 178 72
170 191 102
157 179 95
158 179 108
161 181 80
169 190 120
159 181 108
156 176 102
161 182 130
153 175 102
148 169 72
163 184 88
153 174 88
140 161 95
140 161 95
149 171 51
165 186 108
163 184 108
143 165 51
151 171 72
134 154 72
135 154 62
143 164 51
149 168 88
147 167 80
143 162 80
148 166 114
116 137 95
97 120 117
99 122 114
101 124 117
100 123 114
93 119 108
86 112 117
79 105 121
96 119 137
93 118 122
103 129 125
86 114 115
94 120 107
98 122 114
100 124 122
93 119 114
89 115 110
98 123 128
84 111 125
73 105 153
79 110 122
70 103 140
83 111 108
69 103 147
80 110 125
71 101 103
71 102 125
60 95 140
56 90 136
58 93 125
59 94 130
59 93 133
61 94 120
62 94 122
70 103 142
66 97 108
72 102 115
66 98 117
60 94 120
114 137 67
104 127 97
55 88 111
55 88 100
56 89 105
56 88 118
56 89 102
55 87 108
56 89 111
57 90 105
57 90 111
56 90 100
58 91 120
58 91 120
58 92 120
57 91 120
55 87 108
60 94 128
58 92 114
58 92 125
59 93 128
57 90 102
58 91 114
57 91 114
57 91 120
58 92 122
58 92 120
59 92 128
57 91 117
57 91 122
56 90 111
61 96 140
60 95 142
58 93 111
56 89 117
60 94 125
58 92 122
58 91 130
60 94 125
56 90 117
58 92 120
57 90 118
60 95 144
60 94 133
60 95 125
58 93 108
58 92 125
58 92 117
56 90 111
59 93 135
56 90 128
56 89 88
58 91 117
59 93 120
59 94 130
60 94 128
59 93 125
57 91 102
59 93 128
60 94 125
60 95 135
61 96 137
58 91 114
59 94 120
61 96 130
62 97 144
57 90 99
58 92 117
61 96 144
59 93 133
57 90 128
58 92 122
60 95 128
59 93 122
58 91 120
60 95 133
59 93 122
60 94 135
58 92 120
60 94 128
57 90 120
60 93 133
59 93 122
58 92 114
59 92 122
58 91 117
60 94 120
58 92 114
60 95 122
59 92 125
58 92 120
56 89 105
57 91 117
59 93 128
60 95 130
59 94 120
57 89 117
58 91 120
58 92 114
60 94 128
59 93 128
58 92 117
55 88 88
57 91 92
57 90 102
54 86 92
56 88 114
53 85 108
61 91 88
106 123 44
101 117 0
107 124 0
114 131 0
122 141 0
114 132 0
121 136 0
112 128 0
142 158 0
130 149 0
130 148 0
111 125 0
123 139 0
116 132 0
122 140 0
123 139 0
142 162 0
129 145 0
127 144 0
131 148 0
138 156 0
121 136 0
134 150 0
130 148 0
125 144 0
130 146 0
140 159 0
131 149 0
136 151 0
142 161 0
120 135 0
127 143 0
134 152 0
143 161 0
139 156 0
141 159 0
145 162 0
142 161 0
135 152 0
136 156 0
144 165 0
139 157 0
144 160 0
129 147 0
141 160 0
141 160 0
147 163 0
143 162 0
129 148 0
141 159 0
136 152 0
142 161 0
144 162 0
152 171 0
143 161 0
140 158 0
140 158 0
138 154 0
155 174 0
148 166 0
139 157 0
154 173 0
147 163 0
146 167 0
139 159 0
150 168 0
143 162 0
153 171 0
154 174 0
148 164 0
146 164 0
141 161 0
155 177 0
148 166 0
152 168 0
140 158 0
154 174 0
160 180 0
148 168 0
151 168 0
161 182 0
148 168 0
145 165 0
159 180 0
153 169 0
150 168 0
158 177 0
153 173 0
156 177 0
153 174 0
150 171 0
157 176 0
152 170 0
156 176 0
161 179 0
154 172 0
160 181 0
159 181 0
160 180 0
155 176 0
154 174 0
155 175 0
156 172 0
159 177 0
153 172 0
167 186 0
161 179 0
160 180 0
163 185 0
162 183 0
158 177 0
156 176 0
157 179 0
163 185 0
156 177 0
165 186 0
156 173 0
164 184 0
155 174 0
163 181 0
163 184 0
162 184 0
156 177 0
161 180 0
165 186 0
160 181 0
165 186 0
164 186 0
159 179 0
164 182 0
161 182 0
166 184 0
157 179 0
163 182 0
167 191 0
154 172 0
155 175 0
162 181 0
165 184 0
166 187 0
172 196 36
172 194 36
178 201 72
175 198 80
176 199 108
171 194 72
172 197 51
173 197 102
172 194 51
174 197 88
173 195 102
174 197 88
170 193 102
172 195 102
170 192 102
177 199 102
173 196 88
175 198 88
167 189 102
176 200 114
168 191 102
175 197 88
165 188 95
176 199 125
169 192 120
173 198 135
169 192 88
169 194 108
173 196 88
171 194 72
175 198 120
175 198 102
178 202 125
171 194 80
165 188 88
171 194 80
172 195 102
173 196 88
171 195 95
174 196 108
164 187 102
166 191 80
174 197 88
163 187 95
177 201 108
175 199 88
174 196 125
176 200 125
172 196 108
171 195 114
164 186 95
163 187 72
168 190 95
172 195 130
167 190 108
162 185 80
163 186 120
168 191 72
163 186 95
170 194 108
170 194 108
158 180 62
165 188 88
165 188 88
154 176 88
167 190 62
175 198 108
160 184 111
159 183 88
165 187 88
168 191 108
165 189 88
165 188 72
159 182 117
172 194 125
168 190 120
165 187 120
161 185 80
165 188 102
151 173 72
162 185 95
160 183 95
154 176 0
160 181 102
161 183 88
144 166 88
167 187 130
157 179 80
150 171 62
167 189 108
170 191 125
158 180 80
156 178 108
166 188 120
154 174 80
161 181 102
150 172 80
162 181 114
149 169 102
163 185 95
152 173 88
143 163 72
146 168 72
143 164 62
153 174 102
126 145 72
135 156 72
132 151 51
134 154 72
131 152 62
140 160 72
144 163 72
126 145 62
100 123 120
92 117 111
80 106 95
69 96 72
93 118 103
90 115 111
93 116 133
102 125 88
104 128 114
75 103 125
103 128 114
92 119 114
96 123 102
107 129 110
101 124 111
100 125 113
91 117 102
71 101 117
71 102 140
67 100 130
69 102 142
68 101 135
84 114 133
67 99 117
78 107 130
65 99 140
65 98 130
60 95 140
57 91 122
58 92 120
58 93 133
59 94 126
60 93 114
64 95 111
65 96 102
62 94 105
66 98 117
68 99 125
108 131 80
96 123 108
62 95 117
53 85 92
59 93 125
57 90 102
56 89 105
54 87 120
59 92 117
56 89 105
56 89 110
54 86 108
56 90 114
57 90 120
57 90 105
57 91 103
57 91 122
56 88 110
59 93 120
56 89 102
58 92 114
59 92 117
60 94 120
58 92 125
59 93 125
57 91 114
58 92 117
57 91 117
59 93 125
57 90 105
57 91 108
58 92 122
58 92 125
59 94 125
61 95 137
58 92 133
59 93 137
57 90 114
58 92 117
57 90 117
58 92 122
59 93 120
60 95 137
56 89 99
60 94 125
59 93 122
58 92 133
58 92 117
60 94 125
59 94 117
57 90 111
57 90 114
59 93 117
60 95 130
59 93 128
58 92 114
57 91 122
60 94 122
57 90 122
60 94 117
57 92 111
58 92 122
58 92 122
60 95 128
58 91 120
58 92 133
59 94 122
60 95 135
59 94 117
56 90 105
59 94 120
58 91 102
58 92 122
59 94 125
59 94 125
59 92 122
59 92 117
59 92 125
61 95 137
61 95 122
58 91 111
57 91 105
61 95 130
60 94 120
56 89 114
57 91 111
57 91 122
56 90 114
54 86 99
59 94 133
59 93 120
57 90 108
60 95 130
58 92 120
58 92 114
59 93 108
57 90 122
59 92 125
58 92 117
58 91 122
58 92 108
54 87 92
56 89 117
56 89 102
58 91 120
56 88 114
56 89 105
66 93 84
84 101 44
117 132 0
128 146 0
118 135 0
127 142 0
117 132 0
113 129 0
134 151 0
118 134 0
119 136 0
134 151 0
120 134 0
123 141 0
110 123 0
125 141 0
127 144 0
112 130 0
130 148 0
120 138 0
133 149 0
127 144 0
118 134 0
143 163 0
129 146 0
122 140 0
133 152 0
133 151 0
139 155 0
137 154 0
120 139 0
145 163 0
136 155 0
126 141 0
136 155 0
143 163 0
151 170 0
149 168 0
136 154 0
131 150 0
143 162 0
147 164 0
155 176 0
127 142 0
140 159 0
149 170 0
142 160 0
149 168 0
153 168 0
150 171 0
141 157 0
151 170 0
146 166 0
150 169 0
151 170 0
149 170 0
145 162 0
139 156 0
137 154 0
156 177 0
150 170 0
143 160 0
142 159 0
152 169 0
157 178 0
156 174 0
147 165 0
143 161 0
154 175 0
153 172 0
140 157 0
152 170 0
149 168 0
155 175 0
145 165 0
153 175 0
160 179 0
152 172 0
149 168 0
159 180 0
153 171 0
152 170 0
150 166 0
153 176 0
155 175 0
157 177 0
158 179 0
150 167 0
157 176 0
159 179 0
156 178 0
156 175 0
155 173 0
151 169 0
162 182 0
155 176 0
156 176 0
153 173 0
155 176 0
150 169 0
156 176 0
158 177 0
159 180 0
157 178 0
166 188 0
152 171 0
157 177 0
151 171 0
164 184 0
156 174 0
158 178 0
159 179 0
164 186 0
168 188 0
158 178 0
158 178 0
168 187 0
156 176 0
158 180 0
167 188 0
167 188 0
161 179 0
166 187 0
163 184 0
158 179 0
160 182 0
162 184 0
161 182 0
163 180 0
166 186 0
163 185 0
165 187 0
162 183 0
160 182 0
167 188 0
162 183 0
157 176 0
159 181 0
160 181 0
170 190 0
162 182 0
169 191 0
174 199 72
175 197 102
167 190 80
175 198 95
170 194 72
176 200 72
172 195 88
176 198 120
173 196 108
177 200 102
180 203 120
175 198 102
173 197 125
171 194 62
172 197 95
173 197 114
171 195 88
168 192 80
167 190 88
169 192 72
170 194 88
173 196 114
164 187 95
164 188 51
174 197 88
176 200 120
173 196 102
172 196 62
174 198 95
172 195 95
170 195 120
172 195 102
169 193 102
164 188 88
171 194 72
172 196 108
169 193 120
167 191 108
163 187 88
171 194 80
174 198 135
164 187 62
169 193 95
165 188 95
176 200 114
169 191 114
167 191 120
167 190 88
172 194 108
173 196 95
168 191 95
165 188 95
166 189 102
173 195 125
164 188 88
169 191 108
167 191 95
169 193 102
156 179 76
171 195 80
160 184 72
162 187 95
163 187 108
161 184 95
163 186 84
171 194 102
159 181 99
170 193 125
162 185 95
167 189 108
163 187 84
154 177 72
162 184 102
168 192 95
164 187 130
165 187 88
167 189 125
160 183 72
166 188 108
170 193 80
165 187 88
166 188 130
145 168 62
167 188 130
159 180 88
163 184 88
163 186 108
148 170 72
161 182 102
167 190 108
158 180 88
150 172 95
166 187 102
161 183 102
163 185 72
147 168 95
156 177 95
163 184 102
149 170 72
156 176 88
158 179 88
138 160 62
134 154 88
148 168 62
145 165 80
144 164 72
125 145 36
149 169 95
130 149 62
147 167 51
138 159 80
144 164 88
141 160 72
122 141 80
120 140 147
102 127 117
99 123 117
87 112 114
88 112 93
92 117 115
90 115 125
106 129 128
84 111 120
104 127 145
98 123 121
106 130 89
113 136 114
99 126 130
107 128 111
82 112 128
90 116 128
73 105 137
69 102 151
65 98 140
67 101 135
66 98 108
67 99 128
72 104 133
68 99 125
66 98 117
59 93 135
56 90 105
59 93 130
59 94 122
64 97 128
60 93 102
60 92 120
57 91 117
64 96 117
58 88 108
64 94 105
99 124 92
106 131 108
76 105 111
57 90 105
56 89 114
55 88 108
54 86 95
57 91 102
59 93 125
53 85 92
53 85 97
56 89 108
58 92 111
55 88 102
58 92 117
57 91 110
58 92 118
60 95 140
56 90 111
59 93 128
58 91 117
60 93 130
58 91 108
58 92 108
59 94 128
60 94 122
59 93 118
58 91 111
58 92 114
58 92 122
59 93 120
59 94 120
57 90 105
61 96 137
59 93 122
58 91 95
57 91 114
60 95 137
57 91 111
57 90 114
60 94 117
60 94 125
58 92 111
59 93 117
57 91 111
59 93 122
59 94 133
56 89 120
58 92 120
59 93 115
58 93 120
60 94 137
59 93 117
56 90 117
60 95 135
58 91 117
61 97 147
57 91 111
59 93 125
59 93 120
59 93 128
58 92 128
60 94 130
60 95 130
59 94 120
60 95 137
57 91 128
59 93 117
62 97 149
58 92 111
57 91 111
58 92 122
58 92 114
60 94 149
58 92 128
58 92 125
58 92 114
59 93 114
60 94 125
58 92 130
58 92 114
60 94 120
56 88 102
61 95 140
59 93 125
60 95 140
58 92 111
57 91 111
57 91 92
59 92 120
59 93 117
57 91 111
58 92 120
58 91 122
61 95 133
59 92 114
55 88 111
55 87 95
56 89 108
59 92 105
58 92 128
58 92 120
56 89 105
57 89 117
55 87 95
54 85 95
72 97 80
116 134 0
111 128 0
102 117 0
106 121 0
122 137 0
123 141 0
111 126 0
114 129 0
131 148 0
131 147 0
122 139 0
119 134 0
114 129 0
116 132 0
129 147 0
136 154 0
145 162 0
122 138 0
139 156 0
109 125 0
146 165 0
134 153 0
129 148 0
119 138 0
120 137 0
128 146 0
129 145 0
134 150 0
124 141 0
128 147 0
138 155 0
149 169 0
128 146 0
134 152 0
130 149 0
136 153 0
143 159 0
145 161 0
149 169 0
137 156 0
140 161 0
150 169 0
130 146 0
126 145 0
144 162 0
150 169 0
136 154 0
150 168 0
139 157 0
138 156 0
148 165 0
143 162 0
148 169 0
146 166 0
143 162 0
147 167 0
140 157 0
142 159 0
136 156 0
146 163 0
149 167 0
157 177 0
151 168 0
149 169 0
150 169 0
152 170 0
147 164 0
142 159 0
143 161 0
145 164 0
146 167 0
154 175 0
145 163 0
154 175 0
147 167 0
143 163 0
147 167 0
158 177 0
145 163 0
154 173 0
149 168 0
147 167 0
148 167 0
149 168 0
159 179 0
150 168 0
148 167 0
154 175 0
156 176 0
151 171 0
161 181 0
147 162 0
156 175 0
150 171 0
163 183 0
155 173 0
154 173 0
157 180 0
149 166 0
152 169 0
155 176 0
161 182 0
159 177 0
164 184 0
160 179 0
158 179 0
152 168 0
154 176 0
161 181 0
155 175 0
167 189 0
156 176 0
168 190 0
157 176 0
158 178 0
153 175 0
161 180 0
160 183 0
163 184 0
163 181 0
166 186 0
164 185 0
161 182 0
159 180 0
158 179 0
165 187 0
162 183 0
168 187 0
161 180 0
165 186 0
157 177 0
162 183 0
162 182 0
159 179 0
156 178 0
164 183 0
163 184 0
163 183 0
159 181 0
170 191 0
155 177 0
161 182 0
175 199 95
171 194 62
170 193 80
166 189 51
176 200 95
168 191 102
172 197 95
176 198 125
175 197 108
171 195 72
166 191 72
174 198 72
168 191 72
169 192 72
177 200 95
168 191 80
166 189 80
179 201 120
172 195 102
165 188 51
170 194 114
175 200 102
174 199 108
178 203 120
171 195 80
169 194 95
170 195 120
170 194 120
170 193 80
171 195 95
177 200 88
167 189 80
171 194 88
172 196 88
170 193 114
174 198 120
164 189 88
163 187 72
171 195 102
176 200 95
171 195 108
167 191 102
162 186 102
170 194 102
171 193 80
162 185 72
172 195 102
165 188 95
166 188 88
175 199 114
172 195 120
165 188 72
172 195 95
165 189 95
156 179 51
169 192 108
164 188 102
165 188 102
155 177 102
172 197 108
169 192 108
168 191 102
161 184 62
169 193 114
161 185 95
162 185 88
163 186 76
166 188 88
155 178 108
163 185 92
154 176 88
164 187 99
162 185 88
162 184 88
156 178 84
170 192 120
170 192 114
160 182 108
149 171 51
162 183 88
173 195 102
168 189 108
161 183 88
146 169 80
167 190 108
160 183 95
158 180 95
167 190 125
168 188 135
149 170 95
154 174 80
157 178 102
163 185 102
165 186 102
143 165 51
166 188 125
160 182 95
160 181 88
159 180 102
141 160 102
155 176 108
159 179 108
145 166 80
160 181 108
151 171 95
144 163 108
144 166 80
151 170 62
134 153 88
143 163 80
140 160 72
129 150 51
128 145 80
148 166 62
102 122 72
85 109 95
67 96 92
108 130 111
82 107 108
98 121 108
100 122 114
84 111 118
117 140 107
94 119 107
96 122 124
101 126 117
110 135 122
96 121 108
103 127 117
92 118 122
93 118 128
75 104 111
76 107 128
83 112 117
72 104 133
71 102 114
72 103 125
72 102 124
86 115 120
79 109 133
57 91 114
59 92 117
57 90 128
59 93 131
73 104 122
61 92 108
60 92 107
60 91 107
67 98 125
62 95 114
59 90 100
109 132 62
100 126 95
63 94 99
57 90 111
57 91 111
53 85 95
56 90 114
58 91 120
58 92 99
56 88 111
58 92 125
59 92 111
58 91 115
56 89 108
57 91 114
57 91 120
57 91 111
59 93 122
56 89 102
58 91 120
56 89 99
55 88 99
56 89 95
58 92 108
58 91 122
60 94 120
59 93 120
57 91 108
60 93 120
58 92 128
58 91 125
57 90 105
59 94 122
56 89 120
59 93 130
59 93 128
60 94 133
59 93 125
58 91 111
58 91 117
59 93 122
55 89 99
60 94 134
61 96 144
58 92 128
58 91 125
59 93 130
58 92 122
58 92 131
59 93 125
59 94 122
57 90 114
55 87 102
58 92 108
59 94 125
58 91 122
59 93 114
58 92 117
59 94 128
59 92 125
60 95 128
58 91 120
58 92 108
60 94 120
59 93 130
60 94 130
57 91 111
60 94 128
59 93 130
60 94 128
59 93 125
59 93 130
57 91 108
60 94 122
60 94 122
58 91 130
57 91 111
57 90 120
58 93 117
56 89 111
59 93 122
56 88 105
56 89 114
57 90 111
57 90 114
56 89 111
58 92 120
57 90 102
57 91 120
58 91 120
60 94 125
59 94 120
57 89 117
57 91 122
54 87 95
56 88 102
56 88 99
55 88 99
53 85 102
56 88 111
59 92 128
53 85 95
57 91 95
53 85 80
53 84 92
86 105 62
114 132 0
109 127 0
137 155 0
114 130 0
112 126 0
126 144 0
99 116 0
141 158 0
126 145 0
111 128 0
113 127 0
125 142 0
125 144 0
133 150 0
126 143 0
123 140 0
125 142 0
114 131 0
140 159 0
133 151 0
119 140 0
117 134 0
138 155 0
138 156 0
123 143 0
134 150 0
124 142 0
122 140 0
134 155 0
130 148 0
122 143 0
146 165 0
147 164 0
129 148 0
140 161 0
137 156 0
138 155 0
139 157 0
141 160 0
138 155 0
135 152 0
147 166 0
148 166 0
147 166 0
144 162 0
137 155 0
138 154 0
145 164 0
142 162 0
144 164 0
142 162 0
145 164 0
148 168 0
155 175 0
144 162 0
156 177 0
152 173 0
140 160 0
150 169 0
148 168 0
159 180 0
145 163 0
150 170 0
151 169 0
154 174 0
138 156 0
157 174 0
149 170 0
145 161 0
147 169 0
149 170 0
150 169 0
149 168 0
142 161 0
153 171 0
149 168 0
142 158 0
151 170 0
160 182 0
157 177 0
142 161 0
146 166 0
154 174 0
136 155 0
141 162 0
163 184 0
155 174 0
153 174 0
156 177 0
156 175 0
160 180 0
153 173 0
158 174 0
155 175 0
158 179 0
162 180 0
154 176 0
156 177 0
150 168 0
158 181 0
167 188 0
152 169 0
157 177 0
150 171 0
157 179 0
157 178 0
153 171 0
154 173 0
158 178 0
150 167 0
162 182 0
162 179 0
163 183 0
166 185 0
154 173 0
150 171 0
160 181 0
156 178 0
166 189 0
158 179 0
164 185 0
164 184 0
157 180 0
163 186 0
164 185 0
165 186 0
163 182 0
160 182 0
167 188 0
169 190 0
164 185 0
166 190 0
166 189 0
161 183 0
170 192 0
172 193 0
166 186 0
168 188 0
163 182 0
160 180 0
159 182 0
172 195 0
163 183 0
176 200 102
171 195 80
178 201 80
177 200 80
172 195 72
171 195 102
177 200 95
169 192 80
180 201 108
173 195 95
171 195 130
172 195 80
171 195 88
171 195 88
179 202 102
174 198 72
167 190 80
171 194 108
171 195 108
169 193 88
172 196 88
168 192 102
174 198 108
171 195 102
173 196 102
168 190 72
171 195 95
167 192 95
169 194 102
174 197 80
169 193 95
172 196 80
171 195 102
172 196 102
173 196 88
166 190 95
168 192 88
168 191 102
173 196 108
165 188 51
171 195 114
166 189 95
163 187 88
164 186 88
170 193 80
173 197 72
178 201 120
170 193 102
167 189 95
167 189 88
166 190 108
170 193 88
169 192 95
170 194 80
172 195 80
168 191 88
168 192 88
168 192 80
165 188 84
166 188 102
167 190 95
169 192 102
160 184 72
160 184 88
164 187 108
165 188 80
165 188 102
161 184 88
174 197 95
176 200 130
169 191 88
163 185 102
159 181 88
166 188 111
180 204 114
154 176 72
164 186 80
160 181 102
168 190 120
167 188 102
162 185 88
170 193 102
170 191 120
171 193 130
170 191 120
159 181 108
167 189 88
151 173 95
172 194 102
167 189 108
139 161 88
155 177 80
170 192 114
164 187 108
153 174 72
162 183 130
160 182 108
149 170 88
148 170 72
158 178 102
143 164 95
147 168 72
146 168 80
141 161 88
129 151 67
146 166 80
146 165 108
152 172 95
127 149 62
142 162 80
151 171 72
131 151 62
137 156 72
130 148 72
120 137 62
96 119 88
99 122 99
113 134 125
88 112 108
75 103 90
112 133 137
76 103 88
99 122 105
88 113 86
94 119 128
98 122 105
76 105 120
110 133 118
107 131 122
87 112 111
98 124 111
76 107 128
68 101 117
75 105 130
81 110 122
63 97 120
78 109 137
72 103 125
75 105 114
69 99 118
78 105 135
63 95 117
55 88 103
55 87 105
60 93 114
65 96 107
70 100 99
61 94 128
55 88 111
56 89 115
65 97 108
91 115 62
118 141 92
63 94 110
58 92 130
58 91 114
55 88 111
57 90 115
57 90 122
56 89 121
55 88 97
58 91 125
55 88 92
56 89 102
58 91 110
57 90 117
58 92 128
58 92 117
57 89 105
57 91 114
59 94 122
54 87 122
60 95 130
59 93 125
58 93 122
56 89 111
57 91 117
57 91 117
56 90 114
61 96 137
56 89 99
56 89 108
58 91 130
59 93 114
59 92 111
59 93 125
59 93 120
58 91 128
57 91 114
59 93 117
57 90 122
58 92 120
59 93 128
59 93 125
60 94 122
59 93 128
59 93 128
58 92 130
60 94 130
58 92 122
56 90 120
58 91 111
59 93 114
60 94 133
60 94 144
59 94 122
58 92 117
59 93 117
60 95 133
58 93 108
58 92 105
58 91 108
58 92 111
58 91 120
58 92 117
58 92 108
59 93 117
60 94 122
60 95 135
59 93 125
59 93 133
59 93 128
56 89 99
59 94 125
58 92 125
60 95 120
59 92 122
57 91 114
61 96 140
59 93 125
58 91 120
59 92 120
58 92 114
58 91 125
58 91 111
60 95 135
58 92 114
60 94 130
54 86 105
58 92 105
57 90 114
57 90 120
59 92 117
56 90 120
59 93 122
55 88 108
59 92 130
55 88 92
57 90 117
54 86 92
56 89 102
56 89 114
54 87 92
54 86 88
59 89 95
98 113 72
108 126 0
102 118 0
95 110 0
111 127 0
107 123 0
101 117 0
117 135 0
131 146 0
118 137 0
134 152 0
121 140 0
121 137 0
113 129 0
119 137 0
125 144 0
111 126 0
123 139 0
135 153 0
117 136 0
124 140 0
133 150 0
127 144 0
135 153 0
143 160 0
131 149 0
123 141 0
131 150 0
137 156 0
135 152 0
133 152 0
142 161 0
135 152 0
122 138 0
157 176 0
129 146 0
137 153 0
138 156 0
146 166 0
136 156 0
142 160 0
135 156 0
143 161 0
132 151 0
141 158 0
141 159 0
129 149 0
128 144 0
131 148 0
139 159 0
143 161 0
148 167 0
142 160 0
134 152 0
132 148 0
152 172 0
151 171 0
141 160 0
151 167 0
149 168 0
150 165 0
139 158 0
152 170 0
146 166 0
143 161 0
152 173 0
155 175 0
161 183 0
145 164 0
153 171 0
143 163 0
147 168 0
148 168 0
146 163 0
147 166 0
145 164 0
145 164 0
155 172 0
148 169 0
156 175 0
145 164 0
152 173 0
159 181 0
160 181 0
163 184 0
153 170 0
154 175 0
152 171 0
152 174 0
160 183 0
155 176 0
151 169 0
147 167 0
161 182 0
154 173 0
156 176 0
152 173 0
152 170 0
156 176 0
160 177 0
156 176 0
153 174 0
158 177 0
151 173 0
151 167 0
160 179 0
160 180 0
158 179 0
169 191 0
164 184 0
161 181 0
164 185 0
164 184 0
162 183 0
161 182 0
157 174 0
160 179 0
157 175 0
161 182 0
157 180 0
164 184 0
160 182 0
164 185 0
161 182 0
168 190 0
166 188 0
164 185 0
157 178 0
161 181 0
163 183 0
160 179 0
173 195 0
163 182 0
166 189 0
159 179 0
164 187 0
165 185 0
160 180 0
173 195 0
160 181 0
170 189 0
161 182 0
160 181 0
163 185 0
159 178 0
176 199 88
170 195 62
175 198 95
178 201 95
174 197 108
176 199 108
170 194 80
173 197 102
173 196 95
178 202 108
170 194 88
173 196 88
172 196 108
172 196 102
175 198 114
170 192 95
171 195 88
178 200 108
168 192 88
176 200 114
172 195 88
169 193 88
167 190 72
172 196 102
173 197 108
170 194 88
172 196 95
170 192 80
164 187 102
173 196 120
173 197 88
175 198 88
170 192 88
170 193 72
176 200 130
173 197 88
173 196 80
165 188 108
170 194 125
172 196 80
166 190 72
164 187 88
176 200 120
174 197 130
170 193 88
167 190 80
173 196 88
177 200 135
170 193 108
166 190 88
165 190 88
168 193 108
166 189 88
161 184 88
164 188 102
162 186 114
175 198 120
173 196 130
165 188 72
165 188 95
162 186 117
159 182 62
162 185 102
165 189 99
163 187 95
168 191 88
171 194 125
157 180 80
159 183 72
174 197 120
163 185 102
167 190 102
164 186 88
168 191 99
162 185 88
163 186 88
162 185 80
163 185 108
167 190 88
167 189 120
158 181 95
164 186 88
159 181 72
166 187 120
175 197 125
170 191 114
166 187 102
167 189 130
158 180 88
156 178 95
158 181 95
158 180 88
160 182 88
156 178 108
161 182 114
148 169 88
166 186 114
159 179 102
165 186 80
159 179 125
165 185 135
158 177 102
157 178 102
158 178 114
143 163 80
155 174 88
143 162 72
146 168 72
152 172 88
141 160 95
141 161 80
128 147 62
134 152 72
139 156 102
131 149 72
127 145 92
88 112 117
81 107 111
110 131 115
103 124 92
85 111 108
82 106 95
97 122 102
100 122 117
96 120 97
94 120 122
99 125 108
104 128 124
96 122 105
93 119 103
89 116 122
72 102 120
69 102 133
69 102 142
63 97 122
68 100 137
83 112 108
67 99 117
79 108 111
75 104 120
72 102 128
64 95 111
59 93 117
62 95 124
68 100 125
56 88 102
62 95 114
69 100 111
53 85 92
55 86 95
58 91 117
83 108 88
107 131 80
82 109 92
54 86 90
55 86 92
53 84 99
57 91 117
54 86 102
54 86 105
54 87 92
57 91 105
58 91 106
61 96 135
58 92 108
57 91 108
56 89 111
55 88 88
58 92 133
56 90 114
56 89 108
58 92 125
58 92 120
58 91 122
58 92 125
58 92 108
58 92 105
58 92 122
59 92 114
59 93 125
56 90 122
59 94 130
59 92 122
56 89 120
59 93 120
59 93 111
56 89 92
59 92 128
58 92 120
58 92 114
57 90 99
56 90 108
59 93 122
57 92 108
59 93 125
59 93 114
56 90 108
57 91 111
53 85 107
55 87 95
58 91 108
58 92 120
58 92 114
58 91 117
59 93 117
56 89 111
58 91 125
59 93 120
58 91 114
60 94 125
58 92 117
57 90 105
59 93 125
59 93 125
57 91 111
59 93 135
59 93 114
59 94 125
59 93 122
60 95 130
60 94 135
56 89 108
57 90 114
58 93 125
57 90 122
58 92 117
60 95 140
58 92 122
58 92 117
57 91 111
59 93 114
57 90 111
57 91 114
57 91 99
57 90 108
59 93 120
55 88 105
55 88 99
59 92 108
57 91 117
54 87 95
56 89 95
55 87 111
57 90 111
58 91 122
56 89 117
57 90 117
51 82 76
57 91 114
58 92 117
57 90 99
54 86 80
55 88 111
84 107 67
100 117 25
107 120 0
93 111 0
98 113 0
119 134 0
119 135 0
117 131 0
103 122 0
112 129 0
130 148 0
132 149 0
114 130 0
108 126 0
121 136 0
110 126 0
124 141 0
110 125 0
110 128 0
124 143 0
133 151 0
123 141 0
123 142 0
123 139 0
123 140 0
129 146 0
130 149 0
119 136 0
133 151 0
146 165 0
136 157 0
140 158 0
121 139 0
131 150 0
130 149 0
129 146 0
123 138 0
143 160 0
138 157 0
143 163 0
139 154 0
143 164 0
139 160 0
134 153 0
138 154 0
154 171 0
137 154 0
142 161 0
136 154 0
151 171 0
150 170 0
130 148 0
144 162 0
147 168 0
134 154 0
148 171 0
137 155 0
134 154 0
151 169 0
145 164 0
153 173 0
152 170 0
151 167 0
146 164 0
158 179 0
150 171 0
156 175 0
144 163 0
150 170 0
140 160 0
158 176 0
153 174 0
152 170 0
157 179 0
155 173 0
147 166 0
143 165 0
147 169 0
146 165 0
163 184 0
157 176 0
153 174 0
148 168 0
154 175 0
155 175 0
159 179 0
161 182 0
154 175 0
159 179 0
148 169 0
157 176 0
151 172 0
156 174 0
151 174 0
165 184 0
158 176 0
149 168 0
163 183 0
159 181 0
158 178 0
152 169 0
150 168 0
158 180 0
160 179 0
153 174 0
153 171 0
158 178 0
164 183 0
157 179 0
154 174 0
153 170 0
155 175 0
162 182 0
162 183 0
163 184 0
156 177 0
162 181 0
164 184 0
158 177 0
155 176 0
158 179 0
163 184 0
161 181 0
168 189 0
163 182 0
163 186 0
172 193 0
156 175 0
163 184 0
160 180 0
161 182 0
159 180 0
159 180 0
159 180 0
167 188 0
162 183 0
153 174 0
162 184 0
164 182 0
171 192 0
155 176 0
163 183 0
167 188 0
154 173 0
157 180 0
165 185 0
166 189 0
168 192 80
176 200 95
180 203 102
175 198 88
176 200 95
177 200 108
174 197 102
172 196 88
172 194 95
174 197 114
176 199 95
169 193 80
171 194 102
171 195 80
171 195 130
172 195 88
174 197 108
176 200 95
165 187 102
174 197 102
170 193 108
173 197 72
173 196 114
172 195 102
170 194 88
173 196 95
168 190 80
177 199 88
175 197 80
169 194 62
170 194 72
175 198 125
167 191 102
165 190 88
170 193 95
175 200 108
165 189 88
168 191 95
171 195 102
167 191 62
173 196 95
176 200 120
176 199 102
168 191 88
159 182 95
166 190 95
158 183 72
163 186 95
159 183 95
171 195 95
172 196 108
174 196 95
167 191 102
163 186 88
165 187 72
169 192 125
170 194 111
167 191 95
163 186 114
169 193 80
163 186 80
170 193 102
163 187 114
172 196 99
156 180 80
159 183 84
169 192 108
158 181 72
164 187 108
164 187 114
154 176 108
160 183 95
164 186 108
169 192 95
163 186 80
151 174 108
156 179 84
167 189 140
162 184 95
163 187 51
151 173 72
164 187 88
167 190 102
154 176 102
156 179 88
153 175 88
161 183 95
162 182 114
161 182 80
152 174 95
157 179 72
157 179 95
151 172 80
148 168 95
154 174 125
151 171 95
163 184 102
156 176 108
164 185 102
154 174 88
151 172 88
153 174 102
143 163 62
162 181 108
141 161 80
159 179 114
148 168 88
126 144 88
137 156 102
133 154 72
131 151 51
141 160 88
119 139 62
129 147 72
128 146 80
137 154 72
136 153 99
98 119 111
108 131 111
95 118 120
95 121 120
86 111 102
87 112 108
107 131 133
78 107 111
98 124 105
101 126 108
110 135 99
121 144 111
91 116 120
83 111 105
84 111 105
77 107 111
60 95 144
59 93 125
70 102 125
73 103 114
71 103 128
70 101 117
71 102 114
72 102 120
79 108 122
59 93 125
58 91 114
60 94 137
66 96 103
63 96 121
61 93 110
55 88 95
63 96 111
61 90 99
91 112 62
96 120 84
82 108 72
56 88 105
54 87 99
56 89 102
54 86 90
57 90 120
56 89 111
56 89 99
55 87 102
57 90 108
55 88 117
56 89 95
56 90 92
57 90 99
55 87 114
56 89 122
57 91 111
56 89 114
57 90 117
58 92 110
57 91 108
54 87 102
59 93 114
55 88 72
53 86 97
57 91 117
58 92 114
60 94 128
56 90 111
56 88 95
59 93 111
58 92 117
58 92 114
59 93 117
56 88 103
57 90 108
59 93 120
57 90 120
57 90 120
57 90 117
60 95 122
58 92 125
59 93 122
60 94 125
57 90 114
58 92 117
57 90 114
56 89 114
59 93 114
58 91 122
58 92 114
60 94 133
58 93 122
55 88 105
57 91 108
59 93 117
57 91 111
59 93 120
58 92 120
58 91 128
58 92 135
57 91 111
59 92 128
60 94 128
58 92 111
56 89 105
58 92 125
59 93 125
59 92 128
59 93 120
60 95 128
60 94 122
57 90 105
57 90 111
58 92 108
58 92 102
57 90 108
57 90 111
57 91 117
57 90 108
58 92 99
57 91 108
57 90 117
57 90 105
59 93 122
55 88 114
58 92 111
55 88 102
58 92 125
55 87 102
57 90 99
56 89 102
57 90 108
53 84 92
55 87 117
57 90 114
53 85 84
57 90 111
55 86 105
103 120 44
113 129 0
98 113 0
109 125 0
93 109 0
110 126 0
118 134 0
105 119 0
108 126 0
122 138 0
113 132 0
126 142 0
121 140 0
112 130 0
125 142 0
120 138 0
123 139 0
123 138 0
130 150 0
126 144 0
129 147 0
130 148 0
115 133 0
117 134 0
130 146 0
139 157 0
127 143 0
133 150 0
127 146 0
137 156 0
135 152 0
144 162 0
123 142 0
131 148 0
136 155 0
135 155 0
133 152 0
133 151 0
135 153 0
131 148 0
138 152 0
128 144 0
144 164 0
132 149 0
149 168 0
130 146 0
138 155 0
142 162 0
131 148 0
136 154 0
138 156 0
145 165 0
148 166 0
144 164 0
141 159 0
149 168 0
151 171 0
146 166 0
131 149 0
158 175 0
145 165 0
145 163 0
153 172 0
149 169 0
154 176 0
140 158 0
131 149 0
152 172 0
152 170 0
146 165 0
153 173 0
153 174 0
156 176 0
147 164 0
157 177 0
152 173 0
144 165 0
143 160 0
146 167 0
138 157 0
156 175 0
143 162 0
155 176 0
161 180 0
157 180 0
154 175 0
146 169 0
152 173 0
153 171 0
154 169 0
160 182 0
162 184 0
156 175 0
165 188 0
148 169 0
157 176 0
149 167 0
152 174 0
150 170 0
162 183 0
155 174 0
162 183 0
154 173 0
154 173 0
152 173 0
144 163 0
154 174 0
158 179 0
155 174 0
157 175 0
154 174 0
160 182 0
166 187 0
162 182 0
170 192 0
156 177 0
151 171 0
165 186 0
166 187 0
164 187 0
157 180 0
154 175 0
161 181 0
158 179 0
160 181 0
163 184 0
156 177 0
160 181 0
159 180 0
163 184 0
164 187 0
165 187 0
169 191 0
160 181 0
166 188 0
152 173 0
156 176 0
164 183 0
165 187 0
155 176 0
166 185 0
167 188 0
158 176 0
166 187 0
161 182 0
161 178 0
159 181 0
157 177 0
178 201 102
172 196 102
169 192 88
179 202 114
173 196 80
175 198 88
173 196 95
175 198 95
176 198 125
175 198 62
177 200 108
161 184 51
176 200 108
171 193 95
174 198 114
166 189 72
175 198 102
169 192 88
172 196 80
176 198 80
175 198 95
174 197 130
173 197 102
171 195 102
171 195 102
168 190 72
174 197 144
173 196 120
171 195 88
171 194 95
173 196 102
164 188 72
163 187 108
171 196 80
171 194 72
164 188 62
166 190 88
171 195 114
169 194 80
166 189 125
168 192 108
170 194 108
166 189 80
168 193 114
173 195 95
170 194 88
164 187 108
163 185 88
168 191 80
160 183 80
161 184 80
161 184 102
161 184 80
177 199 114
172 196 135
163 186 108
170 192 108
165 188 88
165 188 95
164 187 120
164 187 80
167 191 92
169 192 102
166 188 72
162 185 95
165 188 92
164 187 80
163 185 72
164 187 120
157 181 72
176 198 125
160 183 88
153 175 51
158 181 114
166 189 117
163 186 130
164 186 51
158 179 95
165 187 80
161 183 114
169 193 135
157 178 102
163 185 102
162 184 88
165 187 108
157 179 80
167 189 72
157 179 95
164 186 95
146 168 72
167 189 130
164 185 114
161 182 108
154 176 95
148 170 102
158 179 108
150 169 95
139 160 72
168 189 80
154 174 80
157 177 88
154 173 95
142 162 88
139 158 88
133 154 62
145 164 95
142 162 88
146 167 72
141 160 72
148 169 88
139 160 72
131 152 51
133 152 108
128 147 62
143 162 80
134 152 72
130 146 72
112 130 111
80 104 88
96 121 108
95 120 95
89 114 102
98 123 88
105 129 92
94 121 108
93 117 102
93 116 88
115 137 117
97 122 102
85 111 117
90 115 102
105 130 108
76 106 114
65 99 135
71 102 128
68 100 117
60 94 137
74 104 114
68 100 130
70 100 120
77 106 111
70 102 120
62 91 80
56 89 102
59 92 125
64 95 95
72 102 102
62 94 110
75 104 111
59 90 92
68 99 92
102 124 62
111 133 80
89 116 92
55 87 95
54 87 99
57 90 95
56 89 95
55 87 102
56 88 84
55 86 102
59 93 111
57 90 84
57 91 111
55 88 99
59 93 130
57 90 108
56 90 92
57 90 111
58 91 108
57 91 92
57 91 107
57 91 111
60 95 117
54 87 103
59 93 122
59 93 122
58 92 108
58 93 128
58 91 95
58 91 111
57 91 108
57 90 108
57 90 102
57 90 108
56 89 111
57 90 108
58 91 111
55 87 111
56 90 105
60 94 125
55 89 108
57 91 105
58 92 111
59 93 102
58 92 117
58 92 120
61 95 130
58 92 111
56 89 117
58 92 120
59 94 128
57 90 105
59 93 120
57 91 95
58 92 120
56 89 108
59 93 120
58 92 122
58 92 114
57 91 105
58 92 114
60 95 133
58 92 111
57 91 111
59 93 111
60 94 117
58 91 120
56 89 120
56 89 95
58 92 108
59 92 130
56 89 111
57 90 117
55 88 92
56 89 114
58 92 128
58 91 122
59 93 120
59 93 117
57 90 120
58 91 122
57 90 117
57 90 111
57 91 114
56 89 102
56 89 105
56 89 111
58 91 122
55 88 102
55 88 105
57 90 105
56 89 108
58 92 114
54 85 88
58 91 125
56 89 95
56 89 102
59 92 122
53 84 102
70 94 72
112 129 25
106 123 0
111 128 0
103 119 0
116 132 0
127 142 0
112 129 0
94 112 0
113 131 0
119 136 0
123 140 0
125 141 0
112 129 0
105 119 0
114 134 0
120 135 0
126 144 0
118 137 0
113 132 0
117 136 0
126 145 0
139 156 0
120 140 0
126 145 0
135 153 0
137 155 0
129 145 0
136 155 0
125 142 0
128 147 0
134 154 0
132 151 0
121 140 0
132 153 0
143 162 0
134 153 0
143 163 0
133 152 0
138 158 0
148 168 0
147 166 0
127 145 0
132 149 0
132 151 0
142 162 0
137 157 0
150 167 0
137 157 0
142 162 0
149 168 0
151 169 0
140 161 0
141 158 0
140 158 0
137 157 0
137 156 0
143 163 0
148 165 0
142 160 0
138 159 0
146 165 0
155 171 0
140 160 0
138 156 0
146 164 0
150 167 0
139 158 0
155 176 0
148 169 0
136 154 0
153 171 0
151 171 0
150 171 0
148 166 0
153 172 0
140 158 0
155 174 0
151 167 0
155 175 0
144 161 0
146 166 0
158 178 0
158 180 0
154 174 0
149 170 0
156 175 0
159 177 0
148 169 0
152 171 0
156 178 0
147 168 0
157 178 0
161 181 0
158 178 0
155 176 0
153 171 0
159 179 0
153 172 0
157 179 0
158 178 0
164 186 0
161 184 0
161 184 0
154 172 0
154 176 0
163 184 0
160 181 0
157 179 0
161 180 0
155 174 0
154 174 0
169 189 0
148 170 0
157 177 0
164 188 0
156 177 0
163 184 0
165 186 0
160 178 0
163 184 0
153 172 0
161 181 0
163 185 0
157 178 0
160 181 0
161 182 0
161 182 0
164 185 0
162 182 0
166 188 0
165 185 0
157 176 0
162 181 0
162 182 0
163 185 0
166 187 0
158 179 0
159 179 0
164 187 0
161 182 0
162 185 0
156 176 0
161 182 0
168 190 0
170 193 0
161 183 0
163 184 0
167 187 0
157 179 0
176 199 108
170 193 80
181 203 114
175 199 108
175 197 72
176 199 114
168 191 80
171 195 88
171 195 80
169 194 88
175 198 88
179 202 130
172 197 102
173 196 88
169 192 95
173 197 88
164 188 80
168 192 108
169 192 95
175 198 114
172 194 102
171 195 88
177 200 125
169 192 108
170 193 80
167 190 88
173 196 72
167 190 72
174 196 95
175 198 125
167 191 95
162 186 72
164 187 72
172 196 88
167 191 72
171 195 102
165 189 80
170 194 102
164 187 80
167 190 88
169 192 88
176 200 114
162 186 62
162 186 51
166 189 95
171 194 114
164 187 80
169 192 102
163 187 80
172 196 95
160 185 95
163 185 114
165 188 92
163 187 80
172 195 108
165 189 62
164 187 95
166 190 102
173 196 114
168 191 80
160 183 88
172 195 125
163 185 102
164 187 95
171 194 80
174 197 108
164 187 88
157 180 95
165 188 120
172 195 105
163 186 114
166 189 80
164 186 102
168 190 108
169 193 102
160 182 108
154 175 80
157 179 95
166 188 108
151 172 80
161 183 114
156 180 95
164 186 130
153 175 88
164 185 88
154 175 95
155 178 102
155 176 62
156 177 102
153 175 80
171 192 108
160 182 88
159 180 88
148 169 95
163 184 80
154 175 80
147 168 88
166 187 114
150 170 80
161 181 108
154 176 72
151 170 125
157 177 125
140 159 72
146 165 102
145 166 51
157 177 95
128 149 72
141 160 62
124 144 62
146 166 62
134 154 62
121 141 51
150 168 102
116 134 36
125 143 62
108 125 51
109 126 36
103 124 105
116 137 114
98 121 92
96 119 88
96 119 99
94 118 97
99 125 118
99 124 114
90 115 111
98 123 108
98 123 120
79 106 114
96 122 103
77 106 111
66 98 122
72 104 133
81 110 120
80 109 125
67 98 114
72 102 99
81 111 125
72 102 133
74 103 95
73 101 107
59 90 95
66 97 117
57 90 105
55 88 120
59 93 111
61 92 92
61 93 105
59 91 114
62 93 102
95 117 72
102 124 72
87 112 82
51 82 84
54 86 105
55 87 88
58 91 115
54 86 92
55 87 92
54 87 76
56 90 99
55 88 88
58 92 126
55 87 99
56 89 95
57 89 111
57 89 114
54 87 99
56 88 108
55 88 99
57 91 120
58 92 114
57 90 117
56 89 108
58 92 105
56 90 102
57 90 114
57 91 102
57 90 99
56 90 105
54 86 94
60 94 122
57 91 120
58 91 114
57 91 108
58 91 108
56 89 108
57 91 122
57 90 111
58 92 120
57 91 102
57 91 117
58 92 122
55 88 99
58 92 111
57 90 111
56 89 105
58 92 105
56 89 108
59 93 114
58 91 117
59 93 114
58 92 108
58 92 122
59 94 128
59 93 120
58 92 114
59 94 133
58 92 117
58 92 128
60 94 130
56 90 108
58 91 117
57 90 105
55 88 114
56 89 88
58 92 128
59 93 125
56 90 102
60 94 125
59 93 122
58 91 99
57 90 117
57 89 105
55 88 105
55 88 72
59 93 114
57 91 111
57 90 114
59 93 111
55 88 95
60 95 130
57 90 102
57 90 105
57 90 117
58 92 114
55 87 102
57 90 108
53 85 95
55 87 105
56 88 102
53 85 102
56 88 108
51 82 84
55 88 92
55 86 88
55 87 92
68 94 99
100 117 25
101 119 0
115 131 0
102 117 0
72 90 0
117 133 0
107 122 0
120 137 0
126 144 0
127 143 0
114 129 0
111 126 0
112 131 0
118 136 0
107 126 0
122 142 0
124 140 0
127 146 0
120 134 0
140 157 0
135 153 0
127 143 0
138 156 0
127 145 0
126 144 0
125 146 0
135 153 0
116 133 0
134 153 0
136 155 0
125 142 0
126 144 0
125 143 0
129 145 0
128 147 0
130 146 0
128 146 0
127 146 0
131 150 0
140 160 0
146 165 0
132 151 0
140 160 0
149 167 0
132 151 0
137 155 0
142 161 0
135 152 0
146 167 0
135 155 0
128 147 0
136 155 0
135 151 0
126 145 0
141 160 0
139 161 0
136 156 0
135 157 0
139 161 0
153 174 0
148 169 0
139 158 0
156 177 0
140 160 0
142 161 0
150 173 0
151 172 0
145 165 0
158 175 0
154 175 0
149 168 0
153 173 0
133 151 0
155 174 0
149 167 0
146 164 0
151 172 0
147 167 0
150 172 0
155 175 0
138 157 0
150 169 0
145 165 0
150 172 0
154 175 0
148 167 0
152 174 0
152 171 0
148 170 0
156 176 0
155 177 0
152 172 0
159 177 0
145 164 0
145 165 0
165 183 0
150 168 0
150 168 0
144 163 0
154 175 0
150 170 0
159 180 0
147 165 0
158 178 0
148 169 0
163 182 0
158 177 0
150 170 0
158 179 0
162 182 0
155 175 0
150 170 0
156 178 0
156 177 0
164 185 0
153 175 0
162 183 0
154 173 0
160 180 0
162 183 0
160 183 0
154 172 0
166 185 0
163 182 0
159 179 0
158 178 0
156 176 0
158 175 0
160 182 0
157 176 0
155 174 0
162 184 0
165 186 0
161 182 0
163 185 0
160 181 0
154 174 0
159 180 0
165 187 0
160 182 0
157 176 0
164 184 0
173 196 0
160 179 0
172 192 0
163 185 0
166 187 0
162 181 0
165 186 0
168 189 0
168 190 0
180 202 80
176 199 95
180 202 102
173 195 80
173 197 102
174 197 80
175 199 108
175 198 114
173 197 95
170 192 51
171 193 80
178 201 102
171 195 80
176 200 80
170 193 95
165 188 62
169 193 88
172 195 102
175 199 95
174 197 80
171 194 72
170 192 102
172 195 108
177 200 114
173 197 88
173 196 102
175 198 95
172 195 95
172 196 102
165 189 114
174 197 120
172 195 80
171 194 95
171 195 102
176 200 114
168 193 108
174 196 108
165 188 80
171 195 95
163 187 95
173 196 108
169 193 95
163 187 114
160 183 80
169 193 102
164 189 80
171 195 120
166 190 80
169 192 102
167 191 72
168 191 88
160 183 95
177 200 108
168 192 120
162 187 102
172 194 108
167 190 62
165 189 95
168 191 80
165 189 114
165 189 108
169 192 95
165 189 80
168 192 80
174 197 102
172 193 102
162 185 95
168 191 80
158 183 62
161 184 120
170 193 120
168 191 95
157 180 72
160 182 95
162 185 80
158 180 62
150 173 88
168 191 120
167 189 120
162 185 120
150 171 62
161 184 108
151 172 80
165 188 114
158 179 80
152 174 95
166 188 114
162 183 62
163 184 95
164 186 102
152 174 80
158 179 102
148 167 80
156 176 114
158 179 88
144 166 72
152 172 72
144 163 108
150 171 72
154 174 80
165 185 130
144 164 72
147 168 80
155 176 108
153 172 114
152 173 72
153 172 102
163 182 108
143 164 95
150 168 95
141 160 72
136 154 72
147 166 72
127 145 62
133 152 62
122 140 88
139 156 95
125 142 62
124 140 76
93 114 84
83 109 76
82 108 72
91 114 80
97 121 90
104 128 95
109 133 99
103 126 95
106 130 102
94 119 111
98 122 80
84 111 100
84 111 92
74 103 95
77 107 118
83 111 108
80 109 111
63 95 125
75 105 105
68 99 130
62 93 102
82 108 117
67 98 114
80 108 88
65 96 120
53 85 99
67 99 117
59 90 88
55 88 105
61 92 108
64 94 99
62 92 105
109 129 51
106 128 76
91 117 76
53 85 72
52 83 80
55 87 94
54 86 84
56 89 92
56 89 105
54 86 92
54 87 88
54 86 88
57 90 99
52 84 95
58 91 111
56 88 105
59 92 120
57 90 105
57 90 88
56 90 92
59 93 117
57 90 120
56 89 95
60 93 117
56 88 111
57 90 111
58 92 108
57 91 120
56 89 92
56 89 97
57 90 105
57 89 105
55 88 95
58 91 99
59 93 120
59 92 128
57 91 111
54 87 95
58 93 122
57 90 95
59 93 120
60 95 130
59 93 129
56 90 114
60 94 125
59 93 130
57 90 105
58 91 121
58 91 108
59 92 120
57 90 117
59 93 125
57 90 102
57 91 120
57 91 117
57 90 133
58 91 120
57 91 111
58 91 114
55 88 102
56 89 111
56 89 95
59 92 122
58 92 102
59 93 125
58 92 122
59 93 122
56 89 105
59 93 114
56 88 92
57 90 95
58 92 114
58 92 111
56 89 102
55 88 99
56 89 111
54 87 111
58 91 120
59 93 120
58 92 114
58 92 102
54 87 95
59 93 114
57 91 111
54 87 80
57 91 99
58 92 120
56 88 114
56 90 95
57 91 108
57 90 108
55 87 92
56 90 111
56 90 117
52 83 80
56 88 105
86 106 44
97 112 36
112 128 0
98 116 0
124 140 0
106 124 0
106 122 0
127 145 0
108 124 0
110 126 0
127 143 0
112 127 0
140 157 0
111 127 0
121 138 0
118 134 0
111 127 0
122 138 0
136 155 0
114 133 0
106 124 0
120 140 0
118 134 0
121 139 0
119 135 0
126 146 0
142 162 0
136 156 0
141 159 0
124 144 0
119 139 0
126 147 0
128 143 0
122 138 0
141 159 0
143 160 0
136 155 0
144 163 0
122 140 0
135 153 0
134 154 0
148 167 0
136 156 0
122 143 0
133 149 0
144 166 0
138 156 0
144 162 0
137 156 0
139 158 0
143 162 0
145 166 0
156 176 0
138 157 0
137 156 0
141 159 0
137 156 0
135 155 0
144 163 0
146 166 0
146 163 0
145 165 0
140 158 0
152 173 0
148 166 0
147 167 0
148 170 0
144 165 0
142 161 0
142 161 0
151 168 0
154 175 0
153 174 0
155 177 0
148 168 0
157 177 0
149 169 0
143 163 0
150 168 0
148 166 0
149 169 0
158 180 0
153 174 0
153 174 0
158 177 0
152 172 0
157 177 0
154 175 0
158 177 0
159 180 0
149 168 0
156 176 0
148 168 0
153 172 0
161 182 0
149 167 0
156 176 0
156 175 0
148 168 0
153 175 0
156 177 0
163 184 0
159 180 0
153 172 0
163 182 0
156 176 0
164 185 0
157 179 0
154 175 0
152 172 0
162 184 0
159 181 0
158 180 0
155 177 0
161 184 0
162 182 0
156 178 0
168 189 0
158 180 0
155 175 0
156 176 0
162 182 0
165 188 0
164 187 0
155 176 0
157 178 0
164 187 0
159 179 0
165 187 0
157 178 0
154 175 0
165 188 0
156 175 0
160 180 0
156 175 0
161 183 0
165 185 0
156 178 0
161 183 0
166 187 0
160 181 0
158 179 0
162 186 0
165 186 0
166 187 0
168 190 0
168 190 0
157 179 0
156 176 0
164 183 0
171 192 0
160 182 0
163 186 0
176 199 108
173 197 102
174 198 88
174 197 80
167 191 88
179 201 120
167 190 88
176 199 102
174 197 88
170 193 108
174 198 125
167 190 102
169 193 88
164 188 72
172 197 108
171 194 95
168 193 95
177 201 114
173 195 88
175 198 120
172 196 88
177 199 108
167 190 72
177 202 120
168 191 80
167 191 102
175 200 108
168 190 51
171 194 80
173 198 102
169 192 95
165 189 102
169 192 88
166 191 88
167 190 114
168 192 108
172 196 108
170 193 72
168 190 80
167 191 114
172 196 95
168 191 88
163 186 88
164 187 108
172 195 95
161 185 108
169 193 95
165 187 95
165 189 88
173 196 114
167 189 72
162 185 80
169 193 95
165 189 102
170 194 125
169 192 95
162 186 95
171 195 102
166 190 62
163 187 80
171 194 128
167 191 95
171 194 120
162 185 80
150 174 102
167 189 88
160 184 88
167 189 120
159 182 80
171 194 80
167 189 102
165 187 80
161 183 62
161 185 67
154 176 80
158 180 62
171 193 95
160 183 95
165 187 95
167 191 108
165 186 102
170 192 130
158 180 80
164 186 88
163 184 95
169 191 108
172 192 114
153 175 88
157 178 114
157 177 108
146 169 36
153 175 72
162 182 108
152 173 108
148 168 114
161 183 88
163 185 95
156 177 120
177 198 149
163 185 88
161 181 108
151 172 62
154 173 125
160 180 102
146 165 88
151 172 51
147 166 88
153 174 95
147 167 102
152 171 88
130 146 72
133 151 62
151 171 51
127 145 62
139 157 88
110 127 72
136 155 95
130 147 72
120 136 62
119 137 80
92 116 92
89 114 72
105 126 108
92 118 95
90 115 72
85 112 95
87 111 107
93 119 108
96 121 84
92 117 84
96 121 95
97 122 108
75 105 111
63 95 117
77 106 111
82 111 128
66 97 99
74 105 114
62 94 117
71 100 117
68 98 108
77 106 95
82 109 102
87 113 99
62 90 107
58 91 102
59 90 88
65 96 108
60 91 105
59 89 92
60 90 102
113 133 62
101 125 84
104 127 80
73 98 80
52 84 102
54 85 95
50 81 72
52 83 99
53 85 92
55 87 92
51 82 95
54 85 92
56 90 99
53 84 105
56 88 88
58 91 117
57 90 88
55 88 99
53 85 95
57 90 102
56 89 99
55 87 95
56 89 105
55 88 92
59 93 114
57 90 114
57 90 95
56 89 105
55 88 76
57 90 114
55 87 99
58 91 114
57 89 108
55 88 105
57 90 102
56 90 105
57 90 114
57 90 108
57 90 108
54 86 95
53 84 92
56 89 111
56 89 102
55 88 80
57 91 99
56 90 99
60 95 130
59 93 122
59 93 122
57 90 114
56 89 111
59 93 122
57 90 111
57 91 120
56 89 95
57 90 111
60 95 120
59 93 128
57 91 120
57 90 105
54 87 102
59 92 114
58 91 120
58 92 120
56 89 88
58 92 111
57 91 108
55 88 95
59 93 117
58 92 117
56 89 108
58 92 114
57 90 117
57 91 105
54 87 92
54 85 102
59 93 117
57 91 99
58 91 117
55 88 92
57 90 108
56 90 111
56 89 114
57 91 114
55 87 95
56 89 108
57 91 111
54 86 95
57 90 108
54 86 72
53 85 84
54 86 108
55 88 92
53 84 108
68 89 62
102 121 25
93 108 0
106 124 0
96 112 0
122 141 0
92 108 0
98 112 0
102 121 0
109 126 0
111 128 0
120 138 0
132 148 0
114 129 0
108 124 0
120 135 0
107 122 0
118 138 0
105 124 0
123 140 0
116 133 0
141 160 0
118 137 0
121 140 0
124 140 0
124 140 0
129 148 0
126 143 0
129 146 0
129 150 0
126 140 0
130 148 0
133 153 0
117 134 0
139 158 0
135 153 0
134 155 0
129 147 0
140 160 0
137 157 0
130 151 0
143 163 0
141 161 0
142 162 0
134 153 0
143 162 0
131 149 0
140 160 0
127 146 0
151 172 0
133 152 0
149 166 0
148 167 0
145 165 0
148 168 0
148 169 0
150 170 0
128 148 0
151 172 0
139 160 0
150 169 0
154 172 0
138 158 0
147 167 0
142 162 0
149 169 0
149 170 0
152 170 0
157 179 0
144 165 0
147 169 0
147 165 0
138 157 0
138 155 0
137 156 0
145 163 0
155 174 0
145 163 0
137 157 0
144 165 0
144 162 0
160 179 0
147 167 0
146 169 0
147 165 0
143 162 0
144 163 0
154 174 0
153 172 0
147 168 0
143 161 0
150 170 0
157 179 0
155 176 0
157 176 0
154 176 0
160 180 0
151 169 0
160 181 0
149 167 0
158 178 0
158 181 0
157 176 0
147 164 0
160 183 0
161 182 0
150 170 0
156 177 0
156 174 0
160 180 0
158 178 0
156 176 0
154 175 0
165 183 0
154 175 0
162 184 0
157 179 0
155 177 0
163 184 0
157 179 0
162 182 0
161 183 0
156 174 0
168 188 0
172 192 0
169 189 0
155 175 0
154 174 0
163 185 0
156 178 0
162 182 0
167 187 0
160 183 0
167 188 0
162 183 0
161 182 0
155 178 0
155 174 0
167 187 0
168 190 0
158 179 0
160 181 0
164 185 0
156 176 0
165 186 0
159 178 0
165 185 0
165 187 0
166 186 0
164 187 0
165 186 0
160 182 0
166 187 0
160 182 0
164 186 0
170 194 88
179 202 114
179 201 114
174 196 80
168 192 114
176 199 88
171 196 114
176 199 102
176 199 108
177 200 114
176 200 114
163 187 62
171 195 88
177 201 108
168 191 95
161 184 88
165 189 72
173 196 72
165 188 88
167 190 62
169 192 102
175 198 102
164 187 72
163 187 95
176 200 114
172 194 102
178 201 120
172 196 102
177 200 120
166 189 72
167 191 88
170 193 102
171 193 51
172 196 120
171 195 108
175 198 108
170 193 62
170 193 95
173 196 114
173 196 114
171 195 95
161 184 80
171 195 114
164 188 88
163 186 72
171 194 95
165 189 88
165 189 102
167 191 95
167 190 102
160 183 88
166 190 108
170 192 88
166 189 102
167 191 114
164 187 102
163 185 51
169 192 108
158 182 80
171 194 108
164 188 80
164 187 62
169 192 120
149 173 92
172 195 102
165 189 80
160 182 108
166 189 95
168 192 114
160 181 62
174 197 108
160 182 36
160 183 108
166 188 108
165 187 62
152 174 92
166 190 80
167 188 88
162 183 102
171 193 95
166 188 114
166 188 108
165 186 102
158 181 72
167 188 80
161 183 108
162 185 102
153 175 95
160 182 95
156 177 88
152 173 72
163 185 102
162 184 114
146 167 72
166 188 120
156 177 114
153 173 88
164 183 114
147 167 120
154 175 62
152 172 102
140 162 62
150 169 72
158 178 108
147 167 88
142 159 108
148 168 80
149 168 72
150 170 88
158 178 120
139 159 88
131 149 62
129 148 88
160 181 88
143 161 88
148 165 102
120 137 51
114 131 88
115 133 51
104 118 36
99 118 72
92 113 80
92 116 115
105 126 114
95 119 67
95 120 111
94 118 70
95 117 95
100 124 113
101 125 88
82 107 95
101 125 80
121 143 95
81 109 95
68 100 114
58 91 111
69 99 108
78 106 117
68 99 117
70 101 120
72 101 105
66 96 105
83 111 111
75 104 111
70 101 88
59 90 99
60 92 113
54 87 84
59 90 76
60 93 102
66 93 67
88 109 57
126 148 62
93 118 80
95 113 36
83 102 36
65 90 76
52 83 72
55 87 99
53 84 76
50 80 67
54 86 70
55 87 102
54 86 92
54 85 82
55 87 105
57 91 108
55 87 102
52 82 99
57 89 105
57 89 108
56 90 99
53 84 95
56 88 99
56 89 105
55 88 99
57 91 114
55 87 95
57 90 92
54 86 114
57 90 111
55 88 99
55 88 99
58 92 117
55 87 108
57 91 108
57 91 108
55 88 92
58 91 102
57 90 120
57 90 111
58 90 99
58 91 122
61 96 133
56 89 95
56 88 105
57 90 117
53 85 88
58 91 117
57 90 114
57 90 114
61 95 120
57 90 117
57 91 111
57 90 105
54 87 105
60 94 130
57 90 114
57 90 95
57 90 111
55 88 105
57 91 108
57 91 102
56 89 114
58 91 114
58 91 111
57 89 102
55 88 111
56 89 102
56 89 108
55 88 102
55 88 95
53 85 84
52 83 88
57 91 114
58 91 122
56 89 111
53 85 76
56 89 88
56 89 108
58 92 108
55 87 95
54 86 92
55 87 114
57 89 111
56 89 108
54 86 95
53 85 102
54 86 95
55 87 102
55 87 95
54 86 102
54 85 105
73 98 80
84 100 51
102 115 0
105 122 0
109 126 0
102 122 0
97 114 0
109 126 0
107 122 0
123 139 0
119 136 0
109 125 0
113 129 0
122 140 0
117 136 0
110 126 0
125 144 0
108 127 0
114 132 0
109 129 0
115 133 0
119 137 0
120 139 0
136 153 0
129 148 0
118 135 0
122 141 0
121 139 0
111 132 0
124 144 0
124 143 0
114 130 0
124 140 0
133 152 0
125 143 0
129 149 0
143 161 0
138 154 0
138 157 0
141 160 0
134 154 0
137 157 0
137 156 0
138 158 0
131 151 0
132 153 0
132 152 0
142 163 0
144 161 0
143 164 0
148 169 0
126 145 0
123 143 0
127 144 0
129 148 0
139 160 0
137 157 0
144 164 0
145 166 0
151 172 0
145 165 0
138 158 0
146 166 0
141 159 0
150 172 0
142 162 0
148 168 0
157 176 0
150 171 0
150 172 0
151 170 0
141 159 0
143 163 0
153 173 0
144 165 0
149 169 0
145 165 0
155 173 0
142 160 0
153 171 0
157 177 0
149 168 0
155 176 0
151 172 0
150 171 0
157 178 0
148 168 0
151 172 0
157 178 0
159 181 0
143 165 0
153 174 0
152 172 0
158 179 0
155 175 0
154 176 0
159 180 0
147 169 0
156 174 0
155 176 0
157 176 0
153 174 0
156 177 0
163 184 0
150 170 0
151 172 0
160 179 0
159 179 0
151 170 0
160 179 0
159 178 0
166 189 0
156 175 0
153 172 0
157 177 0
155 178 0
155 174 0
160 180 0
164 183 0
165 188 0
152 173 0
162 181 0
156 175 0
157 178 0
160 181 0
158 179 0
156 176 0
159 180 0
160 181 0
164 185 0
161 180 0
164 186 0
163 184 0
167 189 0
162 183 0
164 183 0
158 179 0
158 175 0
162 184 0
157 178 0
159 181 0
168 188 0
168 191 0
163 181 0
161 184 0
161 181 0
158 179 0
159 182 0
165 186 0
159 180 0
156 176 0
160 183 0
164 185 0
162 183 0
164 187 0
166 187 0
163 185 0
180 203 108
173 196 102
175 199 72
169 192 80
178 201 135
172 195 62
178 201 108
173 197 108
176 198 102
169 192 80
171 195 130
169 192 51
175 198 72
171 194 88
167 190 88
163 187 51
178 201 120
173 195 95
173 195 108
178 201 80
167 191 108
171 194 88
175 198 108
162 187 72
169 192 88
170 195 102
170 193 72
172 196 88
167 191 102
163 185 51
173 196 114
174 197 102
171 195 62
166 191 80
171 194 62
167 191 102
169 194 80
169 193 102
172 195 102
166 190 72
175 198 102
167 191 102
169 192 108
166 190 108
170 194 102
164 188 88
168 190 95
174 197 95
176 200 144
171 195 95
170 193 80
168 191 95
172 195 102
170 192 114
165 188 108
164 187 108
163 186 72
160 182 80
154 178 62
164 187 62
170 194 108
170 194 108
162 186 80
163 187 108
169 193 88
167 190 130
169 191 95
165 188 95
152 174 36
172 196 114
154 177 95
163 187 80
174 197 114
170 194 102
159 181 62
172 194 88
163 186 72
161 183 95
161 184 120
172 194 120
153 174 88
163 185 88
151 174 72
160 182 80
153 175 102
154 175 72
151 173 120
168 189 108
166 188 108
149 171 51
158 179 95
152 174 120
154 175 80
159 180 125
164 186 88
163 186 80
157 179 95
150 170 102
147 167 102
154 176 108
144 164 102
153 174 80
156 176 102
149 169 111
143 162 102
163 181 120
149 168 95
132 151 72
137 157 51
152 170 102
149 167 102
144 162 102
127 145 72
144 161 95
129 148 72
138 155 72
129 146 80
122 139 62
121 138 51
130 149 62
113 130 62
103 124 62
87 110 111
100 123 99
88 113 80
95 119 108
103 126 88
99 123 114
98 123 86
119 143 76
79 106 84
100 124 92
124 144 67
117 139 80
69 98 105
70 99 117
80 110 122
75 105 117
70 101 88
74 102 105
66 99 111
65 97 114
72 101 84
86 109 80
77 106 105
55 88 105
61 94 99
72 102 117
55 87 105
57 91 99
82 104 72
102 123 76
99 121 51
91 115 76
76 98 51
107 123 0
117 134 0
91 110 44
71 97 62
51 81 67
51 82 72
53 84 88
52 84 92
53 86 95
51 82 88
53 84 84
54 86 102
55 88 92
57 91 99
53 85 102
52 83 88
58 92 111
56 88 95
56 90 105
56 89 108
56 88 108
56 88 99
56 89 95
55 87 92
56 88 105
55 87 108
57 90 84
56 88 111
57 90 114
57 90 114
58 91 125
58 91 105
60 95 120
54 86 99
57 90 122
55 87 99
57 90 95
55 88 102
58 92 120
56 89 99
57 90 99
56 88 114
58 91 117
55 88 105
54 86 88
56 89 99
56 89 117
59 93 122
58 91 122
53 85 92
57 90 105
56 89 128
56 90 99
56 89 111
55 87 92
60 94 135
57 90 114
57 90 114
57 90 105
57 90 108
57 91 117
56 89 99
57 90 111
55 88 108
57 90 108
58 92 105
57 90 108
56 89 108
57 90 95
53 84 108
53 85 99
56 89 99
58 92 120
54 88 92
54 87 84
57 90 108
58 91 111
54 86 102
56 90 95
56 89 114
55 87 92
55 88 88
54 87 84
52 83 92
53 85 92
54 86 92
51 81 80
85 104 44
90 104 0
96 109 0
102 120 0
92 108 0
107 125 0
101 117 0
99 114 0
119 136 0
111 128 0
104 121 0
104 120 0
121 138 0
118 134 0
120 137 0
126 144 0
120 135 0
100 115 0
127 146 0
112 129 0
121 138 0
117 134 0
125 143 0
136 154 0
97 112 0
125 144 0
108 126 0
129 143 0
118 136 0
131 151 0
130 149 0
122 137 0
128 145 0
140 158 0
139 159 0
134 152 0
133 152 0
134 153 0
132 148 0
133 152 0
133 154 0
136 156 0
137 158 0
131 148 0
126 146 0
136 155 0
131 152 0
133 150 0
140 158 0
153 175 0
135 155 0
137 158 0
136 155 0
146 164 0
144 163 0
131 150 0
135 155 0
140 157 0
146 164 0
150 171 0
135 154 0
151 169 0
137 156 0
146 166 0
138 157 0
155 175 0
142 162 0
141 161 0
143 161 0
136 155 0
154 173 0
153 177 0
152 172 0
141 157 0
156 178 0
146 166 0
155 177 0
148 169 0
155 176 0
147 167 0
140 161 0
146 164 0
151 169 0
156 175 0
153 173 0
148 165 0
145 166 0
158 179 0
156 177 0
141 160 0
144 165 0
152 172 0
155 175 0
144 165 0
150 171 0
163 183 0
156 177 0
149 167 0
144 164 0
153 174 0
151 169 0
159 181 0
152 173 0
148 169 0
156 174 0
163 183 0
158 178 0
155 174 0
149 168 0
152 174 0
159 180 0
148 165 0
157 180 0
162 182 0
160 179 0
168 189 0
164 186 0
153 175 0
156 174 0
158 180 0
162 183 0
164 185 0
160 182 0
162 184 0
170 192 0
164 186 0
157 179 0
167 189 0
164 186 0
162 185 0
158 180 0
164 188 0
166 188 0
158 180 0
165 187 0
164 187 0
150 172 0
156 176 0
164 184 0
158 176 0
163 185 0
161 183 0
159 181 0
167 188 0
157 177 0
158 179 0
163 182 0
156 176 0
164 185 0
164 185 0
165 186 0
159 181 0
161 182 0
166 186 0
169 190 0
163 186 0
164 187 0
164 185 0
168 192 88
174 197 95
165 190 36
178 199 102
175 199 88
176 199 108
176 198 108
179 201 108
174 198 72
175 199 102
176 199 102
172 195 102
176 198 102
173 196 88
171 194 102
174 198 102
171 195 108
171 195 62
168 191 95
165 189 62
172 196 108
170 193 102
174 197 120
170 194 102
167 191 80
164 186 88
169 192 88
167 191 51
170 194 102
169 193 114
169 191 72
175 199 108
169 192 95
172 197 95
171 194 80
165 188 108
169 192 102
172 198 108
170 194 108
172 194 108
164 186 88
168 192 72
166 190 114
173 196 114
164 188 95
170 194 102
163 186 95
171 195 95
161 185 72
166 189 95
165 188 88
166 191 51
164 189 108
166 190 108
171 194 80
171 194 95
169 192 125
163 187 80
175 198 149
166 190 120
168 191 108
171 193 108
164 186 80
167 189 62
165 189 108
166 189 114
162 185 102
162 185 80
170 193 120
167 189 102
166 189 102
159 183 102
168 191 88
165 188 108
166 188 114
151 173 102
158 180 102
166 190 88
171 194 125
159 181 102
154 176 80
165 187 108
162 185 108
145 167 62
173 195 114
164 186 102
164 185 108
160 181 114
162 183 88
163 183 72
169 190 125
143 163 80
159 179 95
161 182 80
147 170 80
155 177 108
167 187 135
157 179 88
162 183 88
155 175 102
162 183 114
150 172 80
160 180 95
160 179 125
159 178 114
158 177 120
159 176 130
152 173 95
148 169 80
143 163 95
158 176 102
149 167 108
138 158 62
149 167 88
131 149 80
130 148 36
141 157 102
120 139 62
114 132 0
114 131 36
128 145 88
118 136 25
102 125 102
89 113 67
103 124 117
115 138 121
118 138 114
103 125 84
106 131 80
108 131 80
112 136 90
94 120 95
132 153 57
148 168 36
83 109 88
75 105 102
65 96 120
71 102 122
68 99 117
71 102 120
81 108 95
62 95 114
68 98 92
76 104 103
74 104 111
84 111 84
64 95 92
63 92 84
65 95 99
53 85 88
79 100 51
95 117 62
103 124 44
80 106 76
106 127 57
126 145 0
106 122 0
99 116 0
98 116 0
88 108 51
70 96 62
51 82 80
54 85 99
52 83 72
53 84 84
55 88 99
56 88 92
52 83 67
55 87 102
54 86 80
58 91 105
54 86 95
56 89 108
58 91 114
56 88 99
52 83 62
56 88 92
58 91 102
55 87 95
56 88 108
56 89 92
54 86 95
58 91 111
56 89 99
56 89 102
58 91 105
55 87 84
56 88 84
53 84 102
58 91 120
55 87 111
56 89 92
56 89 102
59 92 114
55 88 105
57 91 108
57 89 108
56 88 105
57 90 102
57 91 95
53 86 92
54 86 95
58 91 114
58 91 105
54 85 88
53 84 99
55 88 105
57 91 99
55 88 92
55 87 105
56 88 102
56 89 108
53 85 102
58 91 128
55 87 102
54 86 95
56 89 117
57 90 95
58 92 108
58 91 105
55 88 95
56 89 108
54 86 102
56 89 92
55 87 95
58 91 108
53 86 84
54 86 88
54 86 92
52 83 76
56 89 99
55 87 105
54 86 95
56 89 105
56 89 102
53 85 84
54 85 88
56 89 95
53 85 92
69 94 76
96 115 44
97 114 0
105 120 0
95 111 0
106 122 0
108 125 0
105 122 0
102 119 0
121 138 0
114 130 0
108 124 0
114 131 0
105 121 0
117 133 0
104 121 0
125 145 0
105 124 0
124 141 0
118 135 0
130 148 0
116 134 0
104 122 0
118 133 0
118 136 0
118 134 0
125 142 0
133 151 0
104 123 0
133 150 0
124 142 0
115 133 0
116 135 0
121 139 0
128 146 0
129 147 0
126 143 0
133 152 0
137 156 0
131 152 0
125 143 0
147 165 0
124 142 0
135 154 0
139 158 0
152 173 0
142 162 0
135 154 0
146 166 0
142 162 0
134 154 0
140 161 0
127 145 0
141 161 0
143 162 0
142 162 0
135 152 0
130 150 0
135 155 0
147 166 0
129 149 0
131 153 0
148 169 0
142 163 0
137 157 0
141 159 0
136 156 0
145 165 0
147 169 0
147 166 0
147 166 0
158 177 0
141 160 0
142 161 0
145 166 0
152 169 0
148 167 0
141 160 0
145 166 0
145 162 0
149 172 0
153 173 0
149 170 0
153 173 0
151 171 0
148 168 0
148 169 0
157 177 0
157 176 0
148 167 0
158 178 0
144 165 0
150 168 0
142 162 0
150 169 0
151 169 0
150 167 0
145 165 0
151 171 0
161 180 0
154 172 0
148 166 0
157 180 0
155 176 0
155 177 0
159 179 0
152 172 0
154 176 0
153 173 0
163 184 0
150 171 0
156 175 0
153 170 0
157 179 0
160 181 0
149 168 0
161 181 0
146 166 0
167 190 0
159 180 0
152 175 0
162 184 0
156 175 0
156 177 0
160 181 0
158 178 0
160 181 0
159 180 0
149 170 0
152 167 0
161 182 0
164 186 0
164 186 0
171 191 0
157 178 0
160 181 0
158 180 0
150 169 0
161 183 0
164 187 0
166 184 0
169 193 0
163 183 0
170 192 0
161 182 0
163 185 0
165 187 0
158 177 0
162 182 0
155 177 0
146 167 0
165 186 0
167 188 0
169 190 0
164 186 0
155 178 0
161 180 0
155 175 0
173 195 0
166 188 0
168 188 0
178 201 108
175 199 88
180 203 135
165 189 88
173 197 62
174 198 80
171 195 80
174 196 114
168 192 88
171 194 72
167 190 95
171 194 80
177 200 95
174 199 102
173 195 120
169 192 95
163 185 95
170 195 120
177 200 102
168 190 72
173 197 95
167 191 95
170 194 114
171 195 120
171 195 95
172 196 108
168 191 108
175 198 95
168 192 80
171 194 62
169 193 72
174 198 80
173 197 95
169 192 108
170 193 102
173 195 72
169 192 88
174 198 108
170 194 88
165 187 88
165 188 95
159 181 80
175 198 95
172 195 95
166 189 62
165 189 95
158 182 72
159 182 80
159 184 80
166 189 62
171 196 108
163 184 108
168 192 102
171 194 114
157 180 88
176 199 114
174 197 125
169 193 80
156 180 88
166 189 117
167 191 120
163 186 80
152 174 88
161 184 111
168 192 80
165 188 102
177 200 102
164 186 62
163 185 111
168 192 120
170 193 120
155 178 102
160 183 88
162 185 84
169 192 120
164 187 88
159 181 102
153 174 102
155 177 102
165 188 72
166 189 88
153 176 88
157 179 80
148 171 72
171 193 108
167 190 88
149 170 62
152 175 108
164 186 120
154 176 88
163 185 72
135 156 88
159 180 95
152 173 108
162 185 88
155 174 108
165 186 95
146 167 88
149 171 108
150 171 95
149 168 95
159 179 88
157 177 95
168 188 88
156 177 88
156 176 80
147 165 114
142 162 72
153 173 88
148 167 114
136 156 80
136 154 88
140 160 62
122 141 51
141 159 72
136 154 95
136 154 72
140 159 62
133 150 72
113 129 62
131 147 88
108 122 72
101 118 62
95 117 88
88 111 76
89 114 80
107 129 105
92 120 95
97 123 88
102 128 92
98 122 76
95 119 92
126 145 57
145 164 25
135 155 44
64 94 114
77 107 102
76 107 125
72 102 102
74 101 88
68 98 105
69 97 105
78 105 95
84 111 95
82 107 92
83 110 99
71 99 99
57 90 95
59 89 72
61 89 67
88 108 62
107 126 36
107 129 51
101 124 76
115 133 0
113 130 0
115 132 0
112 129 0
97 113 0
91 109 0
81 97 0
115 131 36
70 95 80
48 78 62
54 86 95
55 87 99
54 86 72
55 88 88
52 83 84
52 83 67
54 85 88
56 88 108
50 81 84
56 88 95
57 90 102
58 91 102
54 86 90
56 88 108
54 86 108
57 91 95
56 89 102
58 92 122
56 89 88
56 88 102
58 92 102
56 89 117
57 89 105
53 85 95
56 88 99
57 90 102
56 89 111
55 88 92
54 85 111
56 89 99
57 90 102
56 89 108
53 85 92
56 89 80
56 88 102
57 90 105
55 88 95
59 94 117
57 90 111
57 89 111
58 92 122
56 88 99
56 89 105
54 87 99
57 90 111
55 87 99
56 89 99
55 87 108
55 88 99
56 89 108
58 90 105
57 91 108
54 87 102
56 89 95
58 91 117
58 91 102
57 89 108
53 85 88
55 87 95
55 88 105
55 88 105
55 87 84
58 91 117
58 91 111
57 90 95
53 84 84
52 83 80
56 89 108
55 87 108
50 81 88
58 91 120
54 85 92
52 82 72
64 90 80
93 112 44
103 117 0
95 110 0
83 98 0
118 134 0
117 134 0
101 117 0
112 129 0
117 132 0
111 129 0
125 140 0
109 126 0
100 117 0
109 124 0
108 123 0
121 138 0
115 134 0
105 124 0
121 139 0
113 128 0
115 133 0
125 143 0
132 149 0
116 134 0
113 132 0
113 132 0
120 137 0
120 139 0
125 143 0
116 136 0
131 150 0
138 160 0
124 142 0
128 146 0
126 146 0
101 122 0
130 150 0
129 148 0
129 149 0
132 152 0
134 153 0
124 144 0
137 155 0
135 154 0
133 152 0
128 148 0
123 139 0
140 159 0
141 158 0
153 171 0
148 167 0
136 158 0
148 168 0
141 162 0
136 156 0
132 153 0
125 145 0
135 154 0
137 158 0
139 160 0
126 147 0
143 160 0
138 158 0
142 162 0
158 172 0
140 162 0
149 167 0
140 160 0
139 155 0
149 171 0
157 177 0
145 164 0
150 173 0
149 169 0
143 165 0
153 173 0
140 159 0
150 170 0
154 174 0
137 156 0
151 169 0
147 167 0
147 166 0
154 175 0
144 163 0
140 159 0
153 175 0
150 172 0
142 162 0
149 170 0
154 175 0
141 161 0
158 179 0
148 168 0
152 174 0
160 182 0
153 172 0
155 176 0
159 181 0
153 173 0
149 167 0
158 178 0
154 174 0
156 176 0
155 176 0
146 170 0
159 182 0
150 170 0
157 178 0
164 184 0
160 182 0
155 175 0
166 186 0
144 164 0
159 179 0
161 181 0
164 185 0
152 175 0
152 174 0
168 189 0
166 189 0
159 181 0
163 183 0
162 182 0
159 178 0
158 179 0
159 180 0
162 185 0
158 178 0
154 173 0
154 175 0
156 176 0
149 166 0
161 183 0
165 186 0
161 183 0
155 177 0
159 179 0
156 178 0
154 175 0
150 169 0
160 180 0
167 188 0
161 184 0
152 174 0
166 188 0
165 186 0
162 181 0
166 189 0
166 187 0
164 183 0
164 187 0
161 184 0
164 185 0
165 187 0
150 171 0
164 184 0
170 193 0
159 181 0
166 186 0
161 182 0
160 181 0
177 201 114
173 195 125
174 197 95
174 196 95
178 201 88
173 197 95
174 197 80
176 200 125
170 193 72
175 198 95
177 201 114
176 199 102
176 200 95
175 199 80
172 196 88
169 193 95
172 194 95
172 196 102
175 197 125
171 194 102
176 198 88
174 197 108
169 192 62
174 198 88
174 197 95
173 197 114
175 199 108
174 198 95
168 191 88
168 192 102
172 195 72
167 192 114
166 190 72
169 193 88
166 190 120
169 194 88
171 195 102
169 193 108
164 187 88
171 194 108
171 194 102
175 199 102
171 195 95
167 189 62
175 197 102
171 194 95
171 194 95
169 193 80
170 193 125
158 181 80
178 201 130
163 188 95
170 193 62
169 192 72
161 184 102
164 188 114
169 191 80
161 184 102
162 184 0
161 184 88
159 182 95
163 187 95
171 194 125
170 192 88
166 190 88
170 193 114
156 179 80
157 180 102
170 193 92
169 191 108
170 193 108
164 187 62
159 181 62
171 193 108
150 172 80
164 186 72
156 178 102
158 181 95
163 186 95
162 184 95
168 191 80
160 182 102
154 175 95
163 184 102
153 176 102
163 185 95
159 180 108
157 179 62
154 175 102
163 185 114
147 169 72
161 182 88
155 176 108
157 177 108
150 170 102
167 187 80
152 172 108
152 174 88
146 168 95
167 187 135
152 172 95
154 174 95
162 182 95
156 177 95
146 166 102
148 170 72
158 178 88
148 167 88
148 168 62
159 178 114
145 163 88
128 147 72
130 150 62
135 154 62
125 144 62
145 163 88
136 154 95
133 152 51
129 147 72
138 154 62
102 119 51
117 134 36
114 132 51
99 116 72
85 108 92
100 120 95
95 120 76
99 122 62
92 119 84
84 111 80
96 121 80
101 126 84
112 135 57
150 169 0
137 155 0
119 141 62
75 104 95
72 101 105
68 97 80
65 94 92
71 97 92
71 99 114
69 99 88
77 105 99
62 93 84
81 107 67
76 102 92
57 87 84
63 92 80
75 98 62
91 110 72
110 131 62
103 125 62
106 130 62
115 135 44
125 142 0
117 135 0
124 142 0
105 122 0
107 124 0
94 110 0
108 124 0
107 123 0
113 130 0
81 100 57
59 89 80
52 83 76
54 86 84
50 80 67
51 82 76
51 82 72
54 85 72
52 83 80
54 85 92
55 87 95
54 86 86
55 87 84
57 89 102
54 85 92
54 85 99
57 90 108
56 88 99
53 85 88
55 88 105
55 88 92
54 87 84
54 86 95
56 89 92
55 88 76
53 84 95
55 87 99
55 88 105
54 87 108
58 91 111
55 88 92
56 88 102
53 84 102
56 89 99
54 87 95
55 87 88
55 87 102
55 88 99
56 89 117
58 91 111
57 90 105
56 89 95
56 89 105
58 91 111
55 87 105
54 86 99
55 87 102
53 85 84
55 88 111
57 90 114
57 91 111
53 85 92
55 87 95
58 91 117
53 85 114
58 92 92
55 88 92
56 89 102
53 85 80
55 87 102
57 90 108
55 87 95
59 92 125
52 83 80
50 81 92
52 83 72
52 82 80
53 83 92
51 82 88
52 82 88
49 78 80
62 88 36
98 113 25
104 118 0
105 121 0
104 120 0
91 105 0
98 114 0
113 129 0
107 121 0
94 108 0
111 124 0
106 122 0
123 142 0
134 150 0
127 143 0
114 130 0
120 140 0
104 122 0
120 135 0
115 132 0
120 139 0
125 145 0
121 137 0
116 132 0
126 144 0
117 136 0
134 153 0
126 144 0
114 132 0
126 143 0
126 145 0
120 137 0
134 152 0
128 147 0
134 153 0
116 137 0
127 145 0
133 153 0
131 152 0
123 142 0
133 151 0
144 165 0
129 148 0
132 152 0
143 163 0
131 150 0
134 154 0
138 159 0
141 161 0
139 159 0
141 161 0
135 153 0
145 163 0
138 157 0
137 159 0
122 140 0
139 162 0
139 158 0
136 155 0
134 153 0
146 167 0
150 169 0
141 161 0
137 158 0
139 160 0
148 168 0
133 154 0
147 165 0
150 170 0
148 168 0
152 173 0
142 160 0
148 168 0
152 172 0
140 160 0
149 171 0
145 166 0
142 164 0
143 165 0
148 168 0
135 154 0
152 173 0
149 169 0
151 171 0
151 170 0
151 172 0
150 170 0
160 183 0
158 180 0
152 171 0
139 160 0
159 183 0
149 168 0
160 181 0
158 178 0
155 174 0
158 179 0
158 179 0
159 179 0
135 155 0
154 176 0
152 171 0
160 179 0
166 188 0
164 182 0
157 178 0
145 165 0
153 175 0
154 175 0
147 167 0
165 188 0
163 182 0
156 178 0
155 177 0
155 174 0
151 169 0
152 171 0
152 173 0
158 177 0
158 179 0
164 186 0
150 173 0
159 181 0
160 181 0
157 178 0
163 184 0
163 184 0
166 189 0
170 192 0
161 184 0
162 184 0
167 189 0
160 181 0
164 185 0
150 169 0
160 181 0
157 178 0
161 181 0
155 173 0
165 188 0
160 181 0
163 185 0
158 178 0
166 188 0
167 190 0
152 172 0
163 181 0
161 183 0
167 188 0
160 182 0
172 193 0
164 185 0
160 182 0
157 178 0
163 185 0
163 185 0
156 177 0
167 189 0
162 185 0
169 188 0
169 191 0
166 187 0
157 177 0
164 186 0
168 189 0
171 195 102
179 202 95
173 197 108
171 194 95
172 196 108
176 198 80
178 201 102
176 199 102
169 193 80
174 197 88
168 191 80
168 192 88
177 199 108
173 196 95
173 196 80
166 190 51
173 196 88
169 192 88
171 195 102
172 195 88
169 192 88
177 200 108
167 191 114
172 195 102
172 194 108
167 191 95
169 193 72
174 199 108
163 186 95
160 183 80
168 193 95
172 196 114
169 192 95
165 189 102
167 191 114
172 196 114
172 196 108
172 195 80
166 189 95
167 190 108
170 193 95
169 193 102
170 194 108
173 197 125
164 188 102
168 191 108
161 183 95
167 190 114
165 189 102
172 195 108
160 183 108
168 192 102
167 190 80
166 188 88
158 180 88
165 187 108
163 187 95
165 189 102
162 185 102
162 186 80
152 175 72
162 185 88
168 191 114
171 194 102
169 193 120
164 187 108
165 188 102
156 179 88
167 189 114
165 189 95
170 192 95
163 186 108
154 176 51
165 188 88
169 191 72
172 194 102
173 195 102
160 183 80
159 182 95
173 194 135
164 187 62
151 173 72
154 175 80
170 192 114
161 183 95
162 184 102
173 195 120
166 188 95
161 182 102
148 170 95
159 181 88
164 185 95
154 175 88
169 191 130
150 170 88
152 173 80
143 165 88
166 188 108
156 177 102
146 167 80
155 174 108
150 171 80
138 157 95
161 180 120
151 170 102
157 177 72
144 166 62
151 170 102
162 180 120
149 166 108
163 183 114
147 167 62
143 160 95
149 168 72
136 155 62
141 158 108
125 144 72
131 150 72
121 138 62
118 135 36
129 146 36
107 124 36
123 139 80
117 132 80
108 127 88
79 105 92
92 116 62
106 130 88
91 113 51
101 126 92
102 126 88
92 116 84
132 152 72
143 165 0
144 166 0
136 156 25
109 131 67
64 94 92
81 109 108
66 97 92
66 97 128
85 112 125
78 105 84
73 100 84
74 101 95
69 94 92
87 111 62
57 88 80
61 91 88
101 122 57
99 118 51
113 132 44
113 134 51
107 129 80
102 122 44
118 136 0
103 120 0
113 129 0
70 86 0
102 119 0
83 100 0
113 131 0
121 137 0
116 133 0
83 101 0
115 132 25
97 118 51
63 87 57
60 89 99
52 81 80
53 84 76
54 85 99
54 86 84
52 84 76
54 86 67
52 83 84
54 86 95
53 84 88
54 85 80
53 84 88
58 91 115
54 86 95
55 88 95
51 82 70
54 86 76
54 85 67
56 90 92
52 83 92
54 86 84
56 88 88
55 87 100
53 85 84
56 90 99
55 87 120
54 85 84
55 88 88
58 92 114
57 90 95
54 86 76
55 88 102
54 87 99
54 86 80
54 86 92
55 87 88
57 90 105
57 90 120
53 85 84
54 86 92
55 88 105
57 90 102
56 89 102
54 87 105
55 87 99
54 86 105
58 91 117
58 91 105
55 88 111
50 80 76
57 90 95
59 92 114
52 83 84
54 85 105
53 85 95
57 91 99
55 88 84
55 88 95
54 86 84
55 88 84
53 86 80
53 83 92
50 80 80
47 76 51
53 77 51
77 97 25
91 108 25
111 127 0
83 99 0
106 121 0
101 116 0
99 117 0
92 106 0
103 120 0
105 118 0
121 139 0
88 104 0
122 138 0
112 130 0
115 131 0
105 120 0
88 105 0
118 136 0
107 125 0
116 133 0
101 119 0
123 140 0
119 136 0
103 122 0
131 149 0
120 138 0
107 123 0
117 137 0
115 133 0
111 130 0
120 137 0
133 152 0
124 141 0
128 147 0
131 149 0
131 149 0
126 144 0
137 157 0
135 152 0
139 159 0
141 162 0
134 156 0
127 145 0
134 152 0
149 170 0
128 146 0
136 155 0
107 125 0
144 163 0
136 153 0
139 160 0
140 159 0
131 151 0
141 162 0
139 158 0
150 169 0
138 155 0
145 166 0
141 161 0
133 152 0
145 166 0
143 164 0
132 151 0
146 166 0
141 162 0
137 159 0
136 155 0
144 165 0
144 163 0
137 158 0
143 165 0
148 168 0
144 166 0
152 174 0
148 167 0
135 156 0
145 166 0
148 170 0
142 163 0
136 155 0
154 176 0
153 171 0
154 173 0
144 164 0
155 175 0
157 177 0
145 164 0
147 168 0
142 160 0
154 175 0
155 174 0
140 160 0
150 169 0
154 174 0
165 184 0
150 169 0
154 175 0
144 166 0
146 168 0
140 159 0
152 175 0
151 172 0
159 179 0
161 181 0
157 181 0
148 170 0
156 176 0
159 180 0
149 168 0
156 177 0
153 175 0
157 177 0
157 176 0
156 177 0
153 173 0
153 174 0
156 176 0
161 185 0
159 180 0
161 183 0
158 180 0
169 192 0
157 179 0
163 184 0
165 187 0
164 186 0
162 184 0
151 171 0
155 175 0
156 178 0
161 183 0
160 179 0
150 172 0
159 179 0
153 174 0
162 184 0
155 176 0
164 187 0
155 175 0
151 170 0
163 184 0
158 180 0
172 193 0
160 181 0
164 185 0
157 178 0
169 190 0
156 174 0
162 184 0
169 191 0
162 184 0
169 191 0
162 185 0
162 182 0
159 181 0
169 190 0
162 183 0
165 187 0
161 184 0
155 176 0
166 188 0
160 182 0
164 186 0
166 188 0
162 184 0
164 185 0
167 191 0
175 198 108
179 202 114
170 192 114
172 196 72
175 198 80
171 195 72
170 193 95
176 199 95
172 195 62
171 194 102
170 193 62
172 196 88
178 200 80
174 197 120
169 192 80
168 192 114
167 190 102
177 200 102
177 200 95
175 198 114
170 195 88
173 197 80
172 196 102
165 189 72
166 190 88
174 198 114
172 197 120
168 192 88
178 201 120
164 189 102
173 196 95
172 196 95
171 194 88
167 190 102
171 195 102
168 191 88
160 184 72
160 183 88
172 196 80
177 201 114
173 197 125
175 199 130
173 196 95
174 197 102
166 190 120
170 194 102
169 192 108
167 190 102
167 191 114
167 191 88
170 193 108
171 195 102
171 195 88
160 184 80
171 195 114
164 188 88
166 189 80
163 186 72
165 188 102
168 191 120
164 186 72
163 187 95
162 185 120
165 187 80
168 190 95
167 191 120
166 189 114
163 186 108
167 190 105
155 178 80
165 188 108
155 177 62
162 184 88
170 191 102
165 187 108
162 185 88
161 184 102
163 186 114
162 184 102
156 178 51
160 181 80
161 182 88
160 183 88
173 194 135
157 180 88
166 188 80
160 181 114
155 175 95
160 182 114
160 183 72
156 177 88
160 182 62
159 180 72
161 182 95
158 178 108
148 170 80
170 190 95
143 163 51
147 168 95
170 191 120
156 175 108
164 183 130
163 182 120
156 176 88
148 167 88
145 163 88
148 166 120
146 166 62
140 159 80
149 168 88
143 161 80
140 159 102
141 161 80
129 147 88
129 147 62
137 155 62
126 145 36
142 161 62
134 153 36
126 145 51
116 133 62
117 132 72
114 130 51
125 142 72
127 143 72
88 107 57
93 117 88
90 116 84
91 116 84
85 108 88
111 135 92
77 100 57
133 157 62
149 169 0
141 162 0
140 159 0
128 148 0
87 111 62
68 98 111
65 95 95
69 99 99
64 94 80
79 107 80
67 94 99
68 98 57
66 94 72
60 89 62
58 88 76
58 84 67
87 105 36
101 119 51
91 112 67
90 115 57
94 116 51
117 136 25
94 111 0
122 139 0
116 132 0
104 122 0
119 138 0
99 115 0
101 116 0
119 135 0
120 137 0
109 124 0
95 111 0
84 101 0
84 100 0
82 96 0
75 97 44
51 81 72
55 87 95
50 81 62
51 81 84
52 83 72
53 85 88
51 81 72
51 82 84
52 82 90
53 84 62
51 82 84
54 85 84
56 89 94
52 84 92
55 86 102
54 87 102
55 88 88
55 88 95
52 84 76
54 86 99
57 89 95
56 89 95
49 79 62
55 88 105
56 89 102
55 88 92
56 89 102
57 90 95
54 86 80
55 88 92
59 92 117
53 85 80
55 89 84
56 89 99
53 85 88
54 86 99
54 87 80
54 87 84
55 87 108
51 81 84
56 88 102
55 88 92
54 86 88
53 85 84
53 84 80
56 88 105
53 84 92
56 88 95
52 83 80
54 86 95
57 90 105
52 83 80
57 89 92
54 86 84
53 85 95
54 86 80
52 83 80
55 87 88
51 81 88
48 76 80
59 80 44
103 121 25
96 112 0
112 127 0
83 96 0
110 127 0
118 135 0
98 113 0
98 116 0
116 133 0
114 132 0
98 113 0
98 113 0
94 110 0
105 122 0
111 128 0
125 142 0
92 110 0
97 114 0
89 103 0
113 128 0
115 132 0
100 118 0
130 147 0
120 141 0
115 132 0
113 132 0
113 132 0
127 143 0
129 147 0
119 137 0
113 132 0
121 141 0
121 139 0
138 157 0
134 154 0
130 150 0
131 150 0
138 156 0
126 147 0
136 156 0
123 141 0
133 151 0
137 156 0
122 140 0
133 151 0
127 147 0
140 159 0
129 147 0
146 165 0
135 157 0
135 155 0
133 152 0
144 162 0
134 152 0
144 163 0
129 145 0
142 162 0
150 169 0
144 161 0
138 159 0
137 157 0
142 161 0
146 165 0
139 158 0
141 157 0
143 163 0
132 150 0
135 157 0
140 158 0
139 159 0
156 175 0
136 158 0
124 143 0
136 155 0
145 166 0
140 159 0
144 164 0
146 166 0
146 167 0
141 160 0
151 172 0
140 159 0
146 167 0
149 168 0
142 161 0
149 171 0
150 171 0
141 161 0
152 173 0
152 172 0
159 179 0
146 166 0
154 176 0
160 182 0
153 174 0
159 180 0
150 170 0
163 187 0
157 178 0
156 176 0
155 175 0
154 177 0
146 166 0
157 180 0
138 157 0
155 176 0
156 178 0
157 176 0
158 178 0
156 177 0
148 168 0
158 177 0
153 174 0
149 172 0
160 179 0
149 169 0
155 177 0
159 182 0
156 176 0
158 181 0
160 183 0
165 186 0
155 176 0
165 185 0
150 172 0
168 188 0
159 181 0
155 178 0
154 176 0
158 181 0
162 184 0
166 185 0
155 175 0
158 180 0
160 182 0
156 174 0
166 187 0
162 182 0
157 178 0
158 178 0
162 184 0
164 182 0
157 178 0
157 176 0
162 184 0
162 182 0
152 172 0
163 184 0
157 180 0
159 179 0
164 187 0
157 178 0
163 186 0
169 191 0
160 180 0
163 182 0
164 185 0
164 185 0
167 188 0
167 187 0
163 184 0
159 180 0
158 179 0
166 189 0
166 187 0
165 189 0
156 177 0
163 185 0
161 184 0
174 196 95
170 192 80
176 198 88
169 192 80
174 196 72
166 190 95
179 202 114
179 202 108
173 196 108
178 201 114
174 198 114
168 193 108
178 199 114
173 197 125
168 190 62
172 195 95
167 190 62
174 198 120
170 194 114
169 192 72
172 196 102
172 195 88
171 194 80
177 200 120
169 192 88
175 198 88
172 195 120
172 197 114
170 193 95
175 199 88
168 192 80
162 185 88
168 192 88
171 195 95
174 198 120
176 200 108
173 195 95
165 188 72
174 197 88
167 192 80
168 191 95
174 198 88
161 185 88
163 187 95
163 186 80
166 190 95
170 194 95
171 196 95
165 189 102
163 186 114
170 193 88
167 191 102
164 188 102
165 188 95
157 181 80
164 186 95
165 189 72
156 180 95
173 196 120
169 193 108
168 191 80
169 192 125
163 187 108
158 180 92
159 181 88
167 191 108
165 187 72
160 184 111
168 192 108
165 189 102
160 182 80
165 187 62
163 185 88
166 189 108
166 188 80
167 190 80
167 189 108
161 184 80
161 182 72
169 191 95
158 179 102
154 177 88
170 192 114
155 175 108
162 184 95
155 177 102
154 176 88
160 182 102
158 179 102
158 180 95
162 183 95
152 173 80
161 182 88
150 171 80
154 176 72
158 179 95
157 177 95
159 180 95
148 167 102
159 179 88
149 169 108
150 171 88
160 181 80
157 177 114
158 178 95
159 179 95
153 174 102
162 181 102
148 167 88
146 165 88
138 156 80
143 163 88
138 156 80
144 164 62
128 146 51
138 157 36
135 154 51
129 147 51
124 142 62
130 148 51
139 159 0
115 131 51
104 121 62
125 142 80
110 127 62
93 109 0
97 115 36
78 103 51
90 113 67
91 116 67
95 119 95
89 114 100
131 153 44
145 167 25
145 166 0
150 171 0
126 143 0
141 162 44
102 127 92
76 104 108
77 104 117
55 87 95
78 106 102
66 93 62
72 100 76
63 93 67
71 98 88
80 104 76
74 91 51
94 112 36
100 120 51
97 119 62
114 137 62
102 123 62
111 128 0
109 128 0
97 114 0
112 130 0
114 130 0
134 150 0
106 122 0
101 118 0
106 124 0
94 111 0
92 110 0
78 93 0
89 105 0
95 112 0
82 97 0
85 103 0
101 117 0
101 118 25
90 108 25
73 96 57
57 86 62
52 82 67
54 86 99
53 84 88
51 81 90
55 87 88
54 86 88
51 81 57
55 87 84
54 85 95
54 86 99
53 84 84
55 86 99
53 85 84
57 89 95
50 80 72
55 87 92
55 87 105
54 86 84
56 88 99
53 85 95
54 86 95
55 87 99
55 88 108
55 86 99
53 85 88
55 87 102
56 88 88
54 86 92
56 89 105
53 84 92
55 88 99
57 91 114
54 86 80
54 87 88
54 85 80
55 88 95
53 85 84
57 90 125
53 85 88
55 87 99
53 85 80
54 87 84
51 82 67
54 86 92
52 84 92
51 82 76
54 85 105
50 79 84
48 77 80
55 87 105
57 85 72
69 92 72
94 113 36
81 98 44
97 113 0
108 123 0
112 129 0
86 100 0
105 120 0
101 117 0
107 121 0
97 115 0
93 108 0
101 114 0
96 113 0
111 126 0
106 122 0
99 116 0
97 115 0
100 116 0
112 129 0
123 141 0
121 137 0
133 150 0
109 128 0
113 129 0
113 130 0
113 128 0
127 144 0
118 135 0
122 139 0
119 135 0
130 149 0
119 137 0
125 144 0
109 126 0
124 141 0
122 140 0
125 144 0
130 148 0
118 135 0
127 145 0
113 130 0
118 135 0
114 132 0
127 147 0
127 146 0
148 165 0
134 153 0
125 140 0
127 146 0
121 141 0
148 167 0
143 161 0
136 155 0
134 154 0
141 161 0
140 162 0
127 147 0
141 160 0
139 160 0
133 153 0
147 167 0
140 159 0
148 168 0
130 146 0
127 142 0
137 156 0
143 164 0
149 169 0
150 168 0
154 174 0
132 153 0
144 166 0
156 175 0
153 177 0
156 175 0
146 165 0
140 161 0
141 161 0
143 161 0
149 166 0
144 164 0
150 170 0
138 157 0
137 158 0
145 164 0
151 173 0
152 173 0
146 167 0
161 182 0
143 162 0
150 170 0
136 157 0
144 163 0
151 173 0
149 172 0
142 161 0
135 156 0
154 174 0
155 176 0
147 168 0
152 174 0
161 182 0
155 176 0
151 172 0
153 173 0
159 178 0
160 182 0
162 182 0
155 175 0
154 175 0
152 172 0
158 180 0
156 177 0
155 176 0
152 171 0
157 178 0
158 180 0
159 178 0
165 185 0
160 181 0
162 183 0
168 189 0
152 174 0
163 185 0
159 182 0
158 177 0
156 176 0
158 179 0
161 180 0
161 182 0
160 184 0
155 174 0
162 182 0
167 187 0
157 178 0
160 181 0
149 169 0
159 179 0
163 185 0
162 185 0
164 186 0
164 185 0
167 187 0
161 183 0
165 186 0
149 171 0
157 177 0
162 183 0
160 181 0
167 190 0
157 179 0
161 183 0
162 181 0
156 177 0
154 175 0
157 179 0
157 178 0
161 183 0
162 180 0
159 182 0
163 183 0
160 181 0
166 188 0
163 184 0
165 187 0
163 183 0
163 184 0
160 181 0
167 188 0
166 189 0
163 186 0
168 188 0
165 186 0
176 199 108
177 199 125
178 201 102
175 198 108
174 197 102
171 194 102
172 195 80
175 198 72
175 198 120
180 203 140
172 195 102
177 200 95
165 187 51
172 195 62
172 195 95
176 199 125
171 194 72
174 198 125
168 193 108
179 203 149
175 197 114
172 196 102
175 198 114
172 195 130
172 195 102
173 196 108
174 196 120
167 190 88
166 188 36
176 199 80
165 189 102
175 200 114
168 192 95
177 200 114
172 195 51
173 196 114
166 190 80
167 189 102
167 191 88
165 189 80
163 186 88
164 187 88
172 195 88
171 195 95
168 190 95
176 199 88
172 195 108
161 183 95
163 186 88
161 185 80
174 196 102
167 190 95
172 195 102
163 186 88
158 182 62
176 199 95
168 192 102
162 185 88
167 189 72
165 188 88
162 185 88
163 186 108
158 182 102
171 194 120
168 191 88
171 195 125
154 176 72
173 196 125
161 183 72
166 189 114
163 185 95
154 176 88
160 183 95
165 188 88
163 185 88
156 179 88
152 175 72
156 179 88
165 188 95
159 182 95
162 183 102
168 190 108
162 185 95
165 187 125
157 180 88
154 176 108
159 180 95
156 178 95
161 184 72
159 180 108
159 180 95
158 177 114
158 179 80
151 172 80
153 173 80
167 189 102
158 179 108
164 186 102
157 177 95
145 164 62
152 172 125
151 170 80
151 169 108
167 185 125
150 170 80
159 179 95
157 176 80
136 157 88
141 161 62
158 178 62
157 175 95
150 170 80
154 172 125
146 164 120
139 158 36
145 164 62
130 149 0
136 156 62
143 161 51
132 149 51
119 138 36
126 143 62
126 144 0
129 144 95
114 130 51
111 129 0
103 118 0
93 114 51
104 128 76
84 108 44
104 127 84
102 124 67
131 150 36
150 171 25
153 172 0
152 171 0
143 162 0
134 152 0
107 125 25
79 103 62
67 97 88
69 98 111
64 93 95
86 112 84
79 104 76
86 111 88
82 106 72
101 122 67
100 114 0
117 133 25
99 119 57
113 132 25
113 136 51
104 125 57
109 126 0
124 142 0
103 120 0
120 136 0
98 114 0
101 119 0
92 108 0
102 121 0
114 132 0
96 113 0
99 115 0
98 115 0
104 121 0
88 105 0
109 127 0
76 93 0
100 116 0
102 119 0
88 103 0
104 119 0
104 119 0
85 105 57
61 82 51
57 80 36
54 86 95
54 86 84
50 81 67
54 86 88
54 85 88
54 86 88
52 83 72
53 83 95
50 80 78
55 87 76
57 90 95
53 84 92
53 85 99
54 87 92
52 82 80
57 89 92
55 86 111
56 90 95
54 85 92
55 87 92
53 85 80
54 86 84
54 86 99
57 91 102
55 87 99
55 87 95
53 85 76
52 83 84
55 87 95
56 88 84
52 84 88
53 85 95
52 84 80
54 86 92
52 83 99
53 85 67
56 88 84
52 83 76
50 80 62
55 87 102
54 86 88
51 83 84
52 82 72
48 78 62
49 78 76
61 82 57
73 89 51
88 104 0
113 127 0
85 101 0
100 115 0
79 94 0
103 118 0
83 97 0
98 113 0
102 119 0
78 96 0
116 134 0
104 118 0
115 132 0
105 121 0
109 124 0
107 124 0
99 116 0
96 111 0
113 130 0
87 103 0
114 131 0
118 136 0
103 121 0
111 129 0
110 129 0
126 144 0
126 144 0
118 136 0
127 140 0
116 135 0
110 130 0
118 136 0
123 141 0
116 134 0
126 143 0
112 130 0
125 144 0
104 124 0
125 142 0
133 151 0
121 141 0
123 140 0
122 141 0
120 139 0
130 149 0
110 129 0
133 151 0
145 165 0
136 155 0
123 143 0
138 158 0
141 161 0
129 148 0
135 155 0
134 153 0
133 154 0
131 149 0
119 137 0
138 158 0
143 162 0
126 143 0
127 147 0
124 143 0
143 164 0
140 158 0
142 161 0
139 158 0
128 147 0
142 161 0
152 173 0
147 168 0
147 170 0
151 171 0
140 161 0
142 161 0
151 173 0
148 168 0
152 170 0
149 171 0
139 156 0
143 164 0
149 169 0
147 167 0
133 154 0
141 161 0
147 168 0
139 157 0
146 167 0
148 169 0
150 171 0
150 170 0
142 163 0
147 167 0
143 162 0
138 159 0
151 171 0
153 172 0
153 173 0
151 171 0
150 169 0
151 172 0
156 176 0
154 178 0
144 165 0
153 171 0
159 180 0
157 180 0
158 181 0
135 156 0
154 173 0
159 181 0
153 173 0
154 177 0
150 169 0
149 170 0
155 175 0
156 178 0
167 189 0
158 179 0
154 176 0
155 178 0
156 178 0
153 175 0
159 179 0
154 174 0
162 185 0
160 180 0
159 181 0
152 171 0
163 185 0
159 181 0
163 183 0
163 185 0
163 185 0
162 183 0
159 180 0
158 179 0
153 173 0
164 184 0
158 180 0
166 186 0
159 181 0
155 176 0
159 182 0
168 188 0
156 177 0
155 176 0
159 177 0
166 187 0
158 178 0
162 184 0
162 185 0
157 177 0
165 186 0
158 181 0
166 189 0
163 187 0
167 188 0
160 180 0
169 191 0
164 186 0
164 184 0
162 184 0
157 179 0
154 175 0
152 173 0
165 189 0
157 179 0
165 186 0
159 181 0
162 183 0
165 186 0
159 180 0
166 190 0
168 189 0
176 199 102
179 202 114
173 196 72
172 196 95
176 199 120
175 198 72
174 198 95
177 200 108
175 198 120
164 187 102
171 195 95
172 196 72
166 190 72
176 200 120
178 200 108
178 201 95
167 190 36
163 186 88
172 195 72
173 197 88
172 197 80
169 191 80
164 188 80
178 200 108
174 198 114
167 190 108
170 193 88
174 198 120
172 195 102
170 193 114
172 195 88
169 194 95
170 193 95
169 192 80
173 196 80
169 192 102
161 184 88
171 196 108
165 190 108
167 190 72
162 186 80
170 193 102
164 187 88
171 195 108
169 193 72
162 187 120
168 192 80
164 188 80
167 192 80
175 198 120
164 187 88
171 194 88
178 202 120
166 189 102
161 183 72
162 185 108
164 188 95
155 178 102
160 184 95
164 187 62
163 186 88
163 186 88
157 180 95
160 182 72
156 179 80
167 189 102
154 178 72
171 194 120
164 187 114
156 178 102
167 189 108
163 186 114
146 169 62
156 179 72
160 183 72
161 184 88
169 192 102
155 179 88
160 182 72
154 176 102
158 179 62
160 181 80
170 193 114
152 174 80
161 183 80
167 190 95
160 182 108
167 190 125
148 170 88
150 170 80
163 184 102
171 192 135
164 185 88
160 181 102
165 186 135
152 173 95
155 175 88
147 168 80
155 176 80
163 184 95
155 176 88
167 187 130
158 178 102
154 175 72
160 179 135
152 171 102
159 178 88
151 171 95
151 170 95
122 142 51
132 151 88
143 161 80
123 143 72
141 162 72
137 156 80
135 153 62
130 150 36
130 149 36
141 159 72
125 142 62
144 163 62
119 136 51
139 159 36
127 145 62
111 128 36
96 113 0
92 107 0
104 120 0
108 127 51
74 97 62
102 123 80
113 133 25
125 147 44
148 170 0
150 170 0
144 165 25
127 143 0
143 163 0
119 139 0
114 133 0
107 128 57
81 106 84
72 98 72
68 94 76
80 104 62
64 92 76
78 98 57
91 107 0
105 121 0
115 132 0
96 116 25
91 113 51
103 122 51
106 125 25
113 130 0
117 134 0
92 112 0
98 114 0
117 135 0
108 126 0
100 116 0
108 125 0
117 134 0
117 134 0
108 127 0
114 132 0
105 122 0
108 125 0
77 94 0
98 114 0
97 113 0
84 101 0
91 105 0
100 115 0
102 119 0
97 111 0
100 115 0
93 109 0
84 100 0
74 91 36
71 92 44
60 82 57
47 77 44
49 79 51
51 81 76
52 84 88
52 84 80
53 85 84
52 83 102
51 82 72
50 81 76
52 82 80
55 87 88
52 82 92
52 83 84
53 84 76
54 87 72
53 85 92
54 86 88
51 83 84
55 88 99
53 84 84
54 85 105
56 88 95
52 84 88
52 83 92
55 86 92
53 84 80
55 87 102
50 80 57
52 84 92
52 83 80
56 88 105
54 86 92
53 84 88
49 79 76
50 80 92
71 94 76
74 98 57
80 98 44
67 88 44
85 98 25
91 105 0
92 106 0
103 119 0
98 113 0
98 113 0
98 114 0
104 119 0
104 122 0
97 113 0
85 100 0
103 121 0
106 123 0
113 130 0
120 138 0
103 117 0
102 118 0
112 130 0
100 113 0
119 137 0
103 120 0
118 136 0
102 117 0
123 142 0
111 126 0
101 118 0
112 128 0
117 134 0
130 147 0
98 116 0
106 124 0
108 125 0
128 147 0
113 132 0
117 136 0
123 140 0
109 128 0
130 148 0
114 132 0
113 129 0
121 139 0
128 145 0
116 136 0
127 146 0
133 152 0
123 140 0
118 137 0
130 151 0
131 147 0
136 155 0
135 154 0
119 136 0
140 161 0
131 147 0
129 147 0
142 164 0
129 149 0
138 159 0
150 170 0
131 151 0
140 160 0
139 158 0
135 156 0
133 153 0
143 163 0
147 168 0
149 168 0
127 145 0
145 164 0
138 159 0
141 161 0
135 155 0
138 157 0
143 163 0
140 159 0
140 159 0
148 170 0
150 170 0
147 167 0
149 167 0
144 163 0
143 163 0
149 166 0
150 172 0
143 162 0
143 162 0
140 161 0
147 167 0
143 163 0
149 169 0
145 166 0
149 170 0
152 171 0
151 172 0
148 170 0
144 164 0
148 169 0
148 167 0
150 169 0
156 175 0
153 174 0
147 163 0
156 178 0
156 178 0
145 167 0
158 179 0
154 174 0
134 153 0
152 173 0
153 175 0
151 172 0
154 173 0
155 176 0
163 185 0
149 171 0
150 170 0
158 177 0
160 180 0
157 178 0
152 173 0
153 174 0
159 180 0
158 179 0
160 181 0
157 179 0
161 180 0
157 178 0
160 181 0
157 176 0
157 178 0
155 176 0
159 181 0
166 188 0
161 182 0
162 183 0
159 180 0
159 181 0
160 182 0
159 180 0
165 187 0
167 190 0
163 185 0
163 184 0
161 185 0
165 184 0
164 185 0
153 172 0
153 177 0
160 182 0
158 180 0
162 182 0
167 190 0
166 189 0
168 190 0
162 185 0
162 184 0
160 180 0
164 185 0
162 186 0
169 191 0
154 176 0
160 183 0
167 187 0
164 186 0
161 181 0
162 182 0
166 188 0
163 184 0
167 190 0
160 184 0
167 187 0
169 192 0
167 190 0
171 192 0
166 185 0
165 188 0
164 186 0
167 190 0
159 181 0
178 201 120
176 199 125
172 194 72
173 197 108
166 189 95
169 191 88
164 187 36
172 196 88
175 199 95
176 200 102
176 200 125
181 204 135
175 199 88
172 195 114
174 198 130
170 194 95
170 194 88
175 198 95
170 193 95
167 190 80
172 195 88
164 188 72
170 193 108
169 193 102
173 197 88
168 191 102
161 185 114
174 197 80
168 192 108
173 196 80
174 198 95
175 198 102
168 191 88
168 191 80
164 187 72
161 185 51
168 191 80
165 189 95
173 197 108
168 191 95
164 187 88
162 186 88
165 187 80
160 182 51
172 196 95
170 193 120
165 187 88
167 191 102
161 185 62
169 193 95
168 190 108
165 188 102
175 199 108
162 185 88
163 187 88
161 185 102
166 190 108
173 197 120
170 193 72
156 179 51
166 189 130
159 181 120
169 192 102
168 190 102
160 183 108
167 190 102
167 188 95
156 179 95
172 194 88
170 192 88
162 184 62
167 189 88
170 192 108
164 187 95
155 178 95
148 171 95
165 186 95
160 181 88
156 178 102
167 189 80
163 186 80
157 178 72
172 195 102
163 185 108
161 183 95
163 185 114
168 189 135
155 176 108
161 183 72
147 169 62
158 180 62
164 184 95
171 192 120
159 180 88
154 174 95
152 173 72
167 187 108
150 170 72
160 180 108
159 179 102
145 167 88
153 174 108
151 169 95
150 170 95
151 171 88
164 183 125
148 169 80
152 173 95
150 170 72
134 154 62
143 163 80
151 170 88
153 172 108
142 164 51
131 150 51
144 163 95
142 161 51
119 139 0
137 155 72
116 134 62
128 146 62
134 152 51
122 140 51
134 152 72
123 141 51
114 131 36
106 121 36
127 145 0
93 110 0
124 143 36
105 124 0
124 144 0
115 133 25
142 159 25
146 167 0
144 165 25
138 157 0
121 137 0
125 146 0
125 146 0
107 123 0
106 122 0
82 102 36
84 103 44
77 97 57
89 107 25
85 99 0
106 122 0
106 122 0
104 121 0
108 127 0
114 133 51
111 131 36
116 134 0
117 134 0
124 142 0
117 136 0
110 129 0
117 135 0
106 123 0
106 123 0
127 145 0
95 112 0
105 122 0
118 136 0
95 110 0
100 117 0
88 102 0
104 119 0
119 136 0
92 108 0
105 122 0
108 123 0
103 118 0
100 117 0
95 110 0
90 106 0
107 124 0
102 117 0
99 114 0
69 84 0
77 90 0
75 89 0
97 115 0
85 104 44
62 82 72
68 87 51
72 94 57
47 75 67
51 80 72
51 81 80
52 83 67
51 81 92
53 85 67
52 83 84
51 81 67
47 76 57
49 78 62
53 84 92
54 86 72
52 83 76
52 83 72
52 84 80
53 85 92
51 81 95
57 90 105
47 75 67
52 82 80
51 82 80
52 82 88
49 79 72
54 81 72
68 91 67
61 84 57
76 93 36
82 100 0
71 87 25
90 104 0
93 108 0
67 82 0
89 103 0
82 99 0
89 103 0
99 114 0
91 106 0
86 103 0
96 111 0
96 113 0
109 123 0
90 105 0
82 97 0
95 112 0
92 109 0
99 115 0
100 117 0
95 111 0
101 119 0
103 120 0
101 118 0
91 108 0
89 105 0
112 129 0
104 121 0
100 120 0
94 110 0
121 138 0
111 129 0
118 136 0
102 120 0
113 130 0
112 130 0
128 146 0
114 129 0
127 144 0
133 151 0
114 131 0
126 144 0
124 139 0
131 151 0
111 131 0
134 152 0
132 149 0
135 155 0
136 154 0
126 142 0
143 162 0
126 146 0
113 130 0
132 154 0
135 155 0
132 152 0
130 149 0
136 153 0
132 153 0
131 152 0
136 156 0
120 141 0
144 164 0
128 146 0
133 151 0
138 157 0
125 143 0
143 164 0
144 164 0
146 164 0
134 153 0
122 142 0
143 163 0
143 163 0
141 162 0
133 152 0
142 161 0
130 146 0
148 168 0
139 159 0
146 165 0
144 162 0
141 160 0
140 159 0
136 156 0
152 174 0
150 173 0
147 168 0
148 169 0
147 169 0
140 159 0
149 169 0
144 163 0
153 174 0
145 168 0
152 171 0
153 174 0
142 163 0
151 173 0
151 174 0
142 163 0
143 162 0
149 170 0
145 167 0
151 171 0
155 177 0
151 170 0
153 174 0
152 174 0
152 170 0
162 186 0
151 173 0
158 178 0
143 159 0
157 177 0
160 181 0
157 178 0
159 178 0
146 165 0
156 177 0
157 177 0
160 180 0
167 187 0
164 186 0
153 174 0
163 186 0
153 175 0
152 173 0
144 166 0
154 177 0
159 176 0
152 172 0
155 174 0
159 181 0
155 176 0
146 165 0
163 186 0
148 168 0
166 188 0
166 188 0
166 187 0
155 175 0
156 177 0
156 177 0
154 176 0
167 189 0
161 182 0
159 182 0
159 179 0
166 187 0
153 173 0
156 174 0
166 187 0
157 176 0
161 180 0
168 189 0
156 176 0
159 179 0
156 179 0
172 195 0
159 184 0
167 188 0
168 189 0
161 182 0
164 186 0
159 181 0
168 189 0
162 183 0
167 188 0
159 184 0
164 186 0
165 185 0
161 183 0
164 185 0
160 180 0
165 189 0
155 177 0
161 181 0
166 188 0
160 181 0
158 178 0
170 193 0
167 189 0
168 189 0
171 192 0
173 197 62
175 196 108
175 198 95
170 194 80
172 196 114
171 194 95
170 192 102
175 198 102
169 193 72
170 193 72
173 196 88
169 194 62
175 198 95
167 191 102
172 195 62
170 193 108
170 195 80
172 195 108
174 197 80
172 196 120
169 192 88
174 197 102
177 200 114
172 195 72
172 195 95
167 191 88
167 189 102
168 191 120
166 189 80
170 194 102
174 197 80
168 191 72
174 198 130
165 188 88
165 188 88
171 195 108
170 194 95
164 188 80
157 180 72
158 181 80
169 193 102
166 190 114
165 188 80
168 191 80
162 187 95
171 194 102
158 181 62
174 197 72
162 188 108
173 196 102
166 189 88
153 176 88
170 193 120
167 189 95
172 196 102
162 185 88
164 186 108
175 198 130
158 181 51
176 199 130
170 193 108
164 188 95
158 180 80
172 196 62
157 179 95
163 185 72
163 187 88
164 186 120
159 182 88
164 186 108
156 179 51
167 189 95
158 180 102
163 186 130
160 182 95
158 180 95
162 184 108
167 189 108
155 176 80
148 171 62
165 187 80
161 184 102
164 186 108
145 165 102
163 187 88
150 171 72
158 179 88
170 191 130
161 182 108
170 190 102
164 186 80
155 176 80
158 179 114
165 185 114
154 176 102
152 174 95
154 174 88
151 173 62
156 177 102
162 182 130
144 164 80
157 177 120
152 173 102
161 182 114
145 165 114
144 163 108
145 165 88
138 157 88
153 172 88
150 168 108
154 172 125
145 162 88
148 168 62
145 164 51
134 153 51
144 163 80
133 152 51
137 158 36
137 156 51
122 141 36
120 139 36
130 149 0
124 142 0
103 121 0
120 136 0
115 132 36
106 123 0
106 123 0
116 133 36
97 114 0
125 145 0
136 155 0
135 155 0
142 161 0
146 167 0
144 165 0
127 148 0
141 161 0
117 135 0
125 142 0
128 145 0
125 142 0
111 129 0
87 103 0
103 119 0
96 112 0
92 109 0
128 145 0
96 111 0
124 141 0
111 129 0
91 111 0
115 133 0
115 134 0
109 127 0
120 138 0
127 146 0
128 147 0
116 133 0
99 115 0
124 142 0
128 146 0
105 123 0
109 126 0
95 112 0
106 121 0
96 112 0
102 119 0
104 121 0
102 119 0
90 105 0
101 119 0
85 101 0
99 114 0
105 120 0
84 101 0
86 102 0
94 110 0
104 119 0
90 106 0
92 108 0
96 111 0
109 124 0
84 98 0
98 112 0
94 110 0
93 106 0
73 87 0
99 113 0
95 110 0
81 96 0
101 116 0
73 90 44
64 84 44
65 82 36
69 87 25
77 96 44
88 106 44
68 87 25
74 93 62
63 84 57
68 90 62
70 90 57
65 86 51
65 85 25
64 81 44
71 90 36
77 97 44
73 91 36
90 106 25
93 106 0
100 114 0
95 109 0
104 119 0
97 110 0
88 103 0
75 90 0
99 113 0
87 102 0
96 113 0
91 107 0
99 115 0
99 115 0
96 110 0
120 136 0
105 121 0
110 125 0
98 113 0
104 121 0
103 118 0
108 124 0
95 108 0
98 113 0
102 118 0
129 147 0
97 115 0
107 123 0
121 139 0
98 115 0
109 125 0
94 111 0
109 127 0
109 129 0
113 129 0
109 125 0
104 121 0
118 136 0
121 138 0
116 134 0
118 137 0
126 145 0
117 133 0
118 137 0
112 130 0
121 139 0
130 150 0
121 140 0
113 128 0
123 142 0
124 142 0
112 131 0
128 147 0
124 142 0
134 152 0
123 143 0
135 155 0
127 146 0
137 158 0
129 149 0
127 147 0
114 132 0
128 147 0
141 160 0
137 157 0
130 152 0
138 157 0
131 149 0
127 145 0
140 161 0
142 161 0
131 150 0
127 147 0
138 158 0
121 139 0
139 158 0
140 157 0
143 162 0
134 154 0
145 163 0
146 168 0
139 160 0
142 161 0
148 170 0
134 152 0
144 163 0
140 161 0
147 169 0
137 157 0
143 162 0
128 148 0
142 162 0
145 167 0
139 157 0
145 166 0
146 167 0
151 169 0
144 164 0
142 163 0
153 173 0
152 174 0
156 178 0
144 164 0
150 169 0
147 166 0
155 180 0
143 162 0
150 171 0
134 153 0
144 164 0
145 167 0
148 170 0
156 177 0
154 177 0
156 178 0
159 178 0
160 183 0
158 178 0
153 173 0
160 177 0
154 173 0
155 177 0
156 179 0
158 180 0
155 176 0
154 173 0
161 180 0
156 175 0
153 174 0
154 175 0
149 170 0
153 174 0
151 175 0
161 182 0
141 161 0
156 176 0
154 174 0
162 182 0
161 183 0
153 175 0
155 174 0
165 186 0
154 174 0
164 185 0
166 187 0
152 174 0
167 188 0
164 187 0
167 189 0
163 184 0
160 179 0
163 181 0
151 171 0
162 183 0
157 177 0
165 187 0
158 177 0
159 182 0
162 183 0
164 184 0
157 178 0
168 191 0
153 175 0
169 189 0
166 188 0
153 174 0
165 187 0
162 182 0
168 188 0
162 184 0
158 177 0
162 182 0
153 171 0
156 177 0
161 183 0
154 176 0
157 178 0
166 188 0
161 182 0
159 181 0
167 189 0
165 186 0
166 189 0
164 186 0
166 188 0
166 188 0
164 186 0
161 182 0
160 182 0
164 187 0
160 183 0
176 199 102
175 197 102
171 193 108
164 187 62
171 195 51
176 198 80
169 193 72
177 200 95
173 198 125
167 190 80
170 193 80
174 197 95
170 193 108
169 193 95
173 196 102
174 198 108
169 193 88
170 193 125
168 191 72
172 196 108
168 192 102
166 190 88
170 193 88
173 197 102
165 189 72
173 196 88
176 199 125
173 196 95
166 189 88
176 200 120
171 195 114
168 190 80
173 195 88
176 198 95
168 191 95
163 187 102
169 193 95
170 193 102
166 189 62
174 199 120
166 189 72
164 187 51
165 188 72
160 183 88
168 190 95
162 185 102
161 186 108
163 185 95
169 192 80
167 190 88
173 196 95
170 192 108
165 188 95
165 187 88
157 179 102
166 191 95
167 191 102
161 184 80
155 178 80
171 194 108
161 183 62
163 185 62
164 188 95
169 192 108
160 183 125
158 181 102
178 201 135
169 190 88
170 192 102
175 198 135
164 186 114
164 186 80
162 185 95
158 182 102
160 182 72
168 190 102
160 181 114
165 186 102
175 197 80
164 186 149
167 189 88
165 187 95
157 177 51
163 184 102
149 170 80
163 186 95
153 173 95
160 181 80
173 195 95
157 178 130
157 178 95
158 179 88
158 178 95
162 183 114
159 180 108
152 173 102
157 178 102
157 177 95
163 184 80
161 181 95
153 174 88
153 174 72
142 163 95
156 175 114
159 179 114
172 191 144
145 167 80
144 163 95
150 170 88
167 186 108
149 168 88
149 169 62
140 161 51
148 167 36
145 166 51
139 158 62
144 163 62
118 138 0
126 145 36
136 154 51
108 127 62
119 137 62
121 139 51
138 157 62
138 156 62
127 146 36
112 130 0
130 148 0
133 151 0
119 138 0
124 142 36
131 149 0
140 159 0
142 163 0
153 174 0
136 156 0
135 156 0
131 151 0
130 150 0
122 140 0
120 139 0
119 137 0
108 126 0
102 117 0
85 99 0
105 122 0
107 124 0
108 125 0
114 131 0
113 131 0
115 134 0
115 133 0
109 127 0
130 149 0
103 122 0
122 140 0
114 132 0
112 132 0
120 139 0
113 131 0
119 136 0
106 124 0
106 124 0
117 135 0
108 125 0
95 111 0
114 131 0
127 145 0
120 136 0
123 141 0
92 110 0
91 108 0
103 120 0
93 110 0
127 144 0
107 125 0
96 113 0
98 114 0
106 121 0
94 111 0
105 120 0
113 128 0
100 115 0
83 97 0
81 96 0
90 105 0
84 99 0
91 104 0
90 103 0
72 88 0
86 102 0
96 111 0
111 125 0
90 106 0
107 122 0
83 97 0
88 102 0
90 104 0
86 102 0
87 100 0
56 73 0
85 99 0
70 84 0
103 117 0
89 102 0
85 100 0
106 121 0
88 103 0
88 101 0
74 89 0
84 99 0
106 123 0
93 108 0
82 94 0
83 100 0
81 97 0
77 92 0
109 125 0
94 109 0
71 88 0
100 116 0
91 108 0
111 128 0
104 119 0
116 132 0
102 118 0
117 132 0
97 114 0
100 117 0
96 112 0
93 109 0
95 113 0
104 123 0
105 123 0
106 122 0
117 133 0
110 128 0
106 122 0
111 126 0
109 126 0
121 138 0
122 141 0
117 136 0
115 134 0
133 151 0
107 127 0
118 135 0
107 125 0
124 140 0
123 140 0
113 130 0
113 131 0
125 143 0
119 137 0
120 137 0
102 122 0
121 140 0
120 138 0
109 126 0
128 146 0
95 113 0
130 150 0
125 144 0
123 141 0
134 153 0
123 141 0
121 139 0
124 142 0
132 152 0
120 139 0
125 145 0
123 142 0
127 146 0
141 161 0
138 157 0
138 159 0
143 164 0
133 152 0
136 157 0
139 158 0
127 146 0
143 163 0
138 158 0
126 145 0
140 160 0
133 153 0
151 172 0
145 163 0
137 159 0
139 159 0
135 154 0
139 158 0
135 156 0
146 169 0
133 153 0
140 161 0
149 171 0
155 175 0
162 183 0
148 166 0
148 171 0
146 167 0
147 169 0
150 171 0
153 175 0
155 176 0
144 166 0
132 151 0
149 169 0
144 165 0
154 173 0
152 170 0
147 165 0
158 179 0
158 180 0
143 162 0
151 169 0
156 177 0
151 171 0
149 167 0
154 175 0
155 177 0
159 180 0
141 160 0
158 176 0
150 171 0
164 185 0
154 178 0
146 167 0
144 161 0
147 167 0
159 182 0
151 172 0
161 184 0
162 183 0
165 188 0
154 175 0
153 173 0
156 179 0
154 175 0
158 180 0
160 179 0
155 176 0
162 183 0
160 182 0
156 177 0
154 174 0
153 173 0
140 160 0
154 176 0
154 177 0
161 181 0
151 171 0
158 181 0
160 183 0
168 190 0
163 187 0
162 184 0
165 186 0
161 184 0
165 187 0
159 179 0
158 179 0
155 178 0
160 183 0
160 181 0
165 187 0
162 185 0
163 185 0
156 179 0
161 182 0
162 184 0
167 189 0
163 184 0
164 184 0
161 183 0
159 178 0
168 188 0
157 179 0
160 183 0
165 187 0
163 184 0
163 183 0
164 185 0
164 187 0
163 183 0
166 186 0
163 183 0
167 188 0
160 183 0
162 184 0
164 186 0
169 192 0
160 183 0
164 187 0
166 188 0
166 189 0
164 184 0
167 188 0
163 185 0
166 189 72
168 193 51
177 200 108
174 196 80
168 192 51
180 203 114
174 197 102
170 193 72
171 194 88
174 197 108
168 191 80
172 195 108
175 197 108
178 201 102
178 201 102
168 192 108
175 198 114
174 197 108
169 192 102
176 200 80
172 195 95
173 197 102
175 199 80
174 197 95
174 198 120
165 187 80
177 201 125
170 194 95
173 197 102
173 196 102
164 188 102
175 197 95
173 196 114
171 195 102
172 195 120
172 195 108
172 195 102
159 182 51
168 192 102
172 196 80
170 195 88
168 191 102
172 196 114
166 190 95
166 189 95
170 193 80
169 194 125
167 190 95
167 191 114
164 188 120
172 195 114
161 184 102
156 180 80
168 191 80
170 194 88
164 188 102
156 180 72
160 183 62
165 188 108
168 192 120
162 185 125
158 181 114
161 184 95
170 193 114
169 192 108
161 185 125
168 191 120
165 188 120
164 187 102
159 182 72
169 192 120
161 184 80
160 182 102
161 185 102
161 183 72
157 179 80
163 186 102
164 186 102
170 192 125
168 189 102
168 189 95
164 186 95
162 185 114
155 176 108
172 193 114
155 176 108
163 184 108
163 184 88
146 168 95
154 174 88
153 175 88
156 177 72
165 186 102
146 166 102
154 176 51
164 185 108
169 190 114
159 181 88
164 184 114
160 180 95
169 188 108
161 180 88
168 187 102
158 177 102
159 179 88
156 177 95
153 172 80
153 171 95
151 171 80
154 173 95
158 177 95
153 172 80
131 150 72
158 177 72
151 168 95
140 160 88
141 160 62
127 148 51
131 151 36
136 155 62
126 143 62
124 143 0
133 153 0
127 145 0
121 140 0
135 155 36
120 137 51
115 134 0
115 132 36
116 135 36
122 139 0
131 150 0
144 165 0
152 175 0
135 156 0
139 161 0
143 163 0
129 150 0
128 146 0
121 140 0
125 143 0
110 129 0
98 117 0
116 134 0
116 134 0
115 130 0
118 136 0
99 115 0
123 142 0
105 124 0
123 141 0
124 142 0
113 132 0
112 129 0
117 136 0
118 136 0
115 132 0
119 137 0
126 145 0
114 132 0
111 130 0
123 141 0
113 132 0
109 129 0
132 150 0
112 131 0
122 139 0
81 99 0
112 130 0
102 119 0
93 110 0
102 118 0
105 120 0
110 128 0
102 119 0
121 137 0
113 129 0
114 130 0
107 124 0
107 122 0
95 111 0
102 118 0
82 99 0
103 119 0
87 105 0
101 117 0
97 112 0
108 123 0
89 104 0
88 105 0
99 114 0
87 104 0
103 118 0
74 89 0
80 92 0
68 82 0
107 122 0
81 95 0
101 117 0
83 98 0
90 106 0
103 119 0
90 105 0
113 127 0
89 103 0
95 109 0
91 104 0
102 117 0
83 99 0
96 111 0
100 116 0
109 124 0
77 93 0
84 100 0
97 112 0
103 119 0
103 119 0
110 126 0
88 105 0
79 96 0
82 96 0
103 120 0
100 117 0
102 118 0
101 116 0
108 125 0
92 108 0
101 116 0
96 112 0
105 123 0
101 118 0
98 114 0
120 138 0
123 140 0
118 135 0
101 118 0
111 128 0
126 144 0
114 130 0
116 135 0
113 131 0
112 128 0
123 142 0
109 129 0
118 137 0
108 126 0
124 141 0
121 137 0
128 147 0
115 134 0
108 127 0
109 126 0
120 138 0
109 129 0
122 138 0
117 134 0
111 127 0
110 129 0
138 156 0
135 154 0
120 141 0
127 144 0
140 159 0
138 159 0
140 160 0
135 152 0
126 146 0
129 149 0
144 163 0
121 142 0
144 164 0
125 145 0
139 159 0
131 152 0
137 155 0
143 162 0
144 162 0
141 160 0
130 149 0
140 159 0
124 142 0
140 161 0
135 155 0
141 162 0
134 155 0
139 159 0
138 157 0
147 166 0
140 160 0
145 166 0
144 165 0
143 162 0
146 167 0
147 169 0
148 167 0
144 165 0
142 162 0
149 172 0
146 166 0
151 174 0
153 175 0
146 168 0
151 173 0
135 156 0
145 165 0
153 175 0
154 174 0
148 166 0
149 170 0
153 174 0
151 171 0
152 173 0
152 173 0
154 176 0
142 162 0
151 171 0
149 169 0
146 166 0
155 178 0
142 164 0
145 166 0
157 179 0
146 166 0
148 169 0
148 168 0
155 175 0
158 179 0
153 176 0
163 184 0
158 180 0
146 168 0
150 170 0
162 183 0
155 175 0
162 184 0
161 183 0
148 168 0
158 179 0
159 181 0
158 179 0
152 172 0
152 174 0
163 184 0
154 175 0
158 178 0
158 179 0
164 184 0
149 170 0
156 177 0
159 181 0
153 174 0
155 178 0
165 187 0
157 176 0
155 178 0
156 177 0
160 180 0
161 183 0
165 186 0
163 185 0
160 181 0
153 175 0
164 183 0
160 182 0
159 180 0
161 181 0
160 182 0
164 186 0
162 185 0
164 187 0
154 176 0
159 179 0
159 182 0
156 176 0
156 178 0
161 184 0
161 183 0
157 180 0
160 182 0
164 184 0
153 174 0
161 183 0
171 193 0
159 181 0
164 187 0
165 187 0
167 189 0
151 174 0
163 185 0
161 183 0
170 193 0
160 183 0
159 181 0
168 190 0
166 188 0
168 190 0
161 183 0
167 187 0
158 180 0
165 187 0
181 204 114
176 200 114
175 197 80
173 197 102
179 202 120
178 201 95
174 198 102
178 201 108
169 191 95
172 195 72
176 198 114
173 196 88
177 199 88
164 186 51
170 192 95
170 193 72
173 197 88
167 191 72
165 187 72
166 190 102
177 199 102
177 199 95
173 197 80
172 196 95
168 191 108
160 183 80
174 197 95
173 198 88
170 193 95
171 195 108
175 199 114
168 192 88
172 195 95
169 192 120
167 191 102
167 191 88
159 183 108
169 192 72
160 183 88
171 195 108
165 189 95
169 193 120
165 187 80
169 192 88
166 191 62
165 189 95
164 188 95
166 188 62
167 190 108
168 191 114
166 190 88
163 186 102
165 189 102
161 185 102
169 193 80
166 190 102
168 191 108
164 187 108
159 183 72
167 189 95
169 192 114
172 195 102
171 194 114
174 198 125
160 183 80
163 186 95
158 179 72
169 192 102
171 193 114
167 190 130
173 196 120
158 181 62
168 191 102
160 182 80
163 186 72
165 188 102
153 176 95
170 192 120
164 185 95
162 184 72
168 191 88
152 173 62
159 181 102
158 180 95
162 183 114
153 175 51
164 186 95
164 185 108
147 169 80
159 181 88
161 182 102
150 170 102
157 179 88
158 179 88
163 184 125
162 182 102
157 179 80
162 183 88
154 174 120
153 174 88
160 179 108
148 168 72
156 176 95
163 181 135
145 164 88
153 172 102
162 181 95
150 169 95
151 170 102
159 179 108
147 166 108
153 173 72
154 175 51
148 166 88
145 166 36
145 164 62
146 166 80
154 174 80
125 145 0
129 149 0
115 135 0
122 141 36
130 150 0
135 155 0
108 126 0
117 135 36
126 143 36
127 145 51
133 154 0
121 140 36
119 135 0
108 126 36
144 166 0
154 178 0
142 162 0
144 165 0
148 169 0
147 167 0
121 141 0
127 146 0
122 140 0
113 129 0
111 129 0
111 127 0
112 130 0
108 124 0
119 137 0
123 138 0
102 117 0
117 136 0
109 127 0
102 120 0
117 136 0
123 142 0
132 151 0
93 113 0
96 115 0
129 148 0
127 146 0
116 134 0
121 140 0
112 129 0
116 133 0
103 120 0
107 125 0
99 117 0
116 132 0
98 115 0
72 89 0
120 139 0
115 132 0
122 139 0
106 122 0
101 119 0
109 126 0
100 116 0
92 109 0
93 112 0
103 121 0
107 124 0
102 117 0
98 113 0
106 121 0
99 116 0
96 111 0
101 118 0
99 114 0
94 110 0
92 107 0
79 95 0
82 95 0
88 104 0
99 115 0
109 124 0
72 88 0
108 126 0
114 131 0
86 102 0
107 123 0
90 104 0
100 115 0
92 106 0
89 103 0
92 106 0
89 104 0
96 112 0
69 84 0
111 127 0
90 104 0
89 105 0
91 106 0
104 120 0
95 111 0
91 106 0
91 105 0
86 103 0
100 116 0
97 111 0
91 106 0
101 118 0
108 126 0
103 119 0
86 103 0
90 107 0
100 118 0
100 114 0
125 142 0
99 116 0
107 124 0
93 109 0
114 134 0
100 117 0
108 124 0
110 126 0
99 117 0
74 91 0
104 120 0
118 137 0
120 137 0
117 134 0
121 140 0
95 112 0
111 129 0
118 138 0
100 119 0
89 107 0
105 123 0
123 142 0
136 154 0
116 133 0
125 146 0
126 145 0
104 120 0
119 139 0
129 149 0
120 141 0
119 137 0
128 146 0
113 131 0
130 150 0
121 139 0
117 136 0
125 144 0
124 143 0
124 145 0
137 157 0
121 141 0
139 158 0
144 164 0
121 141 0
129 148 0
143 164 0
137 157 0
139 160 0
133 154 0
137 157 0
151 170 0
144 164 0
130 148 0
152 172 0
136 156 0
142 164 0
139 158 0
132 151 0
133 153 0
134 153 0
134 152 0
151 172 0
128 145 0
151 173 0
155 176 0
129 151 0
127 148 0
141 162 0
149 169 0
140 160 0
142 164 0
143 163 0
149 169 0
140 162 0
144 165 0
156 178 0
156 176 0
159 181 0
135 155 0
146 168 0
151 171 0
144 163 0
152 171 0
150 172 0
149 167 0
145 165 0
158 180 0
151 173 0
150 171 0
157 179 0
150 171 0
151 171 0
149 170 0
156 173 0
139 157 0
142 163 0
149 170 0
152 174 0
146 166 0
152 174 0
151 172 0
147 170 0
145 166 0
152 173 0
155 176 0
156 179 0
169 192 0
147 166 0
159 182 0
160 183 0
156 178 0
154 175 0
159 180 0
156 178 0
162 182 0
154 176 0
160 182 0
160 181 0
156 178 0
152 174 0
153 173 0
167 189 0
149 170 0
151 174 0
152 172 0
158 179 0
163 184 0
167 188 0
149 171 0
161 183 0
145 166 0
156 176 0
167 189 0
161 183 0
158 178 0
165 188 0
162 184 0
164 187 0
162 184 0
162 183 0
164 186 0
158 182 0
166 186 0
161 181 0
157 179 0
162 184 0
169 191 0
164 185 0
159 182 0
166 187 0
161 179 0
161 181 0
162 184 0
168 189 0
170 191 0
167 190 0
159 182 0
161 182 0
163 185 0
165 186 0
162 185 0
157 179 0
162 185 0
165 184 0
165 186 0
159 180 0
160 184 0
163 184 0
166 188 0
162 184 0
164 184 0
165 188 0
162 183 0
163 184 0
181 204 114
175 198 108
178 200 88
171 195 102
172 194 95
181 203 120
173 197 95
181 203 108
175 197 125
172 196 80
166 188 88
179 202 120
177 200 102
171 194 114
181 203 108
170 194 88
170 192 80
166 189 80
174 197 102
175 198 95
172 194 80
171 195 72
168 191 114
174 198 108
172 195 88
169 194 80
155 179 62
175 198 130
171 193 80
170 193 80
168 191 80
167 191 95
173 197 125
165 189 120
174 197 95
163 187 62
169 192 88
175 199 95
169 193 102
175 199 95
171 194 80
164 187 88
165 188 88
167 191 95
168 190 51
171 195 95
164 188 72
167 190 108
163 187 114
160 182 72
169 192 108
165 188 108
160 182 62
161 185 88
173 196 95
162 185 80
160 183 102
161 183 88
166 189 80
163 186 80
164 188 62
173 196 108
160 182 36
166 188 72
175 198 108
171 194 114
161 183 88
161 183 95
175 197 108
161 183 72
164 186 62
161 185 72
162 185 102
161 184 80
161 185 95
166 189 120
162 185 72
160 181 102
165 187 114
165 187 62
165 185 125
169 190 120
160 182 80
158 181 102
167 189 80
160 181 125
160 181 88
157 178 72
156 179 80
164 187 72
153 174 120
164 185 114
154 176 62
158 180 114
157 179 80
150 171 72
160 181 102
161 182 102
161 181 114
146 167 72
151 172 102
168 188 114
149 170 72
153 171 102
161 180 125
161 182 72
152 170 102
156 175 114
160 179 108
136 155 72
145 164 80
156 176 88
135 155 62
145 163 80
149 169 72
146 167 51
136 155 51
143 161 95
132 150 62
132 153 0
136 156 36
130 150 36
127 147 36
130 150 36
134 152 0
122 140 51
124 143 36
116 134 51
131 150 0
138 157 36
134 151 0
122 142 0
147 169 0
138 159 0
150 171 0
138 159 0
139 159 0
132 152 0
120 140 0
129 149 0
111 130 0
114 133 0
118 136 0
106 121 0
111 129 0
112 129 0
120 137 0
108 125 0
114 132 0
100 119 0
138 156 0
116 136 0
113 132 0
123 141 0
126 145 0
127 145 0
114 132 0
107 127 0
116 135 0
121 140 0
123 141 0
115 132 0
126 146 0
105 124 0
117 133 0
108 125 0
115 132 0
96 113 0
79 98 0
114 132 0
109 128 0
106 124 0
117 133 0
108 124 0
108 124 0
132 150 0
93 107 0
90 106 0
113 130 0
104 122 0
95 111 0
87 105 0
95 111 0
89 105 0
98 113 0
105 121 0
102 117 0
102 118 0
88 105 0
94 109 0
111 128 0
93 110 0
89 104 0
107 123 0
104 120 0
99 114 0
97 114 0
98 113 0
104 119 0
112 129 0
96 111 0
95 110 0
97 113 0
89 103 0
84 99 0
97 113 0
107 123 0
71 85 0
91 106 0
92 109 0
69 84 0
107 124 0
114 131 0
107 121 0
103 119 0
100 116 0
88 105 0
104 120 0
90 108 0
111 129 0
93 109 0
112 129 0
107 125 0
104 120 0
89 104 0
106 122 0
109 126 0
102 120 0
117 134 0
110 128 0
118 133 0
108 126 0
121 141 0
116 132 0
112 130 0
125 143 0
111 127 0
125 143 0
119 138 0
111 128 0
127 145 0
106 124 0
121 139 0
115 134 0
123 141 0
111 128 0
127 146 0
116 133 0
126 144 0
136 154 0
110 128 0
110 129 0
132 149 0
107 127 0
122 142 0
131 150 0
124 142 0
130 150 0
123 140 0
134 153 0
129 148 0
133 150 0
130 151 0
129 151 0
137 156 0
135 155 0
132 150 0
123 144 0
140 160 0
136 157 0
130 149 0
127 147 0
135 155 0
130 150 0
136 156 0
142 162 0
131 153 0
127 146 0
128 146 0
146 167 0
125 146 0
136 155 0
139 160 0
140 162 0
132 151 0
142 162 0
138 159 0
145 166 0
143 163 0
147 168 0
140 158 0
149 170 0
140 162 0
130 150 0
139 159 0
154 176 0
150 170 0
147 166 0
144 163 0
133 150 0
140 161 0
138 158 0
138 157 0
148 168 0
146 168 0
149 171 0
142 164 0
145 166 0
156 178 0
144 163 0
141 164 0
158 179 0
159 180 0
154 174 0
148 168 0
166 187 0
141 161 0
146 165 0
152 172 0
156 178 0
155 175 0
147 168 0
153 173 0
151 171 0
159 181 0
151 172 0
155 177 0
149 170 0
161 184 0
160 182 0
154 175 0
149 169 0
166 188 0
142 163 0
155 177 0
153 175 0
157 177 0
145 165 0
158 180 0
152 173 0
162 184 0
158 178 0
160 183 0
161 184 0
155 176 0
155 175 0
160 183 0
153 173 0
165 186 0
151 173 0
155 176 0
159 180 0
156 176 0
152 173 0
151 170 0
161 183 0
161 180 0
167 190 0
157 178 0
166 189 0
167 189 0
160 181 0
158 178 0
154 176 0
165 187 0
165 186 0
159 182 0
168 190 0
156 178 0
166 187 0
158 179 0
169 192 0
169 193 0
163 188 0
161 182 0
158 181 0
166 188 0
157 181 0
164 187 0
166 186 0
159 182 0
159 183 0
168 193 0
164 187 0
157 180 0
162 184 0
164 186 0
166 187 0
162 184 0
161 184 0
155 176 0
168 191 0
158 179 0
161 183 0
160 181 0
161 181 0
171 193 0
158 181 0
166 187 0
164 185 0
174 197 108
174 197 95
176 199 88
180 203 120
172 196 88
181 202 130
174 198 88
171 194 108
171 194 88
174 198 114
167 190 114
181 204 135
170 194 95
163 187 88
177 200 108
172 195 120
163 186 80
177 200 102
176 200 114
177 200 114
173 196 88
174 198 80
174 197 108
165 186 102
169 192 88
168 191 88
171 194 108
168 191 51
160 182 51
172 195 95
166 190 72
169 193 135
175 197 108
168 191 114
173 196 130
173 196 95
172 195 62
164 187 80
170 193 102
171 194 102
165 188 62
167 191 114
173 197 108
168 191 102
176 199 102
167 190 62
171 194 120
168 193 114
166 190 102
163 186 88
164 188 114
168 192 102
170 192 95
170 193 102
175 197 95
169 193 95
169 192 80
169 192 88
167 189 72
168 191 102
157 180 62
155 178 95
161 184 88
165 188 80
166 190 102
168 191 95
162 186 108
168 192 95
165 187 88
166 190 102
164 187 80
157 179 102
165 187 88
157 179 95
167 189 114
165 187 108
155 178 114
165 187 102
166 187 80
170 193 95
159 179 95
162 184 88
166 188 102
153 175 62
166 188 80
169 191 95
161 183 88
161 183 80
158 178 102
162 183 108
172 193 114
172 192 130
149 170 88
157 177 102
157 178 102
166 187 72
162 184 114
145 165 72
150 170 95
145 166 88
161 181 62
162 182 120
158 178 95
164 184 102
163 181 114
155 174 114
164 185 120
156 175 80
137 157 80
156 176 102
152 171 102
143 162 80
158 179 102
134 155 36
153 173 88
143 163 80
136 156 62
150 170 51
146 164 62
117 137 36
132 152 0
134 153 72
141 160 0
128 149 36
113 131 36
125 142 36
129 149 36
139 160 0
137 157 36
129 148 51
137 157 0
147 166 51
153 173 0
147 168 0
138 158 0
151 171 0
133 153 0
123 143 0
125 146 0
124 144 0
122 141 0
123 140 0
127 145 0
111 129 0
101 118 0
120 137 0
106 125 0
103 119 0
124 140 0
117 136 0
107 127 0
107 126 0
125 145 0
127 145 0
120 138 0
127 147 0
119 139 0
121 141 0
121 139 0
126 144 0
110 127 0
123 141 0
107 125 0
121 138 0
119 135 0
111 128 0
123 140 0
100 117 0
108 127 0
125 143 0
99 116 0
116 135 0
101 117 0
116 133 0
91 107 0
113 131 0
107 124 0
113 129 0
104 120 0
120 137 0
113 130 0
81 97 0
118 136 0
93 110 0
109 127 0
91 107 0
101 116 0
96 115 0
98 114 0
109 126 0
92 107 0
119 137 0
102 118 0
114 131 0
90 108 0
94 110 0
104 120 0
93 110 0
111 126 0
116 132 0
102 118 0
89 105 0
109 124 0
105 120 0
92 108 0
94 110 0
93 108 0
101 117 0
98 113 0
91 106 0
88 104 0
96 112 0
89 106 0
88 104 0
101 116 0
80 99 0
105 122 0
102 119 0
98 116 0
118 136 0
112 128 0
100 116 0
104 120 0
112 129 0
101 118 0
94 112 0
102 119 0
117 135 0
111 130 0
108 125 0
102 119 0
99 117 0
112 131 0
113 132 0
94 112 0
116 133 0
120 136 0
106 122 0
111 130 0
102 119 0
126 144 0
124 143 0
120 139 0
102 121 0
125 143 0
122 138 0
126 146 0
122 139 0
130 148 0
120 140 0
122 141 0
134 151 0
131 150 0
122 141 0
130 149 0
129 148 0
138 158 0
121 141 0
132 151 0
138 157 0
128 149 0
131 151 0
138 157 0
123 143 0
126 146 0
139 160 0
124 140 0
124 145 0
138 157 0
134 155 0
133 152 0
141 161 0
132 155 0
123 144 0
143 162 0
136 158 0
139 158 0
130 149 0
129 150 0
142 163 0
143 164 0
137 156 0
138 158 0
146 163 0
158 178 0
144 164 0
147 165 0
144 166 0
135 156 0
145 167 0
149 172 0
135 154 0
145 166 0
136 158 0
145 167 0
140 161 0
148 168 0
144 166 0
138 159 0
153 173 0
148 169 0
152 173 0
145 166 0
151 173 0
148 170 0
161 181 0
147 168 0
147 167 0
149 170 0
152 173 0
146 168 0
138 158 0
156 177 0
144 164 0
151 172 0
149 172 0
147 168 0
143 165 0
154 176 0
153 175 0
154 176 0
162 183 0
141 161 0
153 174 0
131 153 0
159 180 0
148 167 0
166 187 0
153 174 0
157 178 0
156 176 0
161 184 0
155 175 0
163 182 0
168 190 0
157 178 0
154 175 0
152 174 0
154 175 0
166 189 0
159 178 0
161 184 0
158 180 0
159 182 0
155 177 0
153 175 0
153 176 0
152 172 0
161 182 0
160 182 0
163 184 0
149 170 0
159 179 0
163 186 0
160 178 0
164 186 0
155 177 0
162 185 0
159 180 0
162 184 0
158 179 0
159 181 0
160 182 0
165 185 0
167 188 0
159 180 0
163 184 0
162 183 0
168 190 0
163 184 0
162 186 0
162 182 0
164 186 0
156 179 0
162 185 0
161 183 0
152 174 0
162 183 0
158 179 0
165 186 0
163 186 0
163 186 0
165 186 0
159 180 0
160 183 0
164 186 0
167 189 0
167 187 0
164 186 0
172 195 0
169 191 0
168 191 0
166 190 0
167 188 0
163 184 0
160 182 0
165 188 0
163 185 0
167 187 0
167 189 0
166 190 51
171 195 108
170 194 102
171 194 108
175 198 114
173 196 108
169 192 114
176 200 108
169 193 95
167 191 80
172 195 108
169 190 62
172 195 102
174 197 108
172 194 88
169 192 102
174 197 88
173 197 102
168 192 88
166 189 72
177 200 108
169 191 80
176 200 114
175 199 102
169 192 95
172 195 108
170 194 88
174 197 95
173 195 36
167 191 95
176 198 102
162 186 80
165 189 95
164 186 62
162 185 80
171 194 72
163 187 72
169 192 95
172 197 108
170 194 102
173 196 80
159 182 80
170 193 114
159 181 80
160 182 80
156 179 102
171 194 108
156 177 51
173 196 88
165 188 95
165 189 95
172 195 51
159 182 88
174 198 120
162 185 88
168 191 102
167 190 102
175 198 88
162 184 72
175 199 125
165 188 80
170 193 108
162 184 62
167 191 120
170 193 108
161 184 95
159 181 88
157 179 72
160 183 88
161 182 88
158 180 80
158 182 72
169 192 102
172 194 95
162 184 80
175 197 95
167 190 120
161 182 108
158 181 102
155 178 72
167 188 102
158 180 72
158 180 88
163 183 88
167 187 95
160 181 72
159 181 102
158 179 62
164 186 102
147 169 62
163 183 114
155 177 88
160 181 80
154 175 80
156 177 80
155 174 114
164 185 95
163 183 130
153 173 114
158 179 114
156 178 95
152 171 88
151 172 95
161 181 125
158 178 102
157 177 108
159 177 114
161 180 95
141 161 62
153 173 88
148 166 95
141 161 62
152 173 80
150 171 51
148 168 88
141 161 62
131 149 51
141 160 72
145 165 0
135 155 51
142 163 36
139 158 36
132 151 0
128 147 36
131 149 0
118 137 0
130 149 0
135 153 36
127 146 36
131 150 0
126 146 0
126 146 36
150 171 0
158 178 0
139 160 0
140 162 0
143 163 0
145 165 0
140 160 0
121 140 0
127 147 0
129 149 0
117 136 0
120 138 0
108 127 0
112 131 0
124 142 0
121 140 0
107 126 0
124 142 0
131 151 0
122 140 0
115 135 0
119 139 0
114 133 0
99 118 0
125 142 0
119 140 0
115 133 0
116 134 0
140 159 0
129 148 0
120 139 0
113 133 0
101 119 0
98 115 0
109 128 0
100 118 0
108 125 0
130 147 0
116 134 0
117 137 0
94 113 0
105 123 0
93 110 0
94 109 0
101 118 0
79 98 0
99 117 0
109 125 0
113 130 0
106 120 0
99 117 0
98 113 0
107 122 0
105 122 0
98 115 0
79 97 0
99 115 0
94 110 0
93 106 0
115 132 0
102 120 0
105 121 0
101 119 0
98 115 0
104 121 0
109 125 0
90 107 0
102 119 0
102 118 0
101 116 0
104 120 0
105 122 0
96 112 0
103 120 0
106 122 0
98 113 0
105 119 0
84 99 0
98 116 0
102 119 0
115 132 0
95 112 0
107 124 0
105 121 0
107 122 0
90 107 0
113 127 0
107 124 0
96 112 0
106 123 0
91 108 0
98 113 0
91 110 0
116 134 0
124 143 0
130 149 0
111 129 0
100 117 0
103 119 0
114 132 0
117 135 0
82 99 0
99 117 0
101 119 0
115 132 0
124 143 0
127 145 0
122 139 0
112 129 0
120 139 0
112 132 0
119 136 0
118 136 0
132 150 0
115 134 0
128 146 0
126 147 0
119 137 0
117 136 0
130 149 0
124 145 0
125 146 0
118 137 0
120 139 0
116 134 0
136 155 0
132 153 0
132 151 0
127 145 0
131 150 0
125 145 0
131 151 0
132 151 0
143 164 0
133 152 0
138 158 0
138 158 0
135 154 0
143 161 0
135 153 0
135 155 0
132 150 0
125 146 0
136 158 0
134 155 0
137 158 0
143 161 0
146 169 0
143 162 0
136 156 0
151 173 0
151 172 0
135 157 0
138 158 0
142 161 0
146 167 0
141 160 0
135 155 0
145 166 0
149 171 0
146 167 0
132 151 0
143 164 0
140 160 0
144 165 0
152 173 0
151 173 0
145 165 0
148 170 0
145 165 0
147 170 0
152 174 0
143 162 0
148 169 0
149 170 0
152 174 0
144 165 0
152 174 0
148 166 0
159 180 0
147 168 0
143 164 0
150 170 0
153 175 0
155 176 0
151 171 0
150 170 0
160 182 0
161 183 0
154 174 0
148 167 0
145 167 0
159 180 0
143 163 0
146 167 0
149 171 0
162 184 0
151 173 0
160 182 0
163 184 0
166 186 0
161 182 0
163 186 0
156 178 0
147 168 0
156 178 0
162 183 0
163 184 0
160 182 0
165 187 0
152 173 0
155 176 0
162 182 0
160 179 0
156 176 0
157 178 0
163 185 0
145 167 0
161 182 0
155 176 0
158 181 0
159 179 0
161 183 0
157 179 0
161 182 0
160 180 0
159 181 0
160 180 0
166 189 0
168 190 0
162 185 0
167 188 0
166 188 0
152 173 0
153 173 0
169 190 0
161 183 0
161 184 0
163 185 0
158 178 0
159 178 0
159 182 0
160 183 0
168 189 0
159 181 0
159 180 0
160 181 0
166 187 0
156 178 0
158 180 0
164 187 0
164 186 0
166 188 0
157 178 0
166 189 0
166 187 0
165 188 0
162 183 0
162 183 0
166 189 0
168 188 0
163 184 0
168 190 0
162 184 0
158 181 0
166 189 0
173 195 0
161 184 0
172 194 95
172 197 88
168 192 72
172 196 102
174 197 108
177 199 88
171 194 88
172 195 95
177 201 120
175 198 88
164 186 62
177 200 102
173 197 88
171 195 80
173 195 72
177 200 95
175 198 72
170 194 125
174 198 102
169 192 88
173 196 108
175 197 114
175 198 125
171 195 95
175 198 80
164 187 80
174 197 95
170 193 88
170 193 108
170 194 80
175 199 80
172 196 120
175 198 95
171 195 62
173 196 95
163 186 72
168 192 80
166 188 88
170 192 95
164 187 95
163 185 62
168 192 88
166 190 102
176 199 108
165 187 102
159 182 72
172 196 72
167 190 114
161 184 51
175 198 120
172 195 108
162 185 114
166 188 114
170 193 88
172 196 125
168 191 108
164 187 80
165 187 95
165 188 102
164 187 95
158 181 80
162 185 72
164 186 102
165 189 102
169 191 102
158 181 72
162 186 102
163 185 80
162 185 88
147 169 72
162 183 88
175 197 95
167 189 108
171 194 120
156 178 102
157 179 88
159 180 80
160 182 95
168 190 95
158 179 88
157 179 102
161 182 108
164 184 130
163 184 114
165 186 114
155 177 88
161 182 102
149 169 80
172 193 125
167 188 88
161 182 108
159 180 114
163 183 102
173 193 114
162 183 114
163 184 88
171 191 130
161 183 95
170 190 114
161 182 80
149 168 102
148 167 62
139 160 95
143 163 88
148 167 80
140 161 72
164 184 102
142 160 95
157 177 88
144 164 51
154 173 72
166 185 114
147 168 62
143 161 88
144 164 80
145 166 36
132 153 0
134 153 36
132 152 36
138 158 0
130 151 36
137 157 36
145 165 36
129 148 36
133 152 0
134 154 0
133 152 0
135 155 0
132 153 36
153 172 51
146 166 51
129 149 0
150 172 0
146 167 0
143 165 0
130 151 0
140 162 0
145 166 0
125 144 0
136 153 0
143 162 0
130 149 0
107 127 0
117 137 0
126 145 0
118 137 0
121 140 0
123 142 0
125 143 0
124 143 0
122 141 0
118 137 0
117 137 0
131 151 0
122 140 0
111 129 0
123 141 0
130 150 0
113 132 0
120 139 0
124 145 0
124 143 0
133 152 0
117 136 0
120 138 0
120 139 0
97 116 0
106 124 0
123 143 0
95 114 0
116 134 0
133 152 0
110 127 0
120 138 0
120 138 0
104 121 0
98 113 0
123 141 0
105 123 0
129 146 0
103 122 0
120 136 0
119 137 0
98 114 0
115 132 0
107 122 0
117 135 0
96 113 0
95 110 0
81 97 0
100 117 0
101 116 0
94 110 0
107 123 0
90 107 0
91 108 0
103 120 0
96 111 0
112 128 0
106 123 0
107 121 0
94 112 0
113 131 0
92 108 0
106 123 0
101 118 0
103 119 0
91 106 0
94 111 0
97 114 0
100 117 0
102 119 0
96 113 0
114 131 0
108 124 0
104 119 0
110 126 0
84 101 0
106 124 0
105 124 0
103 120 0
109 127 0
108 126 0
95 111 0
110 127 0
107 125 0
112 130 0
111 130 0
95 112 0
111 130 0
109 123 0
112 131 0
110 128 0
91 111 0
129 148 0
107 126 0
122 139 0
113 129 0
106 126 0
115 134 0
129 148 0
101 119 0
123 141 0
125 144 0
124 141 0
112 131 0
118 135 0
134 153 0
129 147 0
139 157 0
135 154 0
111 131 0
141 161 0
110 130 0
127 146 0
136 154 0
134 154 0
110 129 0
128 148 0
137 156 0
139 159 0
122 141 0
133 151 0
136 155 0
132 152 0
141 161 0
129 149 0
135 155 0
135 156 0
129 147 0
133 155 0
146 166 0
137 156 0
132 151 0
135 154 0
138 156 0
138 158 0
147 166 0
123 144 0
140 160 0
144 165 0
128 150 0
140 161 0
135 155 0
136 157 0
146 167 0
138 157 0
140 162 0
143 161 0
139 160 0
157 179 0
147 168 0
157 181 0
146 166 0
142 166 0
145 168 0
151 172 0
139 162 0
149 172 0
151 173 0
137 159 0
154 174 0
150 172 0
148 167 0
152 174 0
150 172 0
144 167 0
161 184 0
145 166 0
145 166 0
154 175 0
149 170 0
147 169 0
148 169 0
153 173 0
155 178 0
155 179 0
145 166 0
151 171 0
141 160 0
155 176 0
149 169 0
160 180 0
152 171 0
139 161 0
149 170 0
165 190 0
161 182 0
159 177 0
151 171 0
141 163 0
146 168 0
153 176 0
161 182 0
162 186 0
152 174 0
153 176 0
146 165 0
157 180 0
158 181 0
154 174 0
155 177 0
160 182 0
156 178 0
169 192 0
156 174 0
156 175 0
157 175 0
145 166 0
155 177 0
157 179 0
163 185 0
158 177 0
156 177 0
160 184 0
160 183 0
162 183 0
165 185 0
151 172 0
159 180 0
162 184 0
166 189 0
167 189 0
166 188 0
161 182 0
159 183 0
162 181 0
161 183 0
158 179 0
160 183 0
162 185 0
164 186 0
164 186 0
160 182 0
163 184 0
156 177 0
168 191 0
162 185 0
161 184 0
162 182 0
154 175 0
161 184 0
167 189 0
163 186 0
163 186 0
168 189 0
163 185 0
157 181 0
167 190 0
166 188 0
154 174 0
166 189 0
159 179 0
166 189 0
169 189 0
167 188 0
163 183 0
166 187 0
164 188 0
170 192 0
176 200 80
172 195 108
178 201 102
177 201 102
173 195 108
177 201 120
175 198 108
177 200 88
175 197 62
173 197 95
175 198 108
171 195 62
171 195 62
175 199 95
162 184 72
174 197 108
167 190 80
172 196 88
171 194 95
168 191 80
170 193 88
174 198 108
172 195 76
176 199 102
172 196 120
177 200 108
175 199 108
170 194 88
172 195 120
174 197 120
164 187 72
171 194 88
169 191 88
171 193 108
167 191 95
166 187 95
167 191 80
169 193 72
171 195 114
171 194 80
169 192 88
166 189 102
171 193 88
172 195 95
167 190 95
166 190 95
170 194 108
171 196 114
163 186 88
159 183 72
171 195 108
163 187 72
168 191 95
162 185 95
166 189 80
158 181 80
170 193 102
166 187 88
168 192 108
160 182 102
168 191 114
170 191 80
161 184 80
174 198 108
166 188 88
162 184 102
159 181 80
160 184 102
164 187 114
161 183 72
165 187 95
159 180 120
160 181 95
167 190 114
155 176 80
169 191 120
161 184 80
169 192 102
163 185 95
162 184 108
161 183 80
158 180 114
161 184 80
159 180 120
147 169 80
159 181 80
168 188 135
158 179 108
163 183 102
169 190 102
153 174 108
161 181 114
160 182 80
167 188 88
162 182 108
147 167 80
162 183 80
149 169 108
153 173 102
162 181 114
165 184 108
166 185 95
156 177 95
163 182 88
155 175 102
145 166 62
163 184 88
151 170 62
145 164 88
151 171 95
150 169 72
134 154 51
164 183 108
146 167 62
141 161 80
136 155 72
138 158 51
133 152 36
141 161 0
134 154 51
139 161 36
141 162 0
134 153 0
139 159 0
132 152 0
136 154 51
127 147 36
119 137 0
136 154 36
129 149 0
134 155 0
126 146 0
151 173 0
151 173 0
146 169 0
145 164 0
133 155 0
138 159 0
115 136 0
126 146 0
128 147 0
110 130 0
120 139 0
113 133 0
108 125 0
112 130 0
108 127 0
124 141 0
118 137 0
131 150 0
114 132 0
129 149 0
127 147 0
119 137 0
132 150 0
135 154 0
110 129 0
131 148 0
126 144 0
116 135 0
120 138 0
123 143 0
117 134 0
131 149 0
120 137 0
129 147 0
119 136 0
105 124 0
119 139 0
127 145 0
105 123 0
112 130 0
129 147 0
115 133 0
118 137 0
102 119 0
90 107 0
94 111 0
101 119 0
119 137 0
107 123 0
106 125 0
86 103 0
102 120 0
124 142 0
114 131 0
98 114 0
110 126 0
106 125 0
111 128 0
112 127 0
119 136 0
114 130 0
109 127 0
105 123 0
114 132 0
99 114 0
93 110 0
96 111 0
106 121 0
108 124 0
112 129 0
116 134 0
103 119 0
87 104 0
112 128 0
113 130 0
102 116 0
115 132 0
84 99 0
111 128 0
112 130 0
86 104 0
96 110 0
105 123 0
111 127 0
92 108 0
100 118 0
91 109 0
113 130 0
111 130 0
109 127 0
102 118 0
102 121 0
115 130 0
116 133 0
103 120 0
119 136 0
118 134 0
117 136 0
112 131 0
119 137 0
116 134 0
107 126 0
108 127 0
131 149 0
128 148 0
115 134 0
114 131 0
137 156 0
127 146 0
127 145 0
131 151 0
100 120 0
136 155 0
130 148 0
120 138 0
114 135 0
122 139 0
142 160 0
139 157 0
125 146 0
117 133 0
137 158 0
139 158 0
128 148 0
108 125 0
139 159 0
135 155 0
127 145 0
139 159 0
136 158 0
132 150 0
130 152 0
134 155 0
140 159 0
122 141 0
134 153 0
124 144 0
132 150 0
139 158 0
147 168 0
138 158 0
125 143 0
140 162 0
141 161 0
137 156 0
136 156 0
138 159 0
151 172 0
147 166 0
141 160 0
145 166 0
134 154 0
143 164 0
150 172 0
134 156 0
147 168 0
154 175 0
139 158 0
141 162 0
151 172 0
141 161 0
137 158 0
139 160 0
144 165 0
151 174 0
160 181 0
148 171 0
140 160 0
145 165 0
142 162 0
157 179 0
143 165 0
142 162 0
144 164 0
150 170 0
161 182 0
150 170 0
148 169 0
148 169 0
149 170 0
160 181 0
158 178 0
153 174 0
148 172 0
149 169 0
151 171 0
148 166 0
155 177 0
149 170 0
164 185 0
149 170 0
145 166 0
133 153 0
156 178 0
162 185 0
161 182 0
160 182 0
164 184 0
154 175 0
164 186 0
159 180 0
160 182 0
159 181 0
148 171 0
156 179 0
161 185 0
151 172 0
165 186 0
158 178 0
148 171 0
166 188 0
156 179 0
157 179 0
156 179 0
150 172 0
146 168 0
162 185 0
158 180 0
154 177 0
155 177 0
158 178 0
155 175 0
154 177 0
160 182 0
163 186 0
166 188 0
158 179 0
149 169 0
163 185 0
154 172 0
161 183 0
165 186 0
169 192 0
162 185 0
161 181 0
166 186 0
161 183 0
164 186 0
158 178 0
158 182 0
163 186 0
161 182 0
169 193 0
155 176 0
156 179 0
168 189 0
160 180 0
166 188 0
165 187 0
164 186 0
169 190 0
161 183 0
156 179 0
170 191 0
164 186 0
165 187 0
164 186 0
161 184 0
168 190 0
164 186 0
171 194 0
165 186 0
158 180 0
159 180 0
164 187 0
164 187 0
163 183 0
169 192 0
175 198 80
177 199 114
172 194 80
179 203 108
172 194 88
176 199 102
178 201 108
175 199 102
176 199 120
174 197 88
175 198 88
172 195 72
168 192 102
176 198 108
180 203 120
175 198 80
167 190 95
175 198 108
169 192 88
171 194 72
174 197 80
170 194 108
173 197 120
171 194 95
168 192 80
177 200 108
165 189 102
164 187 88
168 191 80
174 198 108
168 190 95
170 193 120
170 193 95
175 197 88
171 195 114
171 193 95
163 188 95
177 201 102
172 196 114
175 199 95
164 187 80
169 192 125
168 191 88
175 200 125
161 184 62
169 192 102
172 195 62
158 181 88
162 185 88
169 190 51
174 197 140
174 197 102
156 179 72
165 189 108
166 189 80
169 191 95
166 190 108
158 181 88
161 185 95
165 187 95
166 189 95
168 190 114
165 188 88
168 192 114
170 194 140
172 193 80
166 188 80
157 179 102
162 184 62
164 185 125
159 183 102
159 183 120
165 187 95
161 184 114
158 181 72
155 176 80
165 185 95
165 187 108
160 182 72
149 170 80
176 198 120
164 187 114
156 177 72
165 188 95
171 193 120
156 177 95
165 186 88
158 178 102
167 189 102
158 179 88
162 183 80
154 175 80
146 167 62
158 179 80
162 183 102
159 179 80
149 170 51
149 170 51
157 178 108
150 169 102
149 169 88
151 170 88
163 182 120
156 178 72
165 184 114
155 174 102
143 163 88
154 173 88
162 181 88
154 175 51
144 165 72
157 177 88
138 159 51
152 173 51
152 172 62
144 164 80
141 160 62
135 156 0
148 169 0
131 149 0
134 154 0
130 150 0
144 165 0
149 170 0
125 145 0
144 163 0
121 139 51
151 171 0
143 161 51
119 139 0
125 146 0
137 157 36
147 168 0
141 162 0
147 169 0
147 168 0
136 155 0
134 156 0
138 158 0
122 142 0
132 152 0
120 141 0
126 145 0
111 130 0
122 141 0
117 135 0
124 143 0
127 146 0
118 137 0
131 150 0
125 145 0
132 152 0
128 146 0
121 140 0
134 154 0
122 141 0
131 149 0
120 141 0
118 138 0
125 145 0
111 131 0
125 144 0
119 138 0
129 147 0
115 133 0
116 134 0
123 141 0
109 128 0
121 138 0
116 135 0
133 152 0
78 96 0
105 124 0
116 134 0
108 126 0
101 120 0
115 132 0
109 127 0
117 133 0
92 108 0
117 134 0
110 128 0
100 117 0
113 131 0
110 127 0
107 126 0
112 128 0
90 104 0
101 119 0
114 131 0
101 117 0
120 136 0
91 107 0
112 129 0
94 109 0
121 138 0
108 126 0
105 123 0
91 107 0
101 116 0
105 121 0
97 114 0
103 119 0
109 126 0
104 121 0
115 133 0
95 111 0
116 134 0
95 112 0
93 110 0
120 138 0
126 143 0
116 134 0
113 129 0
96 114 0
113 131 0
111 128 0
112 130 0
103 121 0
105 122 0
125 142 0
93 111 0
100 119 0
97 113 0
131 150 0
124 145 0
125 141 0
110 128 0
120 138 0
126 144 0
125 144 0
121 140 0
130 147 0
119 137 0
120 138 0
122 140 0
118 135 0
133 152 0
120 138 0
120 138 0
124 145 0
117 138 0
123 142 0
126 143 0
123 143 0
133 154 0
123 141 0
123 141 0
114 134 0
132 152 0
142 162 0
130 148 0
123 141 0
130 149 0
125 145 0
133 152 0
132 152 0
143 161 0
133 152 0
141 161 0
140 161 0
128 147 0
134 155 0
140 159 0
132 153 0
130 150 0
133 153 0
136 155 0
146 165 0
131 153 0
138 159 0
127 145 0
140 160 0
132 151 0
117 139 0
150 172 0
143 164 0
144 166 0
138 158 0
142 162 0
137 157 0
151 171 0
130 150 0
150 168 0
138 159 0
149 171 0
137 157 0
139 159 0
135 155 0
150 170 0
142 160 0
143 164 0
146 167 0
144 165 0
141 161 0
146 166 0
155 177 0
147 168 0
137 159 0
147 166 0
147 169 0
159 180 0
132 151 0
150 171 0
157 178 0
154 175 0
150 170 0
147 169 0
142 164 0
161 180 0
156 179 0
147 170 0
139 160 0
159 181 0
145 165 0
150 173 0
149 169 0
154 175 0
146 166 0
152 172 0
153 174 0
148 168 0
156 176 0
158 177 0
148 169 0
151 171 0
155 178 0
160 181 0
156 177 0
160 181 0
153 176 0
153 176 0
140 160 0
159 181 0
155 176 0
162 184 0
146 166 0
159 180 0
159 180 0
163 185 0
159 182 0
156 177 0
156 177 0
161 181 0
164 187 0
154 174 0
162 185 0
157 180 0
158 180 0
163 185 0
159 182 0
153 176 0
147 168 0
154 178 0
154 176 0
155 177 0
167 189 0
169 191 0
155 176 0
163 184 0
161 182 0
163 186 0
162 184 0
166 186 0
164 185 0
162 184 0
161 183 0
168 190 0
162 184 0
159 183 0
159 179 0
168 190 0
164 185 0
163 185 0
165 188 0
166 187 0
167 188 0
161 181 0
161 181 0
166 187 0
160 181 0
169 190 0
168 190 0
162 184 0
164 187 0
165 186 0
163 184 0
167 189 0
163 185 0
164 186 0
157 179 0
170 192 0
162 184 0
165 189 0
160 184 0
167 189 0
168 191 0
163 184 0
159 182 0
158 181 0
172 195 80
176 198 88
176 200 88
175 198 108
183 204 135
175 199 88
176 199 95
171 195 102
175 197 102
172 195 80
174 196 62
175 198 120
167 190 76
178 200 125
170 194 108
166 190 62
168 191 88
179 202 120
173 196 88
174 197 102
173 194 102
175 199 102
164 188 62
171 195 88
173 196 102
174 197 108
165 188 72
169 193 88
174 197 88
170 193 102
174 196 102
169 193 102
170 193 88
167 191 72
169 192 95
174 196 108
163 186 72
171 194 135
170 193 108
165 188 88
162 185 80
166 189 80
164 188 95
165 189 102
169 191 80
175 197 120
169 192 102
171 194 88
160 184 80
166 189 80
167 189 88
169 192 108
166 190 80
166 189 80
166 190 108
178 200 114
169 191 80
170 192 72
173 197 108
165 188 114
167 191 95
169 192 88
166 189 95
158 179 80
171 194 72
156 178 108
170 193 80
168 191 88
161 183 95
173 195 125
163 185 62
159 182 51
154 177 114
168 190 114
164 185 95
159 181 108
160 181 88
161 184 88
149 171 51
163 185 88
160 182 88
166 186 108
167 189 108
155 176 62
168 189 88
163 183 95
166 188 130
159 180 102
167 188 102
165 186 80
164 185 88
153 173 72
150 172 62
164 185 88
161 182 102
157 177 102
154 174 80
151 172 95
164 184 108
161 182 80
148 169 62
164 184 114
155 174 88
146 165 102
150 170 62
147 167 80
164 184 108
147 167 88
162 182 95
138 157 80
146 166 62
165 187 62
162 182 62
141 161 51
147 167 62
147 167 62
151 170 51
141 161 0
143 163 0
142 163 51
140 162 0
130 151 0
131 153 36
141 161 36
136 156 36
139 160 51
132 152 0
142 160 36
144 164 0
127 147 36
141 161 0
145 167 0
153 176 0
128 147 0
148 169 0
143 162 0
151 172 0
142 162 0
138 158 0
143 165 0
125 146 0
138 157 0
135 154 0
123 143 0
101 122 0
124 142 0
126 145 0
126 145 0
122 140 0
139 157 0
130 150 0
143 163 0
129 148 0
108 128 0
119 139 0
133 154 0
124 143 0
123 143 0
126 145 0
106 124 0
130 150 0
122 140 0
136 154 0
111 130 0
114 132 0
92 112 0
118 137 0
117 134 0
126 145 0
114 133 0
133 152 0
115 133 0
110 129 0
114 131 0
118 136 0
107 124 0
125 144 0
107 124 0
117 134 0
118 136 0
117 134 0
116 134 0
124 142 0
108 127 0
111 129 0
94 110 0
113 130 0
123 142 0
105 122 0
129 148 0
109 125 0
99 118 0
93 112 0
107 124 0
112 127 0
102 119 0
89 104 0
114 132 0
114 131 0
113 130 0
116 135 0
93 112 0
101 118 0
112 130 0
102 118 0
125 141 0
103 120 0
95 112 0
100 117 0
119 137 0
106 124 0
98 116 0
107 125 0
115 134 0
120 137 0
98 116 0
114 130 0
114 132 0
105 122 0
111 129 0
115 132 0
120 137 0
110 128 0
118 136 0
109 128 0
109 129 0
109 126 0
127 145 0
120 138 0
130 148 0
116 133 0
112 129 0
112 130 0
119 138 0
119 138 0
112 131 0
126 145 0
125 145 0
125 143 0
116 134 0
110 128 0
124 142 0
125 143 0
111 129 0
126 146 0
127 145 0
140 158 0
125 143 0
119 139 0
125 144 0
125 145 0
121 141 0
129 148 0
133 152 0
131 149 0
125 144 0
132 152 0
129 150 0
133 153 0
130 151 0
118 137 0
143 162 0
120 141 0
129 150 0
140 161 0
144 165 0
134 154 0
132 153 0
145 165 0
124 143 0
140 160 0
139 157 0
131 152 0
133 154 0
147 164 0
139 159 0
154 175 0
139 160 0
143 163 0
148 167 0
139 161 0
147 169 0
133 151 0
137 158 0
135 157 0
144 162 0
137 158 0
142 162 0
159 181 0
140 161 0
144 165 0
137 158 0
148 170 0
151 172 0
142 164 0
155 176 0
150 170 0
142 163 0
143 162 0
144 165 0
149 170 0
139 161 0
157 179 0
151 173 0
151 173 0
135 155 0
143 162 0
150 172 0
153 174 0
154 176 0
152 174 0
151 172 0
149 171 0
152 174 0
158 178 0
154 174 0
155 174 0
149 171 0
145 166 0
154 176 0
158 178 0
157 178 0
150 172 0
160 182 0
156 178 0
154 173 0
150 173 0
159 181 0
153 174 0
146 169 0
164 185 0
152 173 0
158 180 0
153 173 0
155 176 0
157 177 0
158 182 0
154 175 0
154 175 0
163 186 0
161 183 0
150 169 0
154 177 0
159 181 0
162 183 0
150 173 0
155 176 0
168 190 0
161 184 0
150 173 0
164 184 0
149 170 0
159 180 0
164 188 0
165 185 0
156 177 0
160 183 0
151 173 0
163 185 0
153 175 0
161 184 0
154 173 0
159 183 0
156 177 0
166 188 0
165 189 0
154 175 0
161 183 0
161 182 0
162 184 0
155 176 0
157 181 0
160 181 0
161 182 0
165 189 0
169 192 0
156 178 0
171 195 0
163 185 0
168 189 0
162 186 0
162 184 0
161 183 0
168 186 0
167 190 0
164 187 0
162 183 0
170 191 0
157 179 0
170 193 0
159 180 0
167 189 0
170 191 0
166 189 0
163 185 0
156 178 0
167 187 0
165 187 0
171 193 0
167 189 0
174 197 95
179 202 108
176 198 88
179 201 114
174 197 120
166 190 62
176 199 102
181 204 125
172 194 108
181 203 108
175 198 95
162 185 88
174 198 88
176 199 108
173 196 88
173 198 72
179 202 120
176 199 120
164 188 80
174 197 102
172 194 95
181 203 114
171 195 102
175 198 95
171 193 95
165 188 36
163 186 72
169 193 108
177 200 114
169 192 80
169 193 108
170 192 95
170 193 95
161 183 72
174 197 108
170 192 72
174 196 88
173 196 108
164 187 95
171 194 114
167 190 72
166 190 108
165 187 95
171 196 130
167 188 80
162 184 88
165 189 80
170 193 102
170 193 72
163 185 102
163 186 108
171 193 102
172 196 108
166 189 80
157 180 51
160 183 62
172 195 102
158 181 72
163 187 80
172 194 102
163 185 80
171 195 114
160 184 80
172 194 102
159 181 80
174 196 108
160 183 62
157 179 102
159 180 80
163 186 102
166 189 102
150 172 80
157 180 62
161 182 80
164 187 114
165 187 95
160 183 80
175 197 125
161 183 72
170 192 108
161 182 114
172 194 120
153 174 102
162 184 80
169 190 114
178 198 140
162 183 102
164 186 72
166 187 108
169 189 114
160 181 95
151 172 72
163 184 120
155 175 62
158 179 51
158 177 114
147 168 72
150 170 80
162 183 95
158 179 88
168 188 114
161 180 108
155 175 95
157 176 102
155 177 62
154 174 72
148 170 62
147 169 62
159 177 102
138 159 51
155 176 88
161 180 95
156 175 80
150 170 72
146 168 62
136 156 36
148 170 36
127 147 0
142 162 0
140 162 0
145 166 0
143 164 36
140 160 36
132 153 36
123 142 36
133 153 0
138 158 0
134 154 36
131 150 0
134 154 0
144 164 0
154 175 0
154 176 0
154 177 0
146 168 0
135 156 0
133 154 0
132 153 0
144 163 0
134 155 0
132 152 0
132 152 0
127 146 0
126 147 0
122 141 0
138 159 0
118 137 0
127 146 0
122 141 0
124 144 0
134 154 0
131 151 0
131 151 0
125 145 0
120 141 0
124 144 0
126 145 0
120 139 0
132 151 0
114 132 0
133 152 0
139 159 0
120 139 0
124 144 0
124 143 0
135 154 0
135 154 0
124 145 0
113 133 0
131 150 0
110 128 0
117 136 0
111 131 0
131 149 0
116 133 0
114 131 0
120 139 0
127 147 0
117 134 0
110 128 0
116 135 0
118 135 0
97 118 0
103 122 0
113 131 0
93 110 0
118 138 0
110 127 0
120 139 0
119 137 0
120 138 0
111 128 0
121 139 0
99 117 0
96 113 0
106 123 0
97 115 0
102 118 0
101 118 0
105 122 0
111 129 0
104 121 0
118 133 0
110 127 0
107 125 0
119 135 0
118 136 0
107 123 0
110 127 0
114 131 0
106 125 0
106 123 0
116 135 0
101 118 0
115 132 0
117 134 0
104 120 0
115 134 0
105 124 0
109 128 0
124 142 0
106 123 0
118 137 0
104 123 0
131 149 0
138 157 0
111 128 0
124 140 0
107 126 0
111 129 0
110 128 0
125 145 0
103 123 0
129 148 0
125 144 0
125 144 0
122 142 0
121 139 0
127 146 0
100 116 0
126 146 0
125 144 0
122 142 0
117 135 0
108 127 0
136 158 0
131 151 0
127 147 0
122 143 0
127 148 0
118 136 0
139 160 0
130 148 0
130 150 0
144 165 0
131 151 0
122 141 0
142 163 0
132 151 0
117 137 0
128 148 0
127 147 0
123 143 0
143 163 0
142 162 0
131 152 0
141 161 0
137 155 0
131 151 0
129 148 0
144 165 0
134 154 0
145 165 0
151 170 0
134 153 0
136 157 0
130 152 0
135 154 0
145 164 0
131 152 0
146 168 0
137 160 0
134 152 0
136 157 0
139 160 0
148 168 0
152 174 0
132 153 0
136 158 0
158 179 0
139 160 0
157 178 0
152 173 0
143 163 0
144 164 0
140 163 0
144 164 0
148 169 0
147 169 0
151 173 0
141 162 0
154 176 0
146 168 0
148 169 0
146 166 0
147 168 0
150 171 0
147 167 0
149 171 0
157 178 0
158 178 0
154 173 0
147 169 0
155 176 0
149 169 0
160 182 0
159 181 0
153 175 0
149 169 0
157 178 0
151 174 0
152 172 0
160 182 0
152 173 0
147 167 0
153 173 0
161 185 0
157 177 0
158 180 0
162 183 0
150 173 0
152 174 0
170 193 0
157 179 0
158 179 0
166 189 0
151 172 0
151 171 0
164 185 0
154 175 0
165 186 0
159 181 0
157 180 0
156 179 0
155 176 0
159 181 0
154 175 0
161 183 0
167 188 0
160 182 0
162 186 0
164 185 0
149 169 0
159 181 0
153 175 0
161 183 0
153 176 0
163 185 0
159 180 0
160 182 0
165 187 0
168 191 0
157 178 0
159 180 0
162 183 0
163 186 0
163 181 0
164 187 0
161 183 0
155 178 0
166 188 0
154 174 0
160 183 0
164 187 0
162 182 0
160 181 0
159 180 0
158 180 0
168 190 0
170 192 0
166 188 0
158 179 0
173 194 0
164 187 0
162 183 0
169 191 0
163 185 0
166 188 0
166 189 0
168 190 0
166 189 0
170 194 0
163 185 0
170 193 0
161 183 0
167 187 0
170 191 0
165 185 0
171 192 0
168 190 0
179 202 120
174 196 102
174 196 51
178 201 102
180 203 120
169 192 62
183 205 130
172 195 62
173 194 80
177 200 102
168 190 88
170 193 102
167 190 102
172 195 102
174 197 102
174 197 95
173 196 120
164 188 51
167 189 51
171 195 88
170 193 80
168 192 80
173 196 80
173 196 114
174 196 72
170 193 125
169 193 95
161 185 88
173 196 114
166 189 95
163 186 102
173 197 125
160 184 88
177 200 95
172 196 114
165 189 102
168 191 120
173 196 95
163 186 80
175 197 108
169 193 95
169 193 95
169 192 108
168 191 95
169 192 72
160 184 62
167 191 80
175 199 130
166 189 80
163 185 72
170 193 80
168 191 88
168 192 102
162 186 102
163 186 108
165 187 95
170 193 102
166 188 88
167 190 72
163 185 51
167 190 62
169 192 102
155 177 95
168 191 80
172 195 120
168 191 108
176 196 108
161 183 95
161 183 88
168 189 108
156 178 72
160 182 95
158 181 102
155 177 102
163 186 108
146 169 72
166 186 95
160 182 51
152 175 95
154 175 80
164 186 102
156 177 80
163 186 125
163 186 95
172 193 120
154 175 95
168 189 95
155 176 95
161 183 95
158 178 80
156 176 95
159 179 102
161 182 120
163 184 108
154 175 72
163 184 95
148 168 102
153 174 95
165 185 125
158 178 95
162 182 114
166 185 125
143 163 62
159 180 72
147 167 95
173 193 108
155 175 95
150 171 80
159 178 88
140 161 51
150 171 62
156 175 88
159 179 80
147 166 51
150 172 80
146 166 36
139 160 51
148 169 51
139 161 0
123 144 36
143 163 36
133 152 0
135 156 0
127 148 0
142 163 36
150 171 36
140 160 0
134 156 36
135 157 0
137 159 0
131 152 36
150 171 36
157 179 0
145 166 0
154 176 0
141 163 0
132 155 0
144 165 0
134 156 0
145 166 0
133 153 0
136 156 0
141 161 0
120 140 0
107 126 0
134 155 0
141 161 0
123 143 0
130 150 0
117 137 0
118 139 0
118 137 0
117 137 0
131 149 0
122 142 0
139 158 0
123 142 0
141 159 0
134 153 0
124 144 0
123 143 0
125 145 0
126 146 0
120 138 0
124 144 0
132 151 0
115 135 0
125 143 0
116 135 0
110 128 0
124 143 0
137 157 0
123 142 0
120 139 0
107 124 0
112 130 0
108 128 0
121 139 0
117 134 0
102 121 0
98 115 0
114 132 0
110 127 0
108 127 0
119 137 0
113 130 0
111 127 0
103 121 0
128 144 0
130 148 0
98 114 0
113 131 0
122 142 0
129 147 0
107 125 0
107 124 0
111 129 0
124 143 0
106 124 0
107 126 0
112 131 0
113 131 0
117 133 0
122 139 0
115 132 0
102 119 0
92 109 0
121 138 0
123 141 0
112 131 0
114 132 0
114 131 0
80 100 0
108 125 0
114 132 0
123 141 0
117 133 0
120 138 0
112 131 0
116 133 0
129 148 0
105 123 0
96 114 0
120 138 0
118 137 0
133 152 0
94 113 0
119 138 0
120 141 0
126 146 0
110 128 0
97 115 0
121 137 0
128 145 0
140 157 0
130 149 0
123 141 0
109 128 0
122 142 0
118 135 0
129 150 0
130 151 0
107 125 0
143 164 0
123 141 0
143 164 0
128 144 0
113 133 0
135 153 0
134 154 0
130 150 0
133 155 0
120 139 0
133 154 0
133 154 0
125 146 0
125 146 0
144 162 0
130 150 0
128 149 0
130 149 0
117 139 0
141 161 0
146 167 0
136 155 0
143 162 0
139 160 0
131 150 0
149 169 0
134 156 0
154 174 0
136 155 0
130 150 0
143 163 0
146 167 0
138 159 0
140 160 0
135 157 0
134 155 0
153 174 0
144 165 0
149 169 0
146 166 0
152 172 0
148 168 0
149 171 0
150 171 0
142 163 0
150 172 0
151 171 0
145 166 0
150 172 0
152 174 0
143 163 0
162 184 0
152 174 0
154 176 0
147 169 0
151 173 0
148 168 0
149 167 0
146 167 0
144 165 0
153 175 0
153 174 0
146 168 0
150 171 0
144 164 0
140 160 0
155 176 0
146 167 0
150 171 0
156 177 0
149 171 0
149 171 0
158 180 0
150 173 0
156 180 0
155 175 0
152 172 0
147 168 0
149 171 0
152 173 0
155 176 0
147 170 0
151 174 0
156 179 0
154 177 0
160 182 0
151 172 0
151 173 0
150 170 0
157 180 0
150 173 0
163 184 0
156 179 0
163 185 0
162 183 0
158 179 0
162 185 0
154 176 0
153 174 0
151 174 0
164 185 0
157 179 0
161 181 0
159 179 0
151 173 0
156 178 0
160 182 0
157 177 0
158 180 0
162 184 0
158 178 0
154 177 0
151 173 0
162 184 0
167 190 0
159 182 0
151 172 0
168 191 0
161 182 0
165 188 0
165 189 0
161 183 0
159 181 0
163 184 0
162 185 0
155 178 0
160 182 0
172 194 0
160 182 0
164 185 0
164 186 0
164 188 0
158 181 0
160 181 0
165 188 0
162 183 0
170 190 0
166 189 0
163 186 0
162 183 0
164 186 0
166 187 0
170 191 0
166 190 0
170 192 0
165 185 0
166 189 0
163 184 0
169 192 0
167 190 0
170 193 0
166 190 0
168 191 0
161 184 0
165 187 0
168 190 0
161 183 0
170 194 80
173 196 88
175 198 95
175 199 88
178 199 102
175 198 95
170 194 95
178 199 88
176 199 120
172 195 80
176 198 72
178 201 125
167 190 62
177 201 95
168 192 80
171 195 88
172 195 102
173 196 102
172 195 72
173 196 102
174 198 114
165 187 80
170 194 95
166 189 95
169 193 95
179 202 120
173 196 80
167 190 72
169 192 88
173 195 108
176 198 95
169 192 95
172 196 108
165 189 51
164 187 80
169 192 88
163 187 80
169 192 102
171 193 62
164 187 108
165 189 108
173 196 95
164 187 62
176 200 144
162 185 80
171 194 72
163 187 102
160 185 80
169 190 102
166 189 125
166 190 80
168 190 88
162 185 80
164 186 95
169 191 80
165 189 72
162 184 72
160 183 125
165 187 114
176 198 153
162 184 88
158 181 88
165 187 80
169 190 114
168 190 72
161 184 95
166 190 88
166 189 95
160 183 108
176 198 130
165 188 114
160 182 72
170 192 95
172 195 125
168 190 80
171 193 108
171 191 102
163 185 95
165 188 120
162 183 88
162 183 95
158 180 108
156 177 72
163 184 95
165 186 120
162 184 95
154 174 88
148 168 80
167 188 88
153 173 72
154 175 108
157 177 95
165 185 135
158 179 88
159 180 95
167 188 95
161 180 102
162 182 102
153 172 88
155 174 114
161 181 102
149 170 88
147 169 72
157 177 102
151 170 72
157 178 72
160 180 95
157 176 88
157 177 72
146 166 72
139 158 62
154 174 95
153 171 80
150 170 80
146 166 62
126 148 51
151 171 36
148 168 0
153 174 0
147 169 51
144 166 0
144 165 0
148 169 0
140 160 36
151 172 36
157 177 0
139 160 0
152 173 51
148 169 0
145 166 36
127 147 0
154 176 0
151 174 0
147 168 0
162 184 0
135 157 0
147 169 0
141 161 0
128 149 0
135 155 0
125 145 0
127 147 0
121 141 0
134 153 0
121 141 0
127 147 0
126 146 0
126 145 0
135 154 0
134 154 0
134 153 0
142 162 0
120 140 0
141 161 0
140 160 0
131 150 0
127 147 0
125 147 0
128 149 0
128 147 0
115 134 0
125 144 0
125 144 0
129 149 0
117 138 0
120 140 0
123 143 0
112 131 0
115 135 0
119 137 0
118 137 0
124 145 0
138 157 0
123 142 0
106 125 0
133 150 0
116 134 0
128 147 0
116 136 0
91 108 0
128 149 0
125 143 0
114 133 0
122 140 0
116 134 0
107 127 0
113 130 0
116 133 0
106 125 0
107 124 0
107 125 0
114 132 0
125 143 0
103 120 0
116 133 0
107 125 0
108 126 0
107 124 0
119 137 0
131 151 0
124 143 0
104 121 0
107 126 0
122 139 0
120 137 0
109 127 0
87 106 0
108 126 0
116 134 0
108 126 0
103 121 0
104 121 0
98 115 0
117 136 0
117 135 0
103 121 0
111 131 0
118 138 0
128 146 0
114 132 0
118 136 0
115 133 0
109 127 0
119 138 0
113 130 0
118 137 0
111 130 0
103 120 0
131 150 0
103 123 0
126 146 0
126 146 0
115 133 0
130 149 0
129 148 0
105 125 0
123 141 0
123 144 0
113 132 0
123 142 0
122 141 0
138 158 0
132 152 0
128 149 0
117 134 0
110 129 0
141 159 0
129 149 0
145 164 0
115 135 0
125 146 0
126 146 0
123 143 0
134 154 0
129 148 0
134 154 0
135 153 0
142 163 0
110 131 0
121 140 0
141 161 0
138 159 0
108 127 0
139 161 0
144 163 0
143 162 0
131 152 0
142 163 0
132 152 0
146 167 0
147 168 0
119 136 0
133 153 0
130 151 0
133 154 0
129 150 0
140 161 0
139 159 0
147 169 0
134 154 0
145 166 0
140 163 0
141 161 0
144 165 0
145 165 0
140 161 0
147 168 0
147 167 0
148 168 0
145 165 0
153 175 0
155 177 0
139 159 0
144 164 0
144 165 0
141 162 0
148 171 0
149 168 0
149 169 0
147 168 0
154 176 0
144 167 0
156 178 0
155 177 0
146 167 0
159 182 0
154 171 0
150 171 0
145 164 0
153 174 0
152 173 0
144 165 0
152 174 0
155 178 0
156 177 0
150 171 0
158 179 0
156 178 0
161 183 0
153 174 0
154 176 0
151 174 0
155 178 0
153 172 0
165 187 0
139 160 0
159 180 0
144 164 0
157 179 0
157 179 0
161 183 0
155 175 0
152 176 0
157 178 0
158 180 0
152 172 0
167 191 0
156 180 0
154 177 0
148 169 0
152 174 0
161 183 0
155 177 0
163 184 0
160 182 0
150 172 0
158 179 0
153 177 0
164 186 0
159 183 0
162 184 0
150 173 0
162 183 0
157 179 0
160 183 0
161 182 0
162 182 0
159 181 0
158 181 0
161 184 0
159 180 0
165 189 0
162 184 0
157 178 0
160 179 0
163 184 0
162 181 0
164 185 0
158 179 0
170 194 0
160 182 0
162 184 0
165 186 0
171 193 0
164 185 0
168 189 0
162 184 0
168 190 0
170 193 0
167 189 0
161 184 0
167 188 0
168 192 0
164 187 0
165 188 0
159 180 0
162 183 0
169 191 0
155 177 0
157 179 0
157 180 0
164 187 0
161 183 0
168 190 0
168 189 0
167 190 0
159 181 0
162 184 0
170 191 0
154 177 0
165 188 67
170 193 88
179 201 88
174 196 95
180 203 108
176 198 88
179 202 102
180 203 102
176 198 114
177 199 80
183 206 125
172 195 80
168 191 88
173 197 88
179 203 120
169 192 88
178 201 120
167 191 102
166 189 72
171 194 36
175 199 108
175 198 114
168 190 80
174 197 80
174 198 108
169 192 102
171 193 95
164 187 88
179 203 120
173 196 88
166 191 108
167 191 114
176 199 108
172 196 102
168 192 88
169 193 80
161 184 88
170 194 80
169 192 95
171 193 88
175 198 130
172 195 102
163 186 95
164 187 95
166 190 88
166 190 114
166 187 88
172 195 114
178 201 140
170 192 102
160 184 88
166 188 95
170 193 125
175 199 114
172 194 108
172 194 95
166 189 95
175 197 95
166 187 88
166 189 108
165 188 80
171 195 114
170 193 88
166 189 88
163 186 120
174 196 130
165 188 108
163 185 108
163 185 95
166 188 88
171 194 120
160 181 72
169 192 102
161 183 62
166 189 102
162 184 108
161 181 95
164 187 88
170 192 108
160 183 80
175 197 108
161 182 62
160 182 114
172 194 95
168 188 102
172 192 108
155 176 102
160 182 80
160 182 80
164 185 114
157 178 125
158 180 88
161 181 88
164 184 102
148 169 72
156 177 88
159 179 88
155 175 62
161 182 108
161 181 95
156 176 80
155 175 72
149 169 51
154 174 72
160 182 72
151 172 72
176 197 125
155 175 88
143 163 88
153 173 95
155 174 72
152 172 80
142 163 36
140 161 0
154 173 0
156 176 51
142 164 0
132 152 0
139 159 36
149 170 51
142 163 36
132 153 0
142 163 36
144 163 0
136 155 0
139 159 0
136 156 0
145 166 0
144 165 0
137 157 0
133 153 0
148 171 0
155 177 0
145 165 0
142 163 0
153 174 0
143 164 0
135 156 0
147 167 0
147 168 0
142 163 0
119 138 0
135 155 0
130 150 0
128 148 0
129 149 0
122 141 0
140 161 0
135 155 0
133 153 0
124 144 0
136 156 0
145 166 0
127 147 0
136 156 0
113 133 0
141 160 0
135 156 0
133 154 0
129 149 0
128 146 0
133 155 0
119 137 0
126 144 0
131 151 0
117 135 0
126 145 0
141 160 0
117 136 0
108 126 0
123 141 0
126 144 0
117 136 0
129 149 0
125 144 0
129 148 0
123 142 0
121 140 0
123 142 0
117 134 0
100 119 0
127 147 0
121 140 0
115 134 0
112 131 0
132 150 0
123 140 0
131 148 0
93 111 0
112 131 0
107 126 0
130 149 0
119 138 0
120 137 0
113 132 0
115 134 0
118 137 0
119 138 0
114 133 0
103 122 0
113 130 0
105 122 0
102 121 0
118 136 0
105 122 0
107 124 0
130 148 0
108 127 0
104 123 0
106 124 0
102 118 0
105 123 0
119 136 0
103 119 0
115 133 0
126 145 0
109 128 0
122 141 0
120 140 0
124 144 0
139 159 0
122 142 0
120 138 0
128 147 0
126 143 0
119 138 0
126 146 0
119 138 0
110 128 0
124 141 0
104 123 0
128 145 0
123 140 0
127 147 0
112 132 0
132 151 0
122 140 0
123 142 0
133 154 0
130 151 0
119 138 0
119 137 0
131 151 0
116 137 0
120 140 0
116 134 0
136 155 0
137 157 0
130 149 0
129 150 0
134 156 0
138 159 0
132 152 0
141 160 0
128 148 0
129 149 0
133 152 0
129 147 0
138 158 0
131 150 0
141 161 0
118 136 0
134 153 0
135 157 0
131 153 0
136 153 0
129 150 0
128 148 0
149 169 0
142 165 0
137 159 0
139 158 0
143 163 0
148 168 0
145 167 0
140 161 0
139 161 0
137 156 0
136 156 0
135 156 0
145 165 0
141 161 0
152 172 0
136 157 0
144 162 0
136 157 0
144 166 0
142 163 0
141 161 0
145 166 0
147 169 0
146 166 0
149 170 0
136 156 0
136 157 0
144 164 0
152 173 0
137 158 0
149 170 0
148 170 0
141 162 0
138 161 0
151 171 0
147 168 0
141 164 0
152 174 0
157 179 0
148 169 0
158 179 0
156 176 0
151 172 0
160 184 0
155 178 0
142 162 0
147 168 0
142 166 0
145 166 0
153 174 0
156 177 0
153 173 0
145 166 0
146 167 0
153 176 0
158 181 0
145 166 0
149 169 0
160 184 0
151 169 0
153 176 0
160 182 0
157 176 0
162 184 0
156 178 0
149 171 0
159 180 0
157 178 0
157 178 0
168 190 0
160 183 0
155 176 0
151 173 0
156 176 0
159 181 0
159 181 0
158 180 0
164 186 0
163 184 0
156 179 0
154 176 0
155 175 0
159 180 0
153 177 0
161 183 0
167 189 0
157 180 0
164 188 0
172 196 0
155 174 0
156 178 0
163 184 0
161 182 0
153 174 0
166 189 0
161 182 0
163 186 0
162 183 0
160 183 0
168 191 0
155 177 0
159 183 0
166 190 0
162 184 0
160 181 0
155 177 0
156 180 0
154 175 0
164 186 0
168 189 0
160 181 0
160 182 0
156 178 0
161 184 0
171 193 0
165 188 0
166 188 0
161 181 0
162 184 0
164 187 0
165 187 0
170 194 0
159 181 0
166 187 0
167 189 0
165 186 0
157 178 0
162 184 0
166 188 0
169 191 0
171 193 0
167 190 0
169 192 88
177 200 105
173 196 88
170 194 80
178 201 130
181 203 114
176 198 108
169 192 114
180 202 114
171 193 72
169 192 80
173 196 80
178 201 120
173 195 95
170 194 72
171 195 80
176 198 114
172 195 130
173 196 51
173 196 62
180 202 120
165 187 62
166 189 95
169 191 51
172 195 120
174 197 108
171 193 95
170 193 88
164 187 51
169 191 72
177 199 120
168 191 114
168 192 102
170 194 88
170 193 108
171 194 88
173 196 102
162 185 102
177 200 130
168 191 80
166 188 88
164 185 108
171 195 120
162 184 108
169 192 95
158 181 95
163 184 88
168 190 102
167 190 88
170 194 120
166 189 62
173 196 102
171 194 108
169 191 95
170 193 120
169 190 80
169 192 102
169 193 108
165 188 80
168 190 88
168 191 120
163 186 114
166 189 95
162 184 80
163 187 102
158 181 120
161 182 102
164 185 72
162 184 62
171 194 114
160 182 120
153 174 80
165 188 95
168 190 95
166 188 108
168 190 102
171 194 114
164 186 95
150 172 80
159 181 95
167 189 95
171 192 120
163 184 72
162 182 108
161 181 108
173 193 108
158 178 95
166 188 95
156 176 95
165 186 95
166 188 88
162 183 88
165 185 114
169 190 102
165 187 120
176 196 120
168 189 125
143 164 51
157 177 108
158 177 114
166 186 95
156 176 95
160 181 88
149 168 88
164 185 88
161 183 72
163 184 72
157 177 51
165 185 95
147 165 80
150 170 72
152 173 36
145 167 36
152 173 0
150 172 0
153 174 0
157 177 51
143 163 36
136 158 36
149 170 36
139 160 36
133 152 51
150 171 0
146 168 0
150 171 0
152 173 36
153 175 0
142 163 36
127 146 0
143 164 0
146 166 0
149 171 0
153 176 0
141 163 0
141 162 0
143 164 0
135 155 0
133 155 0
145 164 0
140 160 0
147 168 0
129 149 0
135 155 0
123 143 0
132 153 0
142 162 0
127 147 0
125 146 0
134 154 0
134 154 0
131 150 0
126 145 0
135 155 36
133 155 0
131 150 0
121 141 0
130 150 0
135 153 0
125 145 0
131 152 0
139 158 0
121 138 0
127 147 0
140 160 0
117 136 0
132 151 0
120 139 0
108 127 0
111 130 0
116 137 0
116 135 0
133 153 0
119 139 0
121 141 0
123 143 0
132 151 0
117 135 0
118 138 0
125 144 0
126 145 0
124 142 0
109 128 0
130 150 0
108 128 0
121 140 0
109 127 0
113 132 0
117 135 0
89 108 0
121 141 0
114 134 0
104 122 0
124 142 0
115 135 0
115 134 0
108 128 0
115 134 0
116 133 0
113 132 0
127 146 0
121 137 0
109 128 0
117 137 0
115 133 0
119 139 0
133 152 0
91 110 0
113 130 0
105 123 0
110 130 0
113 131 0
121 140 0
122 142 0
118 137 0
123 143 0
126 145 0
119 137 0
120 139 0
121 141 0
111 130 0
120 139 0
106 126 0
108 128 0
114 134 0
132 152 0
126 145 0
110 127 0
134 154 0
132 151 0
127 145 0
132 152 0
122 140 0
128 147 0
119 138 0
120 138 0
125 142 0
118 137 0
137 156 0
128 148 0
118 139 0
126 145 0
123 143 0
121 142 0
135 155 0
122 141 0
121 141 0
131 149 0
129 149 0
149 169 0
132 153 0
120 138 0
137 156 0
134 154 0
133 153 0
141 161 0
135 155 0
135 156 0
148 168 0
135 154 0
143 163 0
144 165 0
132 154 0
142 163 0
143 163 0
140 161 0
138 159 0
149 169 0
144 164 0
142 164 0
139 156 0
149 169 0
138 157 0
140 161 0
147 168 0
143 164 0
142 164 0
147 169 0
141 164 0
145 167 0
148 169 0
155 176 0
135 155 0
142 164 0
145 166 0
136 157 0
134 154 0
142 162 0
144 166 0
139 160 0
145 166 0
139 159 0
150 172 0
144 166 0
139 161 0
153 175 0
147 169 0
160 182 0
150 172 0
157 179 0
141 161 0
148 170 0
146 167 0
151 172 0
150 171 0
147 168 0
148 168 0
147 169 0
151 174 0
150 171 0
149 170 0
149 172 0
145 166 0
151 173 0
156 176 0
142 162 0
151 173 0
155 176 0
154 174 0
158 179 0
158 180 0
151 172 0
159 182 0
154 176 0
155 178 0
165 187 0
153 175 0
158 179 0
145 166 0
159 180 0
153 171 0
159 179 0
139 160 0
160 181 0
157 179 0
155 173 0
156 177 0
161 185 0
169 190 0
155 178 0
165 187 0
157 178 0
155 176 0
150 171 0
152 176 0
162 184 0
155 179 0
162 183 0
161 182 0
160 182 0
163 187 0
155 176 0
164 187 0
161 185 0
157 177 0
161 184 0
158 181 0
158 180 0
161 181 0
162 184 0
164 185 0
161 185 0
167 189 0
157 180 0
167 187 0
161 184 0
168 191 0
161 182 0
161 181 0
161 182 0
164 187 0
155 176 0
163 184 0
155 177 0
164 188 0
160 182 0
164 186 0
164 185 0
164 185 0
168 191 0
154 176 0
161 182 0
167 189 0
162 183 0
167 189 0
164 185 0
154 177 0
164 185 0
168 189 0
171 194 0
164 187 0
168 190 0
162 184 0
168 190 0
168 189 0
168 190 0
161 182 0
155 178 0
164 186 0
166 188 0
167 191 0
179 201 95
172 194 125
172 194 88
172 196 95
177 201 108
171 195 102
176 198 114
180 203 130
169 192 72
167 190 80
176 199 114
174 197 102
171 194 88
175 198 102
175 198 88
177 199 108
174 196 95
172 194 108
176 199 102
169 192 80
170 194 95
169 193 95
174 197 62
167 189 80
169 192 108
170 192 102
175 198 95
171 193 88
176 199 95
172 195 114
168 192 72
172 196 135
170 193 51
174 196 72
161 184 51
168 191 80
172 194 114
167 189 51
168 191 108
172 194 108
172 195 108
176 199 102
171 195 80
167 189 80
162 185 95
174 196 108
163 187 80
161 182 95
170 192 114
161 184 102
162 186 102
168 192 108
165 188 108
155 177 88
172 194 102
172 195 114
169 192 80
167 189 95
162 186 102
165 187 102
166 189 88
169 191 88
169 191 108
166 187 102
166 187 72
169 191 80
166 188 95
171 192 102
169 190 102
161 183 102
163 184 80
170 192 102
161 182 108
162 184 102
173 196 120
165 188 102
160 181 88
165 187 88
166 188 62
157 179 102
155 176 95
156 177 95
170 191 102
161 182 114
162 185 114
157 177 88
163 185 88
159 179 95
156 176 88
165 185 88
164 185 102
172 193 102
162 183 88
162 181 88
163 182 80
164 184 95
159 179 114
163 183 108
163 185 88
156 177 80
156 176 80
156 175 95
157 178 80
163 184 95
154 175 88
160 181 88
166 186 88
164 184 102
168 187 102
139 159 72
153 173 72
147 168 72
138 159 36
151 172 51
136 159 0
153 175 51
149 171 72
148 170 36
146 167 51
148 170 36
134 156 36
153 172 0
149 170 0
149 169 51
146 168 0
138 160 36
113 134 0
144 165 51
132 153 36
144 166 0
147 168 0
149 172 0
151 173 0
145 168 0
151 174 0
147 168 0
144 166 0
144 165 0
136 154 0
139 161 0
134 156 0
133 152 0
137 156 0
138 158 0
127 148 0
125 147 0
136 155 0
142 163 0
139 159 0
115 136 0
141 162 0
139 159 0
126 146 0
137 158 0
126 146 0
129 149 0
124 144 0
118 137 0
121 141 0
133 152 0
126 146 0
135 155 0
118 139 0
126 145 0
121 140 0
118 138 0
122 142 0
137 155 0
132 151 0
105 124 0
131 151 0
127 146 0
121 140 0
118 139 0
125 144 0
133 152 0
131 151 0
125 142 0
93 114 0
105 122 0
127 145 0
130 149 0
134 153 0
107 126 0
139 158 0
110 130 0
134 152 0
129 147 0
116 135 0
114 133 0
116 134 0
121 140 0
132 151 0
123 141 0
124 143 0
124 144 0
126 145 0
122 141 0
121 139 0
126 145 0
109 129 0
116 135 0
123 143 0
124 143 0
111 131 0
108 128 0
125 145 0
107 125 0
120 139 0
109 127 0
121 142 0
125 144 0
130 150 0
127 145 0
124 143 0
127 146 0
114 134 0
127 147 0
129 148 0
103 121 0
106 126 0
117 138 0
111 131 0
114 132 0
117 138 0
123 140 0
109 128 0
130 148 0
124 142 0
135 155 0
121 140 0
121 141 0
124 143 0
115 134 0
114 133 0
129 149 0
126 147 0
117 135 0
132 151 0
131 152 0
126 145 0
141 159 0
123 143 0
138 158 0
138 159 0
134 154 0
138 157 0
127 146 0
130 150 0
127 148 0
135 157 0
147 167 0
137 159 0
138 160 0
132 152 0
138 158 0
135 155 0
131 151 0
139 159 0
130 149 0
135 156 0
130 149 0
138 160 0
124 142 0
138 159 0
153 174 0
140 161 0
133 152 0
139 162 0
141 161 0
142 161 0
137 157 0
142 163 0
143 165 0
142 162 0
136 156 0
145 168 0
150 174 0
147 169 0
139 159 0
140 161 0
137 157 0
132 153 0
136 158 0
140 162 0
146 167 0
153 175 0
148 171 0
136 156 0
147 168 0
151 173 0
150 171 0
142 163 0
156 178 0
149 171 0
150 170 0
144 161 0
150 172 0
141 161 0
146 168 0
134 155 0
159 181 0
156 177 0
156 179 0
156 176 0
149 170 0
145 166 0
152 172 0
151 172 0
159 181 0
159 179 0
154 175 0
153 174 0
141 163 0
147 168 0
148 170 0
158 180 0
150 172 0
158 180 0
143 165 0
158 180 0
154 175 0
159 182 0
156 178 0
161 180 0
155 178 0
163 186 0
163 183 0
146 169 0
153 175 0
164 187 0
165 186 0
161 181 0
165 186 0
157 181 0
153 175 0
151 170 0
153 174 0
162 185 0
158 180 0
154 175 0
156 177 0
166 187 0
152 174 0
152 176 0
156 179 0
163 184 0
162 183 0
159 180 0
162 185 0
160 182 0
154 174 0
161 184 0
159 181 0
163 186 0
161 183 0
161 184 0
160 181 0
154 176 0
160 181 0
169 191 0
160 183 0
153 175 0
158 179 0
165 185 0
153 174 0
156 177 0
159 182 0
158 181 0
151 173 0
153 174 0
163 185 0
163 185 0
163 186 0
159 182 0
166 190 0
153 174 0
162 183 0
163 185 0
158 179 0
158 181 0
167 190 0
168 192 0
164 185 0
169 191 0
158 179 0
168 191 0
157 178 0
161 183 0
165 189 0
168 190 0
167 189 0
167 188 0
165 188 0
163 184 0
162 183 0
164 187 0
153 172 0
163 185 0
165 188 0
179 201 88
174 196 95
168 191 99
173 196 102
178 200 95
172 195 80
169 192 88
177 199 95
173 196 102
172 194 80
169 192 62
173 196 108
171 195 102
174 198 114
173 196 102
173 197 95
170 192 88
170 192 72
173 195 88
169 192 88
172 195 80
166 190 80
175 198 102
171 195 95
168 190 95
170 194 88
172 195 88
173 196 102
169 191 88
172 195 114
173 197 102
171 194 114
172 195 88
174 196 114
166 191 95
176 200 108
166 190 114
169 192 108
166 188 88
165 188 72
165 189 95
162 184 95
166 189 120
168 190 95
170 193 80
176 199 130
173 195 80
161 184 72
161 184 108
165 187 108
165 187 135
163 186 120
166 191 114
170 193 114
170 193 114
166 189 114
162 184 88
172 194 88
164 186 88
162 183 88
168 190 125
160 182 80
165 188 130
151 174 102
160 183 95
146 169 36
157 179 95
160 182 88
170 193 102
169 190 95
167 189 108
168 189 88
174 196 102
168 189 95
171 192 102
161 183 120
169 190 108
165 186 80
163 185 72
156 177 72
170 191 88
161 182 88
170 191 102
153 174 72
157 178 80
151 173 72
161 183 102
168 189 108
167 188 114
157 177 72
167 188 95
152 173 108
156 177 88
167 186 120
164 184 80
169 189 88
156 176 80
164 185 102
148 170 80
157 178 72
152 174 36
157 177 51
150 172 88
153 174 72
164 185 88
158 177 102
159 179 62
156 177 114
166 186 88
143 164 36
152 173 62
155 175 62
153 173 36
160 182 36
155 176 36
155 175 80
143 163 0
144 166 0
140 159 36
152 174 36
149 170 0
145 168 0
128 150 51
143 165 0
136 157 51
152 174 36
147 169 36
160 181 62
145 165 51
143 163 0
156 176 0
146 169 0
156 179 0
145 167 0
147 169 0
141 165 0
142 164 0
139 159 0
142 162 0
131 153 0
139 161 0
139 158 0
138 158 0
133 155 0
135 154 0
128 147 0
125 146 0
131 151 0
125 145 0
121 141 0
137 158 0
138 158 0
119 140 0
134 152 0
135 155 0
138 157 0
126 145 0
139 158 0
119 139 0
126 146 0
126 144 0
127 147 0
129 149 0
131 151 0
137 156 0
130 149 0
123 142 0
121 140 0
120 138 0
124 144 0
142 162 0
132 150 0
127 146 0
120 138 0
124 144 0
107 124 0
141 158 0
127 146 0
127 147 0
112 132 0
122 139 0
112 131 0
119 138 0
132 151 0
123 141 0
112 130 0
108 126 0
131 151 0
133 153 0
101 120 0
121 139 0
107 124 0
124 143 0
111 130 0
130 149 0
130 148 0
104 124 0
119 137 0
126 145 0
121 139 0
114 133 0
112 132 0
118 137 0
113 134 0
130 148 0
129 149 0
122 142 0
128 148 0
132 150 0
122 139 0
116 136 0
99 117 0
107 127 0
125 145 0
131 149 0
122 139 0
109 128 0
122 141 0
114 134 0
107 128 0
136 156 0
115 134 0
137 156 0
140 159 0
110 127 0
133 150 0
124 143 0
127 147 0
129 148 0
130 149 0
134 153 0
128 146 0
129 148 0
128 148 0
122 140 0
147 167 0
116 135 0
136 156 0
139 160 0
127 145 0
137 157 0
123 143 0
130 150 0
143 165 0
134 154 0
135 155 0
128 149 0
134 155 0
137 156 0
137 155 0
143 161 0
145 166 0
146 166 0
134 153 0
135 155 0
126 148 0
134 155 0
139 160 0
133 155 0
148 167 0
134 154 0
137 158 0
136 156 0
137 160 0
131 152 0
137 157 0
135 156 0
152 173 0
139 160 0
147 168 0
138 159 0
148 167 0
141 163 0
144 163 0
134 156 0
146 168 0
138 158 0
146 167 0
141 163 0
161 182 0
158 180 0
146 170 0
140 162 0
149 171 0
156 177 0
155 176 0
143 165 0
147 166 0
152 174 0
149 169 0
142 164 0
152 174 0
154 176 0
159 179 0
143 166 0
140 160 0
155 175 0
154 177 0
146 168 0
156 176 0
140 160 0
153 173 0
157 178 0
151 171 0
151 172 0
156 180 0
157 178 0
158 179 0
149 171 0
150 173 0
157 177 0
160 184 0
149 172 0
160 182 0
154 178 0
157 178 0
156 179 0
157 179 0
153 176 0
164 183 0
153 176 0
155 176 0
152 173 0
155 175 0
161 183 0
162 184 0
148 170 0
148 166 0
158 179 0
139 159 0
153 175 0
160 183 0
150 171 0
162 183 0
150 172 0
162 185 0
149 170 0
162 186 0
157 179 0
154 173 0
154 177 0
159 182 0
153 175 0
157 180 0
158 181 0
169 193 0
158 179 0
153 174 0
166 188 0
156 178 0
167 190 0
164 188 0
161 184 0
157 180 0
159 179 0
158 180 0
155 176 0
162 183 0
163 186 0
158 181 0
155 176 0
168 190 0
165 187 0
161 183 0
166 187 0
157 179 0
159 182 0
162 185 0
161 183 0
166 187 0
162 185 0
163 185 0
162 184 0
164 186 0
161 183 0
159 182 0
157 179 0
167 191 0
164 187 0
157 179 0
162 184 0
163 185 0
166 187 0
166 188 0
164 186 0
168 191 0
161 184 0
158 181 0
168 189 0
160 183 0
166 188 0
167 190 0
167 189 0
171 192 0
167 189 0
165 187 0
165 188 0
169 192 0
166 189 0
169 191 0
165 187 92
173 196 84
174 197 105
164 186 88
172 195 80
174 198 95
173 196 95
173 196 102
171 193 72
171 195 88
178 199 95
168 191 72
171 194 80
178 202 108
171 194 108
164 188 102
174 196 88
170 193 125
171 194 88
166 190 62
168 191 102
174 196 108
168 192 62
169 193 114
170 194 62
178 200 80
181 204 125
163 186 80
175 197 102
176 199 130
172 196 102
169 192 72
166 189 114
162 185 88
174 197 125
168 190 95
169 193 102
176 199 102
173 196 95
168 192 102
166 189 80
171 194 108
168 192 80
179 200 88
176 198 88
170 194 108
172 193 95
170 193 95
172 195 114
167 189 72
172 194 108
158 179 88
167 189 62
165 188 114
170 192 95
166 189 102
171 193 120
160 181 80
169 191 80
168 190 108
160 181 51
159 181 88
162 184 95
168 191 102
165 187 95
165 187 95
168 191 102
167 187 102
170 191 120
164 186 114
163 184 102
168 190 95
157 179 80
164 185 80
173 194 125
152 173 80
162 183 95
172 193 125
163 184 88
163 184 95
161 182 80
150 171 62
170 191 108
163 184 80
163 184 95
171 191 120
170 190 120
172 194 108
166 187 120
162 182 88
167 187 88
163 185 102
163 184 102
163 183 125
165 186 88
155 176 108
163 184 88
169 189 108
164 187 102
152 173 88
146 166 62
156 177 95
158 177 80
152 172 62
142 163 62
161 180 95
156 176 95
149 171 72
151 171 80
155 176 62
154 176 62
149 170 62
156 176 62
151 172 51
149 170 0
143 164 36
139 161 36
155 176 0
142 164 36
147 169 0
144 165 0
129 151 36
146 166 80
144 165 0
146 168 36
153 173 0
144 165 0
145 165 0
143 164 0
148 170 0
154 176 0
156 178 0
160 182 0
139 162 0
147 168 0
143 165 0
146 168 0
145 165 0
137 158 0
154 175 0
126 145 0
141 163 0
140 161 0
135 156 0
146 167 0
130 150 0
130 150 0
134 156 0
137 157 0
138 158 0
139 158 0
136 157 0
123 142 0
119 139 0
124 144 0
131 152 0
130 149 0
143 165 0
117 139 0
143 163 0
137 157 0
138 157 0
114 133 0
126 145 0
121 141 0
143 163 0
143 165 0
120 141 0
136 155 0
141 162 0
121 140 0
129 149 0
123 142 0
124 144 0
107 125 0
122 141 0
128 146 0
118 135 0
114 133 0
117 136 0
118 137 0
104 123 0
117 135 0
117 136 0
123 140 0
128 146 0
116 135 0
128 146 0
138 157 0
127 145 0
124 142 0
140 160 0
116 135 0
131 150 0
126 145 0
104 123 0
120 138 0
131 151 0
131 150 0
103 121 0
113 133 0
122 141 0
117 135 0
115 133 0
103 122 0
145 165 0
125 145 0
127 146 0
140 158 0
105 124 0
124 142 0
126 145 0
125 144 0
116 134 0
133 153 0
128 147 0
124 144 0
139 158 0
120 139 0
121 140 0
129 148 0
123 141 0
125 145 0
142 163 0
120 140 0
114 133 0
123 143 0
128 149 0
113 131 0
126 146 0
128 146 0
116 135 0
117 137 0
135 155 0
117 135 0
133 153 0
117 136 0
123 140 0
141 160 0
141 161 0
119 139 0
141 160 0
123 144 0
135 154 0
110 129 0
122 142 0
128 148 0
134 155 0
122 141 0
138 157 0
132 152 0
124 144 0
143 161 0
141 162 0
146 166 0
137 155 0
135 155 0
143 164 0
142 164 0
132 152 0
140 161 0
129 150 0
140 161 0
142 164 0
147 166 0
131 152 0
138 159 0
138 160 0
131 153 0
136 158 0
148 169 0
159 180 0
139 160 0
143 164 0
142 163 0
148 168 0
145 167 0
148 169 0
139 159 0
141 162 0
142 162 0
140 160 0
139 160 0
149 171 0
142 162 0
156 178 0
147 168 0
144 165 0
142 164 0
150 173 0
152 174 0
146 168 0
148 170 0
146 167 0
148 169 0
146 167 0
138 161 0
144 163 0
143 164 0
154 173 0
150 172 0
150 171 0
149 170 0
145 166 0
146 166 0
151 174 0
154 177 0
155 177 0
151 172 0
152 173 0
160 182 0
146 168 0
147 170 0
159 183 0
158 179 0
146 167 0
159 182 0
154 176 0
147 168 0
146 168 0
145 167 0
156 178 0
154 176 0
160 183 0
161 182 0
155 176 0
158 181 0
162 186 0
150 171 0
153 176 0
155 176 0
159 182 0
154 175 0
151 172 0
148 169 0
161 183 0
162 183 0
155 176 0
156 173 0
138 160 0
152 175 0
155 177 0
167 191 0
154 176 0
163 185 0
157 177 0
162 186 0
163 184 0
164 188 0
155 176 0
162 183 0
149 169 0
159 180 0
154 176 0
164 185 0
157 179 0
157 180 0
166 189 0
164 185 0
165 187 0
161 184 0
156 178 0
164 187 0
157 178 0
156 177 0
166 188 0
170 191 0
167 188 0
152 175 0
161 182 0
168 188 0
166 188 0
159 180 0
158 178 0
161 183 0
163 184 0
165 186 0
163 186 0
164 187 0
164 187 0
161 185 0
161 183 0
159 182 0
162 184 0
165 185 0
167 189 0
166 188 0
164 186 0
168 191 0
165 186 0
161 184 0
165 187 0
170 193 0
166 184 0
168 190 0
167 190 0
172 195 0
167 190 0
163 185 0
164 188 0
168 191 76
165 189 84
172 195 80
173 195 88
172 194 72
174 196 88
172 196 62
177 199 125
168 191 120
161 184 102
166 190 88
175 198 95
175 198 95
180 203 108
172 195 102
171 194 114
168 190 95
169 193 72
170 192 95
175 198 114
169 192 72
174 198 88
173 196 108
173 196 80
167 190 80
175 198 102
169 193 102
174 197 102
175 198 102
170 193 102
174 196 80
162 185 72
167 189 62
169 193 95
170 193 95
174 196 108
172 195 114
170 193 62
173 196 108
171 194 108
169 192 88
163 185 102
167 190 88
167 190 95
172 194 51
169 191 88
163 184 80
165 187 88
166 189 108
164 186 72
162 185 62
167 189 95
169 190 108
168 190 80
173 195 114
164 186 72
165 187 108
171 194 102
173 197 125
160 181 80
171 193 114
170 193 120
169 192 72
164 186 80
165 187 62
164 184 95
164 186 114
171 193 102
165 186 95
167 189 102
160 182 88
166 189 102
156 177 120
173 194 102
153 175 114
150 171 80
168 189 114
171 192 88
164 185 108
166 187 114
166 187 102
160 182 72
169 190 108
155 176 72
170 190 88
162 183 114
167 188 108
153 173 80
155 176 95
160 180 108
160 182 80
163 184 88
161 182 80
159 180 80
161 182 102
153 175 72
161 183 80
163 184 80
160 180 88
149 170 80
160 181 95
166 185 95
157 177 108
163 185 80
167 187 114
156 176 88
157 178 88
142 163 80
159 181 80
152 172 51
158 179 62
152 173 72
145 168 36
158 179 51
163 184 62
156 177 36
142 164 62
152 173 0
146 168 0
147 168 0
139 161 0
146 167 51
150 171 36
154 175 51
143 165 36
135 154 51
150 171 36
140 160 0
145 167 36
153 175 0
156 179 0
147 171 0
150 172 0
156 178 0
155 176 0
155 177 0
146 167 0
143 164 0
142 163 0
143 165 0
137 157 0
116 137 0
131 153 0
133 154 0
142 164 0
116 136 0
145 165 0
130 151 0
133 154 0
139 160 0
128 148 0
141 162 0
136 156 0
138 160 0
147 167 0
132 151 0
119 140 0
131 151 0
136 156 0
132 153 0
129 148 0
129 148 0
135 156 0
122 144 0
131 152 0
125 144 0
122 142 0
140 158 0
121 140 0
121 141 0
118 138 0
121 139 0
137 158 0
138 159 0
121 141 0
134 153 0
135 155 0
143 161 0
112 131 0
130 149 0
128 147 0
124 144 0
110 129 0
112 130 0
115 133 0
130 148 0
124 143 0
114 131 0
118 138 0
122 141 0
113 132 0
132 150 0
106 124 0
129 148 0
114 134 0
116 135 0
117 137 0
116 135 0
138 157 0
117 136 0
118 137 0
131 150 0
115 134 0
108 128 0
114 133 0
122 141 0
120 140 0
118 138 0
121 140 0
123 142 0
132 150 0
125 143 0
127 146 0
126 145 0
108 129 0
126 147 0
116 135 0
103 124 0
115 134 0
117 134 0
109 129 0
125 145 0
143 162 0
129 150 0
124 143 0
130 151 0
145 165 0
122 143 0
127 144 0
125 143 0
123 144 0
128 147 0
129 150 0
141 161 0
118 139 0
144 164 0
134 153 0
132 152 0
132 154 0
134 155 0
134 152 0
130 149 0
120 139 0
137 159 0
134 155 0
144 163 0
139 159 0
128 149 0
131 149 0
122 141 0
153 172 0
142 162 0
136 157 0
134 153 0
144 165 0
145 166 0
152 174 0
147 168 0
139 158 0
151 173 0
135 155 0
143 164 0
142 162 0
135 157 0
140 159 0
137 157 0
146 167 0
129 151 0
143 163 0
148 169 0
144 165 0
147 169 0
136 158 0
143 164 0
126 147 0
144 165 0
136 157 0
143 162 0
140 162 0
133 155 0
141 162 0
145 167 0
141 162 0
156 179 0
151 173 0
144 165 0
152 174 0
143 164 0
160 181 0
151 174 0
149 172 0
144 165 0
143 165 0
156 179 0
148 170 0
153 175 0
147 169 0
149 169 0
145 167 0
148 170 0
161 184 0
143 161 0
154 176 0
147 168 0
147 170 0
157 178 0
154 176 0
156 177 0
144 166 0
149 171 0
152 172 0
163 187 0
166 189 0
151 171 0
150 167 0
158 181 0
157 180 0
154 177 0
158 180 0
154 174 0
148 169 0
156 179 0
159 182 0
163 185 0
152 173 0
164 187 0
149 170 0
159 182 0
154 175 0
147 168 0
156 177 0
156 178 0
155 178 0
156 180 0
157 180 0
158 180 0
156 177 0
159 184 0
159 180 0
160 181 0
163 183 0
161 183 0
156 179 0
155 178 0
154 177 0
160 181 0
164 186 0
161 184 0
161 184 0
156 180 0
160 182 0
168 190 0
164 188 0
156 178 0
158 182 0
161 184 0
159 181 0
152 173 0
164 185 0
161 182 0
162 184 0
159 180 0
162 184 0
161 182 0
155 177 0
160 181 0
158 178 0
164 188 0
164 187 0
168 190 0
162 184 0
151 171 0
163 185 0
162 184 0
161 183 0
168 191 0
159 179 0
169 189 0
167 188 0
154 176 0
164 187 0
167 189 0
169 193 0
167 191 0
165 187 0
170 192 0
168 191 0
168 190 0
163 185 0
166 187 0
165 186 0
159 181 0
160 183 0
164 186 0
160 183 0
166 187 0
166 187 0
166 189 0
169 192 0
164 187 0
