P3
400 225
255
204 226 255
204 226 255
204 226 255
204 226 255
204 226 255
204 226 255
204 226 255
204 226 255
204 226 255
204 226 255
204 226 255
204 226 255
204 226 255
204 226 255
204 226 255
203 226 255
203 226 255
203 226 255
203 226 255
203 226 255
203 226 255
203 226 255
203 226 255
203 225 255
203 225 255
203 225 255
203 225 255
203 225 255
203 225 255
203 225 255
203 225 255
203 225 255
202 225 255
202 225 255
202 225 255
202 225 255
202 225 255
202 225 255
202 225 255
202 225 255
202 225 255
202 225 255
202 225 255
202 225 255
202 225 255
202 225 255
202 225 255
202 225 255
201 225 255
201 225 255
201 225 255
201 225 255
201 225 255
201 224 255
201 224 255
201 224 255
201 224 255
201 224 255
201 224 255
201 224 255
201 224 255
201 224 255
201 224 255
200 224 255
200 224 255
200 224 255
200 224 255
200 224 255
200 224 255
200 224 255
200 224 255
200 224 255
200 224 255
200 224 255
200 224 255
200 224 255
200 224 255
200 224 255
199 224 255
199 224 255
199 223 255
199 223 255
199 223 255
199 223 255
199 223 255
199 223 255
199 223 255
199 223 255
199 223 255
199 223 255
199 223 255
199 223 255
198 223 255
198 223 255
198 223 255
198 223 255
198 223 255
198 223 255
198 223 255
198 223 255
198 223 255
198 223 255
198 223 255
198 223 255
198 223 255
198 223 255
197 222 255
197 222 255
197 222 255
197 222 255
197 222 255
197 222 255
197 222 255
197 222 255
197 222 255
197 222 255
197 222 255
197 222 255
197 222 255
197 222 255
196 222 255
196 222 255
196 222 255
196 222 255
196 222 255
196 222 255
196 222 255
196 222 255
196 222 255
196 222 255
196 222 255
196 222 255
196 222 255
196 222 255
196 222 255
196 221 255
196 221 255
195 221 255
195 221 255
195 221 255
195 221 255
195 221 255
195 221 255
195 221 255
195 221 255
195 221 255
195 221 255
195 221 255
195 221 255
195 221 255
195 221 255
195 221 255
195 221 255
195 221 255
195 221 255
194 221 255
194 221 255
194 221 255
194 221 255
194 221 255
194 221 255
194 221 255
194 221 255
194 221 255
194 221 255
194 221 255
194 221 255
194 221 255
194 221 255
194 221 255
194 221 255
194 221 255
194 221 255
194 221 255
194 221 255
194 221 255
194 221 255
194 221 255
194 220 255
194 220 255
194 220 255
194 220 255
194 220 255
194 220 255
194 220 255
194 220 255
194 220 255
193 220 255
193 220 255
193 220 255
193 220 255
193 220 255
193 220 255
193 220 255
193 220 255
193 220 255
193 220 255
193 220 255
193 220 255
193 220 255
193 220 255
193 220 255
193 220 255
193 220 255
193 220 255
193 220 255
193 220 255
193 220 255
193 220 255
193 220 255
193 220 255
193 220 255
193 220 255
193 220 255
193 220 255
194 220 255
194 220 255
194 220 255
194 220 255
194 220 255
194 220 255
194 220 255
194 220 255
194 221 255
194 221 255
194 221 255
194 221 255
194 221 255
194 221 255
194 221 255
194 221 255
194 221 255
194 221 255
194 221 255
194 221 255
194 221 255
194 221 255
194 221 255
194 221 255
194 221 255
194 221 255
194 221 255
194 221 255
194 221 255
194 221 255
195 221 255
195 221 255
195 221 255
195 221 255
195 221 255
195 221 255
195 221 255
195 221 255
195 221 255
195 221 255
195 221 255
195 221 255
195 221 255
195 221 255
195 221 255
195 221 255
195 221 255
195 221 255
196 221 255
196 221 255
196 222 255
196 222 255
196 222 255
196 222 255
196 222 255
196 222 255
196 222 255
196 222 255
196 222 255
196 222 255
196 222 255
196 222 255
196 222 255
196 222 255
197 222 255
197 222 255
197 222 255
197 222 255
197 222 255
197 222 255
197 222 255
197 222 255
197 222 255
197 222 255
197 222 255
197 222 255
197 222 255
197 222 255
197 223 255
198 223 255
198 223 255
198 223 255
198 223 255
198 223 255
198 223 255
198 223 255
198 223 255
198 223 255
198 223 255
198 223 255
198 223 255
198 223 255
198 223 255
199 223 255
199 223 255
199 223 255
199 223 255
199 223 255
199 223 255
199 223 255
199 223 255
199 223 255
199 223 255
199 223 255
199 223 255
199 224 255
199 224 255
200 224 255
200 224 255
200 224 255
200 224 255
200 224 255
200 224 255
200 224 255
200 224 255
200 224 255
200 224 255
200 224 255
200 224 255
200 224 255
200 224 255
200 224 255
201 224 255
201 224 255
201 224 255
201 224 255
201 224 255
201 224 255
201 224 255
201 224 255
201 224 255
201 224 255
201 224 255
201 225 255
201 225 255
201 225 255
201 225 255
202 225 255
202 225 255
202 225 255
202 225 255
202 225 255
202 225 255
202 225 255
202 225 255
202 225 255
202 225 255
202 225 255
202 225 255
202 225 255
202 225 255
202 225 255
202 225 255
203 225 255
203 225 255
203 225 255
203 225 255
203 225 255
203 225 255
203 225 255
203 225 255
203 225 255
203 226 255
203 226 255
203 226 255
203 226 255
203 226 255
203 226 255
203 226 255
203 226 255
204 226 255
204 226 255
204 226 255
204 226 255
204 226 255
204 226 255
204 226 255
204 226 255
204 226 255
204 226 255
204 226 255
204 226 255
204 226 255
204 226 255
204 226 255
204 226 255
204 226 255
204 226 255
204 226 255
204 226 255
204 226 255
204 226 255
204 226 255
204 226 255
204 226 255
204 226 255
204 226 255
204 226 255
204 226 255
204 226 255
204 226 255
204 226 255
204 226 255
203 226 255
203 226 255
203 226 255
203 226 255
203 226 255
203 226 255
203 226 255
203 225 255
203 225 255
203 225 255
203 225 255
203 225 255
203 225 255
203 225 255
203 225 255
203 225 255
202 225 255
202 225 255
202 225 255
202 225 255
202 225 255
202 225 255
202 225 255
202 225 255
202 225 255
202 225 255
202 225 255
202 225 255
202 225 255
202 225 255
202 225 255
202 225 255
201 225 255
201 225 255
201 225 255
201 225 255
201 225 255
201 224 255
201 224 255
201 224 255
201 224 255
201 224 255
201 224 255
201 224 255
201 224 255
201 224 255
201 224 255
200 224 255
200 224 255
200 224 255
200 224 255
200 224 255
200 224 255
200 224 255
200 224 255
200 224 255
200 224 255
200 224 255
200 224 255
200 224 255
200 224 255
200 224 255
199 224 255
199 224 255
199 223 255
199 223 255
199 223 255
199 223 255
199 223 255
199 223 255
199 223 255
199 223 255
199 223 255
199 223 255
199 223 255
199 223 255
198 223 255
198 223 255
198 223 255
198 223 255
198 223 255
198 223 255
198 223 255
198 223 255
198 223 255
198 223 255
198 223 255
198 223 255
198 223 255
198 223 255
197 223 255
197 222 255
197 222 255
197 222 255
197 222 255
197 222 255
197 222 255
197 222 255
197 222 255
197 222 255
197 222 255
197 222 255
197 222 255
197 222 255
197 222 255
196 222 255
196 222 255
196 222 255
196 222 255
196 222 255
196 222 255
196 222 255
196 222 255
196 222 255
196 222 255
196 222 255
196 222 255
196 222 255
196 222 255
196 222 255
196 221 255
195 221 255
195 221 255
195 221 255
195 221 255
195 221 255
195 221 255
195 221 255
195 221 255
195 221 255
195 221 255
195 221 255
195 221 255
195 221 255
195 221 255
195 221 255
195 221 255
195 221 255
195 221 255
195 221 255
195 221 255
194 221 255
194 221 255
194 221 255
194 221 255
194 221 255
194 221 255
194 221 255
194 221 255
194 221 255
194 221 255
194 221 255
194 221 255
194 221 255
194 221 255
194 221 255
194 221 255
194 221 255
194 221 255
194 221 255
194 221 255
194 221 255
194 221 255
194 221 255
194 220 255
194 220 255
194 220 255
194 220 255
194 220 255
194 220 255
194 220 255
194 220 255
194 220 255
194 220 255
194 220 255
194 220 255
194 220 255
194 220 255
194 220 255
194 220 255
194 220 255
193 220 255
194 220 255
194 220 255
193 220 255
194 220 255
194 220 255
194 220 255
194 220 255
194 220 255
194 220 255
194 220 255
194 220 255
194 220 255
194 220 255
194 220 255
194 220 255
194 220 255
194 220 255
194 221 255
194 221 255
194 221 255
194 221 255
194 221 255
194 221 255
194 221 255
194 221 255
194 221 255
194 221 255
194 221 255
194 221 255
194 221 255
194 221 255
194 221 255
194 221 255
194 221 255
194 221 255
194 221 255
194 221 255
194 221 255
194 221 255
194 221 255
194 221 255
194 221 255
195 221 255
195 221 255
195 221 255
195 221 255
195 221 255
195 221 255
195 221 255
195 221 255
195 221 255
195 221 255
195 221 255
195 221 255
195 221 255
195 221 255
195 221 255
195 221 255
195 221 255
195 221 255
195 221 255
196 221 255
196 222 255
196 222 255
196 222 255
196 222 255
196 222 255
196 222 255
196 222 255
196 222 255
196 222 255
196 222 255
196 222 255
196 222 255
196 222 255
196 222 255
196 222 255
197 222 255
197 222 255
197 222 255
197 222 255
197 222 255
197 222 255
197 222 255
197 222 255
197 222 255
197 222 255
197 222 255
197 222 255
197 222 255
197 222 255
197 223 255
198 223 255
198 223 255
198 223 255
198 223 255
198 223 255
198 223 255
198 223 255
198 223 255
198 223 255
198 223 255
198 223 255
198 223 255
198 223 255
198 223 255
199 223 255
199 223 255
199 223 255
199 223 255
199 223 255
199 223 255
199 223 255
199 223 255
199 223 255
199 223 255
199 223 255
199 223 255
199 224 255
199 224 255
199 224 255
200 224 255
200 224 255
200 224 255
200 224 255
200 224 255
200 224 255
200 224 255
200 224 255
200 224 255
200 224 255
200 224 255
200 224 255
200 224 255
200 224 255
201 224 255
201 224 255
201 224 255
201 224 255
201 224 255
201 224 255
201 224 255
201 224 255
201 224 255
201 224 255
201 225 255
201 225 255
201 225 255
201 225 255
201 225 255
202 225 255
202 225 255
202 225 255
202 225 255
202 225 255
202 225 255
202 225 255
202 225 255
202 225 255
202 225 255
202 225 255
202 225 255
202 225 255
202 225 255
202 225 255
202 225 255
203 225 255
203 225 255
203 225 255
203 225 255
203 225 255
203 225 255
203 225 255
203 225 255
203 225 255
203 226 255
203 226 255
203 226 255
203 226 255
203 226 255
203 226 255
203 226 255
204 226 255
204 226 255
204 226 255
204 226 255
204 226 255
204 226 255
204 226 255
204 226 255
204 226 255
204 226 255
204 226 255
204 226 255
204 226 255
204 226 255
204 226 255
204 226 255
204 226 255
204 226 255
205 226 255
205 226 255
204 226 255
204 226 255
204 226 255
204 226 255
204 226 255
204 226 255
204 226 255
204 226 255
204 226 255
204 226 255
204 226 255
204 226 255
204 226 255
204 226 255
204 226 255
204 226 255
204 226 255
204 226 255
203 226 255
203 226 255
203 226 255
203 226 255
203 226 255
203 226 255
203 226 255
203 225 255
203 225 255
203 225 255
203 225 255
203 225 255
203 225 255
203 225 255
203 225 255
203 225 255
203 225 255
202 225 255
202 225 255
202 225 255
202 225 255
202 225 255
202 225 255
202 225 255
202 225 255
202 225 255
202 225 255
202 225 255
202 225 255
202 225 255
202 225 255
202 225 255
201 225 255
201 225 255
201 225 255
201 225 255
201 225 255
201 224 255
201 224 255
201 224 255
201 224 255
201 224 255
201 224 255
201 224 255
201 224 255
201 224 255
201 224 255
200 224 255
200 224 255
200 224 255
200 224 255
200 224 255
200 224 255
200 224 255
200 224 255
200 224 255
200 224 255
200 224 255
200 224 255
200 224 255
200 224 255
200 224 255
199 224 255
199 224 255
199 223 255
199 223 255
199 223 255
199 223 255
199 223 255
199 223 255
199 223 255
199 223 255
199 223 255
199 223 255
199 223 255
199 223 255
198 223 255
198 223 255
198 223 255
198 223 255
198 223 255
198 223 255
198 223 255
198 223 255
198 223 255
198 223 255
198 223 255
198 223 255
198 223 255
198 223 255
197 223 255
197 222 255
197 222 255
197 222 255
197 222 255
197 222 255
197 222 255
197 222 255
197 222 255
197 222 255
197 222 255
197 222 255
197 222 255
197 222 255
197 222 255
196 222 255
196 222 255
196 222 255
196 222 255
196 222 255
196 222 255
196 222 255
196 222 255
196 222 255
196 222 255
196 222 255
196 222 255
196 222 255
196 222 255
196 222 255
196 221 255
195 221 255
195 221 255
195 221 255
195 221 255
195 221 255
195 221 255
195 221 255
195 221 255
195 221 255
195 221 255
195 221 255
195 221 255
195 221 255
195 221 255
195 221 255
195 221 255
195 221 255
195 221 255
195 221 255
195 221 255
195 221 255
194 221 255
194 221 255
194 221 255
194 221 255
194 221 255
194 221 255
194 221 255
194 221 255
194 221 255
194 221 255
194 221 255
194 221 255
194 221 255
194 221 255
194 221 255
194 221 255
194 221 255
194 221 255
194 221 255
194 221 255
194 221 255
194 221 255
194 221 255
194 221 255
194 221 255
194 221 255
194 221 255
194 221 255
194 221 255
194 220 255
194 221 255
194 220 255
194 220 255
194 220 255
194 220 255
194 220 255
194 220 255
194 220 255
194 220 255
194 220 255
194 220 255
194 220 255
194 220 255
194 220 255
194 220 255
194 221 255
194 221 255
194 221 255
194 221 255
194 221 255
194 221 255
194 221 255
194 221 255
194 221 255
194 221 255
194 221 255
194 221 255
194 221 255
194 221 255
194 221 255
194 221 255
194 221 255
194 221 255
194 221 255
194 221 255
194 221 255
194 221 255
194 221 255
194 221 255
194 221 255
194 221 255
194 221 255
194 221 255
194 221 255
194 221 255
194 221 255
195 221 255
195 221 255
195 221 255
195 221 255
195 221 255
195 221 255
195 221 255
195 221 255
195 221 255
195 221 255
195 221 255
195 221 255
195 221 255
195 221 255
195 221 255
195 221 255
195 221 255
195 221 255
195 221 255
195 221 255
195 221 255
196 221 255
196 222 255
196 222 255
196 222 255
196 222 255
196 222 255
196 222 255
196 222 255
196 222 255
196 222 255
196 222 255
196 222 255
196 222 255
196 222 255
196 222 255
196 222 255
197 222 255
197 222 255
197 222 255
197 222 255
197 222 255
197 222 255
197 222 255
197 222 255
197 222 255
197 222 255
197 222 255
197 222 255
197 222 255
197 222 255
197 223 255
198 223 255
198 223 255
198 223 255
198 223 255
198 223 255
198 223 255
198 223 255
198 223 255
198 223 255
198 223 255
198 223 255
198 223 255
198 223 255
198 223 255
199 223 255
199 223 255
199 223 255
199 223 255
199 223 255
199 223 255
199 223 255
199 223 255
199 223 255
199 223 255
199 223 255
199 223 255
199 224 255
199 224 255
200 224 255
200 224 255
200 224 255
200 224 255
200 224 255
200 224 255
200 224 255
200 224 255
200 224 255
200 224 255
200 224 255
200 224 255
200 224 255
200 224 255
200 224 255
201 224 255
201 224 255
201 224 255
201 224 255
201 224 255
201 224 255
201 224 255
201 224 255
201 224 255
201 224 255
201 225 255
201 225 255
201 225 255
201 225 255
201 225 255
202 225 255
202 225 255
202 225 255
202 225 255
202 225 255
202 225 255
202 225 255
202 225 255
202 225 255
202 225 255
202 225 255
202 225 255
202 225 255
202 225 255
202 225 255
202 225 255
203 225 255
203 225 255
203 225 255
203 225 255
203 225 255
203 225 255
203 225 255
203 225 255
203 226 255
203 226 255
203 226 255
203 226 255
203 226 255
203 226 255
203 226 255
203 226 255
204 226 255
204 226 255
204 226 255
204 226 255
204 226 255
204 226 255
204 226 255
204 226 255
204 226 255
204 226 255
204 226 255
204 226 255
204 226 255
204 226 255
204 226 255
204 226 255
204 226 255
204 226 255
205 226 255
205 226 255
205 226 255
205 226 255
205 226 255
205 226 255
204 226 255
204 226 255
204 226 255
204 226 255
204 226 255
204 226 255
204 226 255
204 226 255
204 226 255
204 226 255
204 226 255
204 226 255
204 226 255
204 226 255
204 226 255
204 226 255
204 226 255
204 226 255
203 226 255
203 226 255
203 226 255
203 226 255
203 226 255
203 226 255
203 226 255
203 226 255
203 225 255
203 225 255
203 225 255
203 225 255
203 225 255
203 225 255
203 225 255
203 225 255
203 225 255
202 225 255
202 225 255
202 225 255
202 225 255
202 225 255
202 225 255
202 225 255
202 225 255
202 225 255
202 225 255
202 225 255
202 225 255
202 225 255
202 225 255
202 225 255
201 225 255
201 225 255
201 225 255
201 225 255
201 225 255
201 224 255
201 224 255
201 224 255
201 224 255
201 224 255
201 224 255
201 224 255
201 224 255
201 224 255
201 224 255
200 224 255
200 224 255
200 224 255
200 224 255
200 224 255
200 224 255
200 224 255
200 224 255
200 224 255
200 224 255
200 224 255
200 224 255
200 224 255
200 224 255
200 224 255
199 224 255
199 224 255
199 223 255
199 223 255
199 223 255
199 223 255
199 223 255
199 223 255
199 223 255
199 223 255
199 223 255
199 223 255
199 223 255
199 223 255
198 223 255
198 223 255
198 223 255
198 223 255
198 223 255
198 223 255
198 223 255
198 223 255
198 223 255
198 223 255
198 223 255
198 223 255
198 223 255
198 223 255
198 223 255
197 222 255
197 222 255
197 222 255
197 222 255
197 222 255
197 222 255
197 222 255
197 222 255
197 222 255
197 222 255
197 222 255
197 222 255
197 222 255
197 222 255
196 222 255
196 222 255
196 222 255
196 222 255
196 222 255
196 222 255
196 222 255
196 222 255
196 222 255
196 222 255
196 222 255
196 222 255
196 222 255
196 222 255
196 222 255
196 221 255
196 221 255
195 221 255
195 221 255
195 221 255
195 221 255
195 221 255
195 221 255
195 221 255
195 221 255
195 221 255
195 221 255
195 221 255
195 221 255
195 221 255
195 221 255
195 221 255
195 221 255
195 221 255
195 221 255
195 221 255
195 221 255
195 221 255
194 221 255
194 221 255
194 221 255
194 221 255
194 221 255
194 221 255
194 221 255
194 221 255
194 221 255
194 221 255
194 221 255
194 221 255
194 221 255
194 221 255
194 221 255
194 221 255
194 221 255
194 221 255
194 221 255
194 221 255
194 221 255
194 221 255
194 221 255
194 221 255
194 221 255
194 221 255
194 221 255
194 221 255
194 221 255
194 221 255
194 221 255
194 221 255
194 221 255
194 221 255
194 221 255
194 221 255
194 221 255
194 221 255
194 221 255
194 221 255
194 221 255
194 221 255
194 221 255
194 221 255
194 221 255
194 221 255
194 221 255
194 221 255
194 221 255
194 221 255
194 221 255
194 221 255
194 221 255
194 221 255
194 221 255
194 221 255
194 221 255
194 221 255
194 221 255
194 221 255
194 221 255
194 221 255
194 221 255
194 221 255
194 221 255
194 221 255
194 221 255
194 221 255
194 221 255
195 221 255
195 221 255
195 221 255
195 221 255
195 221 255
195 221 255
195 221 255
195 221 255
195 221 255
195 221 255
195 221 255
195 221 255
195 221 255
195 221 255
195 221 255
195 221 255
195 221 255
195 221 255
195 221 255
195 221 255
195 221 255
195 221 255
196 221 255
196 222 255
196 222 255
196 222 255
196 222 255
196 222 255
196 222 255
196 222 255
196 222 255
196 222 255
196 222 255
196 222 255
196 222 255
196 222 255
196 222 255
196 222 255
196 222 255
197 222 255
197 222 255
197 222 255
197 222 255
197 222 255
197 222 255
197 222 255
197 222 255
197 222 255
197 222 255
197 222 255
197 222 255
197 222 255
197 222 255
197 223 255
198 223 255
198 223 255
198 223 255
198 223 255
198 223 255
198 223 255
198 223 255
198 223 255
198 223 255
198 223 255
198 223 255
198 223 255
198 223 255
198 223 255
199 223 255
199 223 255
199 223 255
199 223 255
199 223 255
199 223 255
199 223 255
199 223 255
199 223 255
199 223 255
199 223 255
199 223 255
199 224 255
199 224 255
199 224 255
200 224 255
200 224 255
200 224 255
200 224 255
200 224 255
200 224 255
200 224 255
200 224 255
200 224 255
200 224 255
200 224 255
200 224 255
200 224 255
200 224 255
201 224 255
201 224 255
201 224 255
201 224 255
201 224 255
201 224 255
201 224 255
201 224 255
201 224 255
201 224 255
201 225 255
201 225 255
201 225 255
201 225 255
201 225 255
202 225 255
202 225 255
202 225 255
202 225 255
202 225 255
202 225 255
202 225 255
202 225 255
202 225 255
202 225 255
202 225 255
202 225 255
202 225 255
202 225 255
202 225 255
203 225 255
203 225 255
203 225 255
203 225 255
203 225 255
203 225 255
203 225 255
203 225 255
203 225 255
203 226 255
203 226 255
203 226 255
203 226 255
203 226 255
203 226 255
203 226 255
203 226 255
204 226 255
204 226 255
204 226 255
204 226 255
204 226 255
204 226 255
204 226 255
204 226 255
204 226 255
204 226 255
204 226 255
204 226 255
204 226 255
204 226 255
204 226 255
204 226 255
204 226 255
204 226 255
205 226 255
205 226 255
205 226 255
205 226 255
205 226 255
205 226 255
205 226 255
205 226 255
205 226 255
205 226 255
205 226 255
204 226 255
204 226 255
204 226 255
204 226 255
204 226 255
204 226 255
204 226 255
204 226 255
204 226 255
204 226 255
204 226 255
204 226 255
204 226 255
204 226 255
204 226 255
204 226 255
204 226 255
204 226 255
203 226 255
203 226 255
203 226 255
203 226 255
203 226 255
203 226 255
203 226 255
203 225 255
203 225 255
203 225 255
203 225 255
203 225 255
203 225 255
203 225 255
203 225 255
203 225 255
202 225 255
202 225 255
202 225 255
202 225 255
202 225 255
202 225 255
202 225 255
202 225 255
202 225 255
202 225 255
202 225 255
202 225 255
202 225 255
202 225 255
202 225 255
202 225 255
201 225 255
201 225 255
201 225 255
201 225 255
201 224 255
201 224 255
201 224 255
201 224 255
201 224 255
201 224 255
201 224 255
201 224 255
201 224 255
201 224 255
200 224 255
200 224 255
200 224 255
200 224 255
200 224 255
200 224 255
200 224 255
200 224 255
200 224 255
200 224 255
200 224 255
200 224 255
200 224 255
200 224 255
199 224 255
199 224 255
199 224 255
199 223 255
199 223 255
199 223 255
199 223 255
199 223 255
199 223 255
199 223 255
199 223 255
199 223 255
199 223 255
199 223 255
199 223 255
198 223 255
198 223 255
198 223 255
198 223 255
198 223 255
198 223 255
198 223 255
198 223 255
198 223 255
198 223 255
198 223 255
198 223 255
198 223 255
198 223 255
197 223 255
197 222 255
197 222 255
197 222 255
197 222 255
197 222 255
197 222 255
197 222 255
197 222 255
197 222 255
197 222 255
197 222 255
197 222 255
197 222 255
197 222 255
197 222 255
196 222 255
196 222 255
196 222 255
196 222 255
196 222 255
196 222 255
196 222 255
196 222 255
196 222 255
196 222 255
196 222 255
196 222 255
196 222 255
196 222 255
196 222 255
196 221 255
196 221 255
195 221 255
195 221 255
195 221 255
195 221 255
195 221 255
195 221 255
195 221 255
195 221 255
195 221 255
195 221 255
195 221 255
195 221 255
195 221 255
195 221 255
195 221 255
195 221 255
195 221 255
195 221 255
195 221 255
195 221 255
195 221 255
194 221 255
194 221 255
194 221 255
194 221 255
194 221 255
194 221 255
194 221 255
194 221 255
194 221 255
194 221 255
194 221 255
194 221 255
194 221 255
194 221 255
194 221 255
194 221 255
194 221 255
194 221 255
194 221 255
194 221 255
194 221 255
194 221 255
194 221 255
194 221 255
194 221 255
194 221 255
194 221 255
194 221 255
194 221 255
194 221 255
194 221 255
194 221 255
194 221 255
194 221 255
194 221 255
194 221 255
194 221 255
194 221 255
194 221 255
194 221 255
194 221 255
194 221 255
194 221 255
194 221 255
194 221 255
194 221 255
194 221 255
194 221 255
194 221 255
194 221 255
194 221 255
194 221 255
194 221 255
194 221 255
194 221 255
194 221 255
194 221 255
194 221 255
194 221 255
194 221 255
194 221 255
194 221 255
194 221 255
195 221 255
195 221 255
195 221 255
195 221 255
195 221 255
195 221 255
195 221 255
195 221 255
195 221 255
195 221 255
195 221 255
195 221 255
195 221 255
195 221 255
195 221 255
195 221 255
195 221 255
195 221 255
195 221 255
195 221 255
195 221 255
195 221 255
196 221 255
196 221 255
196 222 255
196 222 255
196 222 255
196 222 255
196 222 255
196 222 255
196 222 255
196 222 255
196 222 255
196 222 255
196 222 255
196 222 255
196 222 255
196 222 255
196 222 255
197 222 255
197 222 255
197 222 255
197 222 255
197 222 255
197 222 255
197 222 255
197 222 255
197 222 255
197 222 255
197 222 255
197 222 255
197 222 255
197 222 255
197 222 255
197 223 255
198 223 255
198 223 255
198 223 255
198 223 255
198 223 255
198 223 255
198 223 255
198 223 255
198 223 255
198 223 255
198 223 255
198 223 255
198 223 255
198 223 255
199 223 255
199 223 255
199 223 255
199 223 255
199 223 255
199 223 255
199 223 255
199 223 255
199 223 255
199 223 255
199 223 255
199 223 255
199 224 255
199 224 255
199 224 255
200 224 255
200 224 255
200 224 255
200 224 255
200 224 255
200 224 255
200 224 255
200 224 255
200 224 255
200 224 255
200 224 255
200 224 255
200 224 255
200 224 255
201 224 255
201 224 255
201 224 255
201 224 255
201 224 255
201 224 255
201 224 255
201 224 255
201 224 255
201 224 255
201 225 255
201 225 255
201 225 255
201 225 255
201 225 255
202 225 255
202 225 255
202 225 255
202 225 255
202 225 255
202 225 255
202 225 255
202 225 255
202 225 255
202 225 255
202 225 255
202 225 255
202 225 255
202 225 255
202 225 255
203 225 255
203 225 255
203 225 255
203 225 255
203 225 255
203 225 255
203 225 255
203 225 255
203 225 255
203 226 255
203 226 255
203 226 255
203 226 255
203 226 255
203 226 255
203 226 255
204 226 255
204 226 255
204 226 255
204 226 255
204 226 255
204 226 255
204 226 255
204 226 255
204 226 255
204 226 255
204 226 255
204 226 255
204 226 255
204 226 255
204 226 255
204 226 255
204 226 255
204 226 255
205 226 255
205 226 255
205 226 255
205 226 255
205 226 255
205 226 255
205 226 255
205 227 255
205 227 255
205 226 255
205 226 255
205 226 255
205 226 255
205 226 255
205 226 255
205 226 255
204 226 255
204 226 255
204 226 255
204 226 255
204 226 255
204 226 255
204 226 255
204 226 255
204 226 255
204 226 255
204 226 255
204 226 255
204 226 255
204 226 255
204 226 255
204 226 255
204 226 255
204 226 255
203 226 255
203 226 255
203 226 255
203 226 255
203 226 255
203 226 255
203 226 255
203 225 255
203 225 255
203 225 255
203 225 255
203 225 255
203 225 255
203 225 255
203 225 255
203 225 255
202 225 255
202 225 255
202 225 255
202 225 255
202 225 255
202 225 255
202 225 255
202 225 255
202 225 255
202 225 255
202 225 255
202 225 255
202 225 255
202 225 255
202 225 255
202 225 255
201 225 255
201 225 255
201 225 255
201 225 255
201 224 255
201 224 255
201 224 255
201 224 255
201 224 255
201 224 255
201 224 255
201 224 255
201 224 255
201 224 255
201 224 255
200 224 255
200 224 255
200 224 255
200 224 255
200 224 255
200 224 255
200 224 255
200 224 255
200 224 255
200 224 255
200 224 255
200 224 255
200 224 255
200 224 255
199 224 255
199 224 255
199 223 255
199 223 255
199 223 255
199 223 255
199 223 255
199 223 255
199 223 255
199 223 255
199 223 255
199 223 255
199 223 255
199 223 255
198 223 255
198 223 255
198 223 255
198 223 255
198 223 255
198 223 255
198 223 255
198 223 255
198 223 255
198 223 255
198 223 255
198 223 255
198 223 255
198 223 255
198 223 255
197 222 255
197 222 255
197 222 255
197 222 255
197 222 255
197 222 255
197 222 255
197 222 255
197 222 255
197 222 255
197 222 255
197 222 255
197 222 255
197 222 255
197 222 255
196 222 255
196 222 255
196 222 255
196 222 255
196 222 255
196 222 255
196 222 255
196 222 255
196 222 255
196 222 255
196 222 255
196 222 255
196 222 255
196 222 255
196 222 255
196 222 255
196 221 255
196 221 255
195 221 255
195 221 255
195 221 255
195 221 255
195 221 255
195 221 255
195 221 255
195 221 255
195 221 255
195 221 255
195 221 255
195 221 255
195 221 255
195 221 255
195 221 255
195 221 255
195 221 255
195 221 255
195 221 255
195 221 255
195 221 255
195 221 255
195 221 255
195 221 255
194 221 255
194 221 255
194 221 255
194 221 255
194 221 255
194 221 255
194 221 255
194 221 255
194 221 255
194 221 255
194 221 255
194 221 255
194 221 255
194 221 255
194 221 255
194 221 255
194 221 255
194 221 255
194 221 255
194 221 255
194 221 255
194 221 255
194 221 255
194 221 255
194 221 255
194 221 255
194 221 255
194 221 255
194 221 255
194 221 255
194 221 255
194 221 255
194 221 255
194 221 255
194 221 255
194 221 255
194 221 255
194 221 255
194 221 255
194 221 255
194 221 255
194 221 255
194 221 255
194 221 255
194 221 255
194 221 255
194 221 255
194 221 255
194 221 255
194 221 255
194 221 255
194 221 255
194 221 255
195 221 255
195 221 255
195 221 255
195 221 255
195 221 255
195 221 255
195 221 255
195 221 255
195 221 255
195 221 255
195 221 255
195 221 255
195 221 255
195 221 255
195 221 255
195 221 255
195 221 255
195 221 255
195 221 255
195 221 255
195 221 255
195 221 255
195 221 255
195 221 255
196 221 255
196 222 255
196 222 255
196 222 255
196 222 255
196 222 255
196 222 255
196 222 255
196 222 255
196 222 255
196 222 255
196 222 255
196 222 255
196 222 255
196 222 255
196 222 255
196 222 255
197 222 255
197 222 255
197 222 255
197 222 255
197 222 255
197 222 255
197 222 255
197 222 255
197 222 255
197 222 255
197 222 255
197 222 255
197 222 255
197 222 255
197 222 255
198 223 255
198 223 255
198 223 255
198 223 255
198 223 255
198 223 255
198 223 255
198 223 255
198 223 255
198 223 255
198 223 255
198 223 255
198 223 255
198 223 255
198 223 255
199 223 255
199 223 255
199 223 255
199 223 255
199 223 255
199 223 255
199 223 255
199 223 255
199 223 255
199 223 255
199 223 255
199 223 255
199 224 255
199 224 255
200 224 255
200 224 255
200 224 255
200 224 255
200 224 255
200 224 255
200 224 255
200 224 255
200 224 255
200 224 255
200 224 255
200 224 255
200 224 255
200 224 255
201 224 255
201 224 255
201 224 255
201 224 255
201 224 255
201 224 255
201 224 255
201 224 255
201 224 255
201 224 255
201 224 255
201 225 255
201 225 255
201 225 255
201 225 255
202 225 255
202 225 255
202 225 255
202 225 255
202 225 255
202 225 255
202 225 255
202 225 255
202 225 255
202 225 255
202 225 255
202 225 255
202 225 255
202 225 255
202 225 255
202 225 255
203 225 255
203 225 255
203 225 255
203 225 255
203 225 255
203 225 255
203 225 255
203 225 255
203 225 255
203 226 255
203 226 255
203 226 255
203 226 255
203 226 255
203 226 255
203 226 255
204 226 255
204 226 255
204 226 255
204 226 255
204 226 255
204 226 255
204 226 255
204 226 255
204 226 255
204 226 255
204 226 255
204 226 255
204 226 255
204 226 255
204 226 255
204 226 255
204 226 255
204 226 255
205 226 255
205 226 255
205 226 255
205 226 255
205 226 255
205 226 255
205 226 255
205 227 255
205 227 255
205 227 255
205 227 255
205 227 255
205 227 255
205 226 255
205 226 255
205 226 255
205 226 255
205 226 255
205 226 255
205 226 255
205 226 255
204 226 255
204 226 255
204 226 255
204 226 255
204 226 255
204 226 255
204 226 255
204 226 255
204 226 255
204 226 255
204 226 255
204 226 255
204 226 255
204 226 255
204 226 255
204 226 255
203 226 255
203 226 255
203 226 255
203 226 255
203 226 255
203 226 255
203 226 255
203 226 255
203 225 255
203 225 255
203 225 255
203 225 255
203 225 255
203 225 255
203 225 255
203 225 255
203 225 255
202 225 255
202 225 255
202 225 255
202 225 255
202 225 255
202 225 255
202 225 255
202 225 255
202 225 255
202 225 255
202 225 255
202 225 255
202 225 255
202 225 255
202 225 255
202 225 255
201 225 255
201 225 255
201 225 255
201 225 255
201 224 255
201 224 255
201 224 255
201 224 255
201 224 255
201 224 255
201 224 255
201 224 255
201 224 255
201 224 255
201 224 255
200 224 255
200 224 255
200 224 255
200 224 255
200 224 255
200 224 255
200 224 255
200 224 255
200 224 255
200 224 255
200 224 255
200 224 255
200 224 255
200 224 255
199 224 255
199 224 255
199 223 255
199 223 255
199 223 255
199 223 255
199 223 255
199 223 255
199 223 255
199 223 255
199 223 255
199 223 255
199 223 255
199 223 255
198 223 255
198 223 255
198 223 255
198 223 255
198 223 255
198 223 255
198 223 255
198 223 255
198 223 255
198 223 255
198 223 255
198 223 255
198 223 255
198 223 255
198 223 255
197 222 255
197 222 255
197 222 255
197 222 255
197 222 255
197 222 255
197 222 255
197 222 255
197 222 255
197 222 255
197 222 255
197 222 255
197 222 255
197 222 255
197 222 255
196 222 255
196 222 255
196 222 255
196 222 255
196 222 255
196 222 255
196 222 255
196 222 255
196 222 255
196 222 255
196 222 255
196 222 255
196 222 255
196 222 255
196 222 255
196 222 255
196 222 255
196 221 255
195 221 255
195 221 255
195 221 255
195 221 255
195 221 255
195 221 255
195 221 255
195 221 255
195 221 255
195 221 255
195 221 255
195 221 255
195 221 255
195 221 255
195 221 255
195 221 255
195 221 255
195 221 255
195 221 255
195 221 255
195 221 255
195 221 255
195 221 255
195 221 255
195 221 255
195 221 255
195 221 255
194 221 255
194 221 255
194 221 255
194 221 255
194 221 255
194 221 255
194 221 255
194 221 255
194 221 255
194 221 255
194 221 255
194 221 255
194 221 255
194 221 255
194 221 255
194 221 255
194 221 255
194 221 255
194 221 255
194 221 255
194 221 255
194 221 255
194 221 255
194 221 255
194 221 255
194 221 255
194 221 255
194 221 255
194 221 255
194 221 255
194 221 255
194 221 255
194 221 255
194 221 255
194 221 255
194 221 255
194 221 255
194 221 255
194 221 255
194 221 255
194 221 255
194 221 255
194 221 255
195 221 255
195 221 255
195 221 255
195 221 255
195 221 255
195 221 255
195 221 255
195 221 255
195 221 255
195 221 255
195 221 255
195 221 255
195 221 255
195 221 255
195 221 255
195 221 255
195 221 255
195 221 255
195 221 255
195 221 255
195 221 255
195 221 255
195 221 255
195 221 255
195 221 255
195 221 255
196 221 255
196 222 255
196 222 255
196 222 255
196 222 255
196 222 255
196 222 255
196 222 255
196 222 255
196 222 255
196 222 255
196 222 255
196 222 255
196 222 255
196 222 255
196 222 255
196 222 255
196 222 255
197 222 255
197 222 255
197 222 255
197 222 255
197 222 255
197 222 255
197 222 255
197 222 255
197 222 255
197 222 255
197 222 255
197 222 255
197 222 255
197 222 255
197 222 255
198 223 255
198 223 255
198 223 255
198 223 255
198 223 255
198 223 255
198 223 255
198 223 255
198 223 255
198 223 255
198 223 255
198 223 255
198 223 255
198 223 255
198 223 255
199 223 255
199 223 255
199 223 255
199 223 255
199 223 255
199 223 255
199 223 255
199 223 255
199 223 255
199 223 255
199 223 255
199 223 255
199 224 255
199 224 255
200 224 255
200 224 255
200 224 255
200 224 255
200 224 255
200 224 255
200 224 255
200 224 255
200 224 255
200 224 255
200 224 255
200 224 255
200 224 255
200 224 255
200 224 255
201 224 255
201 224 255
201 224 255
201 224 255
201 224 255
201 224 255
201 224 255
201 224 255
201 224 255
201 224 255
201 225 255
201 225 255
201 225 255
201 225 255
201 225 255
202 225 255
202 225 255
202 225 255
202 225 255
202 225 255
202 225 255
202 225 255
202 225 255
202 225 255
202 225 255
202 225 255
202 225 255
202 225 255
202 225 255
202 225 255
203 225 255
203 225 255
203 225 255
203 225 255
203 225 255
203 225 255
203 225 255
203 225 255
203 225 255
203 226 255
203 226 255
203 226 255
203 226 255
203 226 255
203 226 255
203 226 255
204 226 255
204 226 255
204 226 255
204 226 255
204 226 255
204 226 255
204 226 255
204 226 255
204 226 255
204 226 255
204 226 255
204 226 255
204 226 255
204 226 255
204 226 255
204 226 255
204 226 255
205 226 255
205 226 255
205 226 255
205 226 255
205 226 255
205 226 255
205 226 255
205 226 255
205 227 255
205 227 255
205 227 255
205 227 255
205 227 255
205 227 255
205 227 255
205 227 255
205 227 255
205 227 255
205 227 255
205 226 255
205 226 255
205 226 255
205 226 255
205 226 255
205 226 255
205 226 255
204 226 255
204 226 255
204 226 255
204 226 255
204 226 255
204 226 255
204 226 255
204 226 255
204 226 255
204 226 255
204 226 255
204 226 255
204 226 255
204 226 255
204 226 255
204 226 255
204 226 255
203 226 255
203 226 255
203 226 255
203 226 255
203 226 255
203 226 255
203 226 255
203 225 255
203 225 255
203 225 255
203 225 255
203 225 255
203 225 255
203 225 255
203 225 255
203 225 255
202 225 255
202 225 255
202 225 255
202 225 255
202 225 255
202 225 255
202 225 255
202 225 255
202 225 255
202 225 255
202 225 255
202 225 255
202 225 255
202 225 255
202 225 255
202 225 255
201 225 255
201 225 255
201 225 255
201 225 255
201 224 255
201 224 255
201 224 255
201 224 255
201 224 255
201 224 255
201 224 255
201 224 255
201 224 255
201 224 255
201 224 255
200 224 255
200 224 255
200 224 255
200 224 255
200 224 255
200 224 255
200 224 255
200 224 255
200 224 255
200 224 255
200 224 255
200 224 255
200 224 255
200 224 255
199 224 255
199 224 255
199 224 255
199 223 255
199 223 255
199 223 255
199 223 255
199 223 255
199 223 255
199 223 255
199 223 255
199 223 255
199 223 255
199 223 255
198 223 255
198 223 255
198 223 255
198 223 255
198 223 255
198 223 255
198 223 255
198 223 255
198 223 255
198 223 255
198 223 255
198 223 255
198 223 255
198 223 255
198 223 255
198 223 255
197 222 255
197 222 255
197 222 255
197 222 255
197 222 255
197 222 255
197 222 255
197 222 255
197 222 255
197 222 255
197 222 255
197 222 255
197 222 255
197 222 255
197 222 255
196 222 255
196 222 255
196 222 255
196 222 255
196 222 255
196 222 255
196 222 255
196 222 255
196 222 255
196 222 255
196 222 255
196 222 255
196 222 255
196 222 255
196 222 255
196 222 255
196 221 255
196 221 255
196 221 255
195 221 255
195 221 255
195 221 255
195 221 255
195 221 255
195 221 255
195 221 255
195 221 255
195 221 255
195 221 255
195 221 255
195 221 255
195 221 255
195 221 255
195 221 255
195 221 255
195 221 255
195 221 255
195 221 255
195 221 255
195 221 255
195 221 255
195 221 255
195 221 255
195 221 255
195 221 255
195 221 255
195 221 255
195 221 255
194 221 255
195 221 255
194 221 255
194 221 255
194 221 255
194 221 255
194 221 255
194 221 255
194 221 255
194 221 255
194 221 255
194 221 255
194 221 255
194 221 255
194 221 255
194 221 255
194 221 255
194 221 255
194 221 255
194 221 255
194 221 255
194 221 255
194 221 255
194 221 255
194 221 255
194 221 255
194 221 255
194 221 255
194 221 255
195 221 255
195 221 255
195 221 255
195 221 255
195 221 255
195 221 255
195 221 255
195 221 255
195 221 255
195 221 255
195 221 255
195 221 255
195 221 255
195 221 255
195 221 255
195 221 255
195 221 255
195 221 255
195 221 255
195 221 255
195 221 255
195 221 255
195 221 255
195 221 255
195 221 255
195 221 255
195 221 255
195 221 255
195 221 255
195 221 255
195 221 255
196 221 255
196 221 255
196 222 255
196 222 255
196 222 255
196 222 255
196 222 255
196 222 255
196 222 255
196 222 255
196 222 255
196 222 255
196 222 255
196 222 255
196 222 255
196 222 255
196 222 255
196 222 255
197 222 255
197 222 255
197 222 255
197 222 255
197 222 255
197 222 255
197 222 255
197 222 255
197 222 255
197 222 255
197 222 255
197 222 255
197 222 255
197 222 255
197 222 255
198 223 255
198 223 255
198 223 255
198 223 255
198 223 255
198 223 255
198 223 255
198 223 255
198 223 255
198 223 255
198 223 255
198 223 255
198 223 255
198 223 255
198 223 255
198 223 255
199 223 255
199 223 255
199 223 255
199 223 255
199 223 255
199 223 255
199 223 255
199 223 255
199 223 255
199 223 255
199 223 255
199 224 255
199 224 255
199 224 255
200 224 255
200 224 255
200 224 255
200 224 255
200 224 255
200 224 255
200 224 255
200 224 255
200 224 255
200 224 255
200 224 255
200 224 255
200 224 255
200 224 255
201 224 255
201 224 255
201 224 255
201 224 255
201 224 255
201 224 255
201 224 255
201 224 255
201 224 255
201 224 255
201 224 255
201 225 255
201 225 255
201 225 255
201 225 255
202 225 255
202 225 255
202 225 255
202 225 255
202 225 255
202 225 255
202 225 255
202 225 255
202 225 255
202 225 255
202 225 255
202 225 255
202 225 255
202 225 255
202 225 255
203 225 255
203 225 255
203 225 255
203 225 255
203 225 255
203 225 255
203 225 255
203 225 255
203 225 255
203 226 255
203 226 255
203 226 255
203 226 255
203 226 255
203 226 255
203 226 255
204 226 255
204 226 255
204 226 255
204 226 255
204 226 255
204 226 255
204 226 255
204 226 255
204 226 255
204 226 255
204 226 255
204 226 255
204 226 255
204 226 255
204 226 255
204 226 255
204 226 255
204 226 255
205 226 255
205 226 255
205 226 255
205 226 255
205 226 255
205 226 255
205 226 255
205 227 255
205 227 255
205 227 255
205 227 255
205 227 255
205 227 255
205 227 255
205 227 255
205 227 255
205 227 255
205 227 255
205 227 255
205 227 255
205 227 255
205 227 255
205 227 255
205 226 255
205 226 255
205 226 255
205 226 255
205 226 255
205 226 255
205 226 255
205 226 255
204 226 255
204 226 255
204 226 255
204 226 255
204 226 255
204 226 255
204 226 255
204 226 255
204 226 255
204 226 255
204 226 255
204 226 255
204 226 255
204 226 255
204 226 255
204 226 255
204 226 255
203 226 255
203 226 255
203 226 255
203 226 255
203 226 255
203 226 255
203 226 255
203 225 255
203 225 255
203 225 255
203 225 255
203 225 255
203 225 255
203 225 255
203 225 255
203 225 255
202 225 255
202 225 255
202 225 255
202 225 255
202 225 255
202 225 255
202 225 255
202 225 255
202 225 255
202 225 255
202 225 255
202 225 255
202 225 255
202 225 255
202 225 255
201 225 255
201 225 255
201 225 255
201 225 255
201 224 255
201 224 255
201 224 255
201 224 255
201 224 255
201 224 255
201 224 255
201 224 255
201 224 255
201 224 255
201 224 255
200 224 255
200 224 255
200 224 255
200 224 255
200 224 255
200 224 255
200 224 255
200 224 255
200 224 255
200 224 255
200 224 255
200 224 255
200 224 255
200 224 255
199 224 255
199 224 255
199 224 255
199 223 255
199 223 255
199 223 255
199 223 255
199 223 255
199 223 255
199 223 255
199 223 255
199 223 255
199 223 255
199 223 255
199 223 255
198 223 255
198 223 255
198 223 255
198 223 255
198 223 255
198 223 255
198 223 255
198 223 255
198 223 255
198 223 255
198 223 255
198 223 255
198 223 255
198 223 255
198 223 255
197 222 255
197 222 255
197 222 255
197 222 255
197 222 255
197 222 255
197 222 255
197 222 255
197 222 255
197 222 255
197 222 255
197 222 255
197 222 255
197 222 255
197 222 255
197 222 255
196 222 255
196 222 255
196 222 255
196 222 255
196 222 255
196 222 255
196 222 255
196 222 255
196 222 255
196 222 255
196 222 255
196 222 255
196 222 255
196 222 255
196 222 255
196 222 255
196 221 255
196 221 255
195 221 255
195 221 255
195 221 255
195 221 255
195 221 255
195 221 255
195 221 255
195 221 255
195 221 255
195 221 255
195 221 255
195 221 255
195 221 255
195 221 255
195 221 255
195 221 255
195 221 255
195 221 255
195 221 255
195 221 255
195 221 255
195 221 255
195 221 255
195 221 255
195 221 255
195 221 255
195 221 255
195 221 255
195 221 255
195 221 255
195 221 255
195 221 255
195 221 255
195 221 255
195 221 255
195 221 255
195 221 255
195 221 255
195 221 255
195 221 255
195 221 255
195 221 255
195 221 255
194 221 255
195 221 255
195 221 255
195 221 255
195 221 255
195 221 255
195 221 255
195 221 255
195 221 255
195 221 255
195 221 255
195 221 255
195 221 255
195 221 255
195 221 255
195 221 255
195 221 255
195 221 255
195 221 255
195 221 255
195 221 255
195 221 255
195 221 255
195 221 255
195 221 255
195 221 255
195 221 255
195 221 255
195 221 255
195 221 255
195 221 255
195 221 255
195 221 255
195 221 255
195 221 255
195 221 255
195 221 255
195 221 255
195 221 255
195 221 255
195 221 255
196 221 255
196 222 255
196 222 255
196 222 255
196 222 255
196 222 255
196 222 255
196 222 255
196 222 255
196 222 255
196 222 255
196 222 255
196 222 255
196 222 255
196 222 255
196 222 255
196 222 255
196 222 255
196 222 255
197 222 255
197 222 255
197 222 255
197 222 255
197 222 255
197 222 255
197 222 255
197 222 255
197 222 255
197 222 255
197 222 255
197 222 255
197 222 255
197 222 255
197 222 255
197 223 255
198 223 255
198 223 255
198 223 255
198 223 255
198 223 255
198 223 255
198 223 255
198 223 255
198 223 255
198 223 255
198 223 255
198 223 255
198 223 255
198 223 255
199 223 255
199 223 255
199 223 255
199 223 255
199 223 255
199 223 255
199 223 255
199 223 255
199 223 255
199 223 255
199 223 255
199 223 255
199 223 255
199 224 255
199 224 255
200 224 255
200 224 255
200 224 255
200 224 255
200 224 255
200 224 255
200 224 255
200 224 255
200 224 255
200 224 255
200 224 255
200 224 255
200 224 255
200 224 255
201 224 255
201 224 255
201 224 255
201 224 255
201 224 255
201 224 255
201 224 255
201 224 255
201 224 255
201 224 255
201 225 255
201 225 255
201 225 255
201 225 255
201 225 255
202 225 255
202 225 255
202 225 255
202 225 255
202 225 255
202 225 255
202 225 255
202 225 255
202 225 255
202 225 255
202 225 255
202 225 255
202 225 255
202 225 255
202 225 255
203 225 255
203 225 255
203 225 255
203 225 255
203 225 255
203 225 255
203 225 255
203 225 255
203 225 255
203 226 255
203 226 255
203 226 255
203 226 255
203 226 255
203 226 255
203 226 255
204 226 255
204 226 255
204 226 255
204 226 255
204 226 255
204 226 255
204 226 255
204 226 255
204 226 255
204 226 255
204 226 255
204 226 255
204 226 255
204 226 255
204 226 255
204 226 255
204 226 255
204 226 255
205 226 255
205 226 255
205 226 255
205 226 255
205 226 255
205 226 255
205 226 255
205 227 255
205 227 255
205 227 255
205 227 255
205 227 255
205 227 255
205 227 255
205 227 255
205 227 255
205 227 255
205 227 255
205 227 255
205 227 255
205 227 255
205 227 255
205 227 255
205 227 255
205 227 255
205 227 255
205 227 255
205 226 255
205 226 255
205 226 255
205 226 255
205 226 255
205 226 255
205 226 255
205 226 255
204 226 255
204 226 255
204 226 255
204 226 255
204 226 255
204 226 255
204 226 255
204 226 255
204 226 255
204 226 255
204 226 255
204 226 255
204 226 255
204 226 255
204 226 255
204 226 255
204 226 255
203 226 255
203 226 255
203 226 255
203 226 255
203 226 255
203 226 255
203 226 255
203 225 255
203 225 255
203 225 255
203 225 255
203 225 255
203 225 255
203 225 255
203 225 255
203 225 255
202 225 255
202 225 255
202 225 255
202 225 255
202 225 255
202 225 255
202 225 255
202 225 255
202 225 255
202 225 255
202 225 255
202 225 255
202 225 255
202 225 255
202 225 255
201 225 255
201 225 255
201 225 255
201 225 255
201 225 255
201 224 255
201 224 255
201 224 255
201 224 255
201 224 255
201 224 255
201 224 255
201 224 255
201 224 255
201 224 255
200 224 255
200 224 255
200 224 255
200 224 255
200 224 255
200 224 255
200 224 255
200 224 255
200 224 255
200 224 255
200 224 255
200 224 255
200 224 255
200 224 255
199 224 255
199 224 255
199 224 255
199 223 255
199 223 255
199 223 255
199 223 255
199 223 255
199 223 255
199 223 255
199 223 255
199 223 255
199 223 255
199 223 255
199 223 255
198 223 255
198 223 255
198 223 255
198 223 255
198 223 255
198 223 255
198 223 255
198 223 255
198 223 255
198 223 255
198 223 255
198 223 255
198 223 255
198 223 255
197 223 255
197 222 255
197 222 255
197 222 255
197 222 255
197 222 255
197 222 255
197 222 255
197 222 255
197 222 255
197 222 255
197 222 255
197 222 255
197 222 255
197 222 255
197 222 255
197 222 255
196 222 255
196 222 255
196 222 255
196 222 255
196 222 255
196 222 255
196 222 255
196 222 255
196 222 255
196 222 255
196 222 255
196 222 255
196 222 255
196 222 255
196 222 255
196 222 255
196 222 255
196 222 255
196 221 255
196 221 255
196 221 255
195 221 255
195 221 255
195 221 255
195 221 255
195 221 255
195 221 255
195 221 255
195 221 255
195 221 255
195 221 255
195 221 255
195 221 255
195 221 255
195 221 255
195 221 255
195 221 255
195 221 255
195 221 255
195 221 255
195 221 255
195 221 255
195 221 255
195 221 255
195 221 255
195 221 255
195 221 255
195 221 255
195 221 255
195 221 255
195 221 255
195 221 255
195 221 255
195 221 255
195 221 255
195 221 255
195 221 255
195 221 255
195 221 255
195 221 255
195 221 255
195 221 255
195 221 255
195 221 255
195 221 255
195 221 255
195 221 255
195 221 255
195 221 255
195 221 255
195 221 255
195 221 255
195 221 255
195 221 255
195 221 255
195 221 255
195 221 255
195 221 255
195 221 255
195 221 255
195 221 255
195 221 255
195 221 255
195 221 255
195 221 255
195 221 255
195 221 255
195 221 255
195 221 255
195 221 255
195 221 255
195 221 255
195 221 255
195 221 255
195 221 255
195 221 255
196 221 255
196 222 255
196 222 255
196 222 255
196 222 255
196 222 255
196 222 255
196 222 255
196 222 255
196 222 255
196 222 255
196 222 255
196 222 255
196 222 255
196 222 255
196 222 255
196 222 255
196 222 255
196 222 255
196 222 255
197 222 255
197 222 255
197 222 255
197 222 255
197 222 255
197 222 255
197 222 255
197 222 255
197 222 255
197 222 255
197 222 255
197 222 255
197 222 255
197 222 255
197 222 255
197 222 255
198 223 255
198 223 255
198 223 255
198 223 255
198 223 255
198 223 255
198 223 255
198 223 255
198 223 255
198 223 255
198 223 255
198 223 255
198 223 255
198 223 255
198 223 255
199 223 255
199 223 255
199 223 255
199 223 255
199 223 255
199 223 255
199 223 255
199 223 255
199 223 255
199 223 255
199 223 255
199 223 255
199 224 255
199 224 255
200 224 255
200 224 255
200 224 255
200 224 255
200 224 255
200 224 255
200 224 255
200 224 255
200 224 255
200 224 255
200 224 255
200 224 255
200 224 255
200 224 255
200 224 255
201 224 255
201 224 255
201 224 255
201 224 255
201 224 255
201 224 255
201 224 255
201 224 255
201 224 255
201 224 255
201 225 255
201 225 255
201 225 255
201 225 255
201 225 255
202 225 255
202 225 255
202 225 255
202 225 255
202 225 255
202 225 255
202 225 255
202 225 255
202 225 255
202 225 255
202 225 255
202 225 255
202 225 255
202 225 255
202 225 255
203 225 255
203 225 255
203 225 255
203 225 255
203 225 255
203 225 255
203 225 255
203 225 255
203 225 255
203 226 255
203 226 255
203 226 255
203 226 255
203 226 255
203 226 255
203 226 255
204 226 255
204 226 255
204 226 255
204 226 255
204 226 255
204 226 255
204 226 255
204 226 255
204 226 255
204 226 255
204 226 255
204 226 255
204 226 255
204 226 255
204 226 255
204 226 255
204 226 255
205 226 255
205 226 255
205 226 255
205 226 255
205 226 255
205 226 255
205 226 255
205 226 255
205 227 255
205 227 255
205 227 255
205 227 255
205 227 255
205 227 255
205 227 255
205 227 255
205 227 255
205 227 255
205 227 255
206 227 255
206 227 255
206 227 255
205 227 255
205 227 255
205 227 255
205 227 255
205 227 255
205 227 255
205 227 255
205 227 255
205 227 255
205 227 255
205 227 255
205 226 255
205 226 255
205 226 255
205 226 255
205 226 255
205 226 255
205 226 255
204 226 255
204 226 255
204 226 255
204 226 255
204 226 255
204 226 255
204 226 255
204 226 255
204 226 255
204 226 255
204 226 255
204 226 255
204 226 255
204 226 255
204 226 255
204 226 255
204 226 255
203 226 255
203 226 255
203 226 255
203 226 255
203 226 255
203 226 255
203 226 255
203 225 255
203 225 255
203 225 255
203 225 255
203 225 255
203 225 255
203 225 255
203 225 255
203 225 255
202 225 255
202 225 255
202 225 255
202 225 255
202 225 255
202 225 255
202 225 255
202 225 255
202 225 255
202 225 255
202 225 255
202 225 255
202 225 255
202 225 255
202 225 255
202 225 255
201 225 255
201 225 255
201 225 255
201 225 255
201 224 255
201 224 255
201 224 255
201 224 255
201 224 255
201 224 255
201 224 255
201 224 255
201 224 255
201 224 255
200 224 255
200 224 255
200 224 255
200 224 255
200 224 255
200 224 255
200 224 255
200 224 255
200 224 255
200 224 255
200 224 255
200 224 255
200 224 255
200 224 255
200 224 255
199 224 255
199 224 255
199 223 255
199 223 255
199 223 255
199 223 255
199 223 255
199 223 255
199 223 255
199 223 255
199 223 255
199 223 255
199 223 255
199 223 255
198 223 255
198 223 255
198 223 255
198 223 255
198 223 255
198 223 255
198 223 255
198 223 255
198 223 255
198 223 255
198 223 255
198 223 255
198 223 255
198 223 255
198 223 255
197 223 255
197 222 255
197 222 255
197 222 255
197 222 255
197 222 255
197 222 255
197 222 255
197 222 255
197 222 255
197 222 255
197 222 255
197 222 255
197 222 255
197 222 255
197 222 255
197 222 255
196 222 255
196 222 255
196 222 255
196 222 255
196 222 255
196 222 255
196 222 255
196 222 255
196 222 255
196 222 255
196 222 255
196 222 255
196 222 255
196 222 255
196 222 255
196 222 255
196 222 255
196 222 255
196 222 255
196 221 255
196 221 255
195 221 255
195 221 255
195 221 255
195 221 255
195 221 255
195 221 255
195 221 255
195 221 255
195 221 255
195 221 255
195 221 255
195 221 255
195 221 255
195 221 255
195 221 255
195 221 255
195 221 255
195 221 255
195 221 255
195 221 255
195 221 255
195 221 255
195 221 255
195 221 255
195 221 255
195 221 255
195 221 255
195 221 255
195 221 255
195 221 255
195 221 255
195 221 255
195 221 255
195 221 255
195 221 255
195 221 255
195 221 255
195 221 255
195 221 255
195 221 255
195 221 255
195 221 255
195 221 255
195 221 255
195 221 255
195 221 255
195 221 255
195 221 255
195 221 255
195 221 255
195 221 255
195 221 255
195 221 255
195 221 255
195 221 255
195 221 255
195 221 255
195 221 255
195 221 255
195 221 255
195 221 255
195 221 255
195 221 255
195 221 255
195 221 255
195 221 255
195 221 255
195 221 255
195 221 255
196 221 255
196 221 255
196 222 255
196 222 255
196 222 255
196 222 255
196 222 255
196 222 255
196 222 255
196 222 255
196 222 255
196 222 255
196 222 255
196 222 255
196 222 255
196 222 255
196 222 255
196 222 255
196 222 255
196 222 255
197 222 255
197 222 255
197 222 255
197 222 255
197 222 255
197 222 255
197 222 255
197 222 255
197 222 255
197 222 255
197 222 255
197 222 255
197 222 255
197 222 255
197 222 255
197 222 255
198 223 255
198 223 255
198 223 255
198 223 255
198 223 255
198 223 255
198 223 255
198 223 255
198 223 255
198 223 255
198 223 255
198 223 255
198 223 255
198 223 255
198 223 255
198 223 255
199 223 255
199 223 255
199 223 255
199 223 255
199 223 255
199 223 255
199 223 255
199 223 255
199 223 255
199 223 255
199 223 255
199 223 255
199 224 255
199 224 255
200 224 255
200 224 255
200 224 255
200 224 255
200 224 255
200 224 255
200 224 255
200 224 255
200 224 255
200 224 255
200 224 255
200 224 255
200 224 255
200 224 255
200 224 255
201 224 255
201 224 255
201 224 255
201 224 255
201 224 255
201 224 255
201 224 255
201 224 255
201 224 255
201 224 255
201 225 255
201 225 255
201 225 255
201 225 255
201 225 255
202 225 255
202 225 255
202 225 255
202 225 255
202 225 255
202 225 255
202 225 255
202 225 255
202 225 255
202 225 255
202 225 255
202 225 255
202 225 255
202 225 255
202 225 255
203 225 255
203 225 255
203 225 255
203 225 255
203 225 255
203 225 255
203 225 255
203 225 255
203 226 255
203 226 255
203 226 255
203 226 255
203 226 255
203 226 255
203 226 255
203 226 255
204 226 255
204 226 255
204 226 255
204 226 255
204 226 255
204 226 255
204 226 255
204 226 255
204 226 255
204 226 255
204 226 255
204 226 255
204 226 255
204 226 255
204 226 255
204 226 255
204 226 255
205 226 255
205 226 255
205 226 255
205 226 255
205 226 255
205 226 255
205 226 255
205 227 255
205 227 255
205 227 255
205 227 255
205 227 255
205 227 255
205 227 255
205 227 255
205 227 255
205 227 255
205 227 255
206 227 255
206 227 255
206 227 255
206 227 255
206 227 255
206 227 255
206 227 255
206 227 255
205 227 255
205 227 255
205 227 255
205 227 255
205 227 255
205 227 255
205 227 255
205 227 255
205 227 255
205 227 255
205 227 255
205 227 255
205 226 255
205 226 255
205 226 255
205 226 255
205 226 255
205 226 255
205 226 255
204 226 255
204 226 255
204 226 255
204 226 255
204 226 255
204 226 255
204 226 255
204 226 255
204 226 255
204 226 255
204 226 255
204 226 255
204 226 255
204 226 255
204 226 255
204 226 255
204 226 255
203 226 255
203 226 255
203 226 255
203 226 255
203 226 255
203 226 255
203 226 255
203 225 255
203 225 255
203 225 255
203 225 255
203 225 255
203 225 255
203 225 255
203 225 255
203 225 255
202 225 255
202 225 255
202 225 255
202 225 255
202 225 255
202 225 255
202 225 255
202 225 255
202 225 255
202 225 255
202 225 255
202 225 255
202 225 255
202 225 255
202 225 255
201 225 255
201 225 255
201 225 255
201 225 255
201 224 255
201 224 255
201 224 255
201 224 255
201 224 255
201 224 255
201 224 255
201 224 255
201 224 255
201 224 255
200 224 255
200 224 255
200 224 255
200 224 255
200 224 255
200 224 255
200 224 255
200 224 255
200 224 255
200 224 255
200 224 255
200 224 255
200 224 255
200 224 255
200 224 255
199 224 255
199 224 255
199 223 255
199 223 255
199 223 255
199 223 255
199 223 255
199 223 255
199 223 255
199 223 255
199 223 255
199 223 255
199 223 255
199 223 255
198 223 255
198 223 255
198 223 255
198 223 255
198 223 255
198 223 255
198 223 255
198 223 255
198 223 255
198 223 255
198 223 255
198 223 255
198 223 255
198 223 255
198 223 255
197 223 255
197 222 255
197 222 255
197 222 255
197 222 255
197 222 255
197 222 255
197 222 255
197 222 255
197 222 255
197 222 255
197 222 255
197 222 255
197 222 255
197 222 255
197 222 255
197 222 255
197 222 255
196 222 255
196 222 255
196 222 255
196 222 255
196 222 255
196 222 255
196 222 255
196 222 255
196 222 255
196 222 255
196 222 255
196 222 255
196 222 255
196 222 255
196 222 255
196 222 255
196 222 255
196 222 255
196 222 255
196 222 255
196 221 255
196 221 255
195 221 255
195 221 255
195 221 255
195 221 255
195 221 255
195 221 255
195 221 255
195 221 255
195 221 255
195 221 255
195 221 255
195 221 255
195 221 255
195 221 255
195 221 255
195 221 255
195 221 255
195 221 255
195 221 255
195 221 255
195 221 255
195 221 255
195 221 255
195 221 255
195 221 255
195 221 255
195 221 255
195 221 255
195 221 255
195 221 255
195 221 255
195 221 255
195 221 255
195 221 255
195 221 255
195 221 255
195 221 255
195 221 255
195 221 255
195 221 255
195 221 255
195 221 255
195 221 255
195 221 255
195 221 255
195 221 255
195 221 255
195 221 255
195 221 255
195 221 255
195 221 255
195 221 255
195 221 255
195 221 255
195 221 255
195 221 255
195 221 255
195 221 255
195 221 255
195 221 255
196 221 255
196 221 255
196 222 255
196 222 255
196 222 255
196 222 255
196 222 255
196 222 255
196 222 255
196 222 255
196 222 255
196 222 255
196 222 255
196 222 255
196 222 255
196 222 255
196 222 255
196 222 255
196 222 255
196 222 255
196 222 255
196 222 255
197 222 255
197 222 255
197 222 255
197 222 255
197 222 255
197 222 255
197 222 255
197 222 255
197 222 255
197 222 255
197 222 255
197 222 255
197 222 255
197 222 255
197 222 255
197 222 255
197 222 255
198 223 255
198 223 255
198 223 255
198 223 255
198 223 255
198 223 255
198 223 255
198 223 255
198 223 255
198 223 255
198 223 255
198 223 255
198 223 255
198 223 255
198 223 255
199 223 255
199 223 255
199 223 255
199 223 255
199 223 255
199 223 255
199 223 255
199 223 255
199 223 255
199 223 255
199 223 255
199 223 255
199 223 255
199 224 255
199 224 255
200 224 255
200 224 255
200 224 255
200 224 255
200 224 255
200 224 255
200 224 255
200 224 255
200 224 255
200 224 255
200 224 255
200 224 255
200 224 255
200 224 255
200 224 255
201 224 255
201 224 255
201 224 255
201 224 255
201 224 255
201 224 255
201 224 255
201 224 255
201 224 255
201 224 255
201 225 255
201 225 255
201 225 255
201 225 255
202 225 255
202 225 255
202 225 255
202 225 255
202 225 255
202 225 255
202 225 255
202 225 255
202 225 255
202 225 255
202 225 255
202 225 255
202 225 255
202 225 255
202 225 255
203 225 255
203 225 255
203 225 255
203 225 255
203 225 255
203 225 255
203 225 255
203 225 255
203 225 255
203 226 255
203 226 255
203 226 255
203 226 255
203 226 255
203 226 255
203 226 255
204 226 255
204 226 255
204 226 255
204 226 255
204 226 255
204 226 255
204 226 255
204 226 255
204 226 255
204 226 255
204 226 255
204 226 255
204 226 255
204 226 255
204 226 255
204 226 255
204 226 255
205 226 255
205 226 255
205 226 255
205 226 255
205 226 255
205 226 255
205 226 255
205 227 255
205 227 255
205 227 255
205 227 255
205 227 255
205 227 255
205 227 255
205 227 255
205 227 255
205 227 255
205 227 255
205 227 255
206 227 255
206 227 255
206 227 255
206 227 255
206 227 255
206 227 255
206 227 255
206 227 255
206 227 255
206 227 255
206 227 255
206 227 255
206 227 255
205 227 255
205 227 255
205 227 255
205 227 255
205 227 255
205 227 255
205 227 255
205 227 255
205 227 255
205 227 255
205 227 255
205 226 255
205 226 255
205 226 255
205 226 255
205 226 255
205 226 255
205 226 255
204 226 255
204 226 255
204 226 255
204 226 255
204 226 255
204 226 255
204 226 255
204 226 255
204 226 255
204 226 255
204 226 255
204 226 255
204 226 255
204 226 255
204 226 255
204 226 255
204 226 255
203 226 255
203 226 255
203 226 255
203 226 255
203 226 255
203 226 255
203 226 255
203 225 255
203 225 255
203 225 255
203 225 255
203 225 255
203 225 255
203 225 255
203 225 255
203 225 255
202 225 255
202 225 255
202 225 255
202 225 255
202 225 255
202 225 255
202 225 255
202 225 255
202 225 255
202 225 255
202 225 255
202 225 255
202 225 255
202 225 255
202 225 255
201 225 255
201 225 255
201 225 255
201 225 255
201 224 255
201 224 255
201 224 255
201 224 255
201 224 255
201 224 255
201 224 255
201 224 255
201 224 255
201 224 255
201 224 255
200 224 255
200 224 255
200 224 255
200 224 255
200 224 255
200 224 255
200 224 255
200 224 255
200 224 255
200 224 255
200 224 255
200 224 255
200 224 255
200 224 255
199 224 255
199 224 255
199 224 255
199 223 255
199 223 255
199 223 255
199 223 255
199 223 255
199 223 255
199 223 255
199 223 255
199 223 255
199 223 255
199 223 255
199 223 255
198 223 255
198 223 255
198 223 255
198 223 255
198 223 255
198 223 255
198 223 255
198 223 255
198 223 255
198 223 255
198 223 255
198 223 255
198 223 255
198 223 255
198 223 255
197 223 255
197 222 255
197 222 255
197 222 255
197 222 255
197 222 255
197 222 255
197 222 255
197 222 255
197 222 255
197 222 255
197 222 255
197 222 255
197 222 255
197 222 255
197 222 255
197 222 255
197 222 255
196 222 255
196 222 255
196 222 255
196 222 255
196 222 255
196 222 255
196 222 255
196 222 255
196 222 255
196 222 255
196 222 255
196 222 255
196 222 255
196 222 255
196 222 255
196 222 255
196 222 255
196 222 255
196 222 255
196 222 255
196 222 255
196 221 255
196 221 255
195 221 255
196 221 255
195 221 255
195 221 255
195 221 255
195 221 255
195 221 255
195 221 255
195 221 255
195 221 255
195 221 255
195 221 255
195 221 255
195 221 255
195 221 255
195 221 255
195 221 255
195 221 255
195 221 255
195 221 255
195 221 255
195 221 255
195 221 255
195 221 255
195 221 255
195 221 255
195 221 255
195 221 255
195 221 255
195 221 255
195 221 255
195 221 255
195 221 255
195 221 255
195 221 255
195 221 255
195 221 255
195 221 255
195 221 255
195 221 255
195 221 255
195 221 255
195 221 255
195 221 255
195 221 255
195 221 255
195 221 255
195 221 255
195 221 255
195 221 255
195 221 255
196 221 255
196 221 255
196 221 255
196 222 255
196 222 255
196 222 255
196 222 255
196 222 255
196 222 255
196 222 255
196 222 255
196 222 255
196 222 255
196 222 255
196 222 255
196 222 255
196 222 255
196 222 255
196 222 255
196 222 255
196 222 255
196 222 255
196 222 255
196 222 255
196 222 255
197 222 255
197 222 255
197 222 255
197 222 255
197 222 255
197 222 255
197 222 255
197 222 255
197 222 255
197 222 255
197 222 255
197 222 255
197 222 255
197 222 255
197 222 255
197 222 255
197 223 255
198 223 255
198 223 255
198 223 255
198 223 255
198 223 255
198 223 255
198 223 255
198 223 255
198 223 255
198 223 255
198 223 255
198 223 255
198 223 255
198 223 255
198 223 255
199 223 255
199 223 255
199 223 255
199 223 255
199 223 255
199 223 255
199 223 255
199 223 255
199 223 255
199 223 255
199 223 255
199 223 255
199 223 255
199 224 255
199 224 255
200 224 255
200 224 255
200 224 255
200 224 255
200 224 255
200 224 255
200 224 255
200 224 255
200 224 255
200 224 255
200 224 255
200 224 255
200 224 255
200 224 255
201 224 255
201 224 255
201 224 255
201 224 255
201 224 255
201 224 255
201 224 255
201 224 255
201 224 255
201 224 255
201 224 255
201 225 255
201 225 255
201 225 255
201 225 255
202 225 255
202 225 255
202 225 255
202 225 255
202 225 255
202 225 255
202 225 255
202 225 255
202 225 255
202 225 255
202 225 255
202 225 255
202 225 255
202 225 255
202 225 255
203 225 255
203 225 255
203 225 255
203 225 255
203 225 255
203 225 255
203 225 255
203 225 255
203 225 255
203 226 255
203 226 255
203 226 255
203 226 255
203 226 255
203 226 255
203 226 255
204 226 255
204 226 255
204 226 255
204 226 255
204 226 255
204 226 255
204 226 255
204 226 255
204 226 255
204 226 255
204 226 255
204 226 255
204 226 255
204 226 255
204 226 255
204 226 255
204 226 255
205 226 255
205 226 255
205 226 255
205 226 255
205 226 255
205 226 255
205 226 255
205 227 255
205 227 255
205 227 255
205 227 255
205 227 255
205 227 255
205 227 255
205 227 255
205 227 255
205 227 255
205 227 255
206 227 255
206 227 255
206 227 255
206 227 255
206 227 255
206 227 255
206 227 255
206 227 255
206 227 255
206 227 255
206 227 255
206 227 255
206 227 255
206 227 255
206 227 255
206 227 255
206 227 255
206 227 255
205 227 255
205 227 255
205 227 255
205 227 255
205 227 255
205 227 255
205 227 255
205 227 255
205 227 255
205 227 255
205 227 255
205 227 255
205 226 255
205 226 255
205 226 255
205 226 255
205 226 255
205 226 255
205 226 255
204 226 255
204 226 255
204 226 255
204 226 255
204 226 255
204 226 255
204 226 255
204 226 255
204 226 255
204 226 255
204 226 255
204 226 255
204 226 255
204 226 255
204 226 255
204 226 255
203 226 255
203 226 255
203 226 255
203 226 255
203 226 255
203 226 255
203 226 255
203 226 255
203 225 255
203 225 255
203 225 255
203 225 255
203 225 255
203 225 255
203 225 255
203 225 255
202 225 255
202 225 255
202 225 255
202 225 255
202 225 255
202 225 255
202 225 255
202 225 255
202 225 255
202 225 255
202 225 255
202 225 255
202 225 255
202 225 255
202 225 255
202 225 255
201 225 255
201 225 255
201 225 255
201 225 255
201 224 255
201 224 255
201 224 255
201 224 255
201 224 255
201 224 255
201 224 255
201 224 255
201 224 255
201 224 255
200 224 255
200 224 255
200 224 255
200 224 255
200 224 255
200 224 255
200 224 255
200 224 255
200 224 255
200 224 255
200 224 255
200 224 255
200 224 255
200 224 255
199 224 255
199 224 255
199 224 255
199 223 255
199 223 255
199 223 255
199 223 255
199 223 255
199 223 255
199 223 255
199 223 255
199 223 255
199 223 255
199 223 255
199 223 255
198 223 255
198 223 255
198 223 255
198 223 255
198 223 255
198 223 255
198 223 255
198 223 255
198 223 255
198 223 255
198 223 255
198 223 255
198 223 255
198 223 255
198 223 255
198 223 255
197 222 255
197 222 255
197 222 255
197 222 255
197 222 255
197 222 255
197 222 255
197 222 255
197 222 255
197 222 255
197 222 255
197 222 255
197 222 255
197 222 255
197 222 255
197 222 255
197 222 255
197 222 255
196 222 255
196 222 255
196 222 255
196 222 255
196 222 255
196 222 255
196 222 255
196 222 255
196 222 255
196 222 255
196 222 255
196 222 255
196 222 255
196 222 255
196 222 255
196 222 255
196 222 255
196 222 255
196 222 255
196 222 255
196 222 255
196 222 255
196 222 255
196 221 255
196 221 255
196 221 255
195 221 255
195 221 255
195 221 255
195 221 255
195 221 255
195 221 255
195 221 255
195 221 255
195 221 255
195 221 255
195 221 255
195 221 255
195 221 255
195 221 255
195 221 255
195 221 255
195 221 255
195 221 255
195 221 255
195 221 255
195 221 255
195 221 255
195 221 255
195 221 255
195 221 255
195 221 255
195 221 255
195 221 255
195 221 255
195 221 255
195 221 255
195 221 255
195 221 255
195 221 255
195 221 255
195 221 255
195 221 255
195 221 255
195 221 255
196 221 255
196 221 255
196 221 255
196 221 255
196 222 255
196 222 255
196 222 255
196 222 255
196 222 255
196 222 255
196 222 255
196 222 255
196 222 255
196 222 255
196 222 255
196 222 255
196 222 255
196 222 255
196 222 255
196 222 255
196 222 255
196 222 255
196 222 255
196 222 255
196 222 255
196 222 255
196 222 255
197 222 255
197 222 255
197 222 255
197 222 255
197 222 255
197 222 255
197 222 255
197 222 255
197 222 255
197 222 255
197 222 255
197 222 255
197 222 255
197 222 255
197 222 255
197 222 255
197 222 255
197 222 255
198 223 255
198 223 255
198 223 255
198 223 255
198 223 255
198 223 255
198 223 255
198 223 255
198 223 255
198 223 255
198 223 255
198 223 255
198 223 255
198 223 255
198 223 255
198 223 255
199 223 255
199 223 255
199 223 255
199 223 255
199 223 255
199 223 255
199 223 255
199 223 255
199 223 255
199 223 255
199 223 255
199 223 255
199 224 255
199 224 255
200 224 255
200 224 255
200 224 255
200 224 255
200 224 255
200 224 255
200 224 255
200 224 255
200 224 255
200 224 255
200 224 255
200 224 255
200 224 255
200 224 255
200 224 255
201 224 255
201 224 255
201 224 255
201 224 255
201 224 255
201 224 255
201 224 255
201 224 255
201 224 255
201 224 255
201 224 255
201 225 255
201 225 255
201 225 255
201 225 255
202 225 255
202 225 255
202 225 255
202 225 255
202 225 255
202 225 255
202 225 255
202 225 255
202 225 255
202 225 255
202 225 255
202 225 255
202 225 255
202 225 255
202 225 255
203 225 255
203 225 255
203 225 255
203 225 255
203 225 255
203 225 255
203 225 255
203 225 255
203 226 255
203 226 255
203 226 255
203 226 255
203 226 255
203 226 255
203 226 255
203 226 255
204 226 255
204 226 255
204 226 255
204 226 255
204 226 255
204 226 255
204 226 255
204 226 255
204 226 255
204 226 255
204 226 255
204 226 255
204 226 255
204 226 255
204 226 255
204 226 255
205 226 255
205 226 255
205 226 255
205 226 255
205 226 255
205 226 255
205 226 255
205 227 255
205 227 255
205 227 255
205 227 255
205 227 255
205 227 255
205 227 255
205 227 255
205 227 255
205 227 255
205 227 255
206 227 255
206 227 255
206 227 255
206 227 255
206 227 255
206 227 255
206 227 255
206 227 255
206 227 255
206 227 255
206 227 255
206 227 255
206 227 255
206 227 255
206 227 255
206 227 255
206 227 255
206 227 255
206 227 255
206 227 255
206 227 255
206 227 255
206 227 255
206 227 255
205 227 255
205 227 255
205 227 255
205 227 255
205 227 255
205 227 255
205 227 255
205 227 255
205 227 255
205 227 255
205 227 255
205 226 255
205 226 255
205 226 255
205 226 255
205 226 255
205 226 255
205 226 255
204 226 255
204 226 255
204 226 255
204 226 255
204 226 255
204 226 255
204 226 255
204 226 255
204 226 255
204 226 255
204 226 255
204 226 255
204 226 255
204 226 255
204 226 255
204 226 255
204 226 255
203 226 255
203 226 255
203 226 255
203 226 255
203 226 255
203 226 255
203 226 255
203 225 255
203 225 255
203 225 255
203 225 255
203 225 255
203 225 255
203 225 255
203 225 255
203 225 255
202 225 255
202 225 255
202 225 255
202 225 255
202 225 255
202 225 255
202 225 255
202 225 255
202 225 255
202 225 255
202 225 255
202 225 255
202 225 255
202 225 255
201 225 255
201 225 255
201 225 255
201 225 255
201 225 255
201 224 255
201 224 255
201 224 255
201 224 255
201 224 255
201 224 255
201 224 255
201 224 255
201 224 255
201 224 255
200 224 255
200 224 255
200 224 255
200 224 255
200 224 255
200 224 255
200 224 255
200 224 255
200 224 255
200 224 255
200 224 255
200 224 255
200 224 255
200 224 255
199 224 255
199 224 255
199 224 255
199 223 255
199 223 255
199 223 255
199 223 255
199 223 255
199 223 255
199 223 255
199 223 255
199 223 255
199 223 255
199 223 255
199 223 255
199 223 255
198 223 255
198 223 255
198 223 255
198 223 255
198 223 255
198 223 255
198 223 255
198 223 255
198 223 255
198 223 255
198 223 255
198 223 255
198 223 255
198 223 255
198 223 255
197 223 255
197 222 255
197 222 255
197 222 255
197 222 255
197 222 255
197 222 255
197 222 255
197 222 255
197 222 255
197 222 255
197 222 255
197 222 255
197 222 255
197 222 255
197 222 255
197 222 255
197 222 255
197 222 255
196 222 255
196 222 255
196 222 255
196 222 255
196 222 255
196 222 255
196 222 255
196 222 255
196 222 255
196 222 255
196 222 255
196 222 255
196 222 255
196 222 255
196 222 255
196 222 255
196 222 255
196 222 255
196 222 255
196 222 255
196 222 255
196 222 255
196 222 255
196 222 255
196 222 255
196 222 255
196 222 255
196 222 255
196 221 255
196 221 255
196 221 255
196 221 255
195 221 255
195 221 255
195 221 255
195 221 255
195 221 255
195 221 255
195 221 255
195 221 255
195 221 255
195 221 255
195 221 255
195 221 255
195 221 255
195 221 255
195 221 255
195 221 255
195 221 255
195 221 255
195 221 255
195 221 255
195 221 255
195 221 255
196 221 255
195 221 255
196 221 255
196 222 255
196 221 255
196 222 255
196 222 255
196 222 255
196 222 255
196 222 255
196 222 255
196 222 255
196 222 255
196 222 255
196 222 255
196 222 255
196 222 255
196 222 255
196 222 255
196 222 255
196 222 255
196 222 255
196 222 255
196 222 255
196 222 255
196 222 255
196 222 255
196 222 255
196 222 255
196 222 255
196 222 255
196 222 255
197 222 255
197 222 255
197 222 255
197 222 255
197 222 255
197 222 255
197 222 255
197 222 255
197 222 255
197 222 255
197 222 255
197 222 255
197 222 255
197 222 255
197 222 255
197 222 255
197 222 255
197 222 255
197 223 255
198 223 255
198 223 255
198 223 255
198 223 255
198 223 255
198 223 255
198 223 255
198 223 255
198 223 255
198 223 255
198 223 255
198 223 255
198 223 255
198 223 255
198 223 255
199 223 255
199 223 255
199 223 255
199 223 255
199 223 255
199 223 255
199 223 255
199 223 255
199 223 255
199 223 255
199 223 255
199 223 255
199 223 255
199 224 255
199 224 255
200 224 255
200 224 255
200 224 255
200 224 255
200 224 255
200 224 255
200 224 255
200 224 255
200 224 255
200 224 255
200 224 255
200 224 255
200 224 255
200 224 255
200 224 255
201 224 255
201 224 255
201 224 255
201 224 255
201 224 255
201 224 255
201 224 255
201 224 255
201 224 255
201 224 255
201 225 255
201 225 255
201 225 255
201 225 255
202 225 255
202 225 255
202 225 255
202 225 255
202 225 255
202 225 255
202 225 255
202 225 255
202 225 255
202 225 255
202 225 255
202 225 255
202 225 255
202 225 255
202 225 255
203 225 255
203 225 255
203 225 255
203 225 255
203 225 255
203 225 255
203 225 255
203 225 255
203 225 255
203 226 255
203 226 255
203 226 255
203 226 255
203 226 255
203 226 255
203 226 255
204 226 255
204 226 255
204 226 255
204 226 255
204 226 255
204 226 255
204 226 255
204 226 255
204 226 255
204 226 255
204 226 255
204 226 255
204 226 255
204 226 255
204 226 255
204 226 255
204 226 255
205 226 255
205 226 255
205 226 255
205 226 255
205 226 255
205 226 255
205 226 255
205 227 255
205 227 255
205 227 255
205 227 255
205 227 255
205 227 255
205 227 255
205 227 255
205 227 255
205 227 255
205 227 255
206 227 255
206 227 255
206 227 255
206 227 255
206 227 255
206 227 255
206 227 255
206 227 255
206 227 255
206 227 255
206 227 255
206 227 255
206 227 255
206 227 255
206 227 255
206 227 255
206 227 255
206 227 255
206 227 255
206 227 255
206 227 255
206 227 255
206 227 255
206 227 255
206 227 255
206 227 255
206 227 255
206 227 255
206 227 255
205 227 255
205 227 255
205 227 255
205 227 255
205 227 255
205 227 255
205 227 255
205 227 255
205 227 255
205 227 255
205 227 255
205 226 255
205 226 255
205 226 255
205 226 255
205 226 255
205 226 255
205 226 255
204 226 255
204 226 255
204 226 255
204 226 255
204 226 255
204 226 255
204 226 255
204 226 255
204 226 255
204 226 255
204 226 255
204 226 255
204 226 255
204 226 255
204 226 255
204 226 255
204 226 255
203 226 255
203 226 255
203 226 255
203 226 255
203 226 255
203 226 255
203 225 255
203 225 255
203 225 255
203 225 255
203 225 255
203 225 255
203 225 255
203 225 255
203 225 255
202 225 255
202 225 255
202 225 255
202 225 255
202 225 255
202 225 255
202 225 255
202 225 255
202 225 255
202 225 255
202 225 255
202 225 255
202 225 255
202 225 255
202 225 255
201 225 255
201 225 255
201 225 255
201 225 255
201 224 255
201 224 255
201 224 255
201 224 255
201 224 255
201 224 255
201 224 255
201 224 255
201 224 255
201 224 255
200 224 255
200 224 255
200 224 255
200 224 255
200 224 255
200 224 255
200 224 255
200 224 255
200 224 255
200 224 255
200 224 255
200 224 255
200 224 255
200 224 255
200 224 255
199 224 255
199 224 255
199 223 255
199 223 255
199 223 255
199 223 255
199 223 255
199 223 255
199 223 255
199 223 255
199 223 255
199 223 255
199 223 255
199 223 255
199 223 255
198 223 255
198 223 255
198 223 255
198 223 255
198 223 255
198 223 255
198 223 255
198 223 255
198 223 255
198 223 255
198 223 255
198 223 255
198 223 255
198 223 255
198 223 255
198 223 255
197 223 255
197 222 255
197 222 255
197 222 255
197 222 255
197 222 255
197 222 255
197 222 255
197 222 255
197 222 255
197 222 255
197 222 255
197 222 255
197 222 255
197 222 255
197 222 255
197 222 255
197 222 255
197 222 255
197 222 255
196 222 255
196 222 255
196 222 255
196 222 255
196 222 255
196 222 255
196 222 255
196 222 255
196 222 255
196 222 255
196 222 255
196 222 255
196 222 255
196 222 255
196 222 255
196 222 255
196 222 255
196 222 255
196 222 255
196 222 255
196 222 255
196 222 255
196 222 255
196 222 255
196 222 255
196 222 255
196 222 255
196 222 255
196 222 255
196 222 255
196 222 255
196 222 255
196 222 255
196 222 255
196 222 255
196 222 255
196 222 255
196 222 255
196 222 255
196 221 255
196 222 255
196 222 255
196 222 255
196 222 255
196 222 255
196 222 255
196 222 255
196 222 255
196 222 255
196 222 255
196 222 255
196 222 255
196 222 255
196 222 255
196 222 255
196 222 255
196 222 255
196 222 255
196 222 255
196 222 255
196 222 255
196 222 255
196 222 255
196 222 255
196 222 255
196 222 255
196 222 255
196 222 255
196 222 255
196 222 255
196 222 255
196 222 255
196 222 255
196 222 255
196 222 255
196 222 255
196 222 255
196 222 255
197 222 255
197 222 255
197 222 255
197 222 255
197 222 255
197 222 255
197 222 255
197 222 255
197 222 255
197 222 255
197 222 255
197 222 255
197 222 255
197 222 255
197 222 255
197 222 255
197 222 255
197 222 255
197 222 255
198 223 255
198 223 255
198 223 255
198 223 255
198 223 255
198 223 255
198 223 255
198 223 255
198 223 255
198 223 255
198 223 255
198 223 255
198 223 255
198 223 255
198 223 255
198 223 255
198 223 255
199 223 255
199 223 255
199 223 255
199 223 255
199 223 255
199 223 255
199 223 255
199 223 255
199 223 255
199 223 255
199 223 255
199 223 255
199 224 255
199 224 255
199 224 255
200 224 255
200 224 255
200 224 255
200 224 255
200 224 255
200 224 255
200 224 255
200 224 255
200 224 255
200 224 255
200 224 255
200 224 255
200 224 255
200 224 255
200 224 255
201 224 255
201 224 255
201 224 255
201 224 255
201 224 255
201 224 255
201 224 255
201 224 255
201 224 255
201 224 255
201 225 255
201 225 255
201 225 255
201 225 255
202 225 255
202 225 255
202 225 255
202 225 255
202 225 255
202 225 255
202 225 255
202 225 255
202 225 255
202 225 255
202 225 255
202 225 255
202 225 255
202 225 255
202 225 255
203 225 255
203 225 255
203 225 255
203 225 255
203 225 255
203 225 255
203 225 255
203 225 255
203 225 255
203 226 255
203 226 255
203 226 255
203 226 255
203 226 255
203 226 255
203 226 255
204 226 255
204 226 255
204 226 255
204 226 255
204 226 255
204 226 255
204 226 255
204 226 255
204 226 255
204 226 255
204 226 255
204 226 255
204 226 255
204 226 255
204 226 255
204 226 255
204 226 255
205 226 255
205 226 255
205 226 255
205 226 255
205 226 255
205 226 255
205 227 255
205 227 255
205 227 255
205 227 255
205 227 255
205 227 255
205 227 255
205 227 255
205 227 255
205 227 255
205 227 255
206 227 255
206 227 255
206 227 255
206 227 255
206 227 255
206 227 255
206 227 255
206 227 255
206 227 255
206 227 255
206 227 255
206 227 255
206 227 255
206 227 255
206 227 255
206 227 255
206 227 255
206 227 255
206 227 255
206 227 255
206 227 255
206 227 255
206 227 255
206 227 255
206 227 255
206 227 255
206 227 255
206 227 255
206 227 255
206 227 255
206 227 255
206 227 255
206 227 255
206 227 255
205 227 255
205 227 255
205 227 255
205 227 255
205 227 255
205 227 255
205 227 255
205 227 255
205 227 255
205 227 255
205 227 255
205 226 255
205 226 255
205 226 255
205 226 255
205 226 255
205 226 255
204 226 255
204 226 255
204 226 255
204 226 255
204 226 255
204 226 255
204 226 255
204 226 255
204 226 255
204 226 255
204 226 255
204 226 255
204 226 255
204 226 255
204 226 255
204 226 255
204 226 255
204 226 255
203 226 255
203 226 255
203 226 255
203 226 255
203 226 255
203 226 255
203 226 255
203 225 255
203 225 255
203 225 255
203 225 255
203 225 255
203 225 255
203 225 255
203 225 255
202 225 255
202 225 255
202 225 255
202 225 255
202 225 255
202 225 255
202 225 255
202 225 255
202 225 255
202 225 255
202 225 255
202 225 255
202 225 255
202 225 255
202 225 255
201 225 255
201 225 255
201 225 255
201 225 255
201 225 255
201 224 255
201 224 255
201 224 255
201 224 255
201 224 255
201 224 255
201 224 255
201 224 255
201 224 255
201 224 255
200 224 255
200 224 255
200 224 255
200 224 255
200 224 255
200 224 255
200 224 255
200 224 255
200 224 255
200 224 255
200 224 255
200 224 255
200 224 255
200 224 255
199 224 255
199 224 255
199 224 255
199 223 255
199 223 255
199 223 255
199 223 255
199 223 255
199 223 255
199 223 255
199 223 255
199 223 255
199 223 255
199 223 255
199 223 255
199 223 255
198 223 255
198 223 255
198 223 255
198 223 255
198 223 255
198 223 255
198 223 255
198 223 255
198 223 255
198 223 255
198 223 255
198 223 255
198 223 255
198 223 255
198 223 255
198 223 255
198 223 255
197 222 255
197 222 255
197 222 255
197 222 255
197 222 255
197 222 255
197 222 255
197 222 255
197 222 255
197 222 255
197 222 255
197 222 255
197 222 255
197 222 255
197 222 255
197 222 255
197 222 255
197 222 255
197 222 255
197 222 255
196 222 255
196 222 255
196 222 255
196 222 255
196 222 255
196 222 255
196 222 255
196 222 255
196 222 255
196 222 255
196 222 255
196 222 255
196 222 255
196 222 255
196 222 255
196 222 255
196 222 255
196 222 255
196 222 255
196 222 255
196 222 255
196 222 255
196 222 255
196 222 255
196 222 255
196 222 255
196 222 255
196 222 255
196 222 255
196 222 255
196 222 255
196 222 255
196 222 255
196 222 255
196 222 255
196 222 255
196 222 255
196 222 255
196 222 255
196 222 255
196 222 255
196 222 255
196 222 255
196 222 255
196 222 255
196 222 255
196 222 255
196 222 255
196 222 255
196 222 255
196 222 255
196 222 255
196 222 255
196 222 255
196 222 255
196 222 255
196 222 255
196 222 255
196 222 255
196 222 255
196 222 255
196 222 255
196 222 255
196 222 255
196 222 255
196 222 255
196 222 255
196 222 255
196 222 255
196 222 255
197 222 255
197 222 255
197 222 255
197 222 255
197 222 255
197 222 255
197 222 255
197 222 255
197 222 255
197 222 255
197 222 255
197 222 255
197 222 255
197 222 255
197 222 255
197 222 255
197 222 255
197 222 255
197 222 255
197 222 255
197 223 255
197 223 255
198 223 255
198 223 255
198 223 255
198 223 255
198 223 255
198 223 255
198 223 255
198 223 255
198 223 255
198 223 255
198 223 255
198 223 255
198 223 255
198 223 255
198 223 255
199 223 255
199 223 255
199 223 255
199 223 255
199 223 255
199 223 255
199 223 255
199 223 255
199 223 255
199 223 255
199 223 255
199 223 255
199 223 255
199 224 255
199 224 255
199 224 255
200 224 255
200 224 255
200 224 255
200 224 255
200 224 255
200 224 255
200 224 255
200 224 255
200 224 255
200 224 255
200 224 255
200 224 255
200 224 255
200 224 255
201 224 255
201 224 255
201 224 255
201 224 255
201 224 255
201 224 255
201 224 255
201 224 255
201 224 255
201 224 255
201 224 255
201 225 255
201 225 255
201 225 255
201 225 255
202 225 255
202 225 255
202 225 255
202 225 255
202 225 255
202 225 255
202 225 255
202 225 255
202 225 255
202 225 255
202 225 255
202 225 255
202 225 255
202 225 255
202 225 255
203 225 255
203 225 255
203 225 255
203 225 255
203 225 255
203 225 255
203 225 255
203 225 255
203 225 255
203 226 255
203 226 255
203 226 255
203 226 255
203 226 255
203 226 255
203 226 255
204 226 255
204 226 255
204 226 255
204 226 255
204 226 255
204 226 255
204 226 255
204 226 255
204 226 255
204 226 255
204 226 255
204 226 255
204 226 255
204 226 255
204 226 255
204 226 255
205 226 255
205 226 255
205 226 255
205 226 255
205 226 255
205 226 255
205 226 255
205 227 255
205 227 255
205 227 255
205 227 255
205 227 255
205 227 255
205 227 255
205 227 255
205 227 255
205 227 255
205 227 255
206 227 255
206 227 255
206 227 255
206 227 255
206 227 255
206 227 255
206 227 255
206 227 255
206 227 255
206 227 255
206 227 255
206 227 255
206 227 255
206 227 255
206 227 255
206 227 255
206 227 255
206 227 255
207 227 255
207 227 255
206 227 255
206 227 255
206 227 255
206 227 255
206 227 255
206 227 255
206 227 255
206 227 255
206 227 255
206 227 255
206 227 255
206 227 255
206 227 255
206 227 255
206 227 255
206 227 255
206 227 255
206 227 255
206 227 255
205 227 255
205 227 255
205 227 255
205 227 255
205 227 255
205 227 255
205 227 255
205 227 255
205 227 255
205 227 255
205 227 255
205 226 255
205 226 255
205 226 255
205 226 255
205 226 255
205 226 255
205 226 255
204 226 255
204 226 255
204 226 255
204 226 255
204 226 255
204 226 255
204 226 255
204 226 255
204 226 255
204 226 255
204 226 255
204 226 255
204 226 255
204 226 255
204 226 255
204 226 255
203 226 255
203 226 255
203 226 255
203 226 255
203 226 255
203 226 255
203 226 255
203 225 255
203 225 255
203 225 255
203 225 255
203 225 255
203 225 255
203 225 255
203 225 255
203 225 255
202 225 255
202 225 255
202 225 255
202 225 255
202 225 255
202 225 255
202 225 255
202 225 255
202 225 255
202 225 255
202 225 255
202 225 255
202 225 255
202 225 255
201 225 255
201 225 255
201 225 255
201 225 255
201 225 255
201 224 255
201 224 255
201 224 255
201 224 255
201 224 255
201 224 255
201 224 255
201 224 255
201 224 255
201 224 255
200 224 255
200 224 255
200 224 255
200 224 255
200 224 255
200 224 255
200 224 255
200 224 255
200 224 255
200 224 255
200 224 255
200 224 255
200 224 255
200 224 255
200 224 255
199 224 255
199 224 255
199 223 255
199 223 255
199 223 255
199 223 255
199 223 255
199 223 255
199 223 255
199 223 255
199 223 255
199 223 255
199 223 255
199 223 255
199 223 255
198 223 255
198 223 255
198 223 255
198 223 255
198 223 255
198 223 255
198 223 255
198 223 255
198 223 255
198 223 255
198 223 255
198 223 255
198 223 255
198 223 255
198 223 255
198 223 255
198 223 255
197 223 255
197 222 255
197 222 255
197 222 255
197 222 255
197 222 255
197 222 255
197 222 255
197 222 255
197 222 255
197 222 255
197 222 255
197 222 255
197 222 255
197 222 255
197 222 255
197 222 255
197 222 255
197 222 255
197 222 255
197 222 255
197 222 255
196 222 255
196 222 255
196 222 255
196 222 255
196 222 255
196 222 255
196 222 255
196 222 255
196 222 255
196 222 255
196 222 255
196 222 255
196 222 255
196 222 255
196 222 255
196 222 255
196 222 255
196 222 255
196 222 255
196 222 255
196 222 255
196 222 255
196 222 255
196 222 255
196 222 255
196 222 255
196 222 255
196 222 255
196 222 255
196 222 255
196 222 255
196 222 255
196 222 255
196 222 255
196 222 255
196 222 255
196 222 255
196 222 255
196 222 255
196 222 255
196 222 255
196 222 255
196 222 255
196 222 255
196 222 255
196 222 255
196 222 255
196 222 255
196 222 255
196 222 255
196 222 255
196 222 255
196 222 255
196 222 255
196 222 255
196 222 255
196 222 255
196 222 255
196 222 255
196 222 255
196 222 255
196 222 255
197 222 255
197 222 255
197 222 255
197 222 255
197 222 255
197 222 255
197 222 255
197 222 255
197 222 255
197 222 255
197 222 255
197 222 255
197 222 255
197 222 255
197 222 255
197 222 255
197 222 255
197 222 255
197 222 255
197 222 255
197 222 255
197 223 255
198 223 255
198 223 255
198 223 255
198 223 255
198 223 255
198 223 255
198 223 255
198 223 255
198 223 255
198 223 255
198 223 255
198 223 255
198 223 255
198 223 255
198 223 255
198 223 255
198 223 255
199 223 255
199 223 255
199 223 255
199 223 255
199 223 255
199 223 255
199 223 255
199 223 255
199 223 255
199 223 255
199 223 255
199 223 255
199 223 255
199 224 255
199 224 255
200 224 255
200 224 255
200 224 255
200 224 255
200 224 255
200 224 255
200 224 255
200 224 255
200 224 255
200 224 255
200 224 255
200 224 255
200 224 255
200 224 255
201 224 255
201 224 255
201 224 255
201 224 255
201 224 255
201 224 255
201 224 255
201 224 255
201 224 255
201 224 255
201 224 255
201 225 255
201 225 255
201 225 255
201 225 255
202 225 255
202 225 255
202 225 255
202 225 255
202 225 255
202 225 255
202 225 255
202 225 255
202 225 255
202 225 255
202 225 255
202 225 255
202 225 255
202 225 255
202 225 255
203 225 255
203 225 255
203 225 255
203 225 255
203 225 255
203 225 255
203 225 255
203 225 255
203 225 255
203 226 255
203 226 255
203 226 255
203 226 255
203 226 255
203 226 255
203 226 255
204 226 255
204 226 255
204 226 255
204 226 255
204 226 255
204 226 255
204 226 255
204 226 255
204 226 255
204 226 255
204 226 255
204 226 255
204 226 255
204 226 255
204 226 255
204 226 255
205 226 255
205 226 255
205 226 255
205 226 255
205 226 255
205 226 255
205 226 255
205 227 255
205 227 255
205 227 255
205 227 255
205 227 255
205 227 255
205 227 255
205 227 255
205 227 255
205 227 255
205 227 255
206 227 255
206 227 255
206 227 255
206 227 255
206 227 255
206 227 255
206 227 255
206 227 255
206 227 255
206 227 255
206 227 255
206 227 255
206 227 255
206 227 255
206 227 255
206 227 255
206 227 255
206 227 255
206 227 255
206 227 255
207 227 255
207 227 255
207 227 255
207 227 255
207 227 255
207 227 255
206 227 255
206 227 255
206 227 255
206 227 255
206 227 255
206 227 255
206 227 255
206 227 255
206 227 255
206 227 255
206 227 255
206 227 255
206 227 255
206 227 255
206 227 255
206 227 255
206 227 255
206 227 255
206 227 255
205 227 255
205 227 255
205 227 255
205 227 255
205 227 255
205 227 255
205 227 255
205 227 255
205 227 255
205 227 255
205 226 255
205 226 255
205 226 255
205 226 255
205 226 255
205 226 255
205 226 255
204 226 255
204 226 255
204 226 255
204 226 255
204 226 255
204 226 255
204 226 255
204 226 255
204 226 255
204 226 255
204 226 255
204 226 255
204 226 255
204 226 255
204 226 255
204 226 255
203 226 255
203 226 255
203 226 255
203 226 255
203 226 255
203 226 255
203 226 255
203 225 255
203 225 255
203 225 255
203 225 255
203 225 255
203 225 255
203 225 255
203 225 255
203 225 255
202 225 255
202 225 255
202 225 255
202 225 255
202 225 255
202 225 255
202 225 255
202 225 255
202 225 255
202 225 255
202 225 255
202 225 255
202 225 255
202 225 255
202 225 255
201 225 255
201 225 255
201 225 255
201 225 255
201 224 255
201 224 255
201 224 255
201 224 255
201 224 255
201 224 255
201 224 255
201 224 255
201 224 255
201 224 255
200 224 255
200 224 255
200 224 255
200 224 255
200 224 255
200 224 255
200 224 255
200 224 255
200 224 255
200 224 255
200 224 255
200 224 255
200 224 255
200 224 255
200 224 255
199 224 255
199 224 255
199 224 255
199 223 255
199 223 255
199 223 255
199 223 255
199 223 255
199 223 255
199 223 255
199 223 255
199 223 255
199 223 255
199 223 255
199 223 255
199 223 255
198 223 255
198 223 255
198 223 255
198 223 255
198 223 255
198 223 255
198 223 255
198 223 255
198 223 255
198 223 255
198 223 255
198 223 255
198 223 255
198 223 255
198 223 255
198 223 255
198 223 255
197 223 255
197 222 255
197 222 255
197 222 255
197 222 255
197 222 255
197 222 255
197 222 255
197 222 255
197 222 255
197 222 255
197 222 255
197 222 255
197 222 255
197 222 255
197 222 255
197 222 255
197 222 255
197 222 255
197 222 255
197 222 255
197 222 255
197 222 255
197 222 255
196 222 255
196 222 255
196 222 255
196 222 255
196 222 255
196 222 255
196 222 255
196 222 255
196 222 255
196 222 255
196 222 255
196 222 255
196 222 255
196 222 255
196 222 255
196 222 255
196 222 255
196 222 255
196 222 255
196 222 255
196 222 255
196 222 255
196 222 255
196 222 255
196 222 255
196 222 255
196 222 255
196 222 255
196 222 255
196 222 255
196 222 255
196 222 255
196 222 255
196 222 255
196 222 255
196 222 255
196 222 255
196 222 255
196 222 255
196 222 255
196 222 255
196 222 255
196 222 255
196 222 255
196 222 255
196 222 255
196 222 255
196 222 255
196 222 255
196 222 255
196 222 255
196 222 255
196 222 255
197 222 255
197 222 255
197 222 255
197 222 255
197 222 255
197 222 255
197 222 255
197 222 255
197 222 255
197 222 255
197 222 255
197 222 255
197 222 255
197 222 255
197 222 255
197 222 255
197 222 255
197 222 255
197 222 255
197 222 255
197 222 255
197 222 255
197 223 255
198 223 255
198 223 255
198 223 255
198 223 255
198 223 255
198 223 255
198 223 255
198 223 255
198 223 255
198 223 255
198 223 255
198 223 255
198 223 255
198 223 255
198 223 255
198 223 255
198 223 255
199 223 255
199 223 255
199 223 255
199 223 255
199 223 255
199 223 255
199 223 255
199 223 255
199 223 255
199 223 255
199 223 255
199 223 255
199 223 255
199 224 255
199 224 255
199 224 255
200 224 255
200 224 255
200 224 255
200 224 255
200 224 255
200 224 255
200 224 255
200 224 255
200 224 255
200 224 255
200 224 255
200 224 255
200 224 255
200 224 255
201 224 255
201 224 255
201 224 255
201 224 255
201 224 255
201 224 255
201 224 255
201 224 255
201 224 255
201 224 255
201 225 255
201 225 255
201 225 255
201 225 255
201 225 255
202 225 255
202 225 255
202 225 255
202 225 255
202 225 255
202 225 255
202 225 255
202 225 255
202 225 255
202 225 255
202 225 255
202 225 255
202 225 255
202 225 255
202 225 255
203 225 255
203 225 255
203 225 255
203 225 255
203 225 255
203 225 255
203 225 255
203 225 255
203 225 255
203 226 255
203 226 255
203 226 255
203 226 255
203 226 255
203 226 255
203 226 255
204 226 255
204 226 255
204 226 255
204 226 255
204 226 255
204 226 255
204 226 255
204 226 255
204 226 255
204 226 255
204 226 255
204 226 255
204 226 255
204 226 255
204 226 255
204 226 255
205 226 255
205 226 255
205 226 255
205 226 255
205 226 255
205 226 255
205 226 255
205 227 255
205 227 255
205 227 255
205 227 255
205 227 255
205 227 255
205 227 255
205 227 255
205 227 255
205 227 255
205 227 255
206 227 255
206 227 255
206 227 255
206 227 255
206 227 255
206 227 255
206 227 255
206 227 255
206 227 255
206 227 255
206 227 255
206 227 255
206 227 255
206 227 255
206 227 255
206 227 255
206 227 255
206 227 255
206 227 255
207 227 255
207 227 255
207 227 255
207 227 255
207 228 255
207 228 255
207 227 255
207 227 255
207 227 255
207 227 255
207 227 255
206 227 255
206 227 255
206 227 255
206 227 255
206 227 255
206 227 255
206 227 255
206 227 255
206 227 255
206 227 255
206 227 255
206 227 255
206 227 255
206 227 255
206 227 255
206 227 255
206 227 255
206 227 255
206 227 255
205 227 255
205 227 255
205 227 255
205 227 255
205 227 255
205 227 255
205 227 255
205 227 255
205 227 255
205 227 255
205 227 255
205 226 255
205 226 255
205 226 255
205 226 255
205 226 255
205 226 255
205 226 255
204 226 255
204 226 255
204 226 255
204 226 255
204 226 255
204 226 255
204 226 255
204 226 255
204 226 255
204 226 255
204 226 255
204 226 255
204 226 255
204 226 255
204 226 255
204 226 255
203 226 255
203 226 255
203 226 255
203 226 255
203 226 255
203 226 255
203 226 255
203 225 255
203 225 255
203 225 255
203 225 255
203 225 255
203 225 255
203 225 255
203 225 255
203 225 255
202 225 255
202 225 255
202 225 255
202 225 255
202 225 255
202 225 255
202 225 255
202 225 255
202 225 255
202 225 255
202 225 255
202 225 255
202 225 255
202 225 255
202 225 255
201 225 255
201 225 255
201 225 255
201 225 255
201 224 255
201 224 255
201 224 255
201 224 255
201 224 255
201 224 255
201 224 255
201 224 255
201 224 255
201 224 255
200 224 255
200 224 255
200 224 255
200 224 255
200 224 255
200 224 255
200 224 255
200 224 255
200 224 255
200 224 255
200 224 255
200 224 255
200 224 255
200 224 255
200 224 255
199 224 255
199 224 255
199 223 255
199 223 255
199 223 255
199 223 255
199 223 255
199 223 255
199 223 255
199 223 255
199 223 255
199 223 255
199 223 255
199 223 255
199 223 255
199 223 255
198 223 255
198 223 255
198 223 255
198 223 255
198 223 255
198 223 255
198 223 255
198 223 255
198 223 255
198 223 255
198 223 255
198 223 255
198 223 255
198 223 255
198 223 255
198 223 255
198 223 255
198 223 255
197 223 255
197 222 255
197 222 255
197 222 255
197 222 255
197 222 255
197 222 255
197 222 255
197 222 255
197 222 255
197 222 255
197 222 255
197 222 255
197 222 255
197 222 255
197 222 255
197 222 255
197 222 255
197 222 255
197 222 255
197 222 255
197 222 255
197 222 255
197 222 255
197 222 255
197 222 255
196 222 255
196 222 255
196 222 255
196 222 255
196 222 255
196 222 255
196 222 255
196 222 255
196 222 255
196 222 255
196 222 255
196 222 255
196 222 255
196 222 255
196 222 255
196 222 255
196 222 255
196 222 255
196 222 255
196 222 255
196 222 255
196 222 255
196 222 255
196 222 255
196 222 255
196 222 255
196 222 255
196 222 255
196 222 255
196 222 255
196 222 255
196 222 255
196 222 255
196 222 255
196 222 255
196 222 255
196 222 255
196 222 255
196 222 255
197 222 255
197 222 255
197 222 255
197 222 255
197 222 255
197 222 255
197 222 255
197 222 255
197 222 255
197 222 255
197 222 255
197 222 255
197 222 255
197 222 255
197 222 255
197 222 255
197 222 255
197 222 255
197 222 255
197 222 255
197 222 255
197 222 255
197 222 255
197 222 255
197 222 255
197 222 255
197 222 255
198 223 255
198 223 255
198 223 255
198 223 255
198 223 255
198 223 255
198 223 255
198 223 255
198 223 255
198 223 255
198 223 255
198 223 255
198 223 255
198 223 255
198 223 255
198 223 255
198 223 255
198 223 255
198 223 255
199 223 255
199 223 255
199 223 255
199 223 255
199 223 255
199 223 255
199 223 255
199 223 255
199 223 255
199 223 255
199 223 255
199 223 255
199 223 255
199 224 255
199 224 255
200 224 255
200 224 255
200 224 255
200 224 255
200 224 255
200 224 255
200 224 255
200 224 255
200 224 255
200 224 255
200 224 255
200 224 255
200 224 255
200 224 255
200 224 255
201 224 255
201 224 255
201 224 255
201 224 255
201 224 255
201 224 255
201 224 255
201 224 255
201 224 255
201 224 255
201 225 255
201 225 255
201 225 255
201 225 255
201 225 255
202 225 255
202 225 255
202 225 255
202 225 255
202 225 255
202 225 255
202 225 255
202 225 255
202 225 255
202 225 255
202 225 255
202 225 255
202 225 255
202 225 255
202 225 255
203 225 255
203 225 255
203 225 255
203 225 255
203 225 255
203 225 255
203 225 255
203 225 255
203 226 255
203 226 255
203 226 255
203 226 255
203 226 255
203 226 255
203 226 255
204 226 255
204 226 255
204 226 255
204 226 255
204 226 255
204 226 255
204 226 255
204 226 255
204 226 255
204 226 255
204 226 255
204 226 255
204 226 255
204 226 255
204 226 255
204 226 255
205 226 255
205 226 255
205 226 255
205 226 255
205 226 255
205 226 255
205 226 255
205 227 255
205 227 255
205 227 255
205 227 255
205 227 255
205 227 255
205 227 255
205 227 255
205 227 255
205 227 255
205 227 255
206 227 255
206 227 255
206 227 255
206 227 255
206 227 255
206 227 255
206 227 255
206 227 255
206 227 255
206 227 255
206 227 255
206 227 255
206 227 255
206 227 255
206 227 255
206 227 255
206 227 255
206 227 255
206 227 255
207 227 255
207 227 255
207 227 255
207 227 255
207 227 255
207 228 255
207 228 255
207 228 255
207 228 255
207 228 255
207 228 255
207 228 255
207 227 255
207 227 255
207 227 255
207 227 255
207 227 255
206 227 255
206 227 255
206 227 255
206 227 255
206 227 255
206 227 255
206 227 255
206 227 255
206 227 255
206 227 255
206 227 255
206 227 255
206 227 255
206 227 255
206 227 255
206 227 255
206 227 255
206 227 255
206 227 255
205 227 255
205 227 255
205 227 255
205 227 255
205 227 255
205 227 255
205 227 255
205 227 255
205 227 255
205 227 255
205 227 255
205 226 255
205 226 255
205 226 255
205 226 255
205 226 255
205 226 255
204 226 255
204 226 255
204 226 255
204 226 255
204 226 255
204 226 255
204 226 255
204 226 255
204 226 255
204 226 255
204 226 255
204 226 255
204 226 255
204 226 255
204 226 255
204 226 255
204 226 255
203 226 255
203 226 255
203 226 255
203 226 255
203 226 255
203 226 255
203 226 255
203 225 255
203 225 255
203 225 255
203 225 255
203 225 255
203 225 255
203 225 255
203 225 255
202 225 255
202 225 255
202 225 255
202 225 255
202 225 255
202 225 255
202 225 255
202 225 255
202 225 255
202 225 255
202 225 255
202 225 255
202 225 255
202 225 255
202 225 255
201 225 255
201 225 255
201 225 255
201 225 255
201 224 255
201 224 255
201 224 255
201 224 255
201 224 255
201 224 255
201 224 255
201 224 255
201 224 255
201 224 255
201 224 255
200 224 255
200 224 255
200 224 255
200 224 255
200 224 255
200 224 255
200 224 255
200 224 255
200 224 255
200 224 255
200 224 255
200 224 255
200 224 255
200 224 255
200 224 255
199 224 255
199 224 255
199 223 255
199 223 255
199 223 255
199 223 255
199 223 255
199 223 255
199 223 255
199 223 255
199 223 255
199 223 255
199 223 255
199 223 255
199 223 255
199 223 255
198 223 255
198 223 255
198 223 255
198 223 255
198 223 255
198 223 255
198 223 255
198 223 255
198 223 255
198 223 255
198 223 255
198 223 255
198 223 255
198 223 255
198 223 255
198 223 255
198 223 255
198 223 255
197 223 255
197 222 255
197 222 255
197 222 255
197 222 255
197 222 255
197 222 255
197 222 255
197 222 255
197 222 255
197 222 255
197 222 255
197 222 255
197 222 255
197 222 255
197 222 255
197 222 255
197 222 255
197 222 255
197 222 255
197 222 255
197 222 255
197 222 255
197 222 255
197 222 255
197 222 255
197 222 255
197 222 255
197 222 255
197 222 255
197 222 255
197 222 255
196 222 255
196 222 255
196 222 255
196 222 255
196 222 255
196 222 255
196 222 255
196 222 255
196 222 255
196 222 255
196 222 255
196 222 255
196 222 255
196 222 255
196 222 255
196 222 255
196 222 255
196 222 255
196 222 255
196 222 255
196 222 255
197 222 255
197 222 255
197 222 255
197 222 255
197 222 255
197 222 255
197 222 255
197 222 255
197 222 255
197 222 255
197 222 255
197 222 255
197 222 255
197 222 255
197 222 255
197 222 255
197 222 255
197 222 255
197 222 255
197 222 255
197 222 255
197 222 255
197 222 255
197 222 255
197 222 255
197 222 255
197 222 255
197 222 255
197 222 255
197 222 255
197 222 255
197 222 255
197 223 255
198 223 255
198 223 255
198 223 255
198 223 255
198 223 255
198 223 255
198 223 255
198 223 255
198 223 255
198 223 255
198 223 255
198 223 255
198 223 255
198 223 255
198 223 255
198 223 255
198 223 255
198 223 255
198 223 255
199 223 255
199 223 255
199 223 255
199 223 255
199 223 255
199 223 255
199 223 255
199 223 255
199 223 255
199 223 255
199 223 255
199 223 255
199 223 255
199 224 255
199 224 255
199 224 255
200 224 255
200 224 255
200 224 255
200 224 255
200 224 255
200 224 255
200 224 255
200 224 255
200 224 255
200 224 255
200 224 255
200 224 255
200 224 255
200 224 255
201 224 255
201 224 255
201 224 255
201 224 255
201 224 255
201 224 255
201 224 255
201 224 255
201 224 255
201 224 255
201 224 255
201 225 255
201 225 255
201 225 255
201 225 255
202 225 255
202 225 255
202 225 255
202 225 255
202 225 255
202 225 255
202 225 255
202 225 255
202 225 255
202 225 255
202 225 255
202 225 255
202 225 255
202 225 255
202 225 255
203 225 255
203 225 255
203 225 255
203 225 255
203 225 255
203 225 255
203 225 255
203 225 255
203 226 255
203 226 255
203 226 255
203 226 255
203 226 255
203 226 255
203 226 255
203 226 255
204 226 255
204 226 255
204 226 255
204 226 255
204 226 255
204 226 255
204 226 255
204 226 255
204 226 255
204 226 255
204 226 255
204 226 255
204 226 255
204 226 255
204 226 255
205 226 255
205 226 255
205 226 255
205 226 255
205 226 255
205 226 255
205 226 255
205 226 255
205 227 255
205 227 255
205 227 255
205 227 255
205 227 255
205 227 255
205 227 255
205 227 255
205 227 255
205 227 255
206 227 255
206 227 255
206 227 255
206 227 255
206 227 255
206 227 255
206 227 255
206 227 255
206 227 255
206 227 255
206 227 255
206 227 255
206 227 255
206 227 255
206 227 255
206 227 255
206 227 255
206 227 255
206 227 255
207 227 255
207 227 255
207 227 255
207 227 255
207 228 255
207 228 255
207 228 255
207 228 255
207 228 255
207 228 255
207 228 255
207 228 255
207 228 255
207 228 255
207 228 255
207 228 255
207 228 255
207 228 255
207 227 255
207 227 255
207 227 255
207 227 255
207 227 255
206 227 255
206 227 255
206 227 255
206 227 255
206 227 255
206 227 255
206 227 255
206 227 255
206 227 255
206 227 255
206 227 255
206 227 255
206 227 255
206 227 255
206 227 255
206 227 255
206 227 255
206 227 255
205 227 255
205 227 255
205 227 255
205 227 255
205 227 255
205 227 255
205 227 255
205 227 255
205 227 255
205 227 255
205 227 255
205 226 255
205 226 255
205 226 255
205 226 255
205 226 255
205 226 255
205 226 255
204 226 255
204 226 255
204 226 255
204 226 255
204 226 255
204 226 255
204 226 255
204 226 255
204 226 255
204 226 255
204 226 255
204 226 255
204 226 255
204 226 255
204 226 255
204 226 255
203 226 255
203 226 255
203 226 255
203 226 255
203 226 255
203 226 255
203 226 255
203 225 255
203 225 255
203 225 255
203 225 255
203 225 255
203 225 255
203 225 255
203 225 255
203 225 255
202 225 255
202 225 255
202 225 255
202 225 255
202 225 255
202 225 255
202 225 255
202 225 255
202 225 255
202 225 255
202 225 255
202 225 255
202 225 255
202 225 255
201 225 255
201 225 255
201 225 255
201 225 255
201 225 255
201 224 255
201 224 255
201 224 255
201 224 255
201 224 255
201 224 255
201 224 255
201 224 255
201 224 255
201 224 255
201 224 255
200 224 255
200 224 255
200 224 255
200 224 255
200 224 255
200 224 255
200 224 255
200 224 255
200 224 255
200 224 255
200 224 255
200 224 255
200 224 255
200 224 255
199 224 255
199 224 255
199 223 255
199 223 255
199 223 255
199 223 255
199 223 255
199 223 255
199 223 255
199 223 255
199 223 255
199 223 255
199 223 255
199 223 255
199 223 255
199 223 255
198 223 255
198 223 255
198 223 255
198 223 255
198 223 255
198 223 255
198 223 255
198 223 255
198 223 255
198 223 255
198 223 255
198 223 255
198 223 255
198 223 255
198 223 255
198 223 255
198 223 255
198 223 255
198 223 255
198 223 255
197 222 255
197 222 255
197 222 255
197 222 255
197 222 255
197 222 255
197 222 255
197 222 255
197 222 255
197 222 255
197 222 255
197 222 255
197 222 255
197 222 255
197 222 255
197 222 255
197 222 255
197 222 255
197 222 255
197 222 255
197 222 255
197 222 255
197 222 255
197 222 255
197 222 255
197 222 255
197 222 255
197 222 255
197 222 255
197 222 255
197 222 255
197 222 255
197 222 255
197 222 255
197 222 255
197 222 255
197 222 255
197 222 255
197 222 255
197 222 255
197 222 255
197 222 255
197 222 255
197 222 255
197 222 255
197 222 255
197 222 255
197 222 255
197 222 255
197 222 255
197 222 255
197 222 255
197 222 255
197 222 255
197 222 255
197 222 255
197 222 255
197 222 255
197 222 255
197 222 255
197 222 255
197 222 255
197 222 255
197 222 255
197 222 255
197 222 255
197 222 255
197 222 255
197 222 255
197 222 255
197 222 255
197 222 255
197 222 255
197 222 255
197 222 255
197 222 255
197 222 255
197 223 255
198 223 255
198 223 255
198 223 255
198 223 255
198 223 255
198 223 255
198 223 255
198 223 255
198 223 255
198 223 255
198 223 255
198 223 255
198 223 255
198 223 255
198 223 255
198 223 255
198 223 255
198 223 255
198 223 255
199 223 255
199 223 255
199 223 255
199 223 255
199 223 255
199 223 255
199 223 255
199 223 255
199 223 255
199 223 255
199 223 255
199 223 255
199 223 255
199 223 255
199 224 255
199 224 255
199 224 255
200 224 255
200 224 255
200 224 255
200 224 255
200 224 255
200 224 255
200 224 255
200 224 255
200 224 255
200 224 255
200 224 255
200 224 255
200 224 255
200 224 255
200 224 255
201 224 255
201 224 255
201 224 255
201 224 255
201 224 255
201 224 255
201 224 255
201 224 255
201 224 255
201 224 255
201 225 255
201 225 255
201 225 255
201 225 255
201 225 255
202 225 255
202 225 255
202 225 255
202 225 255
202 225 255
202 225 255
202 225 255
202 225 255
202 225 255
202 225 255
202 225 255
202 225 255
202 225 255
202 225 255
202 225 255
203 225 255
203 225 255
203 225 255
203 225 255
203 225 255
203 225 255
203 225 255
203 225 255
203 225 255
203 226 255
203 226 255
203 226 255
203 226 255
203 226 255
203 226 255
204 226 255
204 226 255
204 226 255
204 226 255
204 226 255
204 226 255
204 226 255
204 226 255
204 226 255
204 226 255
204 226 255
204 226 255
204 226 255
204 226 255
204 226 255
204 226 255
205 226 255
205 226 255
205 226 255
205 226 255
205 226 255
205 226 255
205 226 255
205 227 255
205 227 255
205 227 255
205 227 255
205 227 255
205 227 255
205 227 255
205 227 255
205 227 255
205 227 255
205 227 255
206 227 255
206 227 255
206 227 255
206 227 255
206 227 255
206 227 255
206 227 255
206 227 255
206 227 255
206 227 255
206 227 255
206 227 255
206 227 255
206 227 255
206 227 255
206 227 255
206 227 255
206 227 255
207 227 255
207 227 255
207 227 255
207 227 255
207 227 255
207 228 255
207 228 255
207 228 255
207 228 255
207 228 255
207 228 255
207 228 255
207 228 255
207 228 255
207 228 255
207 228 255
207 228 255
207 228 255
207 228 255
207 228 255
207 228 255
207 228 255
207 228 255
207 228 255
207 227 255
207 227 255
207 227 255
207 227 255
207 227 255
206 227 255
206 227 255
206 227 255
206 227 255
206 227 255
206 227 255
206 227 255
206 227 255
206 227 255
206 227 255
206 227 255
206 227 255
206 227 255
206 227 255
206 227 255
206 227 255
206 227 255
206 227 255
205 227 255
205 227 255
205 227 255
205 227 255
205 227 255
205 227 255
205 227 255
205 227 255
205 227 255
205 227 255
205 227 255
205 226 255
205 226 255
205 226 255
205 226 255
205 226 255
205 226 255
204 226 255
204 226 255
204 226 255
204 226 255
204 226 255
204 226 255
204 226 255
204 226 255
204 226 255
204 226 255
204 226 255
204 226 255
204 226 255
204 226 255
204 226 255
204 226 255
203 226 255
203 226 255
203 226 255
203 226 255
203 226 255
203 226 255
203 226 255
203 226 255
203 225 255
203 225 255
203 225 255
203 225 255
203 225 255
203 225 255
203 225 255
203 225 255
202 225 255
202 225 255
202 225 255
202 225 255
202 225 255
202 225 255
202 225 255
202 225 255
202 225 255
202 225 255
202 225 255
202 225 255
202 225 255
202 225 255
202 225 255
201 225 255
201 225 255
201 225 255
201 225 255
201 224 255
201 224 255
201 224 255
201 224 255
201 224 255
201 224 255
201 224 255
201 224 255
201 224 255
201 224 255
201 224 255
200 224 255
200 224 255
200 224 255
200 224 255
200 224 255
200 224 255
200 224 255
200 224 255
200 224 255
200 224 255
200 224 255
200 224 255
200 224 255
200 224 255
200 224 255
199 224 255
199 224 255
199 223 255
199 223 255
199 223 255
199 223 255
199 223 255
199 223 255
199 223 255
199 223 255
199 223 255
199 223 255
199 223 255
199 223 255
199 223 255
199 223 255
199 223 255
198 223 255
198 223 255
198 223 255
198 223 255
198 223 255
198 223 255
198 223 255
198 223 255
198 223 255
198 223 255
198 223 255
198 223 255
198 223 255
198 223 255
198 223 255
198 223 255
198 223 255
198 223 255
198 223 255
198 223 255
197 223 255
197 222 255
197 222 255
197 222 255
197 222 255
197 222 255
197 222 255
197 222 255
197 222 255
197 222 255
197 222 255
197 222 255
197 222 255
197 222 255
197 222 255
197 222 255
197 222 255
197 222 255
197 222 255
197 222 255
197 222 255
197 222 255
197 222 255
197 222 255
197 222 255
197 222 255
197 222 255
197 222 255
197 222 255
197 222 255
197 222 255
197 222 255
197 222 255
197 222 255
197 222 255
197 222 255
197 222 255
197 222 255
197 222 255
197 222 255
197 222 255
197 222 255
197 222 255
197 222 255
197 222 255
197 222 255
197 222 255
197 222 255
197 222 255
197 222 255
197 222 255
197 222 255
197 222 255
197 222 255
197 222 255
197 222 255
197 222 255
197 222 255
197 222 255
197 222 255
197 222 255
197 222 255
197 222 255
197 222 255
197 222 255
197 222 255
197 222 255
197 222 255
197 222 255
198 223 255
198 223 255
198 223 255
198 223 255
198 223 255
198 223 255
198 223 255
198 223 255
198 223 255
198 223 255
198 223 255
198 223 255
198 223 255
198 223 255
198 223 255
198 223 255
198 223 255
198 223 255
198 223 255
198 223 255
198 223 255
199 223 255
199 223 255
199 223 255
199 223 255
199 223 255
199 223 255
199 223 255
199 223 255
199 223 255
199 223 255
199 223 255
199 223 255
199 223 255
199 223 255
199 224 255
199 224 255
199 224 255
200 224 255
200 224 255
200 224 255
200 224 255
200 224 255
200 224 255
200 224 255
200 224 255
200 224 255
200 224 255
200 224 255
200 224 255
200 224 255
200 224 255
200 224 255
201 224 255
201 224 255
201 224 255
201 224 255
201 224 255
201 224 255
201 224 255
201 224 255
201 224 255
201 224 255
201 224 255
201 225 255
201 225 255
201 225 255
201 225 255
202 225 255
202 225 255
202 225 255
202 225 255
202 225 255
202 225 255
202 225 255
202 225 255
202 225 255
202 225 255
202 225 255
202 225 255
202 225 255
202 225 255
202 225 255
203 225 255
203 225 255
203 225 255
203 225 255
203 225 255
203 225 255
203 225 255
203 225 255
203 226 255
203 226 255
203 226 255
203 226 255
203 226 255
203 226 255
203 226 255
204 226 255
204 226 255
204 226 255
204 226 255
204 226 255
204 226 255
204 226 255
204 226 255
204 226 255
204 226 255
204 226 255
204 226 255
204 226 255
204 226 255
204 226 255
204 226 255
204 226 255
205 226 255
205 226 255
205 226 255
205 226 255
205 226 255
205 226 255
205 226 255
205 227 255
205 227 255
205 227 255
205 227 255
205 227 255
205 227 255
205 227 255
205 227 255
205 227 255
205 227 255
206 227 255
206 227 255
206 227 255
206 227 255
206 227 255
206 227 255
206 227 255
206 227 255
206 227 255
206 227 255
206 227 255
206 227 255
206 227 255
206 227 255
206 227 255
206 227 255
206 227 255
206 227 255
206 227 255
207 227 255
207 227 255
207 227 255
207 227 255
207 228 255
207 228 255
207 228 255
207 228 255
207 228 255
207 228 255
207 228 255
207 228 255
207 228 255
207 228 255
207 228 255
207 228 255
207 228 255
207 228 255
207 228 255
207 228 255
207 228 255
207 228 255
207 228 255
207 228 255
207 228 255
207 228 255
207 228 255
207 228 255
207 228 255
207 227 255
207 227 255
207 227 255
207 227 255
207 227 255
206 227 255
206 227 255
206 227 255
206 227 255
206 227 255
206 227 255
206 227 255
206 227 255
206 227 255
206 227 255
206 227 255
206 227 255
206 227 255
206 227 255
206 227 255
206 227 255
206 227 255
206 227 255
205 227 255
205 227 255
205 227 255
205 227 255
205 227 255
205 227 255
205 227 255
205 227 255
205 227 255
205 227 255
205 227 255
205 226 255
205 226 255
205 226 255
205 226 255
205 226 255
205 226 255
204 226 255
204 226 255
204 226 255
204 226 255
204 226 255
204 226 255
204 226 255
204 226 255
204 226 255
204 226 255
204 226 255
204 226 255
204 226 255
204 226 255
204 226 255
204 226 255
203 226 255
203 226 255
203 226 255
203 226 255
203 226 255
203 226 255
203 226 255
203 225 255
203 225 255
203 225 255
203 225 255
203 225 255
203 225 255
203 225 255
203 225 255
203 225 255
202 225 255
202 225 255
202 225 255
202 225 255
202 225 255
202 225 255
202 225 255
202 225 255
202 225 255
202 225 255
202 225 255
202 225 255
202 225 255
202 225 255
201 225 255
201 225 255
201 225 255
201 225 255
201 225 255
201 224 255
201 224 255
201 224 255
201 224 255
201 224 255
201 224 255
201 224 255
201 224 255
201 224 255
201 224 255
200 224 255
200 224 255
200 224 255
200 224 255
200 224 255
200 224 255
200 224 255
200 224 255
200 224 255
200 224 255
200 224 255
200 224 255
200 224 255
200 224 255
200 224 255
200 224 255
199 224 255
199 224 255
199 223 255
199 223 255
199 223 255
199 223 255
199 223 255
199 223 255
199 223 255
199 223 255
199 223 255
199 223 255
199 223 255
199 223 255
199 223 255
199 223 255
199 223 255
198 223 255
198 223 255
198 223 255
198 223 255
198 223 255
198 223 255
198 223 255
198 223 255
198 223 255
198 223 255
198 223 255
198 223 255
198 223 255
198 223 255
198 223 255
198 223 255
198 223 255
198 223 255
198 223 255
198 223 255
198 223 255
198 223 255
197 223 255
197 222 255
197 222 255
197 222 255
197 222 255
197 222 255
197 222 255
197 222 255
197 222 255
197 222 255
197 222 255
197 222 255
197 222 255
197 222 255
197 222 255
197 222 255
197 222 255
197 222 255
197 222 255
197 222 255
197 222 255
197 222 255
197 222 255
197 222 255
197 222 255
197 222 255
197 222 255
197 222 255
197 222 255
197 222 255
197 222 255
197 222 255
197 222 255
197 222 255
197 222 255
197 222 255
197 222 255
197 222 255
197 222 255
197 222 255
197 222 255
197 222 255
197 222 255
197 222 255
197 222 255
197 222 255
197 222 255
197 222 255
197 222 255
197 222 255
197 222 255
197 222 255
197 222 255
197 222 255
197 222 255
197 222 255
197 222 255
197 222 255
197 222 255
197 223 255
198 223 255
198 223 255
198 223 255
198 223 255
198 223 255
198 223 255
198 223 255
198 223 255
198 223 255
198 223 255
198 223 255
198 223 255
198 223 255
198 223 255
198 223 255
198 223 255
198 223 255
198 223 255
198 223 255
198 223 255
198 223 255
198 223 255
199 223 255
199 223 255
199 223 255
199 223 255
199 223 255
199 223 255
199 223 255
199 223 255
199 223 255
199 223 255
199 223 255
199 223 255
199 223 255
199 223 255
199 223 255
199 224 255
199 224 255
199 224 255
200 224 255
200 224 255
200 224 255
200 224 255
200 224 255
200 224 255
200 224 255
200 224 255
200 224 255
200 224 255
200 224 255
200 224 255
200 224 255
200 224 255
200 224 255
201 224 255
201 224 255
201 224 255
201 224 255
201 224 255
201 224 255
201 224 255
201 224 255
201 224 255
201 224 255
201 225 255
201 225 255
201 225 255
201 225 255
202 225 255
202 225 255
202 225 255
202 225 255
202 225 255
202 225 255
202 225 255
202 225 255
202 225 255
202 225 255
202 225 255
202 225 255
202 225 255
202 225 255
202 225 255
203 225 255
203 225 255
203 225 255
203 225 255
203 225 255
203 225 255
203 225 255
203 225 255
203 225 255
203 226 255
203 226 255
203 226 255
203 226 255
203 226 255
203 226 255
203 226 255
204 226 255
204 226 255
204 226 255
204 226 255
204 226 255
204 226 255
204 226 255
204 226 255
204 226 255
204 226 255
204 226 255
204 226 255
204 226 255
204 226 255
204 226 255
204 226 255
205 226 255
205 226 255
205 226 255
205 226 255
205 226 255
205 226 255
205 227 255
205 227 255
205 227 255
205 227 255
205 227 255
205 227 255
205 227 255
205 227 255
205 227 255
205 227 255
205 227 255
206 227 255
206 227 255
206 227 255
206 227 255
206 227 255
206 227 255
206 227 255
206 227 255
206 227 255
206 227 255
206 227 255
206 227 255
206 227 255
206 227 255
206 227 255
206 227 255
206 227 255
206 227 255
206 227 255
207 227 255
207 227 255
207 227 255
207 227 255
207 228 255
207 228 255
207 228 255
207 228 255
207 228 255
207 228 255
207 228 255
207 228 255
207 228 255
207 228 255
207 228 255
207 228 255
207 228 255
207 228 255
208 228 255
207 228 255
207 228 255
207 228 255
207 228 255
207 228 255
207 228 255
207 228 255
207 228 255
207 228 255
207 228 255
207 228 255
207 228 255
207 228 255
207 228 255
207 228 255
207 227 255
207 227 255
207 227 255
207 227 255
207 227 255
206 227 255
206 227 255
206 227 255
206 227 255
206 227 255
206 227 255
206 227 255
206 227 255
206 227 255
206 227 255
206 227 255
206 227 255
206 227 255
206 227 255
206 227 255
206 227 255
206 227 255
206 227 255
206 227 255
205 227 255
205 227 255
205 227 255
205 227 255
205 227 255
205 227 255
205 227 255
205 227 255
205 227 255
205 227 255
205 227 255
205 226 255
205 226 255
205 226 255
205 226 255
205 226 255
205 226 255
204 226 255
204 226 255
204 226 255
204 226 255
204 226 255
204 226 255
204 226 255
204 226 255
204 226 255
204 226 255
204 226 255
204 226 255
204 226 255
204 226 255
204 226 255
204 226 255
203 226 255
203 226 255
203 226 255
203 226 255
203 226 255
203 226 255
203 226 255
203 225 255
203 225 255
203 225 255
203 225 255
203 225 255
203 225 255
203 225 255
203 225 255
202 225 255
202 225 255
202 225 255
202 225 255
202 225 255
202 225 255
202 225 255
202 225 255
202 225 255
202 225 255
202 225 255
202 225 255
202 225 255
202 225 255
202 225 255
201 225 255
201 225 255
201 225 255
201 225 255
201 224 255
201 224 255
201 224 255
201 224 255
201 224 255
201 224 255
201 224 255
201 224 255
201 224 255
201 224 255
201 224 255
200 224 255
200 224 255
200 224 255
200 224 255
200 224 255
200 224 255
200 224 255
200 224 255
200 224 255
200 224 255
200 224 255
200 224 255
200 224 255
200 224 255
200 224 255
200 224 255
199 224 255
199 224 255
199 223 255
199 223 255
199 223 255
199 223 255
199 223 255
199 223 255
199 223 255
199 223 255
199 223 255
199 223 255
199 223 255
199 223 255
199 223 255
199 223 255
199 223 255
198 223 255
198 223 255
198 223 255
198 223 255
198 223 255
198 223 255
198 223 255
198 223 255
198 223 255
198 223 255
198 223 255
198 223 255
198 223 255
198 223 255
198 223 255
198 223 255
198 223 255
198 223 255
198 223 255
198 223 255
198 223 255
198 223 255
198 223 255
198 223 255
198 223 255
197 223 255
197 223 255
197 222 255
197 222 255
197 222 255
197 222 255
197 222 255
197 222 255
197 222 255
197 222 255
197 222 255
197 222 255
197 222 255
197 222 255
197 222 255
197 222 255
197 222 255
197 222 255
197 222 255
197 222 255
197 222 255
197 222 255
197 222 255
197 222 255
197 222 255
197 222 255
197 222 255
197 222 255
197 222 255
197 222 255
197 222 255
197 222 255
197 222 255
197 222 255
197 222 255
197 222 255
197 222 255
197 222 255
197 222 255
197 222 255
197 222 255
197 222 255
197 222 255
197 222 255
197 222 255
197 222 255
197 222 255
197 223 255
198 223 255
197 223 255
198 223 255
198 223 255
198 223 255
198 223 255
198 223 255
198 223 255
198 223 255
198 223 255
198 223 255
198 223 255
198 223 255
198 223 255
198 223 255
198 223 255
198 223 255
198 223 255
198 223 255
198 223 255
198 223 255
198 223 255
198 223 255
198 223 255
198 223 255
199 223 255
199 223 255
199 223 255
199 223 255
199 223 255
199 223 255
199 223 255
199 223 255
199 223 255
199 223 255
199 223 255
199 223 255
199 223 255
199 223 255
199 224 255
199 224 255
199 224 255
200 224 255
200 224 255
200 224 255
200 224 255
200 224 255
200 224 255
200 224 255
200 224 255
200 224 255
200 224 255
200 224 255
200 224 255
200 224 255
200 224 255
200 224 255
200 224 255
201 224 255
201 224 255
201 224 255
201 224 255
201 224 255
201 224 255
201 224 255
201 224 255
201 224 255
201 224 255
201 224 255
201 225 255
201 225 255
201 225 255
201 225 255
202 225 255
202 225 255
202 225 255
202 225 255
202 225 255
202 225 255
202 225 255
202 225 255
202 225 255
202 225 255
202 225 255
202 225 255
202 225 255
202 225 255
202 225 255
203 225 255
203 225 255
203 225 255
203 225 255
203 225 255
203 225 255
203 225 255
203 225 255
203 225 255
203 226 255
203 226 255
203 226 255
203 226 255
203 226 255
203 226 255
204 226 255
204 226 255
204 226 255
204 226 255
204 226 255
204 226 255
204 226 255
204 226 255
204 226 255
204 226 255
204 226 255
204 226 255
204 226 255
204 226 255
204 226 255
204 226 255
204 226 255
205 226 255
205 226 255
205 226 255
205 226 255
205 226 255
205 226 255
205 227 255
205 227 255
205 227 255
205 227 255
205 227 255
205 227 255
205 227 255
205 227 255
205 227 255
205 227 255
206 227 255
206 227 255
206 227 255
206 227 255
206 227 255
206 227 255
206 227 255
206 227 255
206 227 255
206 227 255
206 227 255
206 227 255
206 227 255
206 227 255
206 227 255
206 227 255
206 227 255
206 227 255
207 227 255
207 227 255
207 227 255
207 227 255
207 227 255
207 227 255
207 228 255
207 228 255
207 228 255
207 228 255
207 228 255
207 228 255
207 228 255
207 228 255
207 228 255
207 228 255
207 228 255
207 228 255
207 228 255
207 228 255
207 228 255
208 228 255
208 228 255
208 228 255
208 228 255
208 228 255
207 228 255
207 228 255
207 228 255
207 228 255
207 228 255
207 228 255
207 228 255
207 228 255
207 228 255
207 228 255
207 228 255
207 228 255
207 228 255
207 228 255
207 228 255
207 228 255
207 227 255
207 227 255
207 227 255
207 227 255
206 227 255
206 227 255
206 227 255
206 227 255
206 227 255
206 227 255
206 227 255
206 227 255
206 227 255
206 227 255
206 227 255
206 227 255
206 227 255
206 227 255
206 227 255
206 227 255
206 227 255
206 227 255
205 227 255
205 227 255
205 227 255
205 227 255
205 227 255
205 227 255
205 227 255
205 227 255
205 227 255
205 227 255
205 226 255
205 226 255
205 226 255
205 226 255
205 226 255
205 226 255
205 226 255
204 226 255
204 226 255
204 226 255
204 226 255
204 226 255
204 226 255
204 226 255
204 226 255
204 226 255
204 226 255
204 226 255
204 226 255
204 226 255
204 226 255
204 226 255
204 226 255
203 226 255
203 226 255
203 226 255
203 226 255
203 226 255
203 226 255
203 226 255
203 225 255
203 225 255
203 225 255
203 225 255
203 225 255
203 225 255
203 225 255
203 225 255
202 225 255
202 225 255
202 225 255
202 225 255
202 225 255
202 225 255
202 225 255
202 225 255
202 225 255
202 225 255
202 225 255
202 225 255
202 225 255
202 225 255
202 225 255
202 225 255
201 225 255
201 225 255
201 225 255
201 225 255
201 224 255
201 224 255
201 224 255
201 224 255
201 224 255
201 224 255
201 224 255
201 224 255
201 224 255
201 224 255
201 224 255
200 224 255
200 224 255
200 224 255
200 224 255
200 224 255
200 224 255
200 224 255
200 224 255
200 224 255
200 224 255
200 224 255
200 224 255
200 224 255
200 224 255
200 224 255
199 224 255
199 224 255
199 224 255
199 224 255
199 223 255
199 223 255
199 223 255
199 223 255
199 223 255
199 223 255
199 223 255
199 223 255
199 223 255
199 223 255
199 223 255
199 223 255
199 223 255
199 223 255
199 223 255
198 223 255
198 223 255
198 223 255
198 223 255
198 223 255
198 223 255
198 223 255
198 223 255
198 223 255
198 223 255
198 223 255
198 223 255
198 223 255
198 223 255
198 223 255
198 223 255
198 223 255
198 223 255
198 223 255
198 223 255
198 223 255
198 223 255
198 223 255
198 223 255
198 223 255
198 223 255
198 223 255
197 223 255
198 223 255
197 222 255
197 222 255
197 222 255
197 222 255
197 222 255
197 222 255
197 222 255
197 222 255
197 222 255
197 222 255
197 222 255
197 222 255
197 222 255
197 222 255
197 222 255
197 222 255
197 222 255
197 222 255
197 222 255
197 222 255
197 222 255
197 222 255
197 222 255
197 222 255
197 222 255
197 222 255
197 222 255
197 222 255
197 222 255
197 222 255
197 222 255
197 222 255
197 223 255
197 223 255
198 223 255
198 223 255
198 223 255
198 223 255
198 223 255
198 223 255
198 223 255
198 223 255
198 223 255
198 223 255
198 223 255
198 223 255
198 223 255
198 223 255
198 223 255
198 223 255
198 223 255
198 223 255
198 223 255
198 223 255
198 223 255
198 223 255
198 223 255
198 223 255
198 223 255
198 223 255
198 223 255
198 223 255
199 223 255
199 223 255
199 223 255
199 223 255
199 223 255
199 223 255
199 223 255
199 223 255
199 223 255
199 223 255
199 223 255
199 223 255
199 223 255
199 223 255
199 223 255
199 224 255
199 224 255
200 224 255
200 224 255
200 224 255
200 224 255
200 224 255
200 224 255
200 224 255
200 224 255
200 224 255
200 224 255
200 224 255
200 224 255
200 224 255
200 224 255
200 224 255
200 224 255
200 224 255
201 224 255
201 224 255
201 224 255
201 224 255
201 224 255
201 224 255
201 224 255
201 224 255
201 224 255
201 224 255
201 225 255
201 225 255
201 225 255
201 225 255
202 225 255
202 225 255
202 225 255
202 225 255
202 225 255
202 225 255
202 225 255
202 225 255
202 225 255
202 225 255
202 225 255
202 225 255
202 225 255
202 225 255
202 225 255
203 225 255
203 225 255
203 225 255
203 225 255
203 225 255
203 225 255
203 225 255
203 225 255
203 225 255
203 226 255
203 226 255
203 226 255
203 226 255
203 226 255
203 226 255
204 226 255
204 226 255
204 226 255
204 226 255
204 226 255
204 226 255
204 226 255
204 226 255
204 226 255
204 226 255
204 226 255
204 226 255
204 226 255
204 226 255
204 226 255
204 226 255
205 226 255
205 226 255
205 226 255
205 226 255
205 226 255
205 226 255
205 226 255
205 227 255
205 227 255
205 227 255
205 227 255
205 227 255
205 227 255
205 227 255
205 227 255
205 227 255
205 227 255
206 227 255
206 227 255
206 227 255
206 227 255
206 227 255
206 227 255
206 227 255
206 227 255
206 227 255
206 227 255
206 227 255
206 227 255
206 227 255
206 227 255
206 227 255
206 227 255
206 227 255
206 227 255
206 227 255
207 227 255
207 227 255
207 227 255
207 227 255
207 228 255
207 228 255
207 228 255
207 228 255
207 228 255
207 228 255
207 228 255
207 228 255
207 228 255
207 228 255
207 228 255
207 228 255
207 228 255
207 228 255
207 228 255
207 228 255
208 228 255
208 228 255
208 228 255
208 228 255
208 228 255
208 228 255
208 228 255
208 228 255
208 228 255
208 228 255
207 228 255
207 228 255
207 228 255
207 228 255
207 228 255
207 228 255
207 228 255
207 228 255
207 228 255
207 228 255
207 228 255
207 228 255
207 228 255
207 228 255
207 228 255
207 228 255
207 227 255
207 227 255
207 227 255
207 227 255
207 227 255
206 227 255
206 227 255
206 227 255
206 227 255
206 227 255
206 227 255
206 227 255
206 227 255
206 227 255
206 227 255
206 227 255
206 227 255
206 227 255
206 227 255
206 227 255
206 227 255
206 227 255
206 227 255
205 227 255
205 227 255
205 227 255
205 227 255
205 227 255
205 227 255
205 227 255
205 227 255
205 227 255
205 227 255
205 227 255
205 226 255
205 226 255
205 226 255
205 226 255
205 226 255
205 226 255
204 226 255
204 226 255
204 226 255
204 226 255
204 226 255
204 226 255
204 226 255
204 226 255
204 226 255
204 226 255
204 226 255
204 226 255
204 226 255
204 226 255
204 226 255
204 226 255
203 226 255
203 226 255
203 226 255
203 226 255
203 226 255
203 226 255
203 226 255
203 225 255
203 225 255
203 225 255
203 225 255
203 225 255
203 225 255
203 225 255
203 225 255
203 225 255
202 225 255
202 225 255
202 225 255
202 225 255
202 225 255
202 225 255
202 225 255
202 225 255
202 225 255
202 225 255
202 225 255
202 225 255
202 225 255
202 225 255
201 225 255
201 225 255
201 225 255
201 225 255
201 225 255
201 224 255
201 224 255
201 224 255
201 224 255
201 224 255
201 224 255
201 224 255
201 224 255
201 224 255
201 224 255
200 224 255
200 224 255
200 224 255
200 224 255
200 224 255
200 224 255
200 224 255
200 224 255
200 224 255
200 224 255
200 224 255
200 224 255
200 224 255
200 224 255
200 224 255
200 224 255
200 224 255
199 224 255
199 224 255
199 224 255
199 223 255
199 223 255
199 223 255
199 223 255
199 223 255
199 223 255
199 223 255
199 223 255
199 223 255
199 223 255
199 223 255
199 223 255
199 223 255
199 223 255
199 223 255
199 223 255
198 223 255
198 223 255
198 223 255
198 223 255
198 223 255
198 223 255
198 223 255
198 223 255
198 223 255
198 223 255
198 223 255
198 223 255
198 223 255
198 223 255
198 223 255
198 223 255
198 223 255
198 223 255
198 223 255
198 223 255
198 223 255
198 223 255
198 223 255
198 223 255
198 223 255
198 223 255
198 223 255
198 223 255
198 223 255
198 223 255
198 223 255
198 223 255
198 223 255
198 223 255
198 223 255
198 223 255
198 223 255
198 223 255
198 223 255
197 223 255
197 223 255
198 223 255
197 223 255
198 223 255
197 223 255
198 223 255
198 223 255
198 223 255
198 223 255
198 223 255
198 223 255
198 223 255
198 223 255
198 223 255
198 223 255
198 223 255
198 223 255
198 223 255
198 223 255
198 223 255
198 223 255
198 223 255
198 223 255
198 223 255
198 223 255
198 223 255
198 223 255
198 223 255
198 223 255
198 223 255
198 223 255
198 223 255
198 223 255
198 223 255
198 223 255
198 223 255
198 223 255
198 223 255
198 223 255
198 223 255
198 223 255
198 223 255
199 223 255
199 223 255
199 223 255
199 223 255
199 223 255
199 223 255
199 223 255
199 223 255
199 223 255
199 223 255
199 223 255
199 223 255
199 223 255
199 223 255
199 223 255
199 223 255
199 223 255
199 224 255
199 224 255
200 224 255
200 224 255
200 224 255
200 224 255
200 224 255
200 224 255
200 224 255
200 224 255
200 224 255
200 224 255
200 224 255
200 224 255
200 224 255
200 224 255
200 224 255
200 224 255
201 224 255
201 224 255
201 224 255
201 224 255
201 224 255
201 224 255
201 224 255
201 224 255
201 224 255
201 224 255
201 224 255
201 224 255
201 225 255
201 225 255
201 225 255
202 225 255
202 225 255
202 225 255
202 225 255
202 225 255
202 225 255
202 225 255
202 225 255
202 225 255
202 225 255
202 225 255
202 225 255
202 225 255
202 225 255
202 225 255
202 225 255
203 225 255
203 225 255
203 225 255
203 225 255
203 225 255
203 225 255
203 225 255
203 225 255
203 225 255
203 226 255
203 226 255
203 226 255
203 226 255
203 226 255
203 226 255
204 226 255
204 226 255
204 226 255
204 226 255
204 226 255
204 226 255
204 226 255
204 226 255
204 226 255
204 226 255
204 226 255
204 226 255
204 226 255
204 226 255
204 226 255
204 226 255
205 226 255
205 226 255
205 226 255
205 226 255
205 226 255
205 226 255
205 226 255
205 227 255
205 227 255
205 227 255
205 227 255
205 227 255
205 227 255
205 227 255
205 227 255
205 227 255
205 227 255
206 227 255
206 227 255
206 227 255
206 227 255
206 227 255
206 227 255
206 227 255
206 227 255
206 227 255
206 227 255
206 227 255
206 227 255
206 227 255
206 227 255
206 227 255
206 227 255
206 227 255
206 227 255
207 227 255
207 227 255
207 227 255
207 227 255
207 228 255
207 228 255
207 228 255
207 228 255
207 228 255
207 228 255
207 228 255
207 228 255
207 228 255
207 228 255
207 228 255
207 228 255
207 228 255
207 228 255
207 228 255
207 228 255
208 228 255
208 228 255
208 228 255
208 228 255
208 228 255
208 228 255
208 228 255
208 228 255
208 228 255
208 228 255
208 228 255
208 228 255
208 228 255
208 228 255
208 228 255
208 228 255
208 228 255
207 228 255
207 228 255
207 228 255
207 228 255
207 228 255
207 228 255
207 228 255
207 228 255
207 228 255
207 228 255
207 228 255
207 228 255
207 228 255
207 228 255
207 228 255
207 227 255
207 227 255
207 227 255
207 227 255
207 227 255
206 227 255
206 227 255
206 227 255
206 227 255
206 227 255
206 227 255
206 227 255
206 227 255
206 227 255
206 227 255
206 227 255
206 227 255
206 227 255
206 227 255
206 227 255
206 227 255
206 227 255
206 227 255
205 227 255
205 227 255
205 227 255
205 227 255
205 227 255
205 227 255
205 227 255
205 227 255
205 227 255
205 227 255
205 226 255
205 226 255
205 226 255
205 226 255
205 226 255
205 226 255
205 226 255
204 226 255
204 226 255
204 226 255
204 226 255
204 226 255
204 226 255
204 226 255
204 226 255
204 226 255
204 226 255
204 226 255
204 226 255
204 226 255
204 226 255
204 226 255
204 226 255
203 226 255
203 226 255
203 226 255
203 226 255
203 226 255
203 226 255
203 226 255
203 225 255
203 225 255
203 225 255
203 225 255
203 225 255
203 225 255
203 225 255
203 225 255
202 225 255
202 225 255
202 225 255
202 225 255
202 225 255
202 225 255
202 225 255
202 225 255
202 225 255
202 225 255
202 225 255
202 225 255
202 225 255
202 225 255
202 225 255
201 225 255
201 225 255
201 225 255
201 225 255
201 224 255
201 224 255
201 224 255
201 224 255
201 224 255
201 224 255
201 224 255
201 224 255
201 224 255
201 224 255
201 224 255
200 224 255
200 224 255
200 224 255
200 224 255
200 224 255
200 224 255
200 224 255
200 224 255
200 224 255
200 224 255
200 224 255
200 224 255
200 224 255
200 224 255
200 224 255
200 224 255
199 224 255
199 224 255
199 224 255
199 224 255
199 223 255
199 223 255
199 223 255
199 223 255
199 223 255
199 223 255
199 223 255
199 223 255
199 223 255
199 223 255
199 223 255
199 223 255
199 223 255
199 223 255
199 223 255
199 223 255
198 223 255
198 223 255
198 223 255
198 223 255
198 223 255
198 223 255
198 223 255
198 223 255
198 223 255
198 223 255
198 223 255
198 223 255
198 223 255
198 223 255
198 223 255
198 223 255
198 223 255
198 223 255
198 223 255
198 223 255
198 223 255
198 223 255
198 223 255
198 223 255
198 223 255
198 223 255
198 223 255
198 223 255
198 223 255
198 223 255
198 223 255
198 223 255
198 223 255
198 223 255
198 223 255
198 223 255
198 223 255
198 223 255
198 223 255
198 223 255
198 223 255
198 223 255
198 223 255
198 223 255
198 223 255
198 223 255
198 223 255
198 223 255
198 223 255
198 223 255
198 223 255
198 223 255
198 223 255
198 223 255
198 223 255
198 223 255
198 223 255
198 223 255
198 223 255
198 223 255
198 223 255
198 223 255
198 223 255
198 223 255
198 223 255
198 223 255
198 223 255
198 223 255
198 223 255
198 223 255
198 223 255
198 223 255
198 223 255
198 223 255
198 223 255
198 223 255
199 223 255
199 223 255
199 223 255
199 223 255
199 223 255
199 223 255
199 223 255
199 223 255
199 223 255
199 223 255
199 223 255
199 223 255
199 223 255
199 223 255
199 223 255
199 223 255
199 223 255
199 224 255
199 224 255
199 224 255
200 224 255
200 224 255
200 224 255
200 224 255
200 224 255
200 224 255
200 224 255
200 224 255
200 224 255
200 224 255
200 224 255
200 224 255
200 224 255
200 224 255
200 224 255
200 224 255
201 224 255
201 224 255
201 224 255
201 224 255
201 224 255
201 224 255
201 224 255
201 224 255
201 224 255
201 224 255
201 224 255
201 225 255
201 225 255
201 225 255
201 225 255
201 225 255
202 225 255
202 225 255
202 225 255
202 225 255
202 225 255
202 225 255
202 225 255
202 225 255
202 225 255
202 225 255
202 225 255
202 225 255
202 225 255
202 225 255
203 225 255
203 225 255
203 225 255
203 225 255
203 225 255
203 225 255
203 225 255
203 225 255
203 225 255
203 226 255
203 226 255
203 226 255
203 226 255
203 226 255
203 226 255
204 226 255
204 226 255
204 226 255
204 226 255
204 226 255
204 226 255
204 226 255
204 226 255
204 226 255
204 226 255
204 226 255
204 226 255
204 226 255
204 226 255
204 226 255
204 226 255
205 226 255
205 226 255
205 226 255
205 226 255
205 226 255
205 226 255
205 226 255
205 227 255
205 227 255
205 227 255
205 227 255
205 227 255
205 227 255
205 227 255
205 227 255
205 227 255
205 227 255
206 227 255
206 227 255
206 227 255
206 227 255
206 227 255
206 227 255
206 227 255
206 227 255
206 227 255
206 227 255
206 227 255
206 227 255
206 227 255
206 227 255
206 227 255
206 227 255
206 227 255
206 227 255
207 227 255
207 227 255
207 227 255
207 227 255
207 227 255
207 228 255
207 228 255
207 228 255
207 228 255
207 228 255
207 228 255
207 228 255
207 228 255
207 228 255
207 228 255
207 228 255
207 228 255
207 228 255
207 228 255
207 228 255
208 228 255
208 228 255
208 228 255
208 228 255
208 228 255
208 228 255
208 228 255
208 228 255
208 228 255
208 228 255
208 228 255
208 228 255
208 228 255
208 228 255
208 228 255
208 228 255
208 228 255
208 228 255
208 228 255
208 228 255
208 228 255
208 228 255
208 228 255
207 228 255
207 228 255
207 228 255
207 228 255
207 228 255
207 228 255
207 228 255
207 228 255
207 228 255
207 228 255
207 228 255
207 228 255
207 228 255
207 228 255
207 228 255
207 227 255
207 227 255
207 227 255
207 227 255
207 227 255
206 227 255
206 227 255
206 227 255
206 227 255
206 227 255
206 227 255
206 227 255
206 227 255
206 227 255
206 227 255
206 227 255
206 227 255
206 227 255
206 227 255
206 227 255
206 227 255
206 227 255
206 227 255
205 227 255
205 227 255
205 227 255
205 227 255
205 227 255
205 227 255
205 227 255
205 227 255
205 227 255
205 227 255
205 226 255
205 226 255
205 226 255
205 226 255
205 226 255
205 226 255
204 226 255
204 226 255
204 226 255
204 226 255
204 226 255
204 226 255
204 226 255
204 226 255
204 226 255
204 226 255
204 226 255
204 226 255
204 226 255
204 226 255
204 226 255
204 226 255
203 226 255
203 226 255
203 226 255
203 226 255
203 226 255
203 226 255
203 226 255
203 225 255
203 225 255
203 225 255
203 225 255
203 225 255
203 225 255
203 225 255
203 225 255
202 225 255
202 225 255
202 225 255
202 225 255
202 225 255
202 225 255
202 225 255
202 225 255
202 225 255
202 225 255
202 225 255
202 225 255
202 225 255
202 225 255
202 225 255
201 225 255
201 225 255
201 225 255
201 225 255
201 225 255
201 224 255
201 224 255
201 224 255
201 224 255
201 224 255
201 224 255
201 224 255
201 224 255
201 224 255
201 224 255
201 224 255
200 224 255
200 224 255
200 224 255
200 224 255
200 224 255
200 224 255
200 224 255
200 224 255
200 224 255
200 224 255
200 224 255
200 224 255
200 224 255
200 224 255
200 224 255
200 224 255
200 224 255
199 224 255
199 224 255
199 224 255
199 223 255
199 223 255
199 223 255
199 223 255
199 223 255
199 223 255
199 223 255
199 223 255
199 223 255
199 223 255
199 223 255
199 223 255
199 223 255
199 223 255
199 223 255
199 223 255
199 223 255
199 223 255
199 223 255
198 223 255
198 223 255
198 223 255
198 223 255
198 223 255
198 223 255
198 223 255
198 223 255
198 223 255
198 223 255
198 223 255
198 223 255
198 223 255
198 223 255
198 223 255
198 223 255
198 223 255
198 223 255
198 223 255
198 223 255
198 223 255
198 223 255
198 223 255
198 223 255
198 223 255
198 223 255
198 223 255
198 223 255
198 223 255
198 223 255
198 223 255
198 223 255
198 223 255
198 223 255
198 223 255
198 223 255
198 223 255
198 223 255
198 223 255
198 223 255
198 223 255
198 223 255
198 223 255
198 223 255
198 223 255
198 223 255
198 223 255
198 223 255
198 223 255
198 223 255
198 223 255
198 223 255
198 223 255
198 223 255
198 223 255
198 223 255
198 223 255
198 223 255
198 223 255
198 223 255
198 223 255
198 223 255
198 223 255
198 223 255
199 223 255
199 223 255
199 223 255
199 223 255
199 223 255
199 223 255
199 223 255
199 223 255
199 223 255
199 223 255
199 223 255
199 223 255
199 223 255
199 223 255
199 223 255
199 223 255
199 223 255
199 223 255
199 223 255
199 224 255
199 224 255
199 224 255
200 224 255
200 224 255
200 224 255
200 224 255
200 224 255
200 224 255
200 224 255
200 224 255
200 224 255
200 224 255
200 224 255
200 224 255
200 224 255
200 224 255
200 224 255
200 224 255
200 224 255
201 224 255
201 224 255
201 224 255
201 224 255
201 224 255
201 224 255
201 224 255
201 224 255
201 224 255
201 224 255
201 224 255
201 225 255
201 225 255
201 225 255
201 225 255
202 225 255
202 225 255
202 225 255
202 225 255
202 225 255
202 225 255
202 225 255
202 225 255
202 225 255
202 225 255
202 225 255
202 225 255
202 225 255
202 225 255
202 225 255
202 225 255
203 225 255
203 225 255
203 225 255
203 225 255
203 225 255
203 225 255
203 225 255
203 225 255
203 226 255
203 226 255
203 226 255
203 226 255
203 226 255
203 226 255
203 226 255
204 226 255
204 226 255
204 226 255
204 226 255
204 226 255
204 226 255
204 226 255
204 226 255
204 226 255
204 226 255
204 226 255
204 226 255
204 226 255
204 226 255
204 226 255
204 226 255
205 226 255
205 226 255
205 226 255
205 226 255
205 226 255
205 226 255
205 226 255
205 227 255
205 227 255
205 227 255
205 227 255
205 227 255
205 227 255
205 227 255
205 227 255
205 227 255
206 227 255
206 227 255
206 227 255
206 227 255
206 227 255
206 227 255
206 227 255
206 227 255
206 227 255
206 227 255
206 227 255
206 227 255
206 227 255
206 227 255
206 227 255
206 227 255
206 227 255
206 227 255
207 227 255
207 227 255
207 227 255
207 227 255
207 227 255
207 228 255
207 228 255
207 228 255
207 228 255
207 228 255
207 228 255
207 228 255
207 228 255
207 228 255
207 228 255
207 228 255
207 228 255
207 228 255
207 228 255
207 228 255
208 228 255
208 228 255
208 228 255
208 228 255
208 228 255
208 228 255
208 228 255
208 228 255
208 228 255
208 228 255
208 228 255
208 228 255
208 228 255
208 228 255
208 228 255
208 228 255
208 228 255
208 228 255
208 228 255
208 228 255
208 228 255
208 228 255
208 228 255
208 228 255
208 228 255
208 228 255
208 228 255
208 228 255
208 228 255
207 228 255
207 228 255
207 228 255
207 228 255
207 228 255
207 228 255
207 228 255
207 228 255
207 228 255
207 228 255
207 228 255
207 228 255
207 228 255
207 228 255
207 228 255
207 227 255
207 227 255
207 227 255
207 227 255
207 227 255
206 227 255
206 227 255
206 227 255
206 227 255
206 227 255
206 227 255
206 227 255
206 227 255
206 227 255
206 227 255
206 227 255
206 227 255
206 227 255
206 227 255
206 227 255
206 227 255
206 227 255
205 227 255
205 227 255
205 227 255
205 227 255
205 227 255
205 227 255
205 227 255
205 227 255
205 227 255
205 227 255
205 227 255
205 226 255
205 226 255
205 226 255
205 226 255
205 226 255
205 226 255
204 226 255
204 226 255
204 226 255
204 226 255
204 226 255
204 226 255
204 226 255
204 226 255
204 226 255
204 226 255
204 226 255
204 226 255
204 226 255
204 226 255
204 226 255
204 226 255
203 226 255
203 226 255
203 226 255
203 226 255
203 226 255
203 226 255
203 226 255
203 225 255
203 225 255
203 225 255
203 225 255
203 225 255
203 225 255
203 225 255
203 225 255
202 225 255
202 225 255
202 225 255
202 225 255
202 225 255
202 225 255
202 225 255
202 225 255
202 225 255
202 225 255
202 225 255
202 225 255
202 225 255
202 225 255
202 225 255
202 225 255
201 225 255
201 225 255
201 225 255
201 225 255
201 224 255
201 224 255
201 224 255
201 224 255
201 224 255
201 224 255
201 224 255
201 224 255
201 224 255
201 224 255
201 224 255
200 224 255
200 224 255
200 224 255
200 224 255
200 224 255
200 224 255
200 224 255
200 224 255
200 224 255
200 224 255
200 224 255
200 224 255
200 224 255
200 224 255
200 224 255
200 224 255
200 224 255
199 224 255
199 224 255
199 224 255
199 224 255
199 223 255
199 223 255
199 223 255
199 223 255
199 223 255
199 223 255
199 223 255
199 223 255
199 223 255
199 223 255
199 223 255
199 223 255
199 223 255
199 223 255
199 223 255
199 223 255
199 223 255
199 223 255
199 223 255
199 223 255
199 223 255
198 223 255
198 223 255
198 223 255
198 223 255
198 223 255
198 223 255
198 223 255
198 223 255
198 223 255
198 223 255
198 223 255
198 223 255
198 223 255
198 223 255
198 223 255
198 223 255
198 223 255
198 223 255
198 223 255
198 223 255
198 223 255
198 223 255
198 223 255
198 223 255
198 223 255
198 223 255
198 223 255
198 223 255
198 223 255
198 223 255
198 223 255
198 223 255
198 223 255
198 223 255
198 223 255
198 223 255
198 223 255
198 223 255
198 223 255
198 223 255
198 223 255
198 223 255
198 223 255
198 223 255
198 223 255
198 223 255
198 223 255
198 223 255
198 223 255
198 223 255
198 223 255
198 223 255
198 223 255
199 223 255
199 223 255
199 223 255
199 223 255
199 223 255
199 223 255
199 223 255
199 223 255
199 223 255
199 223 255
199 223 255
199 223 255
199 223 255
199 223 255
199 223 255
199 223 255
199 223 255
199 223 255
199 223 255
199 223 255
199 224 255
199 224 255
199 224 255
199 224 255
200 224 255
200 224 255
200 224 255
200 224 255
200 224 255
200 224 255
200 224 255
200 224 255
200 224 255
200 224 255
200 224 255
200 224 255
200 224 255
200 224 255
200 224 255
200 224 255
200 224 255
201 224 255
201 224 255
201 224 255
201 224 255
201 224 255
201 224 255
201 224 255
201 224 255
201 224 255
201 224 255
201 224 255
201 225 255
201 225 255
201 225 255
201 225 255
202 225 255
202 225 255
202 225 255
202 225 255
202 225 255
202 225 255
202 225 255
202 225 255
202 225 255
202 225 255
202 225 255
202 225 255
202 225 255
202 225 255
202 225 255
202 225 255
203 225 255
203 225 255
203 225 255
203 225 255
203 225 255
203 225 255
203 225 255
203 225 255
203 225 255
203 226 255
203 226 255
203 226 255
203 226 255
203 226 255
203 226 255
204 226 255
204 226 255
204 226 255
204 226 255
204 226 255
204 226 255
204 226 255
204 226 255
204 226 255
204 226 255
204 226 255
204 226 255
204 226 255
204 226 255
204 226 255
204 226 255
205 226 255
205 226 255
205 226 255
205 226 255
205 226 255
205 226 255
205 227 255
205 227 255
205 227 255
205 227 255
205 227 255
205 227 255
205 227 255
205 227 255
205 227 255
205 227 255
206 227 255
206 227 255
206 227 255
206 227 255
206 227 255
206 227 255
206 227 255
206 227 255
206 227 255
206 227 255
206 227 255
206 227 255
206 227 255
206 227 255
206 227 255
206 227 255
206 227 255
206 227 255
207 227 255
207 227 255
207 227 255
207 227 255
207 227 255
207 228 255
207 228 255
207 228 255
207 228 255
207 228 255
207 228 255
207 228 255
207 228 255
207 228 255
207 228 255
207 228 255
207 228 255
207 228 255
207 228 255
208 228 255
208 228 255
208 228 255
208 228 255
208 228 255
208 228 255
208 228 255
208 228 255
208 228 255
208 228 255
208 228 255
208 228 255
208 228 255
208 228 255
208 228 255
208 228 255
208 228 255
208 228 255
208 228 255
208 228 255
208 228 255
208 228 255
208 228 255
208 228 255
208 228 255
208 228 255
208 228 255
208 228 255
208 228 255
208 228 255
208 228 255
208 228 255
208 228 255
208 228 255
208 228 255
208 228 255
208 228 255
207 228 255
207 228 255
207 228 255
207 228 255
207 228 255
207 228 255
207 228 255
207 228 255
207 228 255
207 228 255
207 228 255
207 228 255
207 228 255
207 228 255
207 227 255
207 227 255
207 227 255
207 227 255
207 227 255
206 227 255
206 227 255
206 227 255
206 227 255
206 227 255
206 227 255
206 227 255
206 227 255
206 227 255
206 227 255
206 227 255
206 227 255
206 227 255
206 227 255
206 227 255
206 227 255
206 227 255
206 227 255
205 227 255
205 227 255
205 227 255
205 227 255
205 227 255
205 227 255
205 227 255
205 227 255
205 227 255
205 227 255
205 226 255
205 226 255
205 226 255
205 226 255
205 226 255
205 226 255
204 226 255
204 226 255
204 226 255
204 226 255
204 226 255
204 226 255
204 226 255
204 226 255
204 226 255
204 226 255
204 226 255
204 226 255
204 226 255
204 226 255
204 226 255
204 226 255
203 226 255
203 226 255
203 226 255
203 226 255
203 226 255
203 226 255
203 225 255
203 225 255
203 225 255
203 225 255
203 225 255
203 225 255
203 225 255
203 225 255
203 225 255
202 225 255
202 225 255
202 225 255
202 225 255
202 225 255
202 225 255
202 225 255
202 225 255
202 225 255
202 225 255
202 225 255
202 225 255
202 225 255
202 225 255
202 225 255
201 225 255
201 225 255
201 225 255
201 225 255
201 225 255
201 224 255
201 224 255
201 224 255
201 224 255
201 224 255
201 224 255
201 224 255
201 224 255
201 224 255
201 224 255
201 224 255
200 224 255
200 224 255
200 224 255
200 224 255
200 224 255
200 224 255
200 224 255
200 224 255
200 224 255
200 224 255
200 224 255
200 224 255
200 224 255
200 224 255
200 224 255
200 224 255
200 224 255
200 224 255
199 224 255
199 224 255
199 224 255
199 224 255
199 223 255
199 223 255
199 223 255
199 223 255
199 223 255
199 223 255
199 223 255
199 223 255
199 223 255
199 223 255
199 223 255
199 223 255
199 223 255
199 223 255
199 223 255
199 223 255
199 223 255
199 223 255
199 223 255
199 223 255
199 223 255
199 223 255
199 223 255
198 223 255
198 223 255
198 223 255
198 223 255
198 223 255
198 223 255
198 223 255
198 223 255
198 223 255
198 223 255
198 223 255
198 223 255
198 223 255
198 223 255
198 223 255
198 223 255
198 223 255
198 223 255
198 223 255
198 223 255
198 223 255
198 223 255
198 223 255
198 223 255
198 223 255
198 223 255
198 223 255
198 223 255
198 223 255
198 223 255
198 223 255
198 223 255
198 223 255
198 223 255
198 223 255
198 223 255
198 223 255
198 223 255
198 223 255
199 223 255
199 223 255
199 223 255
199 223 255
199 223 255
199 223 255
199 223 255
199 223 255
199 223 255
199 223 255
199 223 255
199 223 255
199 223 255
199 223 255
199 223 255
199 223 255
199 223 255
199 223 255
199 223 255
199 223 255
199 223 255
199 223 255
199 223 255
199 223 255
199 224 255
199 224 255
199 224 255
199 224 255
200 224 255
200 224 255
200 224 255
200 224 255
200 224 255
200 224 255
200 224 255
200 224 255
200 224 255
200 224 255
200 224 255
200 224 255
200 224 255
200 224 255
200 224 255
200 224 255
200 224 255
200 224 255
201 224 255
201 224 255
201 224 255
201 224 255
201 224 255
201 224 255
201 224 255
201 224 255
201 224 255
201 224 255
201 224 255
201 225 255
201 225 255
201 225 255
201 225 255
201 225 255
202 225 255
202 225 255
202 225 255
202 225 255
202 225 255
202 225 255
202 225 255
202 225 255
202 225 255
202 225 255
202 225 255
202 225 255
202 225 255
202 225 255
202 225 255
203 225 255
203 225 255
203 225 255
203 225 255
203 225 255
203 225 255
203 225 255
203 225 255
203 226 255
203 226 255
203 226 255
203 226 255
203 226 255
203 226 255
203 226 255
204 226 255
204 226 255
204 226 255
204 226 255
204 226 255
204 226 255
204 226 255
204 226 255
204 226 255
204 226 255
204 226 255
204 226 255
204 226 255
204 226 255
204 226 255
204 226 255
205 226 255
205 226 255
205 226 255
205 226 255
205 226 255
205 226 255
205 227 255
205 227 255
205 227 255
205 227 255
205 227 255
205 227 255
205 227 255
205 227 255
205 227 255
205 227 255
206 227 255
206 227 255
206 227 255
206 227 255
206 227 255
206 227 255
206 227 255
206 227 255
206 227 255
206 227 255
206 227 255
206 227 255
206 227 255
206 227 255
206 227 255
206 227 255
206 227 255
206 227 255
207 227 255
207 227 255
207 227 255
207 227 255
207 227 255
207 228 255
207 228 255
207 228 255
207 228 255
207 228 255
207 228 255
207 228 255
207 228 255
207 228 255
207 228 255
207 228 255
207 228 255
207 228 255
207 228 255
207 228 255
208 228 255
208 228 255
208 228 255
208 228 255
208 228 255
208 228 255
208 228 255
208 228 255
208 228 255
208 228 255
208 228 255
208 228 255
208 228 255
208 228 255
208 228 255
208 228 255
208 228 255
208 228 255
208 228 255
209 228 255
208 228 255
208 228 255
208 228 255
208 228 255
208 228 255
208 228 255
208 228 255
208 228 255
208 228 255
208 228 255
208 228 255
208 228 255
208 228 255
208 228 255
208 228 255
208 228 255
208 228 255
208 228 255
208 228 255
208 228 255
208 228 255
207 228 255
207 228 255
207 228 255
207 228 255
207 228 255
207 228 255
207 228 255
207 228 255
207 228 255
207 228 255
207 228 255
207 228 255
207 228 255
207 228 255
207 228 255
207 227 255
207 227 255
207 227 255
207 227 255
206 227 255
206 227 255
206 227 255
206 227 255
206 227 255
206 227 255
206 227 255
206 227 255
206 227 255
206 227 255
206 227 255
206 227 255
206 227 255
206 227 255
206 227 255
206 227 255
206 227 255
206 227 255
205 227 255
205 227 255
205 227 255
205 227 255
205 227 255
205 227 255
205 227 255
205 227 255
205 227 255
205 227 255
205 226 255
205 226 255
205 226 255
205 226 255
205 226 255
205 226 255
205 226 255
204 226 255
204 226 255
204 226 255
204 226 255
204 226 255
204 226 255
204 226 255
204 226 255
204 226 255
204 226 255
204 226 255
204 226 255
204 226 255
204 226 255
204 226 255
204 226 255
203 226 255
203 226 255
203 226 255
203 226 255
203 226 255
203 226 255
203 225 255
203 225 255
203 225 255
203 225 255
203 225 255
203 225 255
203 225 255
203 225 255
202 225 255
202 225 255
202 225 255
202 225 255
202 225 255
202 225 255
202 225 255
202 225 255
202 225 255
202 225 255
202 225 255
202 225 255
202 225 255
202 225 255
202 225 255
202 225 255
201 225 255
201 225 255
201 225 255
201 225 255
201 225 255
201 224 255
201 224 255
201 224 255
201 224 255
201 224 255
201 224 255
201 224 255
201 224 255
201 224 255
201 224 255
201 224 255
201 224 255
200 224 255
200 224 255
200 224 255
200 224 255
200 224 255
200 224 255
200 224 255
200 224 255
200 224 255
200 224 255
200 224 255
200 224 255
200 224 255
200 224 255
200 224 255
200 224 255
200 224 255
200 224 255
199 224 255
199 224 255
199 224 255
199 223 255
199 223 255
199 223 255
199 223 255
199 223 255
199 223 255
199 223 255
199 223 255
199 223 255
199 223 255
199 223 255
199 223 255
199 223 255
199 223 255
199 223 255
199 223 255
199 223 255
199 223 255
199 223 255
199 223 255
199 223 255
199 223 255
199 223 255
199 223 255
199 223 255
199 223 255
199 223 255
199 223 255
199 223 255
199 223 255
199 223 255
198 223 255
198 223 255
198 223 255
198 223 255
198 223 255
198 223 255
198 223 255
198 223 255
198 223 255
198 223 255
198 223 255
198 223 255
198 223 255
198 223 255
198 223 255
198 223 255
199 223 255
198 223 255
199 223 255
199 223 255
199 223 255
199 223 255
199 223 255
199 223 255
199 223 255
199 223 255
199 223 255
199 223 255
199 223 255
199 223 255
199 223 255
199 223 255
199 223 255
199 223 255
199 223 255
199 223 255
199 223 255
199 223 255
199 223 255
199 223 255
199 223 255
199 223 255
199 223 255
199 223 255
199 223 255
199 223 255
199 223 255
199 224 255
199 224 255
199 224 255
199 224 255
199 224 255
200 224 255
200 224 255
200 224 255
200 224 255
200 224 255
200 224 255
200 224 255
200 224 255
200 224 255
200 224 255
200 224 255
200 224 255
200 224 255
200 224 255
200 224 255
200 224 255
200 224 255
200 224 255
201 224 255
201 224 255
201 224 255
201 224 255
201 224 255
201 224 255
201 224 255
201 224 255
201 224 255
201 224 255
201 224 255
201 224 255
201 225 255
201 225 255
201 225 255
201 225 255
201 225 255
202 225 255
202 225 255
202 225 255
202 225 255
202 225 255
202 225 255
202 225 255
202 225 255
202 225 255
202 225 255
202 225 255
202 225 255
202 225 255
202 225 255
202 225 255
203 225 255
203 225 255
203 225 255
203 225 255
203 225 255
203 225 255
203 225 255
203 225 255
203 225 255
203 226 255
203 226 255
203 226 255
203 226 255
203 226 255
203 226 255
203 226 255
204 226 255
204 226 255
204 226 255
204 226 255
204 226 255
204 226 255
204 226 255
204 226 255
204 226 255
204 226 255
204 226 255
204 226 255
204 226 255
204 226 255
204 226 255
204 226 255
205 226 255
205 226 255
205 226 255
205 226 255
205 226 255
205 226 255
205 227 255
205 227 255
205 227 255
205 227 255
205 227 255
205 227 255
205 227 255
205 227 255
205 227 255
206 227 255
206 227 255
206 227 255
206 227 255
206 227 255
206 227 255
206 227 255
206 227 255
206 227 255
206 227 255
206 227 255
206 227 255
206 227 255
206 227 255
206 227 255
206 227 255
206 227 255
206 227 255
207 227 255
206 227 255
207 227 255
207 227 255
207 227 255
207 228 255
207 228 255
207 228 255
207 228 255
207 228 255
207 228 255
207 228 255
207 228 255
207 228 255
207 228 255
207 228 255
207 228 255
207 228 255
207 228 255
207 228 255
208 228 255
208 228 255
208 228 255
208 228 255
208 228 255
208 228 255
208 228 255
208 228 255
208 228 255
208 228 255
208 228 255
208 228 255
208 228 255
208 228 255
208 228 255
208 228 255
208 228 255
208 228 255
208 228 255
208 228 255
208 228 255
209 228 255
209 229 255
209 229 255
209 229 255
209 228 255
208 228 255
208 228 255
208 228 255
208 228 255
208 228 255
208 228 255
208 228 255
208 228 255
208 228 255
208 228 255
208 228 255
208 228 255
208 228 255
208 228 255
208 228 255
208 228 255
208 228 255
208 228 255
208 228 255
208 228 255
208 228 255
208 228 255
207 228 255
207 228 255
207 228 255
207 228 255
207 228 255
207 228 255
207 228 255
207 228 255
207 228 255
207 228 255
207 228 255
207 228 255
207 228 255
207 228 255
207 227 255
207 227 255
207 227 255
207 227 255
206 227 255
206 227 255
206 227 255
206 227 255
206 227 255
206 227 255
206 227 255
206 227 255
206 227 255
206 227 255
206 227 255
206 227 255
206 227 255
206 227 255
206 227 255
206 227 255
206 227 255
206 227 255
205 227 255
205 227 255
205 227 255
205 227 255
205 227 255
205 227 255
205 227 255
205 227 255
205 227 255
205 227 255
205 226 255
205 226 255
205 226 255
205 226 255
205 226 255
205 226 255
205 226 255
204 226 255
204 226 255
204 226 255
204 226 255
204 226 255
204 226 255
204 226 255
204 226 255
204 226 255
204 226 255
204 226 255
204 226 255
204 226 255
204 226 255
204 226 255
203 226 255
203 226 255
203 226 255
203 226 255
203 226 255
203 226 255
203 226 255
203 225 255
203 225 255
203 225 255
203 225 255
203 225 255
203 225 255
203 225 255
203 225 255
202 225 255
202 225 255
202 225 255
202 225 255
202 225 255
202 225 255
202 225 255
202 225 255
202 225 255
202 225 255
202 225 255
202 225 255
202 225 255
202 225 255
202 225 255
202 225 255
201 225 255
201 225 255
201 225 255
201 225 255
201 225 255
201 224 255
201 224 255
201 224 255
201 224 255
201 224 255
201 224 255
201 224 255
201 224 255
201 224 255
201 224 255
201 224 255
200 224 255
200 224 255
200 224 255
200 224 255
200 224 255
200 224 255
200 224 255
200 224 255
200 224 255
200 224 255
200 224 255
200 224 255
200 224 255
200 224 255
200 224 255
200 224 255
200 224 255
200 224 255
200 224 255
200 224 255
199 224 255
199 224 255
199 224 255
199 224 255
199 223 255
199 223 255
199 223 255
199 223 255
199 223 255
199 223 255
199 223 255
199 223 255
199 223 255
199 223 255
199 223 255
199 223 255
199 223 255
199 223 255
199 223 255
199 223 255
199 223 255
199 223 255
199 223 255
199 223 255
199 223 255
199 223 255
199 223 255
199 223 255
199 223 255
199 223 255
199 223 255
199 223 255
199 223 255
199 223 255
199 223 255
199 223 255
199 223 255
199 223 255
199 223 255
199 223 255
199 223 255
199 223 255
199 223 255
199 223 255
199 223 255
199 223 255
199 223 255
199 223 255
199 223 255
199 223 255
199 223 255
199 223 255
199 223 255
199 223 255
199 223 255
199 223 255
199 223 255
199 223 255
199 223 255
199 223 255
199 223 255
199 223 255
199 223 255
199 223 255
199 223 255
199 223 255
199 223 255
199 223 255
199 223 255
199 223 255
199 223 255
199 223 255
199 223 255
199 224 255
199 224 255
199 224 255
199 224 255
200 224 255
200 224 255
200 224 255
200 224 255
200 224 255
200 224 255
200 224 255
200 224 255
200 224 255
200 224 255
200 224 255
200 224 255
200 224 255
200 224 255
200 224 255
200 224 255
200 224 255
200 224 255
200 224 255
200 224 255
201 224 255
201 224 255
201 224 255
201 224 255
201 224 255
201 224 255
201 224 255
201 224 255
201 224 255
201 224 255
201 224 255
201 224 255
201 225 255
201 225 255
201 225 255
201 225 255
201 225 255
202 225 255
202 225 255
202 225 255
202 225 255
202 225 255
202 225 255
202 225 255
202 225 255
202 225 255
202 225 255
202 225 255
202 225 255
202 225 255
202 225 255
202 225 255
202 225 255
203 225 255
203 225 255
203 225 255
203 225 255
203 225 255
203 225 255
203 225 255
203 225 255
203 226 255
203 226 255
203 226 255
203 226 255
203 226 255
203 226 255
203 226 255
204 226 255
204 226 255
204 226 255
204 226 255
204 226 255
204 226 255
204 226 255
204 226 255
204 226 255
204 226 255
204 226 255
204 226 255
204 226 255
204 226 255
204 226 255
205 226 255
205 226 255
205 226 255
205 226 255
205 226 255
205 226 255
205 226 255
205 227 255
205 227 255
205 227 255
205 227 255
205 227 255
205 227 255
205 227 255
205 227 255
205 227 255
205 227 255
206 227 255
206 227 255
206 227 255
206 227 255
206 227 255
206 227 255
206 227 255
206 227 255
206 227 255
206 227 255
206 227 255
206 227 255
206 227 255
206 227 255
206 227 255
206 227 255
206 227 255
206 227 255
207 227 255
207 227 255
207 227 255
207 227 255
207 228 255
207 228 255
207 228 255
207 228 255
207 228 255
207 228 255
207 228 255
207 228 255
207 228 255
207 228 255
207 228 255
207 228 255
207 228 255
207 228 255
208 228 255
208 228 255
208 228 255
208 228 255
208 228 255
208 228 255
208 228 255
208 228 255
208 228 255
208 228 255
208 228 255
208 228 255
208 228 255
208 228 255
208 228 255
208 228 255
208 228 255
208 228 255
208 228 255
208 228 255
208 228 255
208 228 255
209 228 255
209 229 255
209 229 255
209 229 255
209 229 255
209 229 255
209 229 255
209 229 255
209 229 255
209 228 255
209 228 255
209 228 255
208 228 255
208 228 255
208 228 255
208 228 255
208 228 255
208 228 255
208 228 255
208 228 255
208 228 255
208 228 255
208 228 255
208 228 255
208 228 255
208 228 255
208 228 255
208 228 255
208 228 255
208 228 255
208 228 255
208 228 255
208 228 255
207 228 255
207 228 255
207 228 255
207 228 255
207 228 255
207 228 255
207 228 255
207 228 255
207 228 255
207 228 255
207 228 255
207 228 255
207 228 255
207 228 255
207 227 255
207 227 255
207 227 255
207 227 255
207 227 255
206 227 255
206 227 255
206 227 255
206 227 255
206 227 255
206 227 255
206 227 255
206 227 255
206 227 255
206 227 255
206 227 255
206 227 255
206 227 255
206 227 255
206 227 255
206 227 255
206 227 255
205 227 255
205 227 255
205 227 255
205 227 255
205 227 255
205 227 255
205 227 255
205 227 255
205 227 255
205 227 255
205 226 255
205 226 255
205 226 255
205 226 255
205 226 255
205 226 255
204 226 255
204 226 255
204 226 255
204 226 255
204 226 255
204 226 255
204 226 255
204 226 255
204 226 255
204 226 255
204 226 255
204 226 255
204 226 255
204 226 255
204 226 255
204 226 255
203 226 255
203 226 255
203 226 255
203 226 255
203 226 255
203 226 255
203 226 255
203 225 255
203 225 255
203 225 255
203 225 255
203 225 255
203 225 255
203 225 255
203 225 255
203 225 255
202 225 255
202 225 255
202 225 255
202 225 255
202 225 255
202 225 255
202 225 255
202 225 255
202 225 255
202 225 255
202 225 255
202 225 255
202 225 255
202 225 255
202 225 255
202 225 255
201 225 255
201 225 255
201 225 255
201 225 255
201 224 255
201 224 255
201 224 255
201 224 255
201 224 255
201 224 255
201 224 255
201 224 255
201 224 255
201 224 255
201 224 255
201 224 255
201 224 255
200 224 255
200 224 255
200 224 255
200 224 255
200 224 255
200 224 255
200 224 255
200 224 255
200 224 255
200 224 255
200 224 255
200 224 255
200 224 255
200 224 255
200 224 255
200 224 255
200 224 255
200 224 255
200 224 255
200 224 255
200 224 255
199 224 255
199 224 255
199 224 255
199 223 255
199 223 255
199 223 255
199 223 255
199 223 255
199 223 255
199 223 255
199 223 255
199 223 255
199 223 255
199 223 255
199 223 255
199 223 255
199 223 255
199 223 255
199 223 255
199 223 255
199 223 255
199 223 255
199 223 255
199 223 255
199 223 255
199 223 255
199 223 255
199 223 255
199 223 255
199 223 255
199 223 255
199 223 255
199 223 255
199 223 255
199 223 255
199 223 255
199 223 255
199 223 255
199 223 255
199 223 255
199 223 255
199 223 255
199 223 255
199 223 255
199 223 255
199 223 255
199 223 255
199 223 255
199 223 255
199 223 255
199 223 255
199 223 255
199 223 255
199 223 255
199 223 255
199 223 255
199 223 255
199 223 255
199 223 255
199 223 255
199 223 255
199 223 255
199 224 255
199 224 255
199 224 255
200 224 255
200 224 255
200 224 255
200 224 255
200 224 255
200 224 255
200 224 255
200 224 255
200 224 255
200 224 255
200 224 255
200 224 255
200 224 255
200 224 255
200 224 255
200 224 255
200 224 255
200 224 255
200 224 255
200 224 255
200 224 255
200 224 255
201 224 255
201 224 255
201 224 255
201 224 255
201 224 255
201 224 255
201 224 255
201 224 255
201 224 255
201 224 255
201 224 255
201 224 255
201 224 255
201 225 255
201 225 255
201 225 255
201 225 255
201 225 255
202 225 255
202 225 255
202 225 255
202 225 255
202 225 255
202 225 255
202 225 255
202 225 255
202 225 255
202 225 255
202 225 255
202 225 255
202 225 255
202 225 255
202 225 255
203 225 255
203 225 255
203 225 255
203 225 255
203 225 255
203 225 255
203 225 255
203 225 255
203 225 255
203 226 255
203 226 255
203 226 255
203 226 255
203 226 255
203 226 255
203 226 255
204 226 255
204 226 255
204 226 255
204 226 255
204 226 255
204 226 255
204 226 255
204 226 255
204 226 255
204 226 255
204 226 255
204 226 255
204 226 255
204 226 255
204 226 255
204 226 255
205 226 255
205 226 255
205 226 255
205 226 255
205 226 255
205 226 255
205 227 255
205 227 255
205 227 255
205 227 255
205 227 255
205 227 255
205 227 255
205 227 255
205 227 255
205 227 255
206 227 255
206 227 255
206 227 255
206 227 255
206 227 255
206 227 255
206 227 255
206 227 255
206 227 255
206 227 255
206 227 255
206 227 255
206 227 255
206 227 255
206 227 255
206 227 255
206 227 255
206 227 255
207 227 255
207 227 255
207 227 255
207 227 255
207 228 255
207 228 255
207 228 255
207 228 255
207 228 255
207 228 255
207 228 255
207 228 255
207 228 255
207 228 255
207 228 255
207 228 255
207 228 255
207 228 255
207 228 255
208 228 255
208 228 255
208 228 255
208 228 255
208 228 255
208 228 255
208 228 255
208 228 255
208 228 255
208 228 255
208 228 255
208 228 255
208 228 255
208 228 255
208 228 255
208 228 255
208 228 255
208 228 255
208 228 255
208 228 255
208 228 255
209 228 255
209 229 255
209 229 255
209 229 255
209 229 255
209 229 255
209 229 255
209 229 255
209 229 255
209 229 255
209 229 255
209 229 255
209 229 255
209 229 255
209 229 255
209 229 255
209 228 255
209 228 255
208 228 255
208 228 255
208 228 255
208 228 255
208 228 255
208 228 255
208 228 255
208 228 255
208 228 255
208 228 255
208 228 255
208 228 255
208 228 255
208 228 255
208 228 255
208 228 255
208 228 255
208 228 255
208 228 255
208 228 255
208 228 255
207 228 255
207 228 255
207 228 255
207 228 255
207 228 255
207 228 255
207 228 255
207 228 255
207 228 255
207 228 255
207 228 255
207 228 255
207 228 255
207 228 255
207 227 255
207 227 255
207 227 255
207 227 255
206 227 255
206 227 255
206 227 255
206 227 255
206 227 255
206 227 255
206 227 255
206 227 255
206 227 255
206 227 255
206 227 255
206 227 255
206 227 255
206 227 255
206 227 255
206 227 255
206 227 255
206 227 255
205 227 255
205 227 255
205 227 255
205 227 255
205 227 255
205 227 255
205 227 255
205 227 255
205 227 255
205 227 255
205 226 255
205 226 255
205 226 255
205 226 255
205 226 255
205 226 255
204 226 255
204 226 255
204 226 255
204 226 255
204 226 255
204 226 255
204 226 255
204 226 255
204 226 255
204 226 255
204 226 255
204 226 255
204 226 255
204 226 255
204 226 255
204 226 255
203 226 255
203 226 255
203 226 255
203 226 255
203 226 255
203 226 255
203 226 255
203 225 255
203 225 255
203 225 255
203 225 255
203 225 255
203 225 255
203 225 255
203 225 255
202 225 255
202 225 255
202 225 255
202 225 255
202 225 255
202 225 255
202 225 255
202 225 255
202 225 255
202 225 255
202 225 255
202 225 255
202 225 255
202 225 255
202 225 255
202 225 255
201 225 255
201 225 255
201 225 255
201 225 255
201 225 255
201 225 255
201 224 255
201 224 255
201 224 255
201 224 255
201 224 255
201 224 255
201 224 255
201 224 255
201 224 255
201 224 255
201 224 255
200 224 255
200 224 255
200 224 255
200 224 255
200 224 255
200 224 255
200 224 255
200 224 255
200 224 255
200 224 255
200 224 255
200 224 255
200 224 255
200 224 255
200 224 255
200 224 255
200 224 255
200 224 255
200 224 255
200 224 255
200 224 255
200 224 255
200 224 255
199 224 255
199 224 255
199 224 255
199 224 255
199 224 255
199 224 255
199 224 255
199 223 255
199 223 255
199 223 255
199 223 255
199 223 255
199 223 255
199 223 255
199 223 255
199 223 255
199 223 255
199 223 255
199 223 255
199 223 255
199 223 255
199 223 255
199 223 255
199 223 255
199 223 255
199 223 255
199 223 255
199 223 255
199 223 255
199 223 255
199 223 255
199 223 255
199 223 255
199 223 255
199 223 255
199 223 255
199 223 255
199 223 255
199 223 255
199 223 255
199 223 255
199 223 255
199 223 255
199 223 255
199 223 255
199 223 255
199 223 255
199 223 255
199 223 255
199 223 255
199 223 255
199 223 255
199 224 255
199 224 255
199 224 255
199 224 255
199 224 255
200 224 255
200 224 255
200 224 255
200 224 255
200 224 255
200 224 255
200 224 255
200 224 255
200 224 255
200 224 255
200 224 255
200 224 255
200 224 255
200 224 255
200 224 255
200 224 255
200 224 255
200 224 255
200 224 255
200 224 255
200 224 255
200 224 255
201 224 255
201 224 255
201 224 255
201 224 255
201 224 255
201 224 255
201 224 255
201 224 255
201 224 255
201 224 255
201 224 255
201 224 255
201 224 255
201 225 255
201 225 255
201 225 255
201 225 255
201 225 255
202 225 255
202 225 255
202 225 255
202 225 255
202 225 255
202 225 255
202 225 255
202 225 255
202 225 255
202 225 255
202 225 255
202 225 255
202 225 255
202 225 255
202 225 255
202 225 255
203 225 255
203 225 255
203 225 255
203 225 255
203 225 255
203 225 255
203 225 255
203 225 255
203 225 255
203 226 255
203 226 255
203 226 255
203 226 255
203 226 255
203 226 255
203 226 255
204 226 255
204 226 255
204 226 255
204 226 255
204 226 255
204 226 255
204 226 255
204 226 255
204 226 255
204 226 255
204 226 255
204 226 255
204 226 255
204 226 255
204 226 255
205 226 255
205 226 255
205 226 255
205 226 255
205 226 255
205 226 255
205 226 255
205 226 255
205 227 255
205 227 255
205 227 255
205 227 255
205 227 255
205 227 255
205 227 255
205 227 255
205 227 255
206 227 255
206 227 255
206 227 255
206 227 255
206 227 255
206 227 255
206 227 255
206 227 255
206 227 255
206 227 255
206 227 255
206 227 255
206 227 255
206 227 255
206 227 255
206 227 255
206 227 255
207 227 255
207 227 255
207 227 255
207 227 255
207 227 255
207 228 255
207 228 255
207 228 255
207 228 255
207 228 255
207 228 255
207 228 255
207 228 255
207 228 255
207 228 255
207 228 255
207 228 255
207 228 255
207 228 255
208 228 255
208 228 255
208 228 255
208 228 255
208 228 255
208 228 255
208 228 255
208 228 255
208 228 255
208 228 255
208 228 255
208 228 255
208 228 255
208 228 255
208 228 255
208 228 255
208 228 255
208 228 255
208 228 255
208 228 255
208 228 255
209 228 255
209 228 255
209 229 255
209 229 255
209 229 255
209 229 255
209 229 255
209 229 255
209 229 255
209 229 255
209 229 255
209 229 255
209 229 255
209 229 255
209 229 255
209 229 255
209 229 255
209 229 255
209 229 255
209 229 255
209 229 255
209 229 255
209 229 255
209 228 255
209 228 255
208 228 255
208 228 255
208 228 255
208 228 255
208 228 255
208 228 255
208 228 255
208 228 255
208 228 255
208 228 255
208 228 255
208 228 255
208 228 255
208 228 255
208 228 255
208 228 255
208 228 255
208 228 255
208 228 255
208 228 255
208 228 255
207 228 255
207 228 255
207 228 255
207 228 255
207 228 255
207 228 255
207 228 255
207 228 255
207 228 255
207 228 255
207 228 255
207 228 255
207 228 255
207 228 255
207 227 255
207 227 255
207 227 255
207 227 255
207 227 255
206 227 255
206 227 255
206 227 255
206 227 255
206 227 255
206 227 255
206 227 255
206 227 255
206 227 255
206 227 255
206 227 255
206 227 255
206 227 255
206 227 255
206 227 255
206 227 255
206 227 255
205 227 255
205 227 255
205 227 255
205 227 255
205 227 255
205 227 255
205 227 255
205 227 255
205 227 255
205 227 255
205 226 255
205 226 255
205 226 255
205 226 255
205 226 255
205 226 255
204 226 255
204 226 255
204 226 255
204 226 255
204 226 255
204 226 255
204 226 255
204 226 255
204 226 255
204 226 255
204 226 255
204 226 255
204 226 255
204 226 255
204 226 255
204 226 255
203 226 255
203 226 255
203 226 255
203 226 255
203 226 255
203 226 255
203 226 255
203 225 255
203 225 255
203 225 255
203 225 255
203 225 255
203 225 255
203 225 255
203 225 255
202 225 255
202 225 255
202 225 255
202 225 255
202 225 255
202 225 255
202 225 255
202 225 255
202 225 255
202 225 255
202 225 255
202 225 255
202 225 255
202 225 255
202 225 255
202 225 255
202 225 255
201 225 255
201 225 255
201 225 255
201 225 255
201 224 255
201 224 255
201 224 255
201 224 255
201 224 255
201 224 255
201 224 255
201 224 255
201 224 255
201 224 255
201 224 255
201 224 255
201 224 255
201 224 255
200 224 255
200 224 255
200 224 255
200 224 255
200 224 255
200 224 255
200 224 255
200 224 255
200 224 255
200 224 255
200 224 255
200 224 255
200 224 255
200 224 255
200 224 255
200 224 255
200 224 255
200 224 255
200 224 255
200 224 255
200 224 255
200 224 255
200 224 255
200 224 255
200 224 255
200 224 255
200 224 255
199 224 255
199 224 255
199 224 255
199 224 255
199 224 255
199 224 255
199 223 255
199 224 255
199 223 255
199 223 255
199 223 255
199 223 255
199 223 255
199 223 255
199 223 255
199 223 255
199 223 255
199 223 255
199 223 255
199 223 255
199 223 255
199 223 255
199 223 255
199 223 255
199 223 255
199 223 255
199 223 255
199 223 255
199 223 255
199 223 255
199 223 255
199 223 255
199 223 255
199 224 255
199 224 255
199 224 255
199 224 255
199 224 255
199 224 255
199 224 255
200 224 255
200 224 255
200 224 255
200 224 255
200 224 255
200 224 255
200 224 255
200 224 255
200 224 255
200 224 255
200 224 255
200 224 255
200 224 255
200 224 255
200 224 255
200 224 255
200 224 255
200 224 255
200 224 255
200 224 255
200 224 255
200 224 255
200 224 255
200 224 255
200 224 255
200 224 255
200 224 255
201 224 255
201 224 255
201 224 255
201 224 255
201 224 255
201 224 255
201 224 255
201 224 255
201 224 255
201 224 255
201 224 255
201 224 255
201 224 255
201 225 255
201 225 255
201 225 255
201 225 255
201 225 255
202 225 255
202 225 255
202 225 255
202 225 255
202 225 255
202 225 255
202 225 255
202 225 255
202 225 255
202 225 255
202 225 255
202 225 255
202 225 255
202 225 255
202 225 255
202 225 255
202 225 255
203 225 255
203 225 255
203 225 255
203 225 255
203 225 255
203 225 255
203 225 255
203 225 255
203 226 255
203 226 255
203 226 255
203 226 255
203 226 255
203 226 255
203 226 255
204 226 255
204 226 255
204 226 255
204 226 255
204 226 255
204 226 255
204 226 255
204 226 255
204 226 255
204 226 255
204 226 255
204 226 255
204 226 255
204 226 255
204 226 255
204 226 255
205 226 255
205 226 255
205 226 255
205 226 255
205 226 255
205 226 255
205 226 255
205 227 255
205 227 255
205 227 255
205 227 255
205 227 255
205 227 255
205 227 255
205 227 255
205 227 255
206 227 255
206 227 255
206 227 255
206 227 255
206 227 255
206 227 255
206 227 255
206 227 255
206 227 255
206 227 255
206 227 255
206 227 255
206 227 255
206 227 255
206 227 255
206 227 255
206 227 255
206 227 255
207 227 255
207 227 255
207 227 255
207 227 255
207 228 255
207 228 255
207 228 255
207 228 255
207 228 255
207 228 255
207 228 255
207 228 255
207 228 255
207 228 255
207 228 255
207 228 255
207 228 255
207 228 255
207 228 255
208 228 255
208 228 255
208 228 255
208 228 255
208 228 255
208 228 255
208 228 255
208 228 255
208 228 255
208 228 255
208 228 255
208 228 255
208 228 255
208 228 255
208 228 255
208 228 255
208 228 255
208 228 255
208 228 255
208 228 255
209 228 255
209 229 255
209 229 255
209 229 255
209 229 255
209 229 255
209 229 255
209 229 255
209 229 255
209 229 255
209 229 255
209 229 255
209 229 255
209 229 255
209 229 255
209 229 255
209 229 255
209 229 255
209 229 255
209 229 255
209 229 255
209 229 255
209 229 255
209 229 255
209 229 255
209 229 255
209 229 255
209 229 255
209 229 255
209 229 255
209 228 255
209 228 255
208 228 255
208 228 255
208 228 255
208 228 255
208 228 255
208 228 255
208 228 255
208 228 255
208 228 255
208 228 255
208 228 255
208 228 255
208 228 255
208 228 255
208 228 255
208 228 255
208 228 255
208 228 255
208 228 255
208 228 255
207 228 255
207 228 255
207 228 255
207 228 255
207 228 255
207 228 255
207 228 255
207 228 255
207 228 255
207 228 255
207 228 255
207 228 255
207 228 255
207 228 255
207 227 255
207 227 255
207 227 255
207 227 255
207 227 255
206 227 255
206 227 255
206 227 255
206 227 255
206 227 255
206 227 255
206 227 255
206 227 255
206 227 255
206 227 255
206 227 255
206 227 255
206 227 255
206 227 255
206 227 255
206 227 255
205 227 255
205 227 255
205 227 255
205 227 255
205 227 255
205 227 255
205 227 255
205 227 255
205 227 255
205 227 255
205 226 255
205 226 255
205 226 255
205 226 255
205 226 255
205 226 255
205 226 255
204 226 255
204 226 255
204 226 255
204 226 255
204 226 255
204 226 255
204 226 255
204 226 255
204 226 255
204 226 255
204 226 255
204 226 255
204 226 255
204 226 255
204 226 255
204 226 255
203 226 255
203 226 255
203 226 255
203 226 255
203 226 255
203 226 255
203 226 255
203 225 255
203 225 255
203 225 255
203 225 255
203 225 255
203 225 255
203 225 255
203 225 255
202 225 255
202 225 255
202 225 255
202 225 255
202 225 255
202 225 255
202 225 255
202 225 255
202 225 255
202 225 255
202 225 255
202 225 255
202 225 255
202 225 255
202 225 255
202 225 255
202 225 255
201 225 255
201 225 255
201 225 255
201 225 255
201 225 255
201 225 255
201 224 255
201 224 255
201 224 255
201 224 255
201 224 255
201 224 255
201 224 255
201 224 255
201 224 255
201 224 255
201 224 255
201 224 255
201 224 255
200 224 255
200 224 255
200 224 255
200 224 255
200 224 255
200 224 255
200 224 255
200 224 255
200 224 255
200 224 255
200 224 255
200 224 255
200 224 255
200 224 255
200 224 255
200 224 255
200 224 255
200 224 255
200 224 255
200 224 255
200 224 255
200 224 255
200 224 255
200 224 255
200 224 255
200 224 255
200 224 255
200 224 255
200 224 255
200 224 255
200 224 255
199 224 255
200 224 255
200 224 255
199 224 255
199 224 255
199 224 255
199 224 255
199 224 255
199 224 255
199 224 255
199 224 255
199 224 255
199 224 255
199 224 255
199 224 255
199 224 255
199 224 255
199 224 255
199 224 255
199 224 255
200 224 255
200 224 255
200 224 255
200 224 255
200 224 255
200 224 255
200 224 255
200 224 255
200 224 255
200 224 255
200 224 255
200 224 255
200 224 255
200 224 255
200 224 255
200 224 255
200 224 255
200 224 255
200 224 255
200 224 255
200 224 255
200 224 255
200 224 255
200 224 255
200 224 255
200 224 255
200 224 255
200 224 255
200 224 255
200 224 255
200 224 255
200 224 255
200 224 255
200 224 255
200 224 255
201 224 255
201 224 255
201 224 255
201 224 255
201 224 255
201 224 255
201 224 255
201 224 255
201 224 255
201 224 255
201 224 255
201 224 255
201 224 255
201 225 255
201 225 255
201 225 255
201 225 255
201 225 255
201 225 255
202 225 255
202 225 255
202 225 255
202 225 255
202 225 255
202 225 255
202 225 255
202 225 255
202 225 255
202 225 255
202 225 255
202 225 255
202 225 255
202 225 255
202 225 255
202 225 255
203 225 255
203 225 255
203 225 255
203 225 255
203 225 255
203 225 255
203 225 255
203 225 255
203 225 255
203 226 255
203 226 255
203 226 255
203 226 255
203 226 255
203 226 255
203 226 255
204 226 255
204 226 255
204 226 255
204 226 255
204 226 255
204 226 255
204 226 255
204 226 255
204 226 255
204 226 255
204 226 255
204 226 255
204 226 255
204 226 255
204 226 255
204 226 255
205 226 255
205 226 255
205 226 255
205 226 255
205 226 255
205 226 255
205 226 255
205 227 255
205 227 255
205 227 255
205 227 255
205 227 255
205 227 255
205 227 255
205 227 255
205 227 255
206 227 255
206 227 255
206 227 255
206 227 255
206 227 255
206 227 255
206 227 255
206 227 255
206 227 255
206 227 255
206 227 255
206 227 255
206 227 255
206 227 255
206 227 255
206 227 255
206 227 255
207 227 255
207 227 255
207 227 255
207 227 255
207 227 255
207 228 255
207 228 255
207 228 255
207 228 255
207 228 255
207 228 255
207 228 255
207 228 255
207 228 255
207 228 255
207 228 255
207 228 255
207 228 255
207 228 255
208 228 255
208 228 255
208 228 255
208 228 255
208 228 255
208 228 255
208 228 255
208 228 255
208 228 255
208 228 255
208 228 255
208 228 255
208 228 255
208 228 255
208 228 255
208 228 255
208 228 255
208 228 255
208 228 255
208 228 255
208 228 255
209 228 255
209 228 255
209 229 255
209 229 255
209 229 255
209 229 255
209 229 255
209 229 255
209 229 255
209 229 255
209 229 255
209 229 255
209 229 255
209 229 255
209 229 255
209 229 255
209 229 255
209 229 255
209 229 255
209 229 255
209 229 255
209 229 255
209 229 255
209 229 255
209 229 255
209 229 255
209 229 255
209 229 255
209 229 255
209 229 255
209 229 255
209 229 255
209 229 255
209 229 255
209 229 255
209 229 255
209 228 255
208 228 255
208 228 255
208 228 255
208 228 255
208 228 255
208 228 255
208 228 255
208 228 255
208 228 255
208 228 255
208 228 255
208 228 255
208 228 255
208 228 255
208 228 255
208 228 255
208 228 255
208 228 255
208 228 255
208 228 255
208 228 255
207 228 255
207 228 255
207 228 255
207 228 255
207 228 255
207 228 255
207 228 255
207 228 255
207 228 255
207 228 255
207 228 255
207 228 255
207 228 255
207 228 255
207 227 255
207 227 255
207 227 255
207 227 255
207 227 255
206 227 255
206 227 255
206 227 255
206 227 255
206 227 255
206 227 255
206 227 255
206 227 255
206 227 255
206 227 255
206 227 255
206 227 255
206 227 255
206 227 255
206 227 255
206 227 255
205 227 255
205 227 255
205 227 255
205 227 255
205 227 255
205 227 255
205 227 255
205 227 255
205 227 255
205 227 255
205 226 255
205 226 255
205 226 255
205 226 255
205 226 255
205 226 255
204 226 255
204 226 255
204 226 255
204 226 255
204 226 255
204 226 255
204 226 255
204 226 255
204 226 255
204 226 255
204 226 255
204 226 255
204 226 255
204 226 255
204 226 255
204 226 255
204 226 255
203 226 255
203 226 255
203 226 255
203 226 255
203 226 255
203 226 255
203 226 255
203 225 255
203 225 255
203 225 255
203 225 255
203 225 255
203 225 255
203 225 255
203 225 255
203 225 255
202 225 255
202 225 255
202 225 255
202 225 255
202 225 255
202 225 255
202 225 255
202 225 255
202 225 255
202 225 255
202 225 255
202 225 255
202 225 255
202 225 255
202 225 255
202 225 255
202 225 255
201 225 255
201 225 255
201 225 255
201 225 255
201 225 255
201 224 255
201 224 255
201 224 255
201 224 255
201 224 255
201 224 255
201 224 255
201 224 255
201 224 255
201 224 255
201 224 255
201 224 255
201 224 255
201 224 255
200 224 255
200 224 255
200 224 255
200 224 255
200 224 255
200 224 255
200 224 255
200 224 255
200 224 255
200 224 255
200 224 255
200 224 255
200 224 255
200 224 255
200 224 255
200 224 255
200 224 255
200 224 255
200 224 255
200 224 255
200 224 255
200 224 255
200 224 255
200 224 255
200 224 255
200 224 255
200 224 255
200 224 255
200 224 255
200 224 255
200 224 255
200 224 255
200 224 255
200 224 255
200 224 255
200 224 255
200 224 255
200 224 255
200 224 255
200 224 255
200 224 255
200 224 255
200 224 255
200 224 255
200 224 255
200 224 255
200 224 255
200 224 255
200 224 255
200 224 255
200 224 255
200 224 255
200 224 255
200 224 255
200 224 255
200 224 255
200 224 255
200 224 255
200 224 255
200 224 255
200 224 255
200 224 255
200 224 255
200 224 255
200 224 255
200 224 255
200 224 255
200 224 255
200 224 255
200 224 255
200 224 255
200 224 255
200 224 255
200 224 255
200 224 255
200 224 255
200 224 255
201 224 255
201 224 255
201 224 255
201 224 255
201 224 255
201 224 255
201 224 255
201 224 255
201 224 255
201 224 255
201 224 255
201 224 255
201 224 255
201 224 255
201 224 255
201 225 255
201 225 255
201 225 255
201 225 255
201 225 255
202 225 255
202 225 255
202 225 255
202 225 255
202 225 255
202 225 255
202 225 255
202 225 255
202 225 255
202 225 255
202 225 255
202 225 255
202 225 255
202 225 255
202 225 255
202 225 255
202 225 255
203 225 255
203 225 255
203 225 255
203 225 255
203 225 255
203 225 255
203 225 255
203 225 255
203 225 255
203 226 255
203 226 255
203 226 255
203 226 255
203 226 255
203 226 255
203 226 255
204 226 255
204 226 255
204 226 255
204 226 255
204 226 255
204 226 255
204 226 255
204 226 255
204 226 255
204 226 255
204 226 255
204 226 255
204 226 255
204 226 255
204 226 255
204 226 255
205 226 255
205 226 255
205 226 255
205 226 255
205 226 255
205 226 255
205 226 255
205 227 255
205 227 255
205 227 255
205 227 255
205 227 255
205 227 255
205 227 255
205 227 255
205 227 255
206 227 255
206 227 255
206 227 255
206 227 255
206 227 255
206 227 255
206 227 255
206 227 255
206 227 255
206 227 255
206 227 255
206 227 255
206 227 255
206 227 255
206 227 255
206 227 255
206 227 255
207 227 255
207 227 255
207 227 255
207 227 255
207 228 255
207 228 255
207 228 255
207 228 255
207 228 255
207 228 255
207 228 255
207 228 255
207 228 255
207 228 255
207 228 255
207 228 255
207 228 255
207 228 255
207 228 255
208 228 255
208 228 255
208 228 255
208 228 255
208 228 255
208 228 255
208 228 255
208 228 255
208 228 255
208 228 255
208 228 255
208 228 255
208 228 255
208 228 255
208 228 255
208 228 255
208 228 255
208 228 255
208 228 255
208 228 255
209 228 255
209 228 255
209 229 255
209 229 255
209 229 255
209 229 255
209 229 255
209 229 255
209 229 255
209 229 255
209 229 255
209 229 255
209 229 255
209 229 255
209 229 255
209 229 255
209 229 255
209 229 255
209 229 255
209 229 255
209 229 255
210 229 255
209 229 255
209 229 255
209 229 255
209 229 255
209 229 255
209 229 255
209 229 255
209 229 255
209 229 255
209 229 255
209 229 255
209 229 255
209 229 255
209 229 255
209 229 255
209 229 255
209 229 255
209 229 255
209 229 255
209 229 255
209 229 255
209 229 255
209 228 255
208 228 255
208 228 255
208 228 255
208 228 255
208 228 255
208 228 255
208 228 255
208 228 255
208 228 255
208 228 255
208 228 255
208 228 255
208 228 255
208 228 255
208 228 255
208 228 255
208 228 255
208 228 255
208 228 255
208 228 255
208 228 255
207 228 255
207 228 255
207 228 255
207 228 255
207 228 255
207 228 255
207 228 255
207 228 255
207 228 255
207 228 255
207 228 255
207 228 255
207 228 255
207 228 255
207 227 255
207 227 255
207 227 255
207 227 255
206 227 255
206 227 255
206 227 255
206 227 255
206 227 255
206 227 255
206 227 255
206 227 255
206 227 255
206 227 255
206 227 255
206 227 255
206 227 255
206 227 255
206 227 255
206 227 255
206 227 255
205 227 255
205 227 255
205 227 255
205 227 255
205 227 255
205 227 255
205 227 255
205 227 255
205 227 255
205 227 255
205 226 255
205 226 255
205 226 255
205 226 255
205 226 255
205 226 255
204 226 255
204 226 255
204 226 255
204 226 255
204 226 255
204 226 255
204 226 255
204 226 255
204 226 255
204 226 255
204 226 255
204 226 255
204 226 255
204 226 255
204 226 255
204 226 255
203 226 255
203 226 255
203 226 255
203 226 255
203 226 255
203 226 255
203 226 255
203 225 255
203 225 255
203 225 255
203 225 255
203 225 255
203 225 255
203 225 255
203 225 255
203 225 255
203 225 255
202 225 255
202 225 255
202 225 255
202 225 255
202 225 255
202 225 255
202 225 255
202 225 255
202 225 255
202 225 255
202 225 255
202 225 255
202 225 255
202 225 255
202 225 255
202 225 255
202 225 255
201 225 255
201 225 255
201 225 255
201 225 255
201 225 255
201 225 255
201 224 255
201 224 255
201 224 255
201 224 255
201 224 255
201 224 255
201 224 255
201 224 255
201 224 255
201 224 255
201 224 255
201 224 255
201 224 255
201 224 255
201 224 255
201 224 255
200 224 255
200 224 255
200 224 255
200 224 255
200 224 255
200 224 255
200 224 255
200 224 255
200 224 255
200 224 255
200 224 255
200 224 255
200 224 255
200 224 255
200 224 255
200 224 255
200 224 255
200 224 255
200 224 255
200 224 255
200 224 255
200 224 255
200 224 255
200 224 255
200 224 255
200 224 255
200 224 255
200 224 255
200 224 255
200 224 255
200 224 255
200 224 255
200 224 255
200 224 255
200 224 255
200 224 255
200 224 255
200 224 255
200 224 255
200 224 255
200 224 255
200 224 255
200 224 255
200 224 255
200 224 255
200 224 255
200 224 255
200 224 255
200 224 255
200 224 255
200 224 255
200 224 255
200 224 255
200 224 255
200 224 255
200 224 255
200 224 255
200 224 255
200 224 255
200 224 255
200 224 255
200 224 255
200 224 255
200 224 255
200 224 255
201 224 255
201 224 255
201 224 255
201 224 255
201 224 255
201 224 255
201 224 255
201 224 255
201 224 255
201 224 255
201 224 255
201 224 255
201 224 255
201 224 255
201 224 255
201 225 255
201 225 255
201 225 255
201 225 255
201 225 255
201 225 255
202 225 255
202 225 255
202 225 255
202 225 255
202 225 255
202 225 255
202 225 255
202 225 255
202 225 255
202 225 255
202 225 255
202 225 255
202 225 255
202 225 255
202 225 255
202 225 255
202 225 255
202 225 255
203 225 255
203 225 255
203 225 255
203 225 255
203 225 255
203 225 255
203 225 255
203 225 255
203 225 255
203 226 255
203 226 255
203 226 255
203 226 255
203 226 255
203 226 255
203 226 255
204 226 255
204 226 255
204 226 255
204 226 255
204 226 255
204 226 255
204 226 255
204 226 255
204 226 255
204 226 255
204 226 255
204 226 255
204 226 255
204 226 255
204 226 255
204 226 255
205 226 255
205 226 255
205 226 255
205 226 255
205 226 255
205 226 255
205 226 255
205 227 255
205 227 255
205 227 255
205 227 255
205 227 255
205 227 255
205 227 255
205 227 255
205 227 255
206 227 255
206 227 255
206 227 255
206 227 255
206 227 255
206 227 255
206 227 255
206 227 255
206 227 255
206 227 255
206 227 255
206 227 255
206 227 255
206 227 255
206 227 255
206 227 255
206 227 255
207 227 255
207 227 255
207 227 255
207 227 255
207 227 255
207 228 255
207 228 255
207 228 255
207 228 255
207 228 255
207 228 255
207 228 255
207 228 255
207 228 255
207 228 255
207 228 255
207 228 255
207 228 255
207 228 255
208 228 255
208 228 255
208 228 255
208 228 255
208 228 255
208 228 255
208 228 255
208 228 255
208 228 255
208 228 255
208 228 255
208 228 255
208 228 255
208 228 255
208 228 255
208 228 255
208 228 255
208 228 255
208 228 255
208 228 255
209 228 255
209 228 255
209 229 255
209 229 255
209 229 255
209 229 255
209 229 255
209 229 255
209 229 255
209 229 255
209 229 255
209 229 255
209 229 255
209 229 255
209 229 255
209 229 255
209 229 255
209 229 255
209 229 255
209 229 255
209 229 255
209 229 255
209 229 255
210 229 255
210 229 255
210 229 255
210 229 255
210 229 255
210 229 255
210 229 255
209 229 255
209 229 255
209 229 255
209 229 255
209 229 255
209 229 255
209 229 255
209 229 255
209 229 255
209 229 255
209 229 255
209 229 255
209 229 255
209 229 255
209 229 255
209 229 255
209 229 255
209 229 255
209 229 255
209 229 255
209 228 255
208 228 255
208 228 255
208 228 255
208 228 255
208 228 255
208 228 255
208 228 255
208 228 255
208 228 255
208 228 255
208 228 255
208 228 255
208 228 255
208 228 255
208 228 255
208 228 255
208 228 255
208 228 255
208 228 255
208 228 255
207 228 255
207 228 255
207 228 255
207 228 255
207 228 255
207 228 255
207 228 255
207 228 255
207 228 255
207 228 255
207 228 255
207 228 255
207 228 255
207 228 255
207 227 255
207 227 255
207 227 255
207 227 255
207 227 255
206 227 255
206 227 255
206 227 255
206 227 255
206 227 255
206 227 255
206 227 255
206 227 255
206 227 255
206 227 255
206 227 255
206 227 255
206 227 255
206 227 255
206 227 255
206 227 255
205 227 255
205 227 255
205 227 255
205 227 255
205 227 255
205 227 255
205 227 255
205 227 255
205 227 255
205 227 255
205 226 255
205 226 255
205 226 255
205 226 255
205 226 255
205 226 255
205 226 255
204 226 255
204 226 255
204 226 255
204 226 255
204 226 255
204 226 255
204 226 255
204 226 255
204 226 255
204 226 255
204 226 255
204 226 255
204 226 255
204 226 255
204 226 255
204 226 255
203 226 255
203 226 255
203 226 255
203 226 255
203 226 255
203 226 255
203 226 255
203 225 255
203 225 255
203 225 255
203 225 255
203 225 255
203 225 255
203 225 255
203 225 255
203 225 255
202 225 255
202 225 255
202 225 255
202 225 255
202 225 255
202 225 255
202 225 255
202 225 255
202 225 255
202 225 255
202 225 255
202 225 255
202 225 255
202 225 255
202 225 255
202 225 255
202 225 255
202 225 255
201 225 255
201 225 255
201 225 255
201 225 255
201 225 255
201 225 255
201 225 255
201 224 255
201 224 255
201 224 255
201 224 255
201 224 255
201 224 255
201 224 255
201 224 255
201 224 255
201 224 255
201 224 255
201 224 255
201 224 255
201 224 255
201 224 255
201 224 255
201 224 255
201 224 255
200 224 255
200 224 255
200 224 255
200 224 255
200 224 255
200 224 255
200 224 255
200 224 255
200 224 255
200 224 255
200 224 255
200 224 255
200 224 255
200 224 255
200 224 255
200 224 255
200 224 255
200 224 255
200 224 255
200 224 255
200 224 255
200 224 255
200 224 255
200 224 255
200 224 255
200 224 255
200 224 255
200 224 255
200 224 255
200 224 255
200 224 255
200 224 255
200 224 255
200 224 255
200 224 255
200 224 255
200 224 255
200 224 255
200 224 255
200 224 255
200 224 255
200 224 255
200 224 255
200 224 255
200 224 255
200 224 255
200 224 255
200 224 255
200 224 255
200 224 255
200 224 255
200 224 255
201 224 255
201 224 255
201 224 255
201 224 255
201 224 255
201 224 255
201 224 255
201 224 255
201 224 255
201 224 255
201 224 255
201 224 255
201 224 255
201 224 255
201 224 255
201 224 255
201 224 255
201 224 255
201 225 255
201 225 255
201 225 255
201 225 255
201 225 255
201 225 255
201 225 255
202 225 255
202 225 255
202 225 255
202 225 255
202 225 255
202 225 255
202 225 255
202 225 255
202 225 255
202 225 255
202 225 255
202 225 255
202 225 255
202 225 255
202 225 255
202 225 255
202 225 255
203 225 255
203 225 255
203 225 255
203 225 255
203 225 255
203 225 255
203 225 255
203 225 255
203 225 255
203 226 255
203 226 255
203 226 255
203 226 255
203 226 255
203 226 255
203 226 255
203 226 255
204 226 255
204 226 255
204 226 255
204 226 255
204 226 255
204 226 255
204 226 255
204 226 255
204 226 255
204 226 255
204 226 255
204 226 255
204 226 255
204 226 255
204 226 255
204 226 255
205 226 255
205 226 255
205 226 255
205 226 255
205 226 255
205 226 255
205 226 255
205 227 255
205 227 255
205 227 255
205 227 255
205 227 255
205 227 255
205 227 255
205 227 255
205 227 255
206 227 255
206 227 255
206 227 255
206 227 255
206 227 255
206 227 255
206 227 255
206 227 255
206 227 255
206 227 255
206 227 255
206 227 255
206 227 255
206 227 255
206 227 255
206 227 255
206 227 255
207 227 255
207 227 255
207 227 255
207 227 255
207 228 255
207 228 255
207 228 255
207 228 255
207 228 255
207 228 255
207 228 255
207 228 255
207 228 255
207 228 255
207 228 255
207 228 255
207 228 255
207 228 255
208 228 255
208 228 255
208 228 255
208 228 255
208 228 255
208 228 255
208 228 255
208 228 255
208 228 255
208 228 255
208 228 255
208 228 255
208 228 255
208 228 255
208 228 255
208 228 255
208 228 255
208 228 255
208 228 255
208 228 255
208 228 255
209 228 255
209 229 255
209 229 255
209 229 255
209 229 255
209 229 255
209 229 255
209 229 255
209 229 255
209 229 255
209 229 255
209 229 255
209 229 255
209 229 255
209 229 255
209 229 255
209 229 255
209 229 255
209 229 255
209 229 255
209 229 255
209 229 255
210 229 255
210 229 255
210 229 255
210 229 255
210 229 255
210 229 255
210 229 255
210 229 255
210 229 255
210 229 255
210 229 255
210 229 255
210 229 255
210 229 255
209 229 255
209 229 255
209 229 255
209 229 255
209 229 255
209 229 255
209 229 255
209 229 255
209 229 255
209 229 255
209 229 255
209 229 255
209 229 255
209 229 255
209 229 255
209 229 255
209 229 255
209 229 255
209 229 255
209 229 255
209 228 255
208 228 255
209 228 255
208 228 255
208 228 255
208 228 255
208 228 255
208 228 255
208 228 255
208 228 255
208 228 255
208 228 255
208 228 255
208 228 255
208 228 255
208 228 255
208 228 255
208 228 255
208 228 255
208 228 255
208 228 255
208 228 255
207 228 255
207 228 255
207 228 255
207 228 255
207 228 255
207 228 255
207 228 255
207 228 255
207 228 255
207 228 255
207 228 255
207 228 255
207 228 255
207 228 255
207 227 255
207 227 255
207 227 255
207 227 255
206 227 255
206 227 255
206 227 255
206 227 255
206 227 255
206 227 255
206 227 255
206 227 255
206 227 255
206 227 255
206 227 255
206 227 255
206 227 255
206 227 255
206 227 255
206 227 255
206 227 255
205 227 255
205 227 255
205 227 255
205 227 255
205 227 255
205 227 255
205 227 255
205 227 255
205 227 255
205 226 255
205 226 255
205 226 255
205 226 255
205 226 255
205 226 255
205 226 255
204 226 255
204 226 255
204 226 255
204 226 255
204 226 255
204 226 255
204 226 255
204 226 255
204 226 255
204 226 255
204 226 255
204 226 255
204 226 255
204 226 255
204 226 255
204 226 255
203 226 255
203 226 255
203 226 255
203 226 255
203 226 255
203 226 255
203 226 255
203 226 255
203 225 255
203 225 255
203 225 255
203 225 255
203 225 255
203 225 255
203 225 255
203 225 255
203 225 255
202 225 255
202 225 255
202 225 255
202 225 255
202 225 255
202 225 255
202 225 255
202 225 255
202 225 255
202 225 255
202 225 255
202 225 255
202 225 255
202 225 255
202 225 255
202 225 255
202 225 255
202 225 255
202 225 255
201 225 255
201 225 255
201 225 255
201 225 255
201 225 255
201 225 255
201 224 255
201 224 255
201 224 255
201 224 255
201 224 255
201 224 255
201 224 255
201 224 255
201 224 255
201 224 255
201 224 255
201 224 255
201 224 255
201 224 255
201 224 255
201 224 255
201 224 255
201 224 255
201 224 255
201 224 255
201 224 255
200 224 255
200 224 255
200 224 255
200 224 255
200 224 255
200 224 255
200 224 255
200 224 255
200 224 255
200 224 255
200 224 255
200 224 255
200 224 255
200 224 255
200 224 255
200 224 255
200 224 255
200 224 255
200 224 255
200 224 255
200 224 255
200 224 255
200 224 255
200 224 255
200 224 255
200 224 255
200 224 255
200 224 255
200 224 255
200 224 255
200 224 255
200 224 255
200 224 255
200 224 255
200 224 255
200 224 255
200 224 255
201 224 255
201 224 255
201 224 255
201 224 255
201 224 255
201 224 255
201 224 255
201 224 255
201 224 255
201 224 255
201 224 255
201 224 255
201 224 255
201 224 255
201 224 255
201 224 255
201 224 255
201 224 255
201 224 255
201 224 255
201 224 255
201 224 255
201 225 255
201 225 255
201 225 255
201 225 255
201 225 255
201 225 255
202 225 255
202 225 255
202 225 255
202 225 255
202 225 255
202 225 255
202 225 255
202 225 255
202 225 255
202 225 255
202 225 255
202 225 255
202 225 255
202 225 255
202 225 255
202 225 255
202 225 255
202 225 255
202 225 255
203 225 255
203 225 255
203 225 255
203 225 255
203 225 255
203 225 255
203 225 255
203 225 255
203 225 255
203 226 255
203 226 255
203 226 255
203 226 255
203 226 255
203 226 255
203 226 255
203 226 255
204 226 255
204 226 255
204 226 255
204 226 255
204 226 255
204 226 255
204 226 255
204 226 255
204 226 255
204 226 255
204 226 255
204 226 255
204 226 255
204 226 255
204 226 255
205 226 255
205 226 255
205 226 255
205 226 255
205 226 255
205 226 255
205 226 255
205 227 255
205 227 255
205 227 255
205 227 255
205 227 255
205 227 255
205 227 255
205 227 255
205 227 255
205 227 255
206 227 255
206 227 255
206 227 255
206 227 255
206 227 255
206 227 255
206 227 255
206 227 255
206 227 255
206 227 255
206 227 255
206 227 255
206 227 255
206 227 255
206 227 255
206 227 255
206 227 255
207 227 255
207 227 255
207 227 255
207 227 255
207 227 255
207 228 255
207 228 255
207 228 255
207 228 255
207 228 255
207 228 255
207 228 255
207 228 255
207 228 255
207 228 255
207 228 255
207 228 255
207 228 255
208 228 255
208 228 255
208 228 255
208 228 255
208 228 255
208 228 255
208 228 255
208 228 255
208 228 255
208 228 255
208 228 255
208 228 255
208 228 255
208 228 255
208 228 255
208 228 255
208 228 255
208 228 255
208 228 255
208 228 255
209 228 255
209 228 255
209 228 255
209 229 255
209 229 255
209 229 255
209 229 255
209 229 255
209 229 255
209 229 255
209 229 255
209 229 255
209 229 255
209 229 255
209 229 255
209 229 255
209 229 255
209 229 255
209 229 255
209 229 255
209 229 255
209 229 255
209 229 255
210 229 255
210 229 255
210 229 255
210 229 255
210 229 255
210 229 255
210 229 255
210 229 255
210 229 255
210 229 255
210 229 255
210 229 255
210 229 255
210 229 255
210 229 255
210 229 255
210 229 255
210 229 255
210 229 255
210 229 255
209 229 255
209 229 255
209 229 255
209 229 255
209 229 255
209 229 255
209 229 255
209 229 255
209 229 255
209 229 255
209 229 255
209 229 255
209 229 255
209 229 255
209 229 255
209 229 255
209 229 255
209 229 255
209 229 255
209 229 255
209 228 255
209 228 255
208 228 255
208 228 255
208 228 255
208 228 255
208 228 255
208 228 255
208 228 255
208 228 255
208 228 255
208 228 255
208 228 255
208 228 255
208 228 255
208 228 255
208 228 255
208 228 255
208 228 255
208 228 255
208 228 255
208 228 255
207 228 255
207 228 255
207 228 255
207 228 255
207 228 255
207 228 255
207 228 255
207 228 255
207 228 255
207 228 255
207 228 255
207 228 255
207 228 255
207 227 255
207 227 255
207 227 255
207 227 255
207 227 255
206 227 255
206 227 255
206 227 255
206 227 255
206 227 255
206 227 255
206 227 255
206 227 255
206 227 255
206 227 255
206 227 255
206 227 255
206 227 255
206 227 255
206 227 255
206 227 255
206 227 255
205 227 255
205 227 255
205 227 255
205 227 255
205 227 255
205 227 255
205 227 255
205 227 255
205 227 255
205 227 255
205 226 255
205 226 255
205 226 255
205 226 255
205 226 255
205 226 255
204 226 255
204 226 255
204 226 255
204 226 255
204 226 255
204 226 255
204 226 255
204 226 255
204 226 255
204 226 255
204 226 255
204 226 255
204 226 255
204 226 255
204 226 255
204 226 255
204 226 255
203 226 255
203 226 255
203 226 255
203 226 255
203 226 255
203 226 255
203 226 255
203 225 255
203 225 255
203 225 255
203 225 255
203 225 255
203 225 255
203 225 255
203 225 255
203 225 255
203 225 255
202 225 255
202 225 255
202 225 255
202 225 255
202 225 255
202 225 255
202 225 255
202 225 255
202 225 255
202 225 255
202 225 255
202 225 255
202 225 255
202 225 255
202 225 255
202 225 255
202 225 255
202 225 255
202 225 255
201 225 255
201 225 255
201 225 255
201 225 255
201 225 255
201 225 255
201 225 255
201 225 255
201 224 255
201 224 255
201 224 255
201 224 255
201 224 255
201 224 255
201 224 255
201 224 255
201 224 255
201 224 255
201 224 255
201 224 255
201 224 255
201 224 255
201 224 255
201 224 255
201 224 255
201 224 255
201 224 255
201 224 255
201 224 255
201 224 255
201 224 255
201 224 255
201 224 255
201 224 255
201 224 255
201 224 255
201 224 255
201 224 255
201 224 255
201 224 255
201 224 255
201 224 255
201 224 255
200 224 255
201 224 255
201 224 255
201 224 255
201 224 255
201 224 255
201 224 255
201 224 255
201 224 255
201 224 255
201 224 255
201 224 255
201 224 255
201 224 255
201 224 255
201 224 255
201 224 255
201 224 255
201 224 255
201 224 255
201 224 255
201 224 255
201 224 255
201 224 255
201 224 255
201 224 255
201 224 255
201 224 255
201 224 255
201 224 255
201 224 255
201 224 255
201 224 255
201 225 255
201 225 255
201 225 255
201 225 255
201 225 255
201 225 255
201 225 255
202 225 255
202 225 255
202 225 255
202 225 255
202 225 255
202 225 255
202 225 255
202 225 255
202 225 255
202 225 255
202 225 255
202 225 255
202 225 255
202 225 255
202 225 255
202 225 255
202 225 255
202 225 255
202 225 255
202 225 255
203 225 255
203 225 255
203 225 255
203 225 255
203 225 255
203 225 255
203 225 255
203 225 255
203 225 255
203 225 255
203 226 255
203 226 255
203 226 255
203 226 255
203 226 255
203 226 255
203 226 255
204 226 255
204 226 255
204 226 255
204 226 255
204 226 255
204 226 255
204 226 255
204 226 255
204 226 255
204 226 255
204 226 255
204 226 255
204 226 255
204 226 255
204 226 255
204 226 255
205 226 255
205 226 255
205 226 255
205 226 255
205 226 255
205 226 255
205 226 255
205 227 255
205 227 255
205 227 255
205 227 255
205 227 255
205 227 255
205 227 255
205 227 255
205 227 255
205 227 255
206 227 255
206 227 255
206 227 255
206 227 255
206 227 255
206 227 255
206 227 255
206 227 255
206 227 255
206 227 255
206 227 255
206 227 255
206 227 255
206 227 255
206 227 255
206 227 255
206 227 255
207 227 255
207 227 255
207 227 255
207 227 255
207 228 255
207 228 255
207 228 255
207 228 255
207 228 255
207 228 255
207 228 255
207 228 255
207 228 255
207 228 255
207 228 255
207 228 255
207 228 255
207 228 255
207 228 255
208 228 255
208 228 255
208 228 255
208 228 255
208 228 255
208 228 255
208 228 255
208 228 255
208 228 255
208 228 255
208 228 255
208 228 255
208 228 255
208 228 255
208 228 255
208 228 255
208 228 255
208 228 255
208 228 255
209 228 255
209 229 255
209 229 255
209 229 255
209 229 255
209 229 255
209 229 255
209 229 255
209 229 255
209 229 255
209 229 255
209 229 255
209 229 255
209 229 255
209 229 255
209 229 255
209 229 255
209 229 255
209 229 255
209 229 255
209 229 255
209 229 255
210 229 255
210 229 255
210 229 255
210 229 255
210 229 255
210 229 255
210 229 255
210 229 255
210 229 255
210 229 255
210 229 255
210 229 255
210 229 255
210 229 255
210 229 255
210 229 255
210 229 255
210 229 255
210 229 255
210 229 255
210 229 255
210 229 255
210 229 255
210 229 255
210 229 255
210 229 255
210 229 255
209 229 255
209 229 255
209 229 255
209 229 255
209 229 255
209 229 255
209 229 255
209 229 255
209 229 255
209 229 255
209 229 255
209 229 255
209 229 255
209 229 255
209 229 255
209 229 255
209 229 255
209 229 255
209 229 255
209 229 255
209 229 255
209 228 255
209 228 255
208 228 255
208 228 255
208 228 255
208 228 255
208 228 255
208 228 255
208 228 255
208 228 255
208 228 255
208 228 255
208 228 255
208 228 255
208 228 255
208 228 255
208 228 255
208 228 255
208 228 255
208 228 255
208 228 255
207 228 255
207 228 255
207 228 255
207 228 255
207 228 255
207 228 255
207 228 255
207 228 255
207 228 255
207 228 255
207 228 255
207 228 255
207 228 255
207 228 255
207 227 255
207 227 255
207 227 255
207 227 255
207 227 255
206 227 255
206 227 255
206 227 255
206 227 255
206 227 255
206 227 255
206 227 255
206 227 255
206 227 255
206 227 255
206 227 255
206 227 255
206 227 255
206 227 255
206 227 255
206 227 255
206 227 255
205 227 255
205 227 255
205 227 255
205 227 255
205 227 255
205 227 255
205 227 255
205 227 255
205 227 255
205 226 255
205 226 255
205 226 255
205 226 255
205 226 255
205 226 255
204 226 255
204 226 255
204 226 255
204 226 255
204 226 255
204 226 255
204 226 255
204 226 255
204 226 255
204 226 255
204 226 255
204 226 255
204 226 255
204 226 255
204 226 255
204 226 255
204 226 255
204 226 255
203 226 255
203 226 255
203 226 255
203 226 255
203 226 255
203 226 255
203 226 255
203 225 255
203 225 255
203 225 255
203 225 255
203 225 255
203 225 255
203 225 255
203 225 255
203 225 255
203 225 255
202 225 255
202 225 255
202 225 255
202 225 255
202 225 255
202 225 255
202 225 255
202 225 255
202 225 255
202 225 255
202 225 255
202 225 255
202 225 255
202 225 255
202 225 255
202 225 255
202 225 255
202 225 255
202 225 255
202 225 255
202 225 255
201 225 255
201 225 255
201 225 255
201 225 255
201 225 255
201 225 255
201 225 255
201 225 255
201 224 255
201 224 255
201 224 255
201 224 255
201 224 255
201 224 255
201 224 255
201 224 255
201 224 255
201 224 255
201 224 255
201 224 255
201 224 255
201 224 255
201 224 255
201 224 255
201 224 255
201 224 255
201 224 255
201 224 255
201 224 255
201 224 255
201 224 255
201 224 255
201 224 255
201 224 255
201 224 255
201 224 255
201 224 255
201 224 255
201 224 255
201 224 255
201 224 255
201 224 255
201 224 255
201 224 255
201 224 255
201 224 255
201 224 255
201 224 255
201 224 255
201 224 255
201 224 255
201 224 255
201 224 255
201 224 255
201 224 255
201 224 255
201 224 255
201 224 255
201 224 255
201 224 255
201 224 255
201 224 255
201 224 255
201 224 255
201 225 255
201 225 255
201 225 255
201 225 255
201 225 255
201 225 255
201 225 255
201 225 255
202 225 255
202 225 255
202 225 255
202 225 255
202 225 255
202 225 255
202 225 255
202 225 255
202 225 255
202 225 255
202 225 255
202 225 255
202 225 255
202 225 255
202 225 255
202 225 255
202 225 255
202 225 255
202 225 255
202 225 255
202 225 255
203 225 255
203 225 255
203 225 255
203 225 255
203 225 255
203 225 255
203 225 255
203 225 255
203 225 255
203 225 255
203 226 255
203 226 255
203 226 255
203 226 255
203 226 255
203 226 255
203 226 255
203 226 255
204 226 255
204 226 255
204 226 255
204 226 255
204 226 255
204 226 255
204 226 255
204 226 255
204 226 255
204 226 255
204 226 255
204 226 255
204 226 255
204 226 255
204 226 255
204 226 255
205 226 255
205 226 255
205 226 255
205 226 255
205 226 255
205 226 255
205 226 255
205 227 255
205 227 255
205 227 255
205 227 255
205 227 255
205 227 255
205 227 255
205 227 255
205 227 255
205 227 255
206 227 255
206 227 255
206 227 255
206 227 255
206 227 255
206 227 255
206 227 255
206 227 255
206 227 255
206 227 255
206 227 255
206 227 255
206 227 255
206 227 255
206 227 255
206 227 255
206 227 255
207 227 255
207 227 255
207 227 255
207 227 255
207 227 255
207 228 255
207 228 255
207 228 255
207 228 255
207 228 255
207 228 255
207 228 255
207 228 255
207 228 255
207 228 255
207 228 255
207 228 255
207 228 255
208 228 255
208 228 255
208 228 255
208 228 255
208 228 255
208 228 255
208 228 255
208 228 255
208 228 255
208 228 255
208 228 255
208 228 255
208 228 255
208 228 255
208 228 255
208 228 255
208 228 255
208 228 255
208 228 255
209 228 255
209 228 255
209 229 255
209 229 255
209 229 255
209 229 255
209 229 255
209 229 255
209 229 255
209 229 255
209 229 255
209 229 255
209 229 255
209 229 255
209 229 255
209 229 255
209 229 255
209 229 255
209 229 255
209 229 255
209 229 255
209 229 255
210 229 255
210 229 255
210 229 255
210 229 255
210 229 255
210 229 255
210 229 255
210 229 255
210 229 255
210 229 255
210 229 255
210 229 255
210 229 255
210 229 255
210 229 255
210 229 255
210 229 255
210 229 255
210 229 255
210 229 255
210 229 255
210 229 255
210 229 255
210 229 255
210 229 255
210 229 255
210 229 255
210 229 255
210 229 255
210 229 255
210 229 255
210 229 255
210 229 255
210 229 255
209 229 255
209 229 255
209 229 255
209 229 255
209 229 255
209 229 255
209 229 255
209 229 255
209 229 255
209 229 255
209 229 255
209 229 255
209 229 255
209 229 255
209 229 255
209 229 255
209 229 255
209 229 255
209 229 255
209 229 255
209 229 255
209 229 255
209 228 255
208 228 255
208 228 255
208 228 255
208 228 255
208 228 255
208 228 255
208 228 255
208 228 255
208 228 255
208 228 255
208 228 255
208 228 255
208 228 255
208 228 255
208 228 255
208 228 255
208 228 255
208 228 255
208 228 255
207 228 255
207 228 255
207 228 255
207 228 255
207 228 255
207 228 255
207 228 255
207 228 255
207 228 255
207 228 255
207 228 255
207 228 255
207 228 255
207 228 255
207 227 255
207 227 255
207 227 255
207 227 255
207 227 255
206 227 255
206 227 255
206 227 255
206 227 255
206 227 255
206 227 255
206 227 255
206 227 255
206 227 255
206 227 255
206 227 255
206 227 255
206 227 255
206 227 255
206 227 255
206 227 255
206 227 255
205 227 255
205 227 255
205 227 255
205 227 255
205 227 255
205 227 255
205 227 255
205 227 255
205 227 255
205 226 255
205 226 255
205 226 255
205 226 255
205 226 255
205 226 255
205 226 255
204 226 255
204 226 255
204 226 255
204 226 255
204 226 255
204 226 255
204 226 255
204 226 255
204 226 255
204 226 255
204 226 255
204 226 255
204 226 255
204 226 255
204 226 255
204 226 255
203 226 255
203 226 255
203 226 255
203 226 255
203 226 255
203 226 255
203 226 255
203 226 255
203 226 255
203 225 255
203 225 255
203 225 255
203 225 255
203 225 255
203 225 255
203 225 255
203 225 255
203 225 255
203 225 255
202 225 255
202 225 255
202 225 255
202 225 255
202 225 255
202 225 255
202 225 255
202 225 255
202 225 255
202 225 255
202 225 255
202 225 255
202 225 255
202 225 255
202 225 255
202 225 255
202 225 255
202 225 255
202 225 255
202 225 255
202 225 255
202 225 255
202 225 255
202 225 255
201 225 255
201 225 255
201 225 255
201 225 255
201 225 255
201 225 255
201 225 255
201 225 255
201 224 255
201 225 255
201 224 255
201 224 255
201 224 255
201 224 255
201 224 255
201 224 255
201 224 255
201 224 255
201 224 255
201 224 255
201 224 255
201 224 255
201 224 255
201 224 255
201 224 255
201 224 255
201 224 255
201 224 255
201 224 255
201 224 255
201 224 255
201 224 255
201 224 255
201 224 255
201 224 255
201 224 255
201 224 255
201 224 255
201 224 255
201 224 255
201 224 255
201 224 255
201 224 255
201 224 255
201 224 255
201 224 255
201 224 255
201 224 255
201 224 255
201 225 255
201 225 255
201 225 255
201 225 255
201 225 255
201 225 255
201 225 255
201 225 255
201 225 255
201 225 255
202 225 255
202 225 255
202 225 255
202 225 255
202 225 255
202 225 255
202 225 255
202 225 255
202 225 255
202 225 255
202 225 255
202 225 255
202 225 255
202 225 255
202 225 255
202 225 255
202 225 255
202 225 255
202 225 255
202 225 255
202 225 255
202 225 255
202 225 255
203 225 255
203 225 255
203 225 255
203 225 255
203 225 255
203 225 255
203 225 255
203 225 255
203 225 255
203 225 255
203 225 255
203 226 255
203 226 255
203 226 255
203 226 255
203 226 255
203 226 255
203 226 255
204 226 255
204 226 255
204 226 255
204 226 255
204 226 255
204 226 255
204 226 255
204 226 255
204 226 255
204 226 255
204 226 255
204 226 255
204 226 255
204 226 255
204 226 255
204 226 255
204 226 255
205 226 255
205 226 255
205 226 255
205 226 255
205 226 255
205 226 255
205 226 255
205 227 255
205 227 255
205 227 255
205 227 255
205 227 255
205 227 255
205 227 255
205 227 255
205 227 255
206 227 255
206 227 255
206 227 255
206 227 255
206 227 255
206 227 255
206 227 255
206 227 255
206 227 255
206 227 255
206 227 255
206 227 255
206 227 255
206 227 255
206 227 255
206 227 255
206 227 255
206 227 255
207 227 255
207 227 255
207 227 255
207 227 255
207 228 255
207 228 255
207 228 255
207 228 255
207 228 255
207 228 255
207 228 255
207 228 255
207 228 255
207 228 255
207 228 255
207 228 255
207 228 255
208 228 255
208 228 255
208 228 255
208 228 255
208 228 255
208 228 255
208 228 255
208 228 255
208 228 255
208 228 255
208 228 255
208 228 255
208 228 255
208 228 255
208 228 255
208 228 255
208 228 255
208 228 255
208 228 255
208 228 255
209 228 255
209 228 255
209 229 255
209 229 255
209 229 255
209 229 255
209 229 255
209 229 255
209 229 255
209 229 255
209 229 255
209 229 255
209 229 255
209 229 255
209 229 255
209 229 255
209 229 255
209 229 255
209 229 255
209 229 255
209 229 255
209 229 255
210 229 255
210 229 255
210 229 255
210 229 255
210 229 255
210 229 255
210 229 255
210 229 255
210 229 255
210 229 255
210 229 255
210 229 255
210 229 255
210 229 255
210 229 255
210 229 255
210 229 255
210 229 255
210 229 255
210 230 255
210 229 255
210 229 255
210 229 255
210 229 255
210 229 255
210 229 255
210 229 255
210 229 255
210 229 255
210 229 255
210 229 255
210 229 255
210 229 255
210 229 255
210 229 255
210 229 255
210 229 255
210 229 255
210 229 255
210 229 255
210 229 255
210 229 255
209 229 255
209 229 255
209 229 255
209 229 255
209 229 255
209 229 255
209 229 255
209 229 255
209 229 255
209 229 255
209 229 255
209 229 255
209 229 255
209 229 255
209 229 255
209 229 255
209 229 255
209 229 255
209 229 255
209 229 255
209 229 255
209 228 255
208 228 255
208 228 255
208 228 255
208 228 255
208 228 255
208 228 255
208 228 255
208 228 255
208 228 255
208 228 255
208 228 255
208 228 255
208 228 255
208 228 255
208 228 255
208 228 255
208 228 255
208 228 255
208 228 255
207 228 255
207 228 255
207 228 255
207 228 255
207 228 255
207 228 255
207 228 255
207 228 255
207 228 255
207 228 255
207 228 255
207 228 255
207 228 255
207 228 255
207 227 255
207 227 255
207 227 255
207 227 255
206 227 255
206 227 255
206 227 255
206 227 255
206 227 255
206 227 255
206 227 255
206 227 255
206 227 255
206 227 255
206 227 255
206 227 255
206 227 255
206 227 255
206 227 255
206 227 255
206 227 255
205 227 255
205 227 255
205 227 255
205 227 255
205 227 255
205 227 255
205 227 255
205 227 255
205 227 255
205 227 255
205 226 255
205 226 255
205 226 255
205 226 255
205 226 255
205 226 255
205 226 255
204 226 255
204 226 255
204 226 255
204 226 255
204 226 255
204 226 255
204 226 255
204 226 255
204 226 255
204 226 255
204 226 255
204 226 255
204 226 255
204 226 255
204 226 255
204 226 255
204 226 255
203 226 255
203 226 255
203 226 255
203 226 255
203 226 255
203 226 255
203 226 255
203 225 255
203 225 255
203 225 255
203 225 255
203 225 255
203 225 255
203 225 255
203 225 255
203 225 255
203 225 255
202 225 255
203 225 255
202 225 255
202 225 255
202 225 255
202 225 255
202 225 255
202 225 255
202 225 255
202 225 255
202 225 255
202 225 255
202 225 255
202 225 255
202 225 255
202 225 255
202 225 255
202 225 255
202 225 255
202 225 255
202 225 255
202 225 255
202 225 255
202 225 255
202 225 255
202 225 255
201 225 255
201 225 255
201 225 255
201 225 255
201 225 255
201 225 255
201 225 255
201 225 255
201 225 255
201 225 255
201 225 255
201 225 255
201 225 255
201 225 255
201 225 255
201 225 255
201 224 255
201 225 255
201 225 255
201 225 255
201 224 255
201 224 255
201 224 255
201 224 255
201 224 255
201 224 255
201 225 255
201 225 255
201 225 255
201 224 255
201 224 255
201 225 255
201 225 255
201 225 255
201 225 255
201 225 255
201 225 255
201 225 255
201 225 255
201 225 255
201 225 255
201 225 255
201 225 255
201 225 255
201 225 255
201 225 255
201 225 255
202 225 255
202 225 255
202 225 255
202 225 255
202 225 255
202 225 255
202 225 255
202 225 255
202 225 255
202 225 255
202 225 255
202 225 255
202 225 255
202 225 255
202 225 255
202 225 255
202 225 255
202 225 255
202 225 255
202 225 255
202 225 255
202 225 255
202 225 255
202 225 255
202 225 255
202 225 255
203 225 255
203 225 255
203 225 255
203 225 255
203 225 255
203 225 255
203 225 255
203 225 255
203 225 255
203 225 255
203 225 255
203 226 255
203 226 255
203 226 255
203 226 255
203 226 255
203 226 255
203 226 255
204 226 255
204 226 255
204 226 255
204 226 255
204 226 255
204 226 255
204 226 255
204 226 255
204 226 255
204 226 255
204 226 255
204 226 255
204 226 255
204 226 255
204 226 255
204 226 255
204 226 255
204 226 255
205 226 255
205 226 255
205 226 255
205 226 255
205 226 255
205 226 255
205 227 255
205 227 255
205 227 255
205 227 255
205 227 255
205 227 255
205 227 255
205 227 255
205 227 255
205 227 255
206 227 255
206 227 255
206 227 255
206 227 255
206 227 255
206 227 255
206 227 255
206 227 255
206 227 255
206 227 255
206 227 255
206 227 255
206 227 255
206 227 255
206 227 255
206 227 255
207 227 255
207 227 255
207 227 255
207 227 255
207 227 255
207 228 255
207 228 255
207 228 255
207 228 255
207 228 255
207 228 255
207 228 255
207 228 255
207 228 255
207 228 255
207 228 255
207 228 255
207 228 255
207 228 255
208 228 255
208 228 255
208 228 255
208 228 255
208 228 255
208 228 255
208 228 255
208 228 255
208 228 255
208 228 255
208 228 255
208 228 255
208 228 255
208 228 255
208 228 255
208 228 255
208 228 255
208 228 255
208 228 255
209 228 255
209 228 255
209 229 255
209 229 255
209 229 255
209 229 255
209 229 255
209 229 255
209 229 255
209 229 255
209 229 255
209 229 255
209 229 255
209 229 255
209 229 255
209 229 255
209 229 255
209 229 255
209 229 255
209 229 255
209 229 255
209 229 255
210 229 255
210 229 255
210 229 255
210 229 255
210 229 255
210 229 255
210 229 255
210 229 255
210 229 255
210 229 255
210 229 255
210 229 255
210 229 255
210 229 255
210 229 255
210 229 255
210 229 255
210 229 255
210 229 255
210 229 255
210 229 255
210 230 255
210 230 255
211 230 255
211 230 255
211 230 255
210 230 255
210 230 255
210 229 255
210 229 255
210 229 255
210 229 255
210 229 255
210 229 255
210 229 255
210 229 255
210 229 255
210 229 255
210 229 255
210 229 255
210 229 255
210 229 255
210 229 255
210 229 255
210 229 255
210 229 255
210 229 255
210 229 255
210 229 255
210 229 255
209 229 255
209 229 255
209 229 255
209 229 255
209 229 255
209 229 255
209 229 255
209 229 255
209 229 255
209 229 255
209 229 255
209 229 255
209 229 255
209 229 255
209 229 255
209 229 255
209 229 255
209 229 255
209 229 255
209 229 255
209 228 255
208 228 255
208 228 255
208 228 255
208 228 255
208 228 255
208 228 255
208 228 255
208 228 255
208 228 255
208 228 255
208 228 255
208 228 255
208 228 255
208 228 255
208 228 255
208 228 255
208 228 255
208 228 255
208 228 255
207 228 255
207 228 255
207 228 255
207 228 255
207 228 255
207 228 255
207 228 255
207 228 255
207 228 255
207 228 255
207 228 255
207 228 255
207 228 255
207 228 255
207 227 255
207 227 255
207 227 255
207 227 255
206 227 255
206 227 255
206 227 255
206 227 255
206 227 255
206 227 255
206 227 255
206 227 255
206 227 255
206 227 255
206 227 255
206 227 255
206 227 255
206 227 255
206 227 255
206 227 255
206 227 255
205 227 255
205 227 255
205 227 255
205 227 255
205 227 255
205 227 255
205 227 255
205 227 255
205 227 255
205 227 255
205 226 255
205 226 255
205 226 255
205 226 255
205 226 255
205 226 255
205 226 255
204 226 255
204 226 255
204 226 255
204 226 255
204 226 255
204 226 255
204 226 255
204 226 255
204 226 255
204 226 255
204 226 255
204 226 255
204 226 255
204 226 255
204 226 255
204 226 255
204 226 255
203 226 255
203 226 255
203 226 255
203 226 255
203 226 255
203 226 255
203 226 255
203 226 255
203 225 255
203 225 255
203 225 255
203 225 255
203 225 255
203 225 255
203 225 255
203 225 255
203 225 255
203 225 255
203 225 255
202 225 255
202 225 255
202 225 255
202 225 255
202 225 255
202 225 255
202 225 255
202 225 255
202 225 255
202 225 255
202 225 255
202 225 255
202 225 255
202 225 255
202 225 255
202 225 255
202 225 255
202 225 255
202 225 255
202 225 255
202 225 255
202 225 255
202 225 255
202 225 255
202 225 255
202 225 255
202 225 255
202 225 255
202 225 255
202 225 255
202 225 255
202 225 255
202 225 255
202 225 255
202 225 255
202 225 255
201 225 255
201 225 255
201 225 255
201 225 255
201 225 255
201 225 255
201 225 255
201 225 255
201 225 255
201 225 255
201 225 255
201 225 255
201 225 255
201 225 255
201 225 255
201 225 255
201 225 255
201 225 255
201 225 255
202 225 255
201 225 255
202 225 255
202 225 255
202 225 255
202 225 255
202 225 255
202 225 255
202 225 255
202 225 255
202 225 255
202 225 255
202 225 255
202 225 255
202 225 255
202 225 255
202 225 255
202 225 255
202 225 255
202 225 255
202 225 255
202 225 255
202 225 255
202 225 255
202 225 255
202 225 255
202 225 255
202 225 255
202 225 255
202 225 255
202 225 255
202 225 255
202 225 255
203 225 255
203 225 255
203 225 255
203 225 255
203 225 255
203 225 255
203 225 255
203 225 255
203 225 255
203 225 255
203 225 255
203 225 255
203 226 255
203 226 255
203 226 255
203 226 255
203 226 255
203 226 255
203 226 255
203 226 255
203 226 255
204 226 255
204 226 255
204 226 255
204 226 255
204 226 255
204 226 255
204 226 255
204 226 255
204 226 255
204 226 255
204 226 255
204 226 255
204 226 255
204 226 255
204 226 255
204 226 255
204 226 255
205 226 255
205 226 255
205 226 255
205 226 255
205 226 255
205 226 255
205 226 255
205 227 255
205 227 255
205 227 255
205 227 255
205 227 255
205 227 255
205 227 255
205 227 255
205 227 255
205 227 255
206 227 255
206 227 255
206 227 255
206 227 255
206 227 255
206 227 255
206 227 255
206 227 255
206 227 255
206 227 255
206 227 255
206 227 255
206 227 255
206 227 255
206 227 255
206 227 255
206 227 255
207 227 255
207 227 255
207 227 255
207 227 255
207 228 255
207 228 255
207 228 255
207 228 255
207 228 255
207 228 255
207 228 255
207 228 255
207 228 255
207 228 255
207 228 255
207 228 255
207 228 255
207 228 255
208 228 255
208 228 255
208 228 255
208 228 255
208 228 255
208 228 255
208 228 255
208 228 255
208 228 255
208 228 255
208 228 255
208 228 255
208 228 255
208 228 255
208 228 255
208 228 255
208 228 255
208 228 255
208 228 255
209 228 255
209 228 255
209 229 255
209 229 255
209 229 255
209 229 255
209 229 255
209 229 255
209 229 255
209 229 255
209 229 255
209 229 255
209 229 255
209 229 255
209 229 255
209 229 255
209 229 255
209 229 255
209 229 255
209 229 255
209 229 255
209 229 255
210 229 255
210 229 255
210 229 255
210 229 255
210 229 255
210 229 255
210 229 255
210 229 255
210 229 255
210 229 255
210 229 255
210 229 255
210 229 255
210 229 255
210 229 255
210 229 255
210 229 255
210 229 255
210 229 255
210 229 255
210 229 255
210 230 255
210 230 255
210 230 255
211 230 255
211 230 255
211 230 255
211 230 255
211 230 255
211 230 255
211 230 255
211 230 255
211 230 255
210 230 255
210 230 255
210 229 255
210 229 255
210 229 255
210 229 255
210 229 255
210 229 255
210 229 255
210 229 255
210 229 255
210 229 255
210 229 255
210 229 255
210 229 255
210 229 255
210 229 255
210 229 255
210 229 255
210 229 255
210 229 255
210 229 255
210 229 255
210 229 255
209 229 255
209 229 255
209 229 255
209 229 255
209 229 255
209 229 255
209 229 255
209 229 255
209 229 255
209 229 255
209 229 255
209 229 255
209 229 255
209 229 255
209 229 255
209 229 255
209 229 255
209 229 255
209 229 255
209 228 255
209 228 255
208 228 255
208 228 255
208 228 255
208 228 255
208 228 255
208 228 255
208 228 255
208 228 255
208 228 255
208 228 255
208 228 255
208 228 255
208 228 255
208 228 255
208 228 255
208 228 255
208 228 255
208 228 255
208 228 255
207 228 255
207 228 255
207 228 255
207 228 255
207 228 255
207 228 255
207 228 255
207 228 255
207 228 255
207 228 255
207 228 255
207 228 255
207 228 255
207 227 255
207 227 255
207 227 255
207 227 255
206 227 255
206 227 255
206 227 255
206 227 255
206 227 255
206 227 255
206 227 255
206 227 255
206 227 255
206 227 255
206 227 255
206 227 255
206 227 255
206 227 255
206 227 255
206 227 255
206 227 255
206 227 255
205 227 255
205 227 255
205 227 255
205 227 255
205 227 255
205 227 255
205 227 255
205 227 255
205 227 255
205 226 255
205 226 255
205 226 255
205 226 255
205 226 255
205 226 255
205 226 255
205 226 255
204 226 255
204 226 255
204 226 255
204 226 255
204 226 255
204 226 255
204 226 255
204 226 255
204 226 255
204 226 255
204 226 255
204 226 255
204 226 255
204 226 255
204 226 255
204 226 255
204 226 255
203 226 255
203 226 255
203 226 255
203 226 255
203 226 255
203 226 255
203 226 255
203 226 255
203 226 255
203 225 255
203 225 255
203 225 255
203 225 255
203 225 255
203 225 255
203 225 255
203 225 255
203 225 255
203 225 255
203 225 255
203 225 255
202 225 255
202 225 255
202 225 255
202 225 255
202 225 255
202 225 255
202 225 255
202 225 255
202 225 255
202 225 255
202 225 255
202 225 255
202 225 255
202 225 255
202 225 255
202 225 255
202 225 255
202 225 255
202 225 255
202 225 255
202 225 255
202 225 255
202 225 255
202 225 255
202 225 255
202 225 255
202 225 255
202 225 255
202 225 255
202 225 255
202 225 255
202 225 255
202 225 255
202 225 255
202 225 255
202 225 255
202 225 255
202 225 255
202 225 255
202 225 255
202 225 255
202 225 255
202 225 255
202 225 255
202 225 255
202 225 255
202 225 255
202 225 255
202 225 255
202 225 255
202 225 255
202 225 255
202 225 255
202 225 255
202 225 255
202 225 255
202 225 255
202 225 255
202 225 255
202 225 255
202 225 255
202 225 255
202 225 255
202 225 255
202 225 255
202 225 255
202 225 255
202 225 255
202 225 255
202 225 255
202 225 255
202 225 255
202 225 255
202 225 255
202 225 255
202 225 255
202 225 255
202 225 255
203 225 255
203 225 255
203 225 255
203 225 255
203 225 255
203 225 255
203 225 255
203 225 255
203 225 255
203 225 255
203 225 255
203 225 255
203 226 255
203 226 255
203 226 255
203 226 255
203 226 255
203 226 255
203 226 255
203 226 255
203 226 255
204 226 255
204 226 255
204 226 255
204 226 255
204 226 255
204 226 255
204 226 255
204 226 255
204 226 255
204 226 255
204 226 255
204 226 255
204 226 255
204 226 255
204 226 255
204 226 255
204 226 255
204 226 255
205 226 255
205 226 255
205 226 255
205 226 255
205 226 255
205 226 255
205 226 255
205 227 255
205 227 255
205 227 255
205 227 255
205 227 255
205 227 255
205 227 255
205 227 255
205 227 255
205 227 255
206 227 255
206 227 255
206 227 255
206 227 255
206 227 255
206 227 255
206 227 255
206 227 255
206 227 255
206 227 255
206 227 255
206 227 255
206 227 255
206 227 255
206 227 255
206 227 255
206 227 255
207 227 255
207 227 255
207 227 255
207 228 255
207 228 255
207 228 255
207 228 255
207 228 255
207 228 255
207 228 255
207 228 255
207 228 255
207 228 255
207 228 255
207 228 255
207 228 255
207 228 255
207 228 255
208 228 255
208 228 255
208 228 255
208 228 255
208 228 255
208 228 255
208 228 255
208 228 255
208 228 255
208 228 255
208 228 255
208 228 255
208 228 255
208 228 255
208 228 255
208 228 255
208 228 255
208 228 255
208 228 255
209 228 255
209 229 255
209 229 255
209 229 255
209 229 255
209 229 255
209 229 255
209 229 255
209 229 255
209 229 255
209 229 255
209 229 255
209 229 255
209 229 255
209 229 255
209 229 255
209 229 255
209 229 255
209 229 255
209 229 255
209 229 255
210 229 255
210 229 255
210 229 255
210 229 255
210 229 255
210 229 255
210 229 255
210 229 255
210 229 255
210 229 255
210 229 255
210 229 255
210 229 255
210 229 255
210 229 255
210 229 255
210 229 255
210 229 255
210 229 255
210 229 255
210 229 255
210 230 255
210 230 255
210 230 255
211 230 255
211 230 255
211 230 255
211 230 255
211 230 255
211 230 255
211 230 255
211 230 255
211 230 255
211 230 255
211 230 255
211 230 255
211 230 255
211 230 255
211 230 255
211 230 255
211 230 255
210 230 255
210 230 255
210 230 255
210 229 255
210 229 255
210 229 255
210 229 255
210 229 255
210 229 255
210 229 255
210 229 255
210 229 255
210 229 255
210 229 255
210 229 255
210 229 255
210 229 255
210 229 255
210 229 255
210 229 255
210 229 255
210 229 255
210 229 255
210 229 255
209 229 255
209 229 255
209 229 255
209 229 255
209 229 255
209 229 255
209 229 255
209 229 255
209 229 255
209 229 255
209 229 255
209 229 255
209 229 255
209 229 255
209 229 255
209 229 255
209 229 255
209 229 255
209 228 255
209 228 255
208 228 255
208 228 255
208 228 255
208 228 255
208 228 255
208 228 255
208 228 255
208 228 255
208 228 255
208 228 255
208 228 255
208 228 255
208 228 255
208 228 255
208 228 255
208 228 255
208 228 255
208 228 255
208 228 255
207 228 255
207 228 255
207 228 255
207 228 255
207 228 255
207 228 255
207 228 255
207 228 255
207 228 255
207 228 255
207 228 255
207 228 255
207 228 255
207 228 255
207 227 255
207 227 255
207 227 255
207 227 255
206 227 255
206 227 255
206 227 255
206 227 255
206 227 255
206 227 255
206 227 255
206 227 255
206 227 255
206 227 255
206 227 255
206 227 255
206 227 255
206 227 255
206 227 255
206 227 255
206 227 255
205 227 255
205 227 255
205 227 255
205 227 255
205 227 255
205 227 255
205 227 255
205 227 255
205 227 255
205 227 255
205 226 255
205 226 255
205 226 255
205 226 255
205 226 255
205 226 255
205 226 255
204 226 255
204 226 255
204 226 255
204 226 255
204 226 255
204 226 255
204 226 255
204 226 255
204 226 255
204 226 255
204 226 255
204 226 255
204 226 255
204 226 255
204 226 255
204 226 255
204 226 255
204 226 255
203 226 255
203 226 255
203 226 255
203 226 255
203 226 255
203 226 255
203 226 255
203 226 255
203 226 255
203 226 255
203 225 255
203 225 255
203 225 255
203 225 255
203 225 255
203 225 255
203 225 255
203 225 255
203 225 255
203 225 255
203 225 255
203 225 255
203 225 255
203 225 255
202 225 255
202 225 255
202 225 255
202 225 255
202 225 255
202 225 255
202 225 255
202 225 255
202 225 255
202 225 255
202 225 255
202 225 255
202 225 255
202 225 255
202 225 255
202 225 255
202 225 255
202 225 255
202 225 255
202 225 255
202 225 255
202 225 255
202 225 255
202 225 255
202 225 255
192 214 244
192 214 244
192 214 244
192 214 244
192 214 244
172 192 218
148 165 188
106 118 135
192 213 242
173 192 218
183 204 231
161 180 204
183 204 231
173 192 218
202 225 255
202 225 255
202 225 255
202 225 255
202 225 255
202 225 255
202 225 255
202 225 255
202 225 255
202 225 255
202 225 255
202 225 255
202 225 255
202 225 255
202 225 255
202 225 255
202 225 255
202 225 255
202 225 255
202 225 255
202 225 255
202 225 255
202 225 255
202 225 255
202 225 255
202 225 255
203 225 255
203 225 255
203 225 255
203 225 255
203 225 255
203 225 255
203 225 255
203 225 255
203 225 255
203 225 255
203 225 255
203 225 255
203 225 255
203 225 255
203 226 255
203 226 255
203 226 255
203 226 255
203 226 255
203 226 255
203 226 255
203 226 255
204 226 255
204 226 255
204 226 255
204 226 255
204 226 255
204 226 255
204 226 255
204 226 255
204 226 255
204 226 255
204 226 255
204 226 255
204 226 255
204 226 255
204 226 255
204 226 255
204 226 255
204 226 255
204 226 255
205 226 255
205 226 255
205 226 255
205 226 255
205 226 255
205 226 255
205 226 255
205 227 255
205 227 255
205 227 255
205 227 255
205 227 255
205 227 255
205 227 255
205 227 255
205 227 255
205 227 255
206 227 255
206 227 255
206 227 255
206 227 255
206 227 255
206 227 255
206 227 255
206 227 255
206 227 255
206 227 255
206 227 255
206 227 255
206 227 255
206 227 255
206 227 255
206 227 255
206 227 255
207 227 255
207 227 255
207 227 255
207 227 255
207 228 255
207 228 255
207 228 255
207 228 255
207 228 255
207 228 255
207 228 255
207 228 255
207 228 255
207 228 255
207 228 255
207 228 255
207 228 255
207 228 255
207 228 255
208 228 255
208 228 255
208 228 255
208 228 255
208 228 255
208 228 255
208 228 255
208 228 255
208 228 255
208 228 255
208 228 255
208 228 255
208 228 255
208 228 255
208 228 255
208 228 255
208 228 255
208 228 255
209 228 255
209 229 255
209 229 255
209 229 255
209 229 255
209 229 255
209 229 255
209 229 255
209 229 255
209 229 255
209 229 255
209 229 255
209 229 255
209 229 255
209 229 255
209 229 255
209 229 255
209 229 255
209 229 255
209 229 255
209 229 255
210 229 255
210 229 255
210 229 255
210 229 255
210 229 255
210 229 255
210 229 255
210 229 255
210 229 255
210 229 255
210 229 255
210 229 255
210 229 255
210 229 255
210 229 255
210 229 255
210 229 255
210 229 255
210 229 255
210 229 255
210 229 255
210 230 255
210 230 255
210 230 255
211 230 255
211 230 255
211 230 255
211 230 255
211 230 255
211 230 255
211 230 255
211 230 255
211 230 255
211 230 255
211 230 255
211 230 255
211 230 255
211 230 255
211 230 255
211 230 255
211 230 255
211 230 255
211 230 255
211 230 255
211 230 255
211 230 255
211 230 255
211 230 255
210 230 255
210 230 255
210 230 255
210 229 255
210 229 255
210 229 255
210 229 255
210 229 255
210 229 255
210 229 255
210 229 255
210 229 255
210 229 255
210 229 255
210 229 255
210 229 255
210 229 255
210 229 255
210 229 255
210 229 255
210 229 255
210 229 255
210 229 255
209 229 255
209 229 255
209 229 255
209 229 255
209 229 255
209 229 255
209 229 255
209 229 255
209 229 255
209 229 255
209 229 255
209 229 255
209 229 255
209 229 255
209 229 255
209 229 255
209 229 255
209 229 255
209 229 255
209 229 255
209 228 255
209 228 255
208 228 255
208 228 255
208 228 255
208 228 255
208 228 255
208 228 255
208 228 255
208 228 255
208 228 255
208 228 255
208 228 255
208 228 255
208 228 255
208 228 255
208 228 255
208 228 255
208 228 255
208 228 255
208 228 255
207 228 255
207 228 255
207 228 255
207 228 255
207 228 255
207 228 255
207 228 255
207 228 255
207 228 255
207 228 255
207 228 255
207 228 255
207 228 255
207 227 255
207 227 255
207 227 255
207 227 255
206 227 255
206 227 255
206 227 255
206 227 255
206 227 255
206 227 255
206 227 255
206 227 255
206 227 255
206 227 255
206 227 255
206 227 255
206 227 255
206 227 255
206 227 255
206 227 255
206 227 255
206 227 255
205 227 255
205 227 255
205 227 255
205 227 255
205 227 255
205 227 255
205 227 255
205 227 255
205 227 255
205 226 255
205 226 255
205 226 255
205 226 255
205 226 255
205 226 255
205 226 255
205 226 255
204 226 255
204 226 255
204 226 255
204 226 255
204 226 255
204 226 255
204 226 255
204 226 255
204 226 255
204 226 255
204 226 255
204 226 255
204 226 255
204 226 255
204 226 255
204 226 255
204 226 255
204 226 255
204 226 255
203 226 255
203 226 255
203 226 255
203 226 255
203 226 255
203 226 255
203 226 255
203 226 255
203 226 255
203 226 255
203 225 255
203 225 255
203 225 255
203 225 255
203 225 255
203 225 255
203 225 255
203 225 255
203 225 255
203 225 255
203 225 255
203 225 255
203 225 255
203 225 255
203 225 255
202 225 255
202 225 255
202 225 255
202 225 255
202 225 255
202 225 255
202 225 255
202 225 255
202 225 255
202 225 255
202 225 255
202 225 255
202 225 255
183 204 231
162 180 204
136 152 173
105 117 133
104 116 133
63 71 80
60 67 77
63 70 80
59 67 77
59 67 77
62 70 80
62 70 80
60 67 77
61 69 80
58 66 77
62 70 80
62 70 80
65 72 80
63 71 80
62 70 80
62 68 77
106 119 135
123 137 155
149 166 188
150 167 189
193 215 244
202 225 255
202 225 255
202 225 255
202 225 255
202 225 255
202 225 255
202 225 255
202 225 255
202 225 255
202 225 255
202 225 255
202 225 255
203 225 255
203 225 255
203 225 255
203 225 255
203 225 255
203 225 255
203 225 255
203 225 255
203 225 255
203 225 255
203 225 255
203 225 255
203 225 255
203 225 255
203 225 255
203 225 255
203 225 255
203 226 255
203 226 255
203 226 255
203 226 255
203 226 255
203 226 255
203 226 255
203 226 255
203 226 255
204 226 255
204 226 255
204 226 255
204 226 255
204 226 255
204 226 255
204 226 255
204 226 255
204 226 255
204 226 255
204 226 255
204 226 255
204 226 255
204 226 255
204 226 255
204 226 255
204 226 255
204 226 255
204 226 255
205 226 255
205 226 255
205 226 255
205 226 255
205 226 255
205 226 255
205 226 255
205 227 255
205 227 255
205 227 255
205 227 255
205 227 255
205 227 255
205 227 255
205 227 255
205 227 255
205 227 255
205 227 255
206 227 255
206 227 255
206 227 255
206 227 255
206 227 255
206 227 255
206 227 255
206 227 255
206 227 255
206 227 255
206 227 255
206 227 255
206 227 255
206 227 255
206 227 255
206 227 255
207 227 255
207 227 255
207 227 255
207 227 255
207 228 255
207 228 255
207 228 255
207 228 255
207 228 255
207 228 255
207 228 255
207 228 255
207 228 255
207 228 255
207 228 255
207 228 255
207 228 255
207 228 255
208 228 255
208 228 255
208 228 255
208 228 255
208 228 255
208 228 255
208 228 255
208 228 255
208 228 255
208 228 255
208 228 255
208 228 255
208 228 255
208 228 255
208 228 255
208 228 255
208 228 255
208 228 255
208 228 255
209 228 255
209 228 255
209 229 255
209 229 255
209 229 255
209 229 255
209 229 255
209 229 255
209 229 255
209 229 255
209 229 255
209 229 255
209 229 255
209 229 255
209 229 255
209 229 255
209 229 255
209 229 255
209 229 255
209 229 255
209 229 255
209 229 255
210 229 255
210 229 255
210 229 255
210 229 255
210 229 255
210 229 255
210 229 255
210 229 255
210 229 255
210 229 255
210 229 255
210 229 255
210 229 255
210 229 255
210 229 255
210 229 255
210 229 255
210 229 255
210 229 255
210 229 255
210 230 255
210 230 255
210 230 255
211 230 255
211 230 255
211 230 255
211 230 255
211 230 255
211 230 255
211 230 255
211 230 255
211 230 255
211 230 255
211 230 255
211 230 255
211 230 255
211 230 255
211 230 255
211 230 255
211 230 255
211 230 255
211 230 255
211 230 255
211 230 255
211 230 255
211 230 255
211 230 255
211 230 255
211 230 255
211 230 255
211 230 255
211 230 255
211 230 255
211 230 255
211 230 255
210 230 255
210 230 255
210 230 255
210 229 255
210 229 255
210 229 255
210 229 255
210 229 255
210 229 255
210 229 255
210 229 255
210 229 255
210 229 255
210 229 255
210 229 255
210 229 255
210 229 255
210 229 255
210 229 255
210 229 255
210 229 255
210 229 255
210 229 255
209 229 255
209 229 255
209 229 255
209 229 255
209 229 255
209 229 255
209 229 255
209 229 255
209 229 255
209 229 255
209 229 255
209 229 255
209 229 255
209 229 255
209 229 255
209 229 255
209 229 255
209 229 255
209 229 255
209 229 255
209 228 255
209 228 255
208 228 255
208 228 255
208 228 255
208 228 255
208 228 255
208 228 255
208 228 255
208 228 255
208 228 255
208 228 255
208 228 255
208 228 255
208 228 255
208 228 255
208 228 255
208 228 255
208 228 255
208 228 255
207 228 255
207 228 255
207 228 255
207 228 255
207 228 255
207 228 255
207 228 255
207 228 255
207 228 255
207 228 255
207 228 255
207 228 255
207 228 255
207 228 255
207 227 255
207 227 255
207 227 255
207 227 255
206 227 255
206 227 255
206 227 255
206 227 255
206 227 255
206 227 255
206 227 255
206 227 255
206 227 255
206 227 255
206 227 255
206 227 255
206 227 255
206 227 255
206 227 255
206 227 255
206 227 255
205 227 255
205 227 255
205 227 255
205 227 255
205 227 255
205 227 255
205 227 255
205 227 255
205 227 255
205 227 255
205 227 255
205 226 255
205 226 255
205 226 255
205 226 255
205 226 255
205 226 255
205 226 255
204 226 255
204 226 255
204 226 255
204 226 255
204 226 255
204 226 255
204 226 255
204 226 255
204 226 255
204 226 255
204 226 255
204 226 255
204 226 255
204 226 255
204 226 255
204 226 255
204 226 255
204 226 255
204 226 255
204 226 255
203 226 255
203 226 255
203 226 255
203 226 255
203 226 255
203 226 255
203 226 255
203 226 255
203 226 255
203 226 255
203 225 255
203 225 255
203 225 255
203 225 255
203 225 255
203 225 255
203 225 255
203 225 255
203 225 255
203 225 255
203 225 255
203 225 255
203 225 255
203 225 255
203 225 255
203 225 255
203 225 255
203 225 255
203 225 255
161 180 204
135 151 171
106 119 135
61 68 77
59 67 77
61 68 77
65 72 80
64 71 80
62 70 80
63 70 80
63 70 80
61 70 80
58 66 77
60 67 77
56 63 73
62 70 80
61 67 77
60 67 77
62 70 80
60 69 80
59 67 77
61 70 80
64 71 80
65 71 80
58 66 77
60 67 77
64 71 80
63 71 80
60 67 77
60 67 77
63 71 80
85 95 108
149 166 189
150 167 189
203 225 255
203 225 255
203 225 255
203 225 255
203 225 255
203 225 255
203 225 255
203 225 255
203 225 255
203 225 255
203 225 255
203 225 255
203 225 255
203 225 255
203 225 255
203 225 255
203 225 255
203 225 255
203 225 255
203 226 255
203 226 255
203 226 255
203 226 255
203 226 255
203 226 255
203 226 255
203 226 255
203 226 255
203 226 255
204 226 255
204 226 255
204 226 255
204 226 255
204 226 255
204 226 255
204 226 255
204 226 255
204 226 255
204 226 255
204 226 255
204 226 255
204 226 255
204 226 255
204 226 255
204 226 255
204 226 255
204 226 255
204 226 255
204 226 255
205 226 255
205 226 255
205 226 255
205 226 255
205 226 255
205 226 255
205 226 255
205 227 255
205 227 255
205 227 255
205 227 255
205 227 255
205 227 255
205 227 255
205 227 255
205 227 255
205 227 255
206 227 255
206 227 255
206 227 255
206 227 255
206 227 255
206 227 255
206 227 255
206 227 255
206 227 255
206 227 255
206 227 255
206 227 255
206 227 255
206 227 255
206 227 255
206 227 255
206 227 255
206 227 255
207 227 255
207 227 255
207 227 255
207 227 255
207 227 255
207 228 255
207 228 255
207 228 255
207 228 255
207 228 255
207 228 255
207 228 255
207 228 255
207 228 255
207 228 255
207 228 255
207 228 255
207 228 255
208 228 255
208 228 255
208 228 255
208 228 255
208 228 255
208 228 255
208 228 255
208 228 255
208 228 255
208 228 255
208 228 255
208 228 255
208 228 255
208 228 255
208 228 255
208 228 255
208 228 255
208 228 255
209 228 255
209 228 255
209 229 255
209 229 255
209 229 255
209 229 255
209 229 255
209 229 255
209 229 255
209 229 255
209 229 255
209 229 255
209 229 255
209 229 255
209 229 255
209 229 255
209 229 255
209 229 255
209 229 255
209 229 255
209 229 255
209 229 255
210 229 255
210 229 255
210 229 255
210 229 255
210 229 255
210 229 255
210 229 255
210 229 255
210 229 255
210 229 255
210 229 255
210 229 255
210 229 255
210 229 255
210 229 255
210 229 255
210 229 255
210 229 255
210 229 255
210 229 255
210 230 255
210 230 255
210 230 255
211 230 255
211 230 255
211 230 255
211 230 255
211 230 255
211 230 255
211 230 255
211 230 255
211 230 255
211 230 255
211 230 255
211 230 255
211 230 255
211 230 255
211 230 255
211 230 255
211 230 255
211 230 255
211 230 255
211 230 255
211 230 255
211 230 255
211 230 255
211 230 255
211 230 255
211 230 255
211 230 255
211 230 255
211 230 255
211 230 255
211 230 255
211 230 255
211 230 255
211 230 255
211 230 255
211 230 255
211 230 255
211 230 255
211 230 255
211 230 255
211 230 255
210 230 255
210 230 255
210 229 255
210 229 255
210 229 255
210 229 255
210 229 255
210 229 255
210 229 255
210 229 255
210 229 255
210 229 255
210 229 255
210 229 255
210 229 255
210 229 255
210 229 255
210 229 255
210 229 255
210 229 255
210 229 255
210 229 255
210 229 255
209 229 255
209 229 255
209 229 255
209 229 255
209 229 255
209 229 255
209 229 255
209 229 255
209 229 255
209 229 255
209 229 255
209 229 255
209 229 255
209 229 255
209 229 255
209 229 255
209 229 255
209 229 255
209 228 255
209 228 255
208 228 255
208 228 255
208 228 255
208 228 255
208 228 255
208 228 255
208 228 255
208 228 255
208 228 255
208 228 255
208 228 255
208 228 255
208 228 255
208 228 255
208 228 255
208 228 255
208 228 255
208 228 255
207 228 255
207 228 255
207 228 255
207 228 255
207 228 255
207 228 255
207 228 255
207 228 255
207 228 255
207 228 255
207 228 255
207 228 255
207 228 255
207 228 255
207 227 255
207 227 255
207 227 255
207 227 255
206 227 255
206 227 255
206 227 255
206 227 255
206 227 255
206 227 255
206 227 255
206 227 255
206 227 255
206 227 255
206 227 255
206 227 255
206 227 255
206 227 255
206 227 255
206 227 255
206 227 255
205 227 255
205 227 255
205 227 255
205 227 255
205 227 255
205 227 255
205 227 255
205 227 255
205 227 255
205 227 255
205 227 255
205 227 255
205 226 255
205 226 255
205 226 255
205 226 255
205 226 255
205 226 255
205 226 255
204 226 255
204 226 255
204 226 255
204 226 255
204 226 255
204 226 255
204 226 255
204 226 255
204 226 255
204 226 255
204 226 255
204 226 255
204 226 255
204 226 255
204 226 255
204 226 255
204 226 255
204 226 255
204 226 255
204 226 255
204 226 255
203 226 255
203 226 255
203 226 255
203 226 255
203 226 255
203 226 255
203 226 255
203 226 255
203 226 255
203 226 255
203 226 255
203 226 255
203 226 255
203 226 255
203 225 255
203 225 255
203 225 255
203 225 255
203 225 255
203 225 255
203 225 255
172 191 217
104 117 133
63 71 80
61 70 80
58 64 73
61 70 80
60 67 77
58 66 77
59 67 77
62 68 77
63 71 80
60 67 77
57 64 73
59 67 77
61 70 80
59 67 77
58 64 73
58 66 77
64 71 80
58 64 73
62 70 80
58 66 77
63 70 80
62 70 80
57 64 73
64 71 80
61 70 80
61 68 77
60 67 77
60 69 80
62 70 80
66 72 80
57 64 73
62 70 80
67 73 80
58 66 77
53 60 69
59 67 77
136 151 171
161 179 203
203 225 255
203 225 255
203 225 255
203 225 255
203 225 255
203 225 255
203 225 255
203 225 255
203 225 255
203 226 255
203 226 255
203 226 255
203 226 255
203 226 255
203 226 255
203 226 255
203 226 255
203 226 255
203 226 255
203 226 255
203 226 255
204 226 255
204 226 255
204 226 255
204 226 255
204 226 255
204 226 255
204 226 255
204 226 255
204 226 255
204 226 255
204 226 255
204 226 255
204 226 255
204 226 255
204 226 255
204 226 255
204 226 255
204 226 255
204 226 255
204 226 255
204 226 255
205 226 255
205 226 255
205 226 255
205 226 255
205 226 255
205 226 255
205 226 255
205 227 255
205 227 255
205 227 255
205 227 255
205 227 255
205 227 255
205 227 255
205 227 255
205 227 255
205 227 255
206 227 255
206 227 255
206 227 255
206 227 255
206 227 255
206 227 255
206 227 255
206 227 255
206 227 255
206 227 255
206 227 255
206 227 255
206 227 255
206 227 255
206 227 255
206 227 255
206 227 255
206 227 255
206 227 255
207 227 255
207 227 255
207 227 255
207 227 255
207 228 255
207 228 255
207 228 255
207 228 255
207 228 255
207 228 255
207 228 255
207 228 255
207 228 255
207 228 255
207 228 255
207 228 255
207 228 255
207 228 255
208 228 255
208 228 255
208 228 255
208 228 255
208 228 255
208 228 255
208 228 255
208 228 255
208 228 255
208 228 255
208 228 255
208 228 255
208 228 255
208 228 255
208 228 255
208 228 255
208 228 255
208 228 255
209 228 255
209 229 255
209 229 255
209 229 255
209 229 255
209 229 255
209 229 255
209 229 255
209 229 255
209 229 255
209 229 255
209 229 255
209 229 255
209 229 255
209 229 255
209 229 255
209 229 255
209 229 255
209 229 255
209 229 255
210 229 255
210 229 255
210 229 255
210 229 255
210 229 255
210 229 255
210 229 255
210 229 255
210 229 255
210 229 255
210 229 255
210 229 255
210 229 255
210 229 255
210 229 255
210 229 255
210 229 255
210 229 255
210 229 255
210 229 255
210 229 255
210 230 255
210 230 255
210 230 255
211 230 255
211 230 255
211 230 255
211 230 255
211 230 255
211 230 255
211 230 255
211 230 255
211 230 255
211 230 255
211 230 255
211 230 255
211 230 255
211 230 255
211 230 255
211 230 255
211 230 255
211 230 255
211 230 255
211 230 255
211 230 255
211 230 255
211 230 255
211 230 255
211 230 255
211 230 255
211 230 255
211 230 255
211 230 255
211 230 255
211 230 255
211 230 255
211 230 255
211 230 255
211 230 255
211 230 255
211 230 255
211 230 255
211 230 255
211 230 255
211 230 255
211 230 255
211 230 255
211 230 255
211 230 255
211 230 255
211 230 255
211 230 255
210 230 255
210 230 255
210 230 255
210 229 255
210 229 255
210 229 255
210 229 255
210 229 255
210 229 255
210 229 255
210 229 255
210 229 255
210 229 255
210 229 255
210 229 255
210 229 255
210 229 255
210 229 255
210 229 255
210 229 255
210 229 255
210 229 255
210 229 255
209 229 255
209 229 255
209 229 255
209 229 255
209 229 255
209 229 255
209 229 255
209 229 255
209 229 255
209 229 255
209 229 255
209 229 255
209 229 255
209 229 255
209 229 255
209 229 255
209 229 255
209 229 255
209 229 255
209 229 255
209 228 255
208 228 255
208 228 255
208 228 255
208 228 255
208 228 255
208 228 255
208 228 255
208 228 255
208 228 255
208 228 255
208 228 255
208 228 255
208 228 255
208 228 255
208 228 255
208 228 255
208 228 255
208 228 255
208 228 255
207 228 255
207 228 255
207 228 255
207 228 255
207 228 255
207 228 255
207 228 255
207 228 255
207 228 255
207 228 255
207 228 255
207 228 255
207 228 255
207 227 255
207 227 255
207 227 255
207 227 255
206 227 255
206 227 255
206 227 255
206 227 255
206 227 255
206 227 255
206 227 255
206 227 255
206 227 255
206 227 255
206 227 255
206 227 255
206 227 255
206 227 255
206 227 255
206 227 255
206 227 255
206 227 255
205 227 255
205 227 255
205 227 255
205 227 255
205 227 255
205 227 255
205 227 255
205 227 255
205 227 255
205 227 255
205 227 255
205 226 255
205 226 255
205 226 255
205 226 255
205 226 255
205 226 255
205 226 255
205 226 255
204 226 255
204 226 255
204 226 255
204 226 255
204 226 255
204 226 255
204 226 255
204 226 255
204 226 255
204 226 255
204 226 255
204 226 255
204 226 255
204 226 255
204 226 255
204 226 255
204 226 255
204 226 255
204 226 255
204 226 255
204 226 255
204 226 255
203 226 255
203 226 255
203 226 255
203 226 255
203 226 255
203 226 255
203 226 255
203 226 255
203 226 255
203 226 255
203 226 255
203 226 255
162 180 204
106 117 133
62 70 80
53 60 69
61 68 77
61 68 77
64 71 80
65 71 80
65 72 80
59 67 77
61 68 77
64 71 80
62 70 80
63 71 80
65 71 80
61 68 77
61 68 77
52 59 69
56 63 73
62 70 80
59 67 77
62 68 77
59 67 77
64 71 80
62 70 80
61 68 77
55 63 73
63 70 80
58 64 73
55 63 73
58 66 77
59 65 73
61 69 80
60 67 77
64 71 80
61 70 80
58 64 73
61 68 77
57 64 73
61 69 80
65 72 80
52 59 69
62 70 80
62 70 80
121 135 153
162 180 204
194 215 244
203 226 255
203 226 255
203 226 255
203 226 255
203 226 255
203 226 255
203 226 255
203 226 255
203 226 255
203 226 255
204 226 255
204 226 255
204 226 255
204 226 255
204 226 255
204 226 255
204 226 255
204 226 255
204 226 255
204 226 255
204 226 255
204 226 255
204 226 255
204 226 255
204 226 255
204 226 255
204 226 255
204 226 255
204 226 255
204 226 255
204 226 255
204 226 255
204 226 255
204 226 255
205 226 255
205 226 255
205 226 255
205 226 255
205 226 255
205 226 255
205 226 255
205 227 255
205 227 255
205 227 255
205 227 255
205 227 255
205 227 255
205 227 255
205 227 255
205 227 255
205 227 255
205 227 255
206 227 255
206 227 255
206 227 255
206 227 255
206 227 255
206 227 255
206 227 255
206 227 255
206 227 255
206 227 255
206 227 255
206 227 255
206 227 255
206 227 255
206 227 255
206 227 255
206 227 255
206 227 255
207 227 255
207 227 255
207 227 255
207 227 255
207 228 255
207 228 255
207 228 255
207 228 255
207 228 255
207 228 255
207 228 255
207 228 255
207 228 255
207 228 255
207 228 255
207 228 255
207 228 255
207 228 255
208 228 255
208 228 255
208 228 255
208 228 255
208 228 255
208 228 255
208 228 255
208 228 255
208 228 255
208 228 255
208 228 255
208 228 255
208 228 255
208 228 255
208 228 255
208 228 255
208 228 255
208 228 255
209 228 255
209 228 255
209 229 255
209 229 255
209 229 255
209 229 255
209 229 255
209 229 255
209 229 255
209 229 255
209 229 255
209 229 255
209 229 255
209 229 255
209 229 255
209 229 255
209 229 255
209 229 255
209 229 255
209 229 255
209 229 255
210 229 255
210 229 255
210 229 255
210 229 255
210 229 255
210 229 255
210 229 255
210 229 255
210 229 255
210 229 255
210 229 255
210 229 255
210 229 255
210 229 255
210 229 255
210 229 255
210 229 255
210 229 255
210 229 255
210 229 255
210 230 255
210 230 255
211 230 255
211 230 255
211 230 255
211 230 255
211 230 255
211 230 255
211 230 255
211 230 255
211 230 255
211 230 255
211 230 255
211 230 255
211 230 255
211 230 255
211 230 255
211 230 255
211 230 255
211 230 255
211 230 255
211 230 255
211 230 255
211 230 255
211 230 255
211 230 255
211 230 255
211 230 255
211 230 255
212 230 255
212 230 255
212 230 255
212 230 255
211 230 255
211 230 255
211 230 255
211 230 255
211 230 255
211 230 255
211 230 255
211 230 255
211 230 255
211 230 255
211 230 255
211 230 255
211 230 255
211 230 255
211 230 255
211 230 255
211 230 255
211 230 255
211 230 255
211 230 255
211 230 255
211 230 255
211 230 255
211 230 255
211 230 255
211 230 255
210 230 255
210 230 255
210 230 255
210 229 255
210 229 255
210 229 255
210 229 255
210 229 255
210 229 255
210 229 255
210 229 255
210 229 255
210 229 255
210 229 255
210 229 255
210 229 255
210 229 255
210 229 255
210 229 255
210 229 255
210 229 255
210 229 255
210 229 255
209 229 255
209 229 255
209 229 255
209 229 255
209 229 255
209 229 255
209 229 255
209 229 255
209 229 255
209 229 255
209 229 255
209 229 255
209 229 255
209 229 255
209 229 255
209 229 255
209 229 255
209 229 255
209 229 255
209 228 255
208 228 255
208 228 255
208 228 255
208 228 255
208 228 255
208 228 255
208 228 255
208 228 255
208 228 255
208 228 255
208 228 255
208 228 255
208 228 255
208 228 255
208 228 255
208 228 255
208 228 255
208 228 255
208 228 255
207 228 255
207 228 255
207 228 255
207 228 255
207 228 255
207 228 255
207 228 255
207 228 255
207 228 255
207 228 255
207 228 255
207 228 255
207 228 255
207 228 255
207 227 255
207 227 255
207 227 255
207 227 255
207 227 255
206 227 255
206 227 255
206 227 255
206 227 255
206 227 255
206 227 255
206 227 255
206 227 255
206 227 255
206 227 255
206 227 255
206 227 255
206 227 255
206 227 255
206 227 255
206 227 255
206 227 255
205 227 255
205 227 255
205 227 255
205 227 255
205 227 255
205 227 255
205 227 255
205 227 255
205 227 255
205 227 255
205 227 255
205 227 255
205 226 255
205 226 255
205 226 255
205 226 255
205 226 255
205 226 255
204 226 255
204 226 255
204 226 255
204 226 255
204 226 255
204 226 255
204 226 255
204 226 255
204 226 255
204 226 255
204 226 255
204 226 255
204 226 255
204 226 255
204 226 255
204 226 255
204 226 255
204 226 255
204 226 255
204 226 255
204 226 255
204 226 255
204 226 255
204 226 255
204 226 255
204 226 255
203 226 255
203 226 255
162 180 204
122 135 153
63 70 80
59 66 77
60 67 77
62 70 80
54 60 69
66 72 80
63 69 77
60 67 77
55 61 69
59 67 77
59 67 77
55 63 73
57 64 73
54 60 69
57 64 73
58 64 73
62 70 80
60 67 77
62 70 80
59 67 77
53 60 69
60 67 77
60 67 77
54 60 69
52 59 69
58 64 73
59 66 77
64 71 80
64 70 77
55 61 69
62 68 77
64 71 80
59 65 73
58 66 77
62 70 80
60 67 77
62 70 80
56 63 73
62 68 77
66 72 80
61 68 77
64 71 80
55 63 73
64 71 80
63 70 80
56 63 73
60 67 77
65 71 80
150 167 189
194 215 244
203 226 255
204 226 255
204 226 255
204 226 255
204 226 255
204 226 255
204 226 255
204 226 255
204 226 255
204 226 255
204 226 255
204 226 255
204 226 255
204 226 255
204 226 255
204 226 255
204 226 255
204 226 255
204 226 255
204 226 255
204 226 255
204 226 255
204 226 255
204 226 255
204 226 255
204 226 255
204 226 255
205 226 255
205 226 255
205 226 255
205 226 255
205 226 255
205 226 255
205 226 255
205 227 255
205 227 255
205 227 255
205 227 255
205 227 255
205 227 255
205 227 255
205 227 255
205 227 255
205 227 255
205 227 255
205 227 255
206 227 255
206 227 255
206 227 255
206 227 255
206 227 255
206 227 255
206 227 255
206 227 255
206 227 255
206 227 255
206 227 255
206 227 255
206 227 255
206 227 255
206 227 255
206 227 255
206 227 255
206 227 255
207 227 255
207 227 255
207 227 255
207 227 255
207 227 255
207 228 255
207 228 255
207 228 255
207 228 255
207 228 255
207 228 255
207 228 255
207 228 255
207 228 255
207 228 255
207 228 255
207 228 255
207 228 255
208 228 255
208 228 255
208 228 255
208 228 255
208 228 255
208 228 255
208 228 255
208 228 255
208 228 255
208 228 255
208 228 255
208 228 255
208 228 255
208 228 255
208 228 255
208 228 255
208 228 255
208 228 255
209 228 255
209 228 255
209 229 255
209 229 255
209 229 255
209 229 255
209 229 255
209 229 255
209 229 255
209 229 255
209 229 255
209 229 255
209 229 255
209 229 255
209 229 255
209 229 255
209 229 255
209 229 255
209 229 255
209 229 255
209 229 255
210 229 255
210 229 255
210 229 255
210 229 255
210 229 255
210 229 255
210 229 255
210 229 255
210 229 255
210 229 255
210 229 255
210 229 255
210 229 255
210 229 255
210 229 255
210 229 255
210 229 255
210 229 255
210 229 255
210 229 255
210 230 255
210 230 255
210 230 255
211 230 255
211 230 255
211 230 255
211 230 255
211 230 255
211 230 255
211 230 255
211 230 255
211 230 255
211 230 255
211 230 255
211 230 255
211 230 255
211 230 255
211 230 255
211 230 255
211 230 255
211 230 255
211 230 255
211 230 255
211 230 255
211 230 255
211 230 255
211 230 255
211 230 255
211 230 255
212 230 255
212 230 255
212 230 255
212 230 255
212 230 255
212 230 255
212 230 255
212 230 255
212 230 255
212 230 255
212 230 255
212 230 255
212 230 255
211 230 255
211 230 255
211 230 255
211 230 255
211 230 255
211 230 255
211 230 255
211 230 255
211 230 255
211 230 255
211 230 255
211 230 255
211 230 255
211 230 255
211 230 255
211 230 255
211 230 255
211 230 255
211 230 255
211 230 255
211 230 255
211 230 255
211 230 255
211 230 255
211 230 255
211 230 255
210 230 255
210 230 255
210 229 255
210 229 255
210 229 255
210 229 255
210 229 255
210 229 255
210 229 255
210 229 255
210 229 255
210 229 255
210 229 255
210 229 255
210 229 255
210 229 255
210 229 255
210 229 255
210 229 255
210 229 255
210 229 255
210 229 255
209 229 255
209 229 255
209 229 255
209 229 255
209 229 255
209 229 255
209 229 255
209 229 255
209 229 255
209 229 255
209 229 255
209 229 255
209 229 255
209 229 255
209 229 255
209 229 255
209 229 255
209 229 255
209 228 255
209 228 255
208 228 255
208 228 255
208 228 255
208 228 255
208 228 255
208 228 255
208 228 255
208 228 255
208 228 255
208 228 255
208 228 255
208 228 255
208 228 255
208 228 255
208 228 255
208 228 255
208 228 255
208 228 255
208 228 255
207 228 255
207 228 255
207 228 255
207 228 255
207 228 255
207 228 255
207 228 255
207 228 255
207 228 255
207 228 255
207 228 255
207 228 255
207 228 255
207 228 255
207 227 255
207 227 255
207 227 255
207 227 255
206 227 255
206 227 255
206 227 255
206 227 255
206 227 255
206 227 255
206 227 255
206 227 255
206 227 255
206 227 255
206 227 255
206 227 255
206 227 255
206 227 255
206 227 255
206 227 255
206 227 255
206 227 255
206 227 255
205 227 255
205 227 255
205 227 255
205 227 255
205 227 255
205 227 255
205 227 255
205 227 255
205 227 255
205 227 255
205 227 255
205 227 255
205 226 255
205 226 255
205 226 255
205 226 255
205 226 255
205 226 255
205 226 255
204 226 255
204 226 255
204 226 255
204 226 255
204 226 255
204 226 255
204 226 255
204 226 255
204 226 255
204 226 255
204 226 255
204 226 255
204 226 255
204 226 255
204 226 255
204 226 255
204 226 255
204 226 255
204 226 255
204 226 255
174 193 218
137 152 171
64 69 77
52 59 69
62 70 80
63 70 80
60 67 77
54 60 69
60 67 77
60 67 77
63 71 80
57 64 73
59 67 77
60 67 77
58 66 77
62 70 80
56 61 69
59 67 77
61 69 80
59 66 77
60 67 77
59 69 80
59 67 77
60 67 77
58 66 77
64 71 80
56 63 73
60 67 77
60 67 77
60 67 77
61 69 80
57 64 73
51 59 69
59 67 77
61 68 77
61 69 80
55 63 72
58 66 77
59 67 77
61 68 77
63 70 80
57 66 77
59 67 77
60 67 77
59 67 77
62 68 77
61 68 77
61 68 77
60 67 77
59 67 77
62 69 77
62 70 80
56 63 73
62 68 77
87 96 108
204 226 255
204 226 255
204 226 255
204 226 255
204 226 255
204 226 255
204 226 255
204 226 255
204 226 255
204 226 255
204 226 255
204 226 255
204 226 255
204 226 255
204 226 255
204 226 255
204 226 255
204 226 255
204 226 255
204 226 255
205 226 255
205 226 255
205 226 255
205 226 255
205 226 255
205 226 255
205 226 255
205 226 255
205 226 255
205 226 255
205 227 255
205 227 255
205 227 255
205 227 255
205 227 255
205 227 255
205 227 255
205 227 255
205 227 255
205 227 255
206 227 255
206 227 255
206 227 255
206 227 255
206 227 255
206 227 255
206 227 255
206 227 255
206 227 255
206 227 255
206 227 255
206 227 255
206 227 255
206 227 255
206 227 255
206 227 255
206 227 255
206 227 255
206 227 255
207 227 255
207 227 255
207 227 255
207 227 255
207 227 255
207 228 255
207 228 255
207 228 255
207 228 255
207 228 255
207 228 255
207 228 255
207 228 255
207 228 255
207 228 255
207 228 255
207 228 255
207 228 255
208 228 255
208 228 255
208 228 255
208 228 255
208 228 255
208 228 255
208 228 255
208 228 255
208 228 255
208 228 255
208 228 255
208 228 255
208 228 255
208 228 255
208 228 255
208 228 255
208 228 255
208 228 255
209 228 255
209 228 255
209 229 255
209 229 255
209 229 255
209 229 255
209 229 255
209 229 255
209 229 255
209 229 255
209 229 255
209 229 255
209 229 255
209 229 255
209 229 255
209 229 255
209 229 255
209 229 255
209 229 255
209 229 255
209 229 255
210 229 255
210 229 255
210 229 255
210 229 255
210 229 255
210 229 255
210 229 255
210 229 255
210 229 255
210 229 255
210 229 255
210 229 255
210 229 255
210 229 255
210 229 255
210 229 255
210 229 255
210 229 255
210 229 255
210 229 255
210 230 255
210 230 255
210 230 255
211 230 255
211 230 255
211 230 255
211 230 255
211 230 255
211 230 255
211 230 255
211 230 255
211 230 255
211 230 255
211 230 255
211 230 255
211 230 255
211 230 255
211 230 255
211 230 255
211 230 255
211 230 255
211 230 255
211 230 255
211 230 255
211 230 255
211 230 255
211 230 255
211 230 255
212 230 255
212 230 255
212 230 255
212 230 255
212 230 255
212 230 255
212 230 255
212 230 255
212 230 255
212 230 255
212 230 255
212 230 255
212 230 255
212 230 255
212 230 255
212 230 255
212 230 255
212 230 255
212 230 255
212 230 255
212 230 255
212 230 255
211 230 255
211 230 255
211 230 255
211 230 255
211 230 255
211 230 255
211 230 255
211 230 255
211 230 255
211 230 255
211 230 255
211 230 255
211 230 255
211 230 255
211 230 255
211 230 255
211 230 255
211 230 255
211 230 255
211 230 255
211 230 255
211 230 255
211 230 255
211 230 255
211 230 255
210 230 255
210 230 255
210 229 255
210 229 255
210 229 255
210 229 255
210 229 255
210 229 255
210 229 255
210 229 255
210 229 255
210 229 255
210 229 255
210 229 255
210 229 255
210 229 255
210 229 255
210 229 255
210 229 255
210 229 255
210 229 255
210 229 255
209 229 255
209 229 255
209 229 255
209 229 255
209 229 255
209 229 255
209 229 255
209 229 255
209 229 255
209 229 255
209 229 255
209 229 255
209 229 255
209 229 255
209 229 255
209 229 255
209 229 255
209 229 255
209 229 255
209 229 255
209 228 255
208 228 255
208 228 255
208 228 255
208 228 255
208 228 255
208 228 255
208 228 255
208 228 255
208 228 255
208 228 255
208 228 255
208 228 255
208 228 255
208 228 255
208 228 255
208 228 255
208 228 255
208 228 255
208 228 255
207 228 255
207 228 255
207 228 255
207 228 255
207 228 255
207 228 255
207 228 255
207 228 255
207 228 255
207 228 255
207 228 255
207 228 255
207 228 255
207 228 255
207 227 255
207 227 255
207 227 255
207 227 255
206 227 255
206 227 255
206 227 255
206 227 255
206 227 255
206 227 255
206 227 255
206 227 255
206 227 255
206 227 255
206 227 255
206 227 255
206 227 255
206 227 255
206 227 255
206 227 255
206 227 255
206 227 255
206 227 255
205 227 255
205 227 255
205 227 255
205 227 255
205 227 255
205 227 255
205 227 255
205 227 255
205 227 255
205 227 255
205 227 255
205 227 255
205 226 255
205 226 255
205 226 255
205 226 255
205 226 255
205 226 255
205 226 255
205 226 255
204 226 255
204 226 255
204 226 255
204 226 255
204 226 255
204 226 255
204 226 255
204 226 255
204 226 255
204 226 255
204 226 255
204 226 255
204 226 255
150 166 188
124 137 155
56 63 73
63 70 80
58 66 77
59 66 77
60 69 80
62 70 80
62 68 77
63 71 80
62 68 77
64 71 80
55 63 73
57 64 73
57 64 73
53 60 69
51 57 64
55 61 69
60 67 77
61 68 77
55 63 73
62 70 80
61 70 80
65 72 80
62 70 80
61 68 77
61 68 77
59 65 73
63 70 80
60 67 77
60 67 77
58 66 77
64 71 80
55 61 69
61 68 77
64 71 80
60 69 80
53 60 69
58 64 73
61 68 77
62 70 80
56 63 73
65 72 80
61 66 73
63 70 80
62 70 80
59 67 77
60 67 77
63 71 80
52 59 69
63 71 80
63 69 77
59 65 73
63 71 80
50 56 64
64 71 80
62 70 80
59 67 77
87 97 111
149 166 188
204 226 255
204 226 255
204 226 255
204 226 255
204 226 255
204 226 255
204 226 255
204 226 255
204 226 255
204 226 255
204 226 255
204 226 255
205 226 255
205 226 255
205 226 255
205 226 255
205 226 255
205 226 255
205 226 255
205 226 255
205 226 255
205 227 255
205 227 255
205 227 255
205 227 255
205 227 255
205 227 255
205 227 255
205 227 255
205 227 255
205 227 255
205 227 255
205 227 255
206 227 255
206 227 255
206 227 255
206 227 255
206 227 255
206 227 255
206 227 255
206 227 255
206 227 255
206 227 255
206 227 255
206 227 255
206 227 255
206 227 255
206 227 255
206 227 255
206 227 255
206 227 255
206 227 255
207 227 255
207 227 255
207 227 255
207 227 255
207 227 255
207 228 255
207 228 255
207 228 255
207 228 255
207 228 255
207 228 255
207 228 255
207 228 255
207 228 255
207 228 255
207 228 255
207 228 255
207 228 255
207 228 255
208 228 255
208 228 255
208 228 255
208 228 255
208 228 255
208 228 255
208 228 255
208 228 255
208 228 255
208 228 255
208 228 255
208 228 255
208 228 255
208 228 255
208 228 255
208 228 255
208 228 255
209 228 255
208 228 255
209 228 255
209 229 255
209 229 255
209 229 255
209 229 255
209 229 255
209 229 255
209 229 255
209 229 255
209 229 255
209 229 255
209 229 255
209 229 255
209 229 255
209 229 255
209 229 255
209 229 255
209 229 255
209 229 255
210 229 255
210 229 255
210 229 255
210 229 255
210 229 255
210 229 255
210 229 255
210 229 255
210 229 255
210 229 255
210 229 255
210 229 255
210 229 255
210 229 255
210 229 255
210 229 255
210 229 255
210 229 255
210 229 255
210 229 255
210 230 255
210 230 255
211 230 255
211 230 255
211 230 255
211 230 255
211 230 255
211 230 255
211 230 255
211 230 255
211 230 255
211 230 255
211 230 255
211 230 255
211 230 255
211 230 255
211 230 255
211 230 255
211 230 255
211 230 255
211 230 255
211 230 255
211 230 255
211 230 255
211 230 255
211 230 255
211 230 255
211 230 255
212 230 255
212 230 255
212 230 255
212 230 255
212 230 255
212 230 255
212 230 255
212 230 255
212 230 255
212 230 255
212 230 255
212 230 255
212 230 255
212 230 255
212 230 255
212 230 255
212 230 255
212 230 255
212 230 255
212 230 255
212 230 255
212 230 255
212 230 255
212 230 255
212 230 255
212 230 255
212 230 255
212 230 255
212 230 255
212 230 255
212 230 255
211 230 255
211 230 255
211 230 255
211 230 255
211 230 255
211 230 255
211 230 255
211 230 255
211 230 255
211 230 255
211 230 255
211 230 255
211 230 255
211 230 255
211 230 255
211 230 255
211 230 255
211 230 255
211 230 255
211 230 255
211 230 255
211 230 255
211 230 255
211 230 255
210 230 255
210 230 255
210 230 255
210 229 255
210 229 255
210 229 255
210 229 255
210 229 255
210 229 255
210 229 255
210 229 255
210 229 255
210 229 255
210 229 255
210 229 255
210 229 255
210 229 255
210 229 255
210 229 255
210 229 255
210 229 255
210 229 255
210 229 255
209 229 255
209 229 255
209 229 255
209 229 255
209 229 255
209 229 255
209 229 255
209 229 255
209 229 255
209 229 255
209 229 255
209 229 255
209 229 255
209 229 255
209 229 255
209 229 255
209 229 255
209 229 255
209 229 255
209 228 255
208 228 255
208 228 255
208 228 255
208 228 255
208 228 255
208 228 255
208 228 255
208 228 255
208 228 255
208 228 255
208 228 255
208 228 255
208 228 255
208 228 255
208 228 255
208 228 255
208 228 255
208 228 255
208 228 255
207 228 255
207 228 255
207 228 255
207 228 255
207 228 255
207 228 255
207 228 255
207 228 255
207 228 255
207 228 255
207 228 255
207 228 255
207 228 255
207 228 255
207 227 255
207 227 255
207 227 255
207 227 255
206 227 255
206 227 255
206 227 255
206 227 255
206 227 255
206 227 255
206 227 255
206 227 255
206 227 255
206 227 255
206 227 255
206 227 255
206 227 255
206 227 255
206 227 255
206 227 255
206 227 255
206 227 255
206 227 255
206 227 255
205 227 255
205 227 255
205 227 255
205 227 255
205 227 255
205 227 255
205 227 255
205 227 255
205 227 255
205 227 255
205 227 255
205 227 255
205 227 255
205 226 255
205 226 255
205 226 255
205 226 255
205 226 255
205 226 255
205 226 255
205 226 255
205 226 255
204 226 255
204 226 255
204 226 255
204 226 255
204 226 255
107 119 135
61 70 80
61 68 77
60 67 77
63 71 80
63 71 80
53 60 69
62 70 80
57 64 73
64 71 80
62 70 80
60 67 77
53 60 69
59 67 77
63 70 80
64 71 80
63 70 80
61 68 77
62 68 77
59 65 73
58 64 73
58 66 77
64 71 80
62 70 80
57 64 73
57 64 73
55 63 73
53 60 69
61 68 77
61 68 77
59 67 77
59 67 77
58 65 73
59 67 77
51 59 69
62 70 80
58 64 73
61 68 77
53 60 69
56 63 73
61 68 77
47 52 60
60 67 77
58 64 73
57 64 73
55 62 73
61 70 80
59 67 77
63 71 80
59 65 73
62 70 80
60 67 77
64 71 80
59 67 77
62 70 80
63 69 77
57 64 73
60 67 77
64 71 80
63 71 80
63 71 80
57 66 77
175 193 218
204 226 255
204 226 255
204 226 255
204 226 255
204 226 255
205 226 255
205 226 255
205 226 255
205 226 255
205 226 255
205 226 255
205 226 255
205 226 255
205 226 255
205 227 255
205 227 255
205 227 255
205 227 255
205 227 255
205 227 255
205 227 255
205 227 255
205 227 255
205 227 255
205 227 255
205 227 255
205 227 255
206 227 255
206 227 255
206 227 255
206 227 255
206 227 255
206 227 255
206 227 255
206 227 255
206 227 255
206 227 255
206 227 255
206 227 255
206 227 255
206 227 255
206 227 255
206 227 255
206 227 255
206 227 255
207 227 255
207 227 255
207 227 255
207 227 255
207 227 255
207 228 255
207 228 255
207 228 255
207 228 255
207 228 255
207 228 255
207 228 255
207 228 255
207 228 255
207 228 255
207 228 255
207 228 255
207 228 255
207 228 255
208 228 255
208 228 255
208 228 255
208 228 255
208 228 255
208 228 255
208 228 255
208 228 255
208 228 255
208 228 255
208 228 255
208 228 255
208 228 255
208 228 255
208 228 255
208 228 255
208 228 255
208 228 255
208 228 255
208 228 255
209 228 255
209 229 255
209 229 255
209 229 255
209 229 255
209 229 255
209 229 255
209 229 255
209 229 255
209 229 255
209 229 255
209 229 255
209 229 255
209 229 255
209 229 255
209 229 255
209 229 255
209 229 255
209 229 255
209 229 255
210 229 255
210 229 255
210 229 255
210 229 255
210 229 255
210 229 255
210 229 255
210 229 255
210 229 255
210 229 255
210 229 255
210 229 255
210 229 255
210 229 255
210 229 255
210 229 255
210 229 255
210 229 255
210 229 255
210 230 255
210 230 255
211 230 255
211 230 255
211 230 255
211 230 255
211 230 255
211 230 255
211 230 255
211 230 255
211 230 255
211 230 255
211 230 255
211 230 255
211 230 255
211 230 255
211 230 255
211 230 255
211 230 255
211 230 255
211 230 255
211 230 255
211 230 255
211 230 255
211 230 255
211 230 255
211 230 255
212 230 255
212 230 255
212 230 255
212 230 255
212 230 255
212 230 255
212 230 255
212 230 255
212 230 255
212 230 255
212 230 255
212 230 255
212 230 255
212 230 255
212 230 255
212 230 255
212 230 255
212 230 255
212 231 255
212 231 255
212 230 255
212 230 255
212 230 255
212 230 255
212 230 255
212 230 255
212 230 255
212 230 255
212 230 255
212 230 255
212 230 255
212 230 255
212 230 255
212 230 255
212 230 255
212 230 255
212 230 255
212 230 255
212 230 255
212 230 255
211 230 255
211 230 255
211 230 255
211 230 255
211 230 255
211 230 255
211 230 255
211 230 255
211 230 255
211 230 255
211 230 255
211 230 255
211 230 255
211 230 255
211 230 255
211 230 255
211 230 255
211 230 255
211 230 255
211 230 255
211 230 255
211 230 255
211 230 255
211 230 255
211 230 255
210 230 255
210 230 255
210 229 255
210 229 255
210 229 255
210 229 255
210 229 255
210 229 255
210 229 255
210 229 255
210 229 255
210 229 255
210 229 255
210 229 255
210 229 255
210 229 255
210 229 255
210 229 255
210 229 255
210 229 255
210 229 255
210 229 255
209 229 255
209 229 255
209 229 255
209 229 255
209 229 255
209 229 255
209 229 255
209 229 255
209 229 255
209 229 255
209 229 255
209 229 255
209 229 255
209 229 255
209 229 255
209 229 255
209 229 255
209 229 255
209 229 255
209 228 255
208 228 255
208 228 255
208 228 255
208 228 255
208 228 255
208 228 255
208 228 255
208 228 255
208 228 255
208 228 255
208 228 255
208 228 255
208 228 255
208 228 255
208 228 255
208 228 255
208 228 255
208 228 255
208 228 255
207 228 255
207 228 255
207 228 255
207 228 255
207 228 255
207 228 255
207 228 255
207 228 255
207 228 255
207 228 255
207 228 255
207 228 255
207 228 255
207 227 255
207 227 255
207 227 255
207 227 255
207 227 255
207 227 255
206 227 255
206 227 255
206 227 255
206 227 255
206 227 255
206 227 255
206 227 255
206 227 255
206 227 255
206 227 255
206 227 255
206 227 255
206 227 255
206 227 255
206 227 255
206 227 255
206 227 255
206 227 255
206 227 255
205 227 255
205 227 255
205 227 255
205 227 255
205 227 255
205 227 255
205 227 255
205 227 255
205 227 255
205 227 255
205 227 255
205 227 255
205 227 255
205 227 255
205 227 255
205 226 255
205 226 255
205 226 255
205 226 255
205 226 255
195 216 244
108 119 135
60 67 77
60 67 77
61 67 77
56 63 73
61 68 77
64 71 80
64 71 80
58 64 73
62 68 77
55 63 73
50 56 64
60 67 77
64 71 80
59 67 77
60 65 73
61 68 77
59 67 77
60 67 77
62 68 77
58 64 73
57 64 73
53 60 68
51 57 64
61 68 77
60 65 73
64 71 80
63 70 80
55 63 73
52 59 69
61 68 77
53 60 69
57 64 73
63 70 80
57 66 77
58 64 73
58 64 73
59 65 73
54 61 69
55 61 69
60 67 77
63 69 77
65 71 80
60 67 77
60 67 77
60 67 77
56 63 73
61 68 77
60 67 77
50 56 64
54 60 69
64 71 80
54 60 69
52 59 69
62 70 80
61 68 77
64 71 80
59 67 77
63 70 80
65 71 80
60 65 73
62 68 77
56 63 73
62 70 80
58 64 73
151 167 189
185 205 231
205 226 255
205 226 255
205 226 255
205 226 255
205 226 255
205 227 255
205 227 255
205 227 255
205 227 255
205 227 255
205 227 255
205 227 255
205 227 255
205 227 255
205 227 255
205 227 255
205 227 255
205 227 255
205 227 255
205 227 255
206 227 255
206 227 255
206 227 255
206 227 255
206 227 255
206 227 255
206 227 255
206 227 255
206 227 255
206 227 255
206 227 255
206 227 255
206 227 255
206 227 255
206 227 255
206 227 255
206 227 255
206 227 255
206 227 255
206 227 255
207 227 255
207 227 255
207 227 255
207 227 255
207 228 255
207 228 255
207 228 255
207 228 255
207 228 255
207 228 255
207 228 255
207 228 255
207 228 255
207 228 255
207 228 255
207 228 255
207 228 255
207 228 255
208 228 255
208 228 255
208 228 255
208 228 255
208 228 255
208 228 255
208 228 255
208 228 255
208 228 255
208 228 255
208 228 255
208 228 255
208 228 255
208 228 255
208 228 255
208 228 255
208 228 255
208 228 255
208 228 255
209 228 255
209 228 255
209 229 255
209 229 255
209 229 255
209 229 255
209 229 255
209 229 255
209 229 255
209 229 255
209 229 255
209 229 255
209 229 255
209 229 255
209 229 255
209 229 255
209 229 255
209 229 255
209 229 255
209 229 255
210 229 255
210 229 255
210 229 255
210 229 255
210 229 255
210 229 255
210 229 255
210 229 255
210 229 255
210 229 255
210 229 255
210 229 255
210 229 255
210 229 255
210 229 255
210 229 255
210 229 255
210 229 255
210 229 255
210 229 255
210 230 255
210 230 255
211 230 255
211 230 255
211 230 255
211 230 255
211 230 255
211 230 255
211 230 255
211 230 255
211 230 255
211 230 255
211 230 255
211 230 255
211 230 255
211 230 255
211 230 255
211 230 255
211 230 255
211 230 255
211 230 255
211 230 255
211 230 255
211 230 255
211 230 255
211 230 255
212 230 255
212 230 255
212 230 255
212 230 255
212 230 255
212 230 255
212 230 255
212 230 255
212 230 255
212 230 255
212 230 255
212 230 255
212 230 255
212 230 255
212 230 255
212 230 255
212 230 255
212 230 255
212 230 255
212 230 255
212 230 255
212 231 255
212 231 255
212 231 255
212 231 255
212 231 255
212 231 255
212 231 255
212 231 255
212 230 255
212 230 255
212 230 255
212 230 255
212 230 255
212 230 255
212 230 255
212 230 255
212 230 255
212 230 255
212 230 255
212 230 255
212 230 255
212 230 255
212 230 255
212 230 255
212 230 255
212 230 255
212 230 255
212 230 255
211 230 255
211 230 255
211 230 255
211 230 255
211 230 255
211 230 255
211 230 255
211 230 255
211 230 255
211 230 255
211 230 255
211 230 255
211 230 255
211 230 255
211 230 255
211 230 255
211 230 255
211 230 255
211 230 255
211 230 255
211 230 255
211 230 255
211 230 255
211 230 255
211 230 255
210 230 255
210 230 255
210 229 255
210 229 255
210 229 255
210 229 255
210 229 255
210 229 255
210 229 255
210 229 255
210 229 255
210 229 255
210 229 255
210 229 255
210 229 255
210 229 255
210 229 255
210 229 255
210 229 255
210 229 255
210 229 255
210 229 255
209 229 255
209 229 255
209 229 255
209 229 255
209 229 255
209 229 255
209 229 255
209 229 255
209 229 255
209 229 255
209 229 255
209 229 255
209 229 255
209 229 255
209 229 255
209 229 255
209 229 255
209 229 255
209 228 255
209 228 255
208 228 255
208 228 255
208 228 255
208 228 255
208 228 255
208 228 255
208 228 255
208 228 255
208 228 255
208 228 255
208 228 255
208 228 255
208 228 255
208 228 255
208 228 255
208 228 255
208 228 255
208 228 255
208 228 255
208 228 255
207 228 255
207 228 255
207 228 255
207 228 255
207 228 255
207 228 255
207 228 255
207 228 255
207 228 255
207 228 255
207 228 255
207 228 255
207 228 255
207 227 255
207 227 255
207 227 255
207 227 255
207 227 255
207 227 255
206 227 255
206 227 255
206 227 255
206 227 255
206 227 255
206 227 255
206 227 255
206 227 255
206 227 255
206 227 255
206 227 255
206 227 255
206 227 255
206 227 255
206 227 255
206 227 255
206 227 255
206 227 255
206 227 255
206 227 255
206 227 255
205 227 255
205 227 255
205 227 255
205 227 255
205 227 255
205 227 255
205 227 255
205 227 255
205 227 255
205 227 255
205 227 255
205 227 255
138 153 173
89 98 111
54 60 69
60 67 77
61 68 77
57 64 72
61 68 77
56 63 73
61 68 77
55 61 69
59 66 77
58 64 73
59 65 73
55 61 69
62 68 77
61 66 73
61 68 77
57 64 73
62 68 77
59 67 77
58 64 73
51 56 64
59 67 77
61 68 77
61 68 77
60 67 77
60 67 77
64 71 80
61 68 77
59 67 77
63 69 77
58 64 73
53 60 69
61 68 77
61 68 77
64 69 77
54 60 69
56 63 73
58 64 73
55 63 73
62 68 77
55 61 69
51 59 69
57 64 73
63 69 77
62 70 80
60 67 77
60 67 77
65 72 80
51 57 64
56 63 73
63 71 80
57 64 73
63 71 80
58 64 73
57 64 73
60 67 77
57 64 73
57 64 73
58 66 77
61 70 80
57 64 73
58 66 77
60 67 77
54 60 69
59 67 77
60 66 73
58 66 77
54 62 73
106 119 135
196 216 244
205 227 255
205 227 255
205 227 255
205 227 255
205 227 255
205 227 255
205 227 255
205 227 255
205 227 255
205 227 255
205 227 255
205 227 255
206 227 255
205 227 255
206 227 255
206 227 255
206 227 255
206 227 255
206 227 255
206 227 255
206 227 255
206 227 255
206 227 255
206 227 255
206 227 255
206 227 255
206 227 255
206 227 255
206 227 255
206 227 255
206 227 255
206 227 255
207 227 255
207 227 255
207 227 255
207 227 255
207 227 255
207 227 255
207 228 255
207 228 255
207 228 255
207 228 255
207 228 255
207 228 255
207 228 255
207 228 255
207 228 255
207 228 255
207 228 255
207 228 255
207 228 255
207 228 255
208 228 255
208 228 255
208 228 255
208 228 255
208 228 255
208 228 255
208 228 255
208 228 255
208 228 255
208 228 255
208 228 255
208 228 255
208 228 255
208 228 255
208 228 255
208 228 255
208 228 255
208 228 255
208 228 255
209 228 255
209 228 255
209 229 255
209 229 255
209 229 255
209 229 255
209 229 255
209 229 255
209 229 255
209 229 255
209 229 255
209 229 255
209 229 255
209 229 255
209 229 255
209 229 255
209 229 255
209 229 255
209 229 255
209 229 255
210 229 255
210 229 255
210 229 255
210 229 255
210 229 255
210 229 255
210 229 255
210 229 255
210 229 255
210 229 255
210 229 255
210 229 255
210 229 255
210 229 255
210 229 255
210 229 255
210 229 255
210 229 255
210 229 255
210 229 255
210 230 255
210 230 255
211 230 255
211 230 255
211 230 255
211 230 255
211 230 255
211 230 255
211 230 255
211 230 255
211 230 255
211 230 255
211 230 255
211 230 255
211 230 255
211 230 255
211 230 255
211 230 255
211 230 255
211 230 255
211 230 255
211 230 255
211 230 255
211 230 255
211 230 255
211 230 255
211 230 255
212 230 255
212 230 255
212 230 255
212 230 255
212 230 255
212 230 255
212 230 255
212 230 255
212 230 255
212 230 255
212 230 255
212 230 255
212 230 255
212 230 255
212 230 255
212 230 255
212 230 255
212 230 255
212 230 255
212 230 255
212 231 255
212 231 255
212 231 255
212 231 255
212 231 255
212 231 255
213 231 255
213 231 255
212 231 255
212 231 255
212 231 255
212 231 255
212 231 255
212 231 255
212 231 255
212 231 255
212 231 255
212 230 255
212 230 255
212 230 255
212 230 255
212 230 255
212 230 255
212 230 255
212 230 255
212 230 255
212 230 255
212 230 255
212 230 255
212 230 255
212 230 255
212 230 255
212 230 255
212 230 255
212 230 255
212 230 255
212 230 255
211 230 255
211 230 255
211 230 255
211 230 255
211 230 255
211 230 255
211 230 255
211 230 255
211 230 255
211 230 255
211 230 255
211 230 255
211 230 255
211 230 255
211 230 255
211 230 255
211 230 255
211 230 255
211 230 255
211 230 255
211 230 255
211 230 255
211 230 255
211 230 255
210 230 255
210 230 255
210 230 255
210 229 255
210 229 255
210 229 255
210 229 255
210 229 255
210 229 255
210 229 255
210 229 255
210 229 255
210 229 255
210 229 255
210 229 255
210 229 255
210 229 255
210 229 255
210 229 255
210 229 255
210 229 255
210 229 255
209 229 255
209 229 255
209 229 255
209 229 255
209 229 255
209 229 255
209 229 255
209 229 255
209 229 255
209 229 255
209 229 255
209 229 255
209 229 255
209 229 255
209 229 255
209 229 255
209 229 255
209 229 255
209 229 255
209 228 255
209 228 255
208 228 255
208 228 255
208 228 255
208 228 255
208 228 255
208 228 255
208 228 255
208 228 255
208 228 255
208 228 255
208 228 255
208 228 255
208 228 255
208 228 255
208 228 255
208 228 255
208 228 255
208 228 255
208 228 255
207 228 255
207 228 255
207 228 255
207 228 255
207 228 255
207 228 255
207 228 255
207 228 255
207 228 255
207 228 255
207 228 255
207 228 255
207 228 255
207 228 255
207 227 255
207 227 255
207 227 255
207 227 255
206 227 255
206 227 255
206 227 255
206 227 255
206 227 255
206 227 255
206 227 255
206 227 255
206 227 255
206 227 255
206 227 255
206 227 255
206 227 255
206 227 255
206 227 255
206 227 255
206 227 255
206 227 255
206 227 255
206 227 255
206 227 255
206 227 255
206 227 255
205 227 255
205 227 255
205 227 255
205 227 255
205 227 255
175 194 218
138 153 173
59 67 77
57 64 73
63 71 80
58 64 73
51 59 69
57 64 73
61 68 77
60 67 77
53 60 69
59 67 77
51 58 69
62 70 80
61 68 77
55 61 69
60 67 77
55 61 69
61 68 77
60 65 73
58 64 73
63 69 77
60 67 77
53 60 69
55 61 69
58 64 73
55 61 69
53 60 69
60 67 77
58 66 77
58 66 77
57 64 73
62 70 80
55 63 73
56 61 69
57 64 73
54 60 69
54 60 69
58 64 73
56 63 73
54 60 69
60 67 77
54 60 69
60 67 77
59 65 73
62 70 80
59 66 77
60 67 77
62 68 77
63 70 80
58 65 73
57 64 73
60 67 77
58 64 73
53 60 69
52 57 64
55 61 69
54 60 69
56 63 73
59 65 73
64 71 80
57 66 77
63 69 77
59 66 76
58 66 77
47 52 60
56 63 73
57 64 73
62 68 77
63 71 80
63 71 80
64 71 80
86 96 108
186 205 231
205 227 255
205 227 255
205 227 255
205 227 255
205 227 255
206 227 255
206 227 255
206 227 255
206 227 255
206 227 255
206 227 255
206 227 255
206 227 255
206 227 255
206 227 255
206 227 255
206 227 255
206 227 255
206 227 255
206 227 255
206 227 255
206 227 255
206 227 255
206 227 255
206 227 255
206 227 255
206 227 255
207 227 255
207 227 255
207 227 255
207 227 255
207 228 255
207 228 255
207 228 255
207 228 255
207 228 255
207 228 255
207 228 255
207 228 255
207 228 255
207 228 255
207 228 255
207 228 255
207 228 255
207 228 255
207 228 255
208 228 255
208 228 255
208 228 255
208 228 255
208 228 255
208 228 255
208 228 255
208 228 255
208 228 255
208 228 255
208 228 255
208 228 255
208 228 255
208 228 255
208 228 255
208 228 255
208 228 255
208 228 255
208 228 255
209 228 255
209 228 255
209 229 255
209 229 255
209 229 255
209 229 255
209 229 255
209 229 255
209 229 255
209 229 255
209 229 255
209 229 255
209 229 255
209 229 255
209 229 255
209 229 255
209 229 255
209 229 255
209 229 255
209 229 255
209 229 255
210 229 255
210 229 255
210 229 255
210 229 255
210 229 255
210 229 255
210 229 255
210 229 255
210 229 255
210 229 255
210 229 255
210 229 255
210 229 255
210 229 255
210 229 255
210 229 255
210 229 255
210 229 255
210 229 255
210 230 255
210 230 255
211 230 255
211 230 255
211 230 255
211 230 255
211 230 255
211 230 255
211 230 255
211 230 255
211 230 255
211 230 255
211 230 255
211 230 255
211 230 255
211 230 255
211 230 255
211 230 255
211 230 255
211 230 255
211 230 255
211 230 255
211 230 255
211 230 255
211 230 255
211 230 255
211 230 255
211 230 255
212 230 255
212 230 255
212 230 255
212 230 255
212 230 255
212 230 255
212 230 255
212 230 255
212 230 255
212 230 255
212 230 255
212 230 255
212 230 255
212 230 255
212 230 255
212 230 255
212 230 255
212 230 255
212 230 255
212 231 255
212 231 255
212 231 255
212 231 255
212 231 255
212 231 255
212 231 255
212 231 255
212 231 255
213 231 255
213 231 255
213 231 255
213 231 255
213 231 255
213 231 255
213 231 255
213 231 255
213 231 255
212 231 255
212 231 255
212 231 255
212 231 255
212 231 255
212 231 255
212 231 255
212 231 255
212 231 255
212 231 255
212 230 255
212 230 255
212 230 255
212 230 255
212 230 255
212 230 255
212 230 255
212 230 255
212 230 255
212 230 255
212 230 255
212 230 255
212 230 255
212 230 255
212 230 255
212 230 255
212 230 255
212 230 255
211 230 255
211 230 255
211 230 255
211 230 255
211 230 255
211 230 255
211 230 255
211 230 255
211 230 255
211 230 255
211 230 255
211 230 255
211 230 255
211 230 255
211 230 255
211 230 255
211 230 255
211 230 255
211 230 255
211 230 255
211 230 255
211 230 255
211 230 255
211 230 255
211 230 255
210 230 255
210 230 255
210 230 255
210 229 255
210 229 255
210 229 255
210 229 255
210 229 255
210 229 255
210 229 255
210 229 255
210 229 255
210 229 255
210 229 255
210 229 255
210 229 255
210 229 255
210 229 255
210 229 255
210 229 255
210 229 255
210 229 255
209 229 255
209 229 255
209 229 255
209 229 255
209 229 255
209 229 255
209 229 255
209 229 255
209 229 255
209 229 255
209 229 255
209 229 255
209 229 255
209 229 255
209 229 255
209 229 255
209 229 255
209 229 255
209 228 255
209 228 255
208 228 255
208 228 255
208 228 255
208 228 255
208 228 255
208 228 255
208 228 255
208 228 255
208 228 255
208 228 255
208 228 255
208 228 255
208 228 255
208 228 255
208 228 255
208 228 255
208 228 255
208 228 255
208 228 255
207 228 255
207 228 255
207 228 255
207 228 255
207 228 255
207 228 255
207 228 255
207 228 255
207 228 255
207 228 255
207 228 255
207 228 255
207 228 255
207 228 255
207 228 255
207 227 255
207 227 255
207 227 255
207 227 255
206 227 255
206 227 255
206 227 255
206 227 255
206 227 255
206 227 255
206 227 255
206 227 255
206 227 255
206 227 255
206 227 255
206 227 255
206 227 255
206 227 255
206 227 255
206 227 255
206 227 255
206 227 255
206 227 255
206 227 255
206 227 255
206 227 255
152 168 189
64 71 80
56 63 73
62 68 77
62 70 80
62 68 77
54 60 69
60 67 77
61 67 77
60 67 77
58 66 77
55 61 69
58 64 73
56 63 73
53 60 69
60 67 77
63 71 80
55 63 73
54 60 68
62 68 77
62 70 80
62 70 80
63 70 80
53 60 69
60 67 77
53 60 69
61 68 77
60 67 77
59 65 73
60 67 77
63 70 80
53 60 69
54 60 69
63 71 80
61 68 77
55 60 68
58 66 77
59 67 76
60 67 77
58 64 73
56 63 73
53 60 69
59 65 73
55 61 69
53 60 69
55 61 69
53 60 69
60 67 77
61 68 77
59 67 77
62 68 77
51 57 64
60 66 73
53 60 69
61 68 77
59 65 73
49 56 64
57 64 73
56 63 73
59 67 77
56 63 73
64 71 80
62 68 77
64 69 77
56 64 73
55 61 69
64 71 80
64 71 80
56 63 72
57 64 73
60 67 77
64 71 80
52 59 69
61 68 77
62 70 80
163 180 203
206 227 255
206 227 255
206 227 255
206 227 255
206 227 255
206 227 255
206 227 255
206 227 255
206 227 255
206 227 255
206 227 255
206 227 255
206 227 255
206 227 255
206 227 255
206 227 255
206 227 255
206 227 255
206 227 255
206 227 255
206 227 255
206 227 255
207 227 255
207 227 255
207 227 255
207 227 255
207 228 255
207 228 255
207 228 255
207 228 255
207 228 255
207 228 255
207 228 255
207 228 255
207 228 255
207 228 255
207 228 255
207 228 255
207 228 255
207 228 255
207 228 255
208 228 255
208 228 255
208 228 255
208 228 255
208 228 255
208 228 255
208 228 255
208 228 255
208 228 255
208 228 255
208 228 255
208 228 255
208 228 255
208 228 255
208 228 255
208 228 255
208 228 255
208 228 255
209 228 255
209 228 255
209 228 255
209 229 255
209 229 255
209 229 255
209 229 255
209 229 255
209 229 255
209 229 255
209 229 255
209 229 255
209 229 255
209 229 255
209 229 255
209 229 255
209 229 255
209 229 255
209 229 255
209 229 255
209 229 255
209 229 255
210 229 255
210 229 255
210 229 255
210 229 255
210 229 255
210 229 255
210 229 255
210 229 255
210 229 255
210 229 255
210 229 255
210 229 255
210 229 255
210 229 255
210 229 255
210 229 255
210 229 255
210 229 255
210 229 255
210 230 255
210 230 255
211 230 255
211 230 255
211 230 255
211 230 255
211 230 255
211 230 255
211 230 255
211 230 255
211 230 255
211 230 255
211 230 255
211 230 255
211 230 255
211 230 255
211 230 255
211 230 255
211 230 255
211 230 255
211 230 255
211 230 255
211 230 255
211 230 255
211 230 255
211 230 255
212 230 255
212 230 255
212 230 255
212 230 255
212 230 255
212 230 255
212 230 255
212 230 255
212 230 255
212 230 255
212 230 255
212 230 255
212 230 255
212 230 255
212 230 255
212 230 255
212 230 255
212 230 255
212 230 255
212 230 255
212 230 255
212 231 255
212 231 255
212 231 255
212 231 255
212 231 255
212 231 255
212 231 255
212 231 255
213 231 255
213 231 255
213 231 255
213 231 255
213 231 255
213 231 255
213 231 255
213 231 255
213 231 255
213 231 255
213 231 255
213 231 255
213 231 255
213 231 255
213 231 255
213 231 255
213 231 255
213 231 255
213 231 255
212 231 255
212 231 255
212 231 255
212 231 255
212 231 255
212 231 255
212 231 255
212 231 255
212 231 255
212 230 255
212 230 255
212 230 255
212 230 255
212 230 255
212 230 255
212 230 255
212 230 255
212 230 255
212 230 255
212 230 255
212 230 255
212 230 255
212 230 255
212 230 255
212 230 255
212 230 255
212 230 255
212 230 255
211 230 255
211 230 255
211 230 255
211 230 255
211 230 255
211 230 255
211 230 255
211 230 255
211 230 255
211 230 255
211 230 255
211 230 255
211 230 255
211 230 255
211 230 255
211 230 255
211 230 255
211 230 255
211 230 255
211 230 255
211 230 255
211 230 255
211 230 255
211 230 255
210 230 255
210 230 255
210 230 255
210 229 255
210 229 255
210 229 255
210 229 255
210 229 255
210 229 255
210 229 255
210 229 255
210 229 255
210 229 255
210 229 255
210 229 255
210 229 255
210 229 255
210 229 255
210 229 255
210 229 255
210 229 255
210 229 255
209 229 255
209 229 255
209 229 255
209 229 255
209 229 255
209 229 255
209 229 255
209 229 255
209 229 255
209 229 255
209 229 255
209 229 255
209 229 255
209 229 255
209 229 255
209 229 255
209 229 255
209 229 255
209 229 255
208 228 255
208 228 255
208 228 255
208 228 255
208 228 255
208 228 255
208 228 255
208 228 255
208 228 255
208 228 255
208 228 255
208 228 255
208 228 255
208 228 255
208 228 255
208 228 255
208 228 255
208 228 255
208 228 255
208 228 255
208 228 255
207 228 255
207 228 255
207 228 255
207 228 255
207 228 255
207 228 255
207 228 255
207 228 255
207 228 255
207 228 255
207 228 255
207 228 255
207 228 255
207 228 255
207 228 255
207 227 255
207 227 255
207 227 255
207 227 255
207 227 255
206 227 255
206 227 255
206 227 255
206 227 255
206 227 255
206 227 255
206 227 255
206 227 255
206 227 255
206 227 255
206 227 255
206 227 255
206 227 255
206 227 255
175 194 218
106 117 133
61 68 77
59 65 73
62 70 80
65 71 80
61 68 77
57 64 73
55 63 73
63 70 80
60 67 77
51 57 64
62 69 77
61 68 77
61 68 77
57 64 73
57 64 73
63 70 80
57 64 73
57 64 73
55 61 69
59 65 73
59 65 73
60 67 77
65 72 80
64 71 80
64 71 80
57 64 73
46 52 60
55 61 69
59 67 77
59 66 77
59 67 77
60 67 77
59 65 73
65 71 80
58 64 73
60 69 80
54 60 69
53 60 69
57 64 73
63 70 80
63 69 77
61 67 77
55 61 69
59 67 77
50 56 64
60 67 77
54 60 69
53 60 69
57 64 72
60 67 77
62 70 80
53 60 69
53 59 68
49 53 60
58 64 73
59 65 72
60 67 77
61 68 77
63 69 77
52 57 64
57 64 73
58 64 73
58 66 77
57 64 73
59 65 73
64 71 80
59 67 77
58 66 77
63 71 80
61 69 80
60 67 77
60 67 77
63 69 77
61 68 77
60 65 73
53 60 69
107 118 133
197 217 244
206 227 255
206 227 255
206 227 255
206 227 255
206 227 255
206 227 255
206 227 255
206 227 255
206 227 255
206 227 255
206 227 255
206 227 255
206 227 255
206 227 255
207 227 255
207 227 255
207 227 255
207 227 255
207 227 255
207 228 255
207 228 255
207 228 255
207 228 255
207 228 255
207 228 255
207 228 255
207 228 255
207 228 255
207 228 255
207 228 255
207 228 255
207 228 255
207 228 255
207 228 255
208 228 255
208 228 255
208 228 255
208 228 255
208 228 255
208 228 255
208 228 255
208 228 255
208 228 255
208 228 255
208 228 255
208 228 255
208 228 255
208 228 255
208 228 255
208 228 255
208 228 255
208 228 255
208 228 255
208 228 255
209 228 255
209 228 255
209 229 255
209 229 255
209 229 255
209 229 255
209 229 255
209 229 255
209 229 255
209 229 255
209 229 255
209 229 255
209 229 255
209 229 255
209 229 255
209 229 255
209 229 255
209 229 255
209 229 255
209 229 255
210 229 255
210 229 255
210 229 255
210 229 255
210 229 255
210 229 255
210 229 255
210 229 255
210 229 255
210 229 255
210 229 255
210 229 255
210 229 255
210 229 255
210 229 255
210 229 255
210 229 255
210 229 255
210 229 255
210 229 255
210 230 255
210 230 255
211 230 255
211 230 255
211 230 255
211 230 255
211 230 255
211 230 255
211 230 255
211 230 255
211 230 255
211 230 255
211 230 255
211 230 255
211 230 255
211 230 255
211 230 255
211 230 255
211 230 255
211 230 255
211 230 255
211 230 255
211 230 255
211 230 255
211 230 255
211 230 255
211 230 255
212 230 255
212 230 255
212 230 255
212 230 255
212 230 255
212 230 255
212 230 255
212 230 255
212 230 255
212 230 255
212 230 255
212 230 255
212 230 255
212 230 255
212 230 255
212 230 255
212 230 255
212 230 255
212 231 255
212 231 255
212 231 255
212 231 255
212 231 255
212 231 255
212 231 255
212 231 255
212 231 255
212 231 255
213 231 255
213 231 255
213 231 255
213 231 255
213 231 255
213 231 255
213 231 255
213 231 255
213 231 255
213 231 255
213 231 255
213 231 255
213 231 255
213 231 255
213 231 255
213 231 255
213 231 255
213 231 255
213 231 255
213 231 255
213 231 255
213 231 255
213 231 255
213 231 255
213 231 255
213 231 255
213 231 255
213 231 255
212 231 255
212 231 255
212 231 255
212 231 255
212 231 255
212 231 255
212 231 255
212 231 255
212 231 255
212 230 255
212 230 255
212 230 255
212 230 255
212 230 255
212 230 255
212 230 255
212 230 255
212 230 255
212 230 255
212 230 255
212 230 255
212 230 255
212 230 255
212 230 255
212 230 255
212 230 255
212 230 255
212 230 255
211 230 255
211 230 255
211 230 255
211 230 255
211 230 255
211 230 255
211 230 255
211 230 255
211 230 255
211 230 255
211 230 255
211 230 255
211 230 255
211 230 255
211 230 255
211 230 255
211 230 255
211 230 255
211 230 255
211 230 255
211 230 255
211 230 255
211 230 255
211 230 255
210 230 255
210 229 255
210 229 255
210 229 255
210 229 255
210 229 255
210 229 255
210 229 255
210 229 255
210 229 255
210 229 255
210 229 255
210 229 255
210 229 255
210 229 255
210 229 255
210 229 255
210 229 255
210 229 255
210 229 255
210 229 255
209 229 255
209 229 255
209 229 255
209 229 255
209 229 255
209 229 255
209 229 255
209 229 255
209 229 255
209 229 255
209 229 255
209 229 255
209 229 255
209 229 255
209 229 255
209 229 255
209 229 255
209 229 255
209 229 255
209 228 255
208 228 255
208 228 255
208 228 255
208 228 255
208 228 255
208 228 255
208 228 255
208 228 255
208 228 255
208 228 255
208 228 255
208 228 255
208 228 255
208 228 255
208 228 255
208 228 255
208 228 255
208 228 255
208 228 255
208 228 255
207 228 255
207 228 255
207 228 255
207 228 255
207 228 255
207 228 255
207 228 255
207 228 255
207 228 255
207 228 255
207 228 255
207 228 255
207 228 255
207 228 255
207 228 255
207 228 255
207 227 255
207 227 255
207 227 255
207 227 255
207 227 255
206 227 255
206 227 255
206 227 255
206 227 255
206 227 255
206 227 255
206 227 255
206 227 255
187 206 231
106 117 133
62 70 80
57 64 73
60 67 77
63 69 77
54 60 69
57 64 73
62 70 80
62 70 80
57 62 68
55 63 73
59 67 77
58 65 73
60 67 77
65 71 80
61 68 77
61 68 77
61 68 77
57 64 73
57 64 73
53 60 69
61 68 77
60 67 77
60 67 77
57 64 73
57 64 73
62 68 77
60 67 77
54 61 69
61 67 77
58 64 73
57 64 73
57 64 73
54 61 69
52 59 69
64 69 77
54 60 69
60 67 77
63 71 80
58 64 73
60 67 77
61 70 80
59 67 77
57 64 73
64 71 80
59 65 73
54 60 69
60 67 77
61 68 77
59 67 77
60 67 77
61 68 77
62 68 77
61 68 77
55 63 73
53 60 69
58 64 73
62 68 77
60 67 77
64 71 80
51 56 64
65 72 80
61 68 76
49 55 64
63 71 80
60 67 77
51 59 69
57 64 73
61 68 77
59 67 77
58 65 73
61 68 77
61 68 77
57 64 73
52 59 68
61 70 80
58 66 77
63 69 77
63 70 80
64 71 80
186 205 231
206 227 255
206 227 255
206 227 255
206 227 255
206 227 255
206 227 255
207 227 255
207 227 255
207 227 255
207 227 255
207 227 255
207 227 255
207 228 255
207 228 255
207 228 255
207 228 255
207 228 255
207 228 255
207 228 255
207 228 255
207 228 255
207 228 255
207 228 255
207 228 255
207 228 255
207 228 255
207 228 255
207 228 255
207 228 255
208 228 255
208 228 255
208 228 255
208 228 255
208 228 255
208 228 255
208 228 255
208 228 255
208 228 255
208 228 255
208 228 255
208 228 255
208 228 255
208 228 255
208 228 255
208 228 255
208 228 255
208 228 255
208 228 255
209 228 255
209 228 255
209 228 255
209 229 255
209 229 255
209 229 255
209 229 255
209 229 255
209 229 255
209 229 255
209 229 255
209 229 255
209 229 255
209 229 255
209 229 255
209 229 255
209 229 255
209 229 255
209 229 255
209 229 255
209 229 255
210 229 255
210 229 255
210 229 255
210 229 255
210 229 255
210 229 255
210 229 255
210 229 255
210 229 255
210 229 255
210 229 255
210 229 255
210 229 255
210 229 255
210 229 255
210 229 255
210 229 255
210 229 255
210 229 255
210 230 255
210 230 255
211 230 255
211 230 255
211 230 255
211 230 255
211 230 255
211 230 255
211 230 255
211 230 255
211 230 255
211 230 255
211 230 255
211 230 255
211 230 255
211 230 255
211 230 255
211 230 255
211 230 255
211 230 255
211 230 255
211 230 255
211 230 255
211 230 255
211 230 255
211 230 255
211 230 255
212 230 255
212 230 255
212 230 255
212 230 255
212 230 255
212 230 255
212 230 255
212 230 255
212 230 255
212 230 255
212 230 255
212 230 255
212 230 255
212 230 255
212 230 255
212 230 255
212 230 255
212 230 255
212 230 255
212 231 255
212 231 255
212 231 255
212 231 255
212 231 255
212 231 255
212 231 255
212 231 255
213 231 255
213 231 255
213 231 255
213 231 255
213 231 255
213 231 255
213 231 255
213 231 255
213 231 255
213 231 255
213 231 255
213 231 255
213 231 255
213 231 255
213 231 255
213 231 255
213 231 255
213 231 255
213 231 255
213 231 255
213 231 255
213 231 255
213 231 255
213 231 255
213 231 255
213 231 255
213 231 255
213 231 255
213 231 255
213 231 255
213 231 255
213 231 255
213 231 255
213 231 255
213 231 255
213 231 255
213 231 255
213 231 255
213 231 255
212 231 255
212 231 255
212 231 255
212 231 255
212 231 255
212 231 255
212 231 255
212 231 255
212 230 255
212 230 255
212 230 255
212 230 255
212 230 255
212 230 255
212 230 255
212 230 255
212 230 255
212 230 255
212 230 255
212 230 255
212 230 255
212 230 255
212 230 255
212 230 255
212 230 255
212 230 255
212 230 255
211 230 255
211 230 255
211 230 255
211 230 255
211 230 255
211 230 255
211 230 255
211 230 255
211 230 255
211 230 255
211 230 255
211 230 255
211 230 255
211 230 255
211 230 255
211 230 255
211 230 255
211 230 255
211 230 255
211 230 255
211 230 255
211 230 255
211 230 255
211 230 255
210 230 255
210 230 255
210 229 255
210 229 255
210 229 255
210 229 255
210 229 255
210 229 255
210 229 255
210 229 255
210 229 255
210 229 255
210 229 255
210 229 255
210 229 255
210 229 255
210 229 255
210 229 255
210 229 255
210 229 255
210 229 255
209 229 255
209 229 255
209 229 255
209 229 255
209 229 255
209 229 255
209 229 255
209 229 255
209 229 255
209 229 255
209 229 255
209 229 255
209 229 255
209 229 255
209 229 255
209 229 255
209 229 255
209 229 255
209 229 255
209 229 255
208 228 255
208 228 255
208 228 255
208 228 255
208 228 255
208 228 255
208 228 255
208 228 255
208 228 255
208 228 255
208 228 255
208 228 255
208 228 255
208 228 255
208 228 255
208 228 255
208 228 255
208 228 255
208 228 255
208 228 255
208 228 255
207 228 255
207 228 255
207 228 255
207 228 255
207 228 255
207 228 255
207 228 255
207 228 255
207 228 255
207 228 255
207 228 255
207 228 255
207 228 255
207 228 255
207 228 255
207 228 255
207 228 255
207 227 255
207 227 255
207 227 255
207 227 255
207 227 255
207 227 255
152 168 189
52 59 69
63 71 80
59 66 77
57 64 73
59 65 73
54 60 69
60 67 77
60 65 73
56 63 73
54 60 69
60 67 77
55 61 69
61 68 77
62 66 73
60 67 77
60 65 73
58 64 73
61 69 80
59 65 73
60 65 73
48 55 64
58 64 73
59 66 77
65 72 80
56 63 73
56 62 69
54 60 69
55 63 73
56 63 73
64 71 80
55 60 68
52 57 64
60 67 77
60 67 77
61 68 77
61 68 77
53 60 69
58 64 73
51 57 64
56 61 69
57 64 73
60 67 77
51 57 64
62 70 80
62 68 77
55 61 69
66 72 80
54 60 69
53 58 64
62 68 77
62 70 80
60 67 77
62 68 77
52 57 64
61 68 77
62 68 77
62 70 80
59 65 73
55 61 69
60 67 77
60 67 77
53 60 69
54 61 69
64 71 80
57 64 73
59 65 73
53 60 69
61 66 73
64 71 80
54 60 69
61 68 77
63 71 80
61 69 80
60 67 77
61 68 77
58 64 73
59 67 77
57 64 73
54 60 69
65 72 80
62 70 80
57 64 73
163 180 203
206 227 255
207 227 255
207 227 255
207 227 255
207 227 255
207 227 255
207 228 255
207 228 255
207 228 255
207 228 255
207 228 255
207 228 255
207 228 255
207 228 255
207 228 255
207 228 255
207 228 255
207 228 255
207 228 255
207 228 255
207 228 255
207 228 255
208 228 255
208 228 255
208 228 255
208 228 255
208 228 255
208 228 255
208 228 255
208 228 255
208 228 255
208 228 255
208 228 255
208 228 255
208 228 255
208 228 255
208 228 255
208 228 255
208 228 255
208 228 255
208 228 255
208 228 255
208 228 255
209 228 255
209 229 255
209 229 255
209 229 255
209 229 255
209 229 255
209 229 255
209 229 255
209 229 255
209 229 255
209 229 255
209 229 255
209 229 255
209 229 255
209 229 255
209 229 255
209 229 255
209 229 255
209 229 255
209 229 255
210 229 255
210 229 255
210 229 255
210 229 255
210 229 255
210 229 255
210 229 255
210 229 255
210 229 255
210 229 255
210 229 255
210 229 255
210 229 255
210 229 255
210 229 255
210 229 255
210 229 255
210 229 255
210 229 255
210 230 255
210 230 255
210 230 255
211 230 255
211 230 255
211 230 255
211 230 255
211 230 255
211 230 255
211 230 255
211 230 255
211 230 255
211 230 255
211 230 255
211 230 255
211 230 255
211 230 255
211 230 255
211 230 255
211 230 255
211 230 255
211 230 255
211 230 255
211 230 255
211 230 255
211 230 255
211 230 255
212 230 255
212 230 255
212 230 255
212 230 255
212 230 255
212 230 255
212 230 255
212 230 255
212 230 255
212 230 255
212 230 255
212 230 255
212 230 255
212 230 255
212 230 255
212 230 255
212 230 255
212 230 255
212 230 255
212 231 255
212 231 255
212 231 255
212 231 255
212 231 255
212 231 255
212 231 255
212 231 255
212 231 255
213 231 255
213 231 255
213 231 255
213 231 255
213 231 255
213 231 255
213 231 255
213 231 255
213 231 255
213 231 255
213 231 255
213 231 255
213 231 255
213 231 255
213 231 255
213 231 255
213 231 255
213 231 255
213 231 255
213 231 255
213 231 255
213 231 255
213 231 255
213 231 255
213 231 255
213 231 255
213 231 255
213 231 255
213 231 255
213 231 255
213 231 255
213 231 255
213 231 255
213 231 255
213 231 255
213 231 255
213 231 255
213 231 255
213 231 255
213 231 255
213 231 255
213 231 255
213 231 255
213 231 255
213 231 255
213 231 255
213 231 255
213 231 255
212 231 255
212 231 255
212 231 255
212 231 255
212 231 255
212 231 255
212 231 255
212 231 255
212 231 255
212 230 255
212 230 255
212 230 255
212 230 255
212 230 255
212 230 255
212 230 255
212 230 255
212 230 255
212 230 255
212 230 255
212 230 255
212 230 255
212 230 255
212 230 255
212 230 255
212 230 255
212 230 255
211 230 255
211 230 255
211 230 255
211 230 255
211 230 255
211 230 255
211 230 255
211 230 255
211 230 255
211 230 255
211 230 255
211 230 255
211 230 255
211 230 255
211 230 255
211 230 255
211 230 255
211 230 255
211 230 255
211 230 255
211 230 255
211 230 255
211 230 255
211 230 255
210 230 255
210 229 255
210 229 255
210 229 255
210 229 255
210 229 255
210 229 255
210 229 255
210 229 255
210 229 255
210 229 255
210 229 255
210 229 255
210 229 255
210 229 255
210 229 255
210 229 255
210 229 255
210 229 255
210 229 255
210 229 255
209 229 255
209 229 255
209 229 255
209 229 255
209 229 255
209 229 255
209 229 255
209 229 255
209 229 255
209 229 255
209 229 255
209 229 255
209 229 255
209 229 255
209 229 255
209 229 255
209 229 255
209 229 255
209 229 255
209 228 255
209 228 255
208 228 255
208 228 255
208 228 255
208 228 255
208 228 255
208 228 255
208 228 255
208 228 255
208 228 255
208 228 255
208 228 255
208 228 255
208 228 255
208 228 255
208 228 255
208 228 255
208 228 255
208 228 255
208 228 255
208 228 255
207 228 255
207 228 255
207 228 255
207 228 255
207 228 255
207 228 255
207 228 255
207 228 255
207 228 255
207 228 255
207 228 255
207 228 255
207 228 255
207 228 255
207 228 255
207 228 255
207 228 255
110 121 135
58 64 73
55 61 69
64 71 80
47 52 60
61 67 77
56 63 73
59 65 73
60 69 80
56 63 73
61 68 77
57 62 69
62 70 80
57 64 73
52 57 64
59 67 77
60 67 77
60 66 73
64 71 80
56 63 73
57 64 73
62 70 80
56 62 69
57 64 73
59 65 73
57 64 73
64 71 80
60 67 77
61 68 77
57 64 73
58 66 77
67 73 80
59 65 73
57 64 73
56 64 73
54 60 69
56 63 73
59 65 73
59 67 77
55 61 69
62 70 80
56 63 73
54 60 69
58 64 73
58 64 73
63 69 77
61 67 77
63 70 80
62 68 77
57 64 73
61 68 77
63 69 77
60 65 73
57 64 73
56 63 73
67 72 80
52 59 69
48 55 64
55 63 73
57 64 73
61 68 77
50 56 64
60 67 77
57 64 73
59 65 73
61 68 77
60 67 77
61 68 77
59 67 77
58 64 73
58 64 73
61 68 77
63 69 77
60 67 77
53 60 69
54 60 69
58 64 73
58 64 73
50 56 64
55 61 69
62 70 80
60 67 77
59 67 77
59 65 73
65 72 80
122 135 151
207 228 255
207 228 255
207 228 255
207 228 255
207 228 255
207 228 255
207 228 255
207 228 255
207 228 255
207 228 255
207 228 255
207 228 255
207 228 255
207 228 255
207 228 255
207 228 255
208 228 255
208 228 255
208 228 255
208 228 255
208 228 255
208 228 255
208 228 255
208 228 255
208 228 255
208 228 255
208 228 255
208 228 255
208 228 255
208 228 255
208 228 255
208 228 255
208 228 255
208 228 255
208 228 255
208 228 255
208 228 255
209 228 255
209 228 255
209 229 255
209 229 255
209 229 255
209 229 255
209 229 255
209 229 255
209 229 255
209 229 255
209 229 255
209 229 255
209 229 255
209 229 255
209 229 255
209 229 255
209 229 255
209 229 255
209 229 255
209 229 255
210 229 255
210 229 255
210 229 255
210 229 255
210 229 255
210 229 255
210 229 255
210 229 255
210 229 255
210 229 255
210 229 255
210 229 255
210 229 255
210 229 255
210 229 255
210 229 255
210 229 255
210 229 255
210 229 255
210 229 255
210 230 255
210 230 255
210 230 255
211 230 255
211 230 255
211 230 255
211 230 255
211 230 255
211 230 255
211 230 255
211 230 255
211 230 255
211 230 255
211 230 255
211 230 255
211 230 255
211 230 255
211 230 255
211 230 255
211 230 255
211 230 255
211 230 255
211 230 255
211 230 255
211 230 255
211 230 255
212 230 255
212 230 255
212 230 255
212 230 255
212 230 255
212 230 255
212 230 255
212 230 255
212 230 255
212 230 255
212 230 255
212 230 255
212 230 255
212 230 255
212 230 255
212 230 255
212 230 255
212 230 255
212 230 255
212 231 255
212 231 255
212 231 255
212 231 255
212 231 255
212 231 255
212 231 255
212 231 255
213 231 255
213 231 255
213 231 255
213 231 255
213 231 255
213 231 255
213 231 255
213 231 255
213 231 255
213 231 255
213 231 255
213 231 255
213 231 255
213 231 255
213 231 255
213 231 255
213 231 255
213 231 255
213 231 255
213 231 255
213 231 255
213 231 255
213 231 255
213 231 255
213 231 255
213 231 255
213 231 255
213 231 255
213 231 255
213 231 255
213 231 255
213 231 255
213 231 255
213 231 255
213 231 255
213 231 255
213 231 255
213 231 255
213 231 255
213 231 255
213 231 255
213 231 255
213 231 255
213 231 255
213 231 255
213 231 255
213 231 255
213 231 255
213 231 255
213 231 255
213 231 255
213 231 255
213 231 255
213 231 255
213 231 255
213 231 255
213 231 255
213 231 255
213 231 255
212 231 255
212 231 255
212 231 255
212 231 255
212 231 255
212 231 255
212 231 255
212 231 255
212 230 255
212 230 255
212 230 255
212 230 255
212 230 255
212 230 255
212 230 255
212 230 255
212 230 255
212 230 255
212 230 255
212 230 255
212 230 255
212 230 255
212 230 255
212 230 255
212 230 255
212 230 255
212 230 255
211 230 255
211 230 255
211 230 255
211 230 255
211 230 255
211 230 255
211 230 255
211 230 255
211 230 255
211 230 255
211 230 255
211 230 255
211 230 255
211 230 255
211 230 255
211 230 255
211 230 255
211 230 255
211 230 255
211 230 255
211 230 255
211 230 255
211 230 255
211 230 255
210 230 255
210 230 255
210 229 255
210 229 255
210 229 255
210 229 255
210 229 255
210 229 255
210 229 255
210 229 255
210 229 255
210 229 255
210 229 255
210 229 255
210 229 255
210 229 255
210 229 255
210 229 255
210 229 255
210 229 255
209 229 255
209 229 255
209 229 255
209 229 255
209 229 255
209 229 255
209 229 255
209 229 255
209 229 255
209 229 255
209 229 255
209 229 255
209 229 255
209 229 255
209 229 255
209 229 255
209 229 255
209 229 255
209 229 255
209 229 255
209 228 255
209 228 255
208 228 255
208 228 255
208 228 255
208 228 255
208 228 255
208 228 255
208 228 255
208 228 255
208 228 255
208 228 255
208 228 255
208 228 255
208 228 255
208 228 255
208 228 255
208 228 255
208 228 255
208 228 255
208 228 255
208 228 255
208 228 255
208 228 255
207 228 255
207 228 255
207 228 255
207 228 255
207 228 255
207 228 255
207 228 255
207 228 255
187 206 231
107 118 133
51 57 64
54 60 69
62 70 80
59 67 77
53 60 69
66 72 80
63 71 80
61 70 80
51 57 64
67 72 80
49 56 64
63 69 77
62 68 77
60 67 77
58 64 73
61 68 77
58 64 73
60 67 77
61 68 77
54 60 69
53 60 69
62 68 77
60 67 77
59 65 73
52 57 64
61 68 77
58 64 73
58 64 73
60 65 73
61 68 77
57 64 73
60 67 77
58 65 73
57 64 73
55 63 73
64 71 80
55 63 73
59 67 77
64 71 80
53 60 69
51 56 64
60 67 77
57 64 73
63 71 80
63 70 80
54 60 69
56 63 73
58 64 73
55 61 69
58 66 77
51 57 64
54 60 69
45 51 60
57 64 73
52 59 69
52 59 69
59 65 73
61 68 77
55 61 69
64 69 77
56 63 73
59 67 77
54 60 69
51 57 64
53 60 69
56 63 73
62 68 77
56 63 73
65 71 80
57 64 73
62 68 77
59 65 73
62 68 77
55 61 69
62 68 77
51 59 68
55 61 69
56 63 73
61 68 77
63 70 80
59 67 77
61 68 77
60 67 77
57 64 73
61 68 77
58 64 72
108 120 135
198 217 244
207 228 255
207 228 255
207 228 255
207 228 255
207 228 255
207 228 255
207 228 255
207 228 255
208 228 255
208 228 255
208 228 255
208 228 255
208 228 255
208 228 255
208 228 255
208 228 255
208 228 255
208 228 255
208 228 255
208 228 255
208 228 255
208 228 255
208 228 255
208 228 255
208 228 255
208 228 255
208 228 255
208 228 255
208 228 255
208 228 255
209 228 255
209 228 255
209 229 255
209 229 255
209 229 255
209 229 255
209 229 255
209 229 255
209 229 255
209 229 255
209 229 255
209 229 255
209 229 255
209 229 255
209 229 255
209 229 255
209 229 255
209 229 255
209 229 255
209 229 255
209 229 255
210 229 255
210 229 255
210 229 255
210 229 255
210 229 255
210 229 255
210 229 255
210 229 255
210 229 255
210 229 255
210 229 255
210 229 255
210 229 255
210 229 255
210 229 255
210 229 255
210 229 255
210 229 255
210 229 255
210 229 255
210 230 255
211 230 255
211 230 255
211 230 255
211 230 255
211 230 255
211 230 255
211 230 255
211 230 255
211 230 255
211 230 255
211 230 255
211 230 255
211 230 255
211 230 255
211 230 255
211 230 255
211 230 255
211 230 255
211 230 255
211 230 255
211 230 255
211 230 255
211 230 255
211 230 255
212 230 255
212 230 255
212 230 255
212 230 255
212 230 255
212 230 255
212 230 255
212 230 255
212 230 255
212 230 255
212 230 255
212 230 255
212 230 255
212 230 255
212 230 255
212 230 255
212 230 255
212 230 255
212 230 255
212 231 255
212 231 255
212 231 255
212 231 255
212 231 255
212 231 255
212 231 255
212 231 255
213 231 255
213 231 255
213 231 255
213 231 255
213 231 255
213 231 255
213 231 255
213 231 255
213 231 255
213 231 255
213 231 255
213 231 255
213 231 255
213 231 255
213 231 255
213 231 255
213 231 255
213 231 255
213 231 255
213 231 255
213 231 255
213 231 255
213 231 255
213 231 255
213 231 255
213 231 255
213 231 255
213 231 255
213 231 255
213 231 255
213 231 255
214 231 255
214 231 255
214 231 255
214 231 255
214 231 255
214 231 255
214 231 255
213 231 255
213 231 255
213 231 255
213 231 255
213 231 255
213 231 255
213 231 255
213 231 255
213 231 255
213 231 255
213 231 255
213 231 255
213 231 255
213 231 255
213 231 255
213 231 255
213 231 255
213 231 255
213 231 255
213 231 255
213 231 255
213 231 255
213 231 255
213 231 255
213 231 255
213 231 255
213 231 255
213 231 255
213 231 255
213 231 255
213 231 255
212 231 255
212 231 255
212 231 255
212 231 255
212 231 255
212 231 255
212 231 255
212 231 255
212 230 255
212 230 255
212 230 255
212 230 255
212 230 255
212 230 255
212 230 255
212 230 255
212 230 255
212 230 255
212 230 255
212 230 255
212 230 255
212 230 255
212 230 255
212 230 255
212 230 255
212 230 255
212 230 255
212 230 255
211 230 255
211 230 255
211 230 255
211 230 255
211 230 255
211 230 255
211 230 255
211 230 255
211 230 255
211 230 255
211 230 255
211 230 255
211 230 255
211 230 255
211 230 255
211 230 255
211 230 255
211 230 255
211 230 255
211 230 255
211 230 255
211 230 255
210 230 255
210 230 255
210 229 255
210 229 255
210 229 255
210 229 255
210 229 255
210 229 255
210 229 255
210 229 255
210 229 255
210 229 255
210 229 255
210 229 255
210 229 255
210 229 255
210 229 255
210 229 255
210 229 255
210 229 255
210 229 255
209 229 255
209 229 255
209 229 255
209 229 255
209 229 255
209 229 255
209 229 255
209 229 255
209 229 255
209 229 255
209 229 255
209 229 255
209 229 255
209 229 255
209 229 255
209 229 255
209 229 255
209 229 255
209 229 255
209 229 255
209 229 255
209 228 255
208 228 255
208 228 255
208 228 255
208 228 255
208 228 255
208 228 255
208 228 255
208 228 255
208 228 255
208 228 255
208 228 255
208 228 255
208 228 255
208 228 255
208 228 255
208 228 255
208 228 255
208 228 255
208 228 255
208 228 255
208 228 255
208 228 255
208 228 255
207 228 255
207 228 255
107 118 133
57 64 73
63 69 77
65 72 80
60 67 77
63 70 80
60 66 73
60 67 77
57 64 73
64 71 80
64 71 80
61 68 77
62 68 77
49 56 64
61 68 77
58 64 73
57 64 73
53 58 64
55 63 73
59 65 73
61 68 77
57 64 73
58 64 73
51 57 64
61 68 77
51 59 69
56 63 73
59 65 73
58 65 73
57 64 73
59 65 73
60 65 73
57 64 73
58 64 73
49 55 64
59 65 73
46 52 60
58 65 73
61 67 77
59 65 73
60 67 77
46 52 60
62 68 77
61 68 77
46 52 60
62 68 77
62 70 80
46 52 60
49 56 64
55 61 69
63 71 80
52 59 69
47 52 60
47 52 60
63 71 80
57 64 73
54 60 69
59 65 73
56 63 73
61 68 77
62 68 77
65 72 80
64 71 80
56 61 69
54 60 69
57 64 73
57 64 73
55 61 69
62 68 77
55 61 69
61 68 77
56 63 73
62 68 77
50 56 64
61 67 77
56 63 72
62 68 77
57 63 72
61 68 77
61 68 77
58 64 73
60 67 77
52 57 64
58 64 72
54 60 69
53 60 69
61 70 80
65 71 80
51 56 64
110 120 135
207 228 255
207 228 255
208 228 255
208 228 255
208 228 255
208 228 255
208 228 255
208 228 255
208 228 255
208 228 255
208 228 255
208 228 255
208 228 255
208 228 255
208 228 255
208 228 255
208 228 255
208 228 255
208 228 255
208 228 255
208 228 255
208 228 255
208 228 255
208 228 255
208 228 255
209 228 255
209 228 255
209 229 255
209 229 255
209 229 255
209 229 255
209 229 255
209 229 255
209 229 255
209 229 255
209 229 255
209 229 255
209 229 255
209 229 255
209 229 255
209 229 255
209 229 255
209 229 255
209 229 255
209 229 255
209 229 255
210 229 255
210 229 255
210 229 255
210 229 255
210 229 255
210 229 255
210 229 255
210 229 255
210 229 255
210 229 255
210 229 255
210 229 255
210 229 255
210 229 255
210 229 255
210 229 255
210 229 255
210 229 255
210 229 255
210 230 255
210 230 255
210 230 255
211 230 255
211 230 255
211 230 255
211 230 255
211 230 255
211 230 255
211 230 255
211 230 255
211 230 255
211 230 255
211 230 255
211 230 255
211 230 255
211 230 255
211 230 255
211 230 255
211 230 255
211 230 255
211 230 255
211 230 255
211 230 255
211 230 255
211 230 255
211 230 255
212 230 255
212 230 255
212 230 255
212 230 255
212 230 255
212 230 255
212 230 255
212 230 255
212 230 255
212 230 255
212 230 255
212 230 255
212 230 255
212 230 255
212 230 255
212 230 255
212 230 255
212 230 255
212 231 255
212 231 255
212 231 255
212 231 255
212 231 255
212 231 255
212 231 255
212 231 255
213 231 255
213 231 255
213 231 255
213 231 255
213 231 255
213 231 255
213 231 255
213 231 255
213 231 255
213 231 255
213 231 255
213 231 255
213 231 255
213 231 255
213 231 255
213 231 255
213 231 255
213 231 255
213 231 255
213 231 255
213 231 255
213 231 255
213 231 255
213 231 255
213 231 255
213 231 255
213 231 255
213 231 255
213 231 255
213 231 255
213 231 255
214 231 255
214 231 255
214 231 255
214 231 255
214 231 255
214 231 255
214 231 255
214 231 255
214 231 255
214 231 255
214 231 255
214 231 255
214 231 255
214 231 255
214 231 255
214 231 255
213 231 255
213 231 255
213 231 255
213 231 255
213 231 255
213 231 255
213 231 255
213 231 255
213 231 255
213 231 255
213 231 255
213 231 255
213 231 255
213 231 255
213 231 255
213 231 255
213 231 255
213 231 255
213 231 255
213 231 255
213 231 255
213 231 255
213 231 255
213 231 255
213 231 255
213 231 255
213 231 255
213 231 255
213 231 255
213 231 255
213 231 255
213 231 255
212 231 255
212 231 255
212 231 255
212 231 255
212 231 255
212 231 255
212 231 255
212 231 255
212 230 255
212 230 255
212 230 255
212 230 255
212 230 255
212 230 255
212 230 255
212 230 255
212 230 255
212 230 255
212 230 255
212 230 255
212 230 255
212 230 255
212 230 255
212 230 255
212 230 255
212 230 255
211 230 255
212 230 255
211 230 255
211 230 255
211 230 255
211 230 255
211 230 255
211 230 255
211 230 255
211 230 255
211 230 255
211 230 255
211 230 255
211 230 255
211 230 255
211 230 255
211 230 255
211 230 255
211 230 255
211 230 255
211 230 255
211 230 255
211 230 255
211 230 255
211 230 255
210 230 255
210 229 255
210 229 255
210 229 255
210 229 255
210 229 255
210 229 255
210 229 255
210 229 255
210 229 255
210 229 255
210 229 255
210 229 255
210 229 255
210 229 255
210 229 255
210 229 255
210 229 255
210 229 255
210 229 255
210 229 255
209 229 255
209 229 255
209 229 255
209 229 255
209 229 255
209 229 255
209 229 255
209 229 255
209 229 255
209 229 255
209 229 255
209 229 255
209 229 255
209 229 255
209 229 255
209 229 255
209 229 255
209 229 255
209 229 255
209 229 255
209 228 255
208 228 255
208 228 255
208 228 255
208 228 255
208 228 255
208 228 255
208 228 255
208 228 255
208 228 255
208 228 255
208 228 255
208 228 255
208 228 255
208 228 255
208 228 255
208 228 255
208 228 255
208 228 255
208 228 255
153 169 189
55 62 72
58 64 73
59 67 77
52 57 64
53 60 69
61 68 77
58 66 77
58 66 77
50 56 64
58 64 73
63 71 80
48 55 64
61 68 77
51 57 64
64 71 80
52 57 64
50 56 64
60 67 77
47 52 60
61 68 77
53 60 69
62 68 77
62 68 77
54 60 69
60 65 73
62 68 77
59 67 77
61 68 77
58 65 73
42 48 54
57 64 73
44 51 60
62 70 80
60 66 73
58 65 73
63 69 77
58 65 73
54 60 69
53 60 69
53 60 69
63 69 77
59 67 77
61 68 77
61 68 77
57 64 73
62 70 80
51 57 64
53 60 69
57 64 73
57 64 73
46 52 60
53 58 64
64 71 80
63 71 80
63 69 77
58 64 73
55 63 73
65 72 80
51 57 64
56 63 73
54 60 69
60 67 77
57 64 73
60 67 77
53 60 69
54 60 69
46 52 60
51 56 64
59 65 73
60 65 73
57 64 73
54 60 69
65 72 80
61 70 80
47 52 60
62 68 77
57 66 77
57 64 73
53 59 69
57 64 73
51 57 64
53 60 69
61 68 77
57 66 77
58 64 73
57 62 69
61 68 77
57 64 73
56 63 73
61 67 77
126 138 155
208 228 255
208 228 255
208 228 255
208 228 255
208 228 255
208 228 255
208 228 255
208 228 255
208 228 255
208 228 255
208 228 255
208 228 255
208 228 255
208 228 255
208 228 255
208 228 255
208 228 255
208 228 255
209 228 255
209 228 255
209 228 255
209 229 255
209 229 255
209 229 255
209 229 255
209 229 255
209 229 255
209 229 255
209 229 255
209 229 255
209 229 255
209 229 255
209 229 255
209 229 255
209 229 255
209 229 255
209 229 255
209 229 255
209 229 255
209 229 255
210 229 255
210 229 255
210 229 255
210 229 255
210 229 255
210 229 255
210 229 255
210 229 255
210 229 255
210 229 255
210 229 255
210 229 255
210 229 255
210 229 255
210 229 255
210 229 255
210 229 255
210 229 255
210 229 255
210 229 255
210 230 255
210 230 255
211 230 255
211 230 255
211 230 255
211 230 255
211 230 255
211 230 255
211 230 255
211 230 255
211 230 255
211 230 255
211 230 255
211 230 255
211 230 255
211 230 255
211 230 255
211 230 255
211 230 255
211 230 255
211 230 255
211 230 255
211 230 255
211 230 255
211 230 255
211 230 255
212 230 255
212 230 255
212 230 255
212 230 255
212 230 255
212 230 255
212 230 255
212 230 255
212 230 255
212 230 255
212 230 255
212 230 255
212 230 255
212 230 255
212 230 255
212 230 255
212 230 255
212 230 255
212 231 255
212 231 255
212 231 255
212 231 255
212 231 255
212 231 255
212 231 255
212 231 255
213 231 255
213 231 255
213 231 255
213 231 255
213 231 255
213 231 255
213 231 255
213 231 255
213 231 255
213 231 255
213 231 255
213 231 255
213 231 255
213 231 255
213 231 255
213 231 255
213 231 255
213 231 255
213 231 255
213 231 255
213 231 255
213 231 255
213 231 255
213 231 255
213 231 255
213 231 255
213 231 255
213 231 255
213 231 255
213 231 255
213 231 255
214 231 255
214 231 255
214 231 255
214 231 255
214 231 255
214 231 255
214 231 255
214 231 255
214 231 255
214 231 255
214 231 255
214 231 255
214 231 255
214 231 255
214 231 255
214 231 255
214 231 255
214 231 255
214 231 255
214 231 255
214 231 255
214 231 255
214 231 255
214 231 255
214 231 255
214 231 255
214 231 255
214 231 255
213 231 255
213 231 255
213 231 255
213 231 255
213 231 255
213 231 255
213 231 255
213 231 255
213 231 255
213 231 255
213 231 255
213 231 255
213 231 255
213 231 255
213 231 255
213 231 255
213 231 255
213 231 255
213 231 255
213 231 255
213 231 255
213 231 255
213 231 255
213 231 255
213 231 255
213 231 255
213 231 255
213 231 255
213 231 255
213 231 255
212 231 255
212 231 255
212 231 255
212 231 255
212 231 255
212 231 255
212 231 255
212 231 255
212 230 255
212 230 255
212 230 255
212 230 255
212 230 255
212 230 255
212 230 255
212 230 255
212 230 255
212 230 255
212 230 255
212 230 255
212 230 255
212 230 255
212 230 255
212 230 255
212 230 255
212 230 255
212 230 255
211 230 255
211 230 255
211 230 255
211 230 255
211 230 255
211 230 255
211 230 255
211 230 255
211 230 255
211 230 255
211 230 255
211 230 255
211 230 255
211 230 255
211 230 255
211 230 255
211 230 255
211 230 255
211 230 255
211 230 255
211 230 255
211 230 255
210 230 255
210 230 255
210 230 255
210 230 255
210 229 255
210 229 255
210 229 255
210 229 255
210 229 255
210 229 255
210 229 255
210 229 255
210 229 255
210 229 255
210 229 255
210 229 255
210 229 255
210 229 255
210 229 255
210 229 255
210 229 255
210 229 255
209 229 255
209 229 255
209 229 255
209 229 255
209 229 255
209 229 255
209 229 255
209 229 255
209 229 255
209 229 255
209 229 255
209 229 255
209 229 255
209 229 255
209 229 255
209 229 255
209 229 255
209 229 255
209 229 255
209 229 255
209 229 255
209 228 255
209 228 255
208 228 255
208 228 255
208 228 255
208 228 255
208 228 255
208 228 255
208 228 255
208 228 255
208 228 255
208 228 255
208 228 255
208 228 255
85 94 106
56 61 69
64 71 80
63 69 77
63 71 80
66 72 80
62 70 80
57 64 73
57 64 73
58 64 73
61 68 77
57 64 73
61 69 80
52 59 69
52 57 64
59 67 77
60 67 77
50 56 64
64 69 77
55 61 69
59 67 77
61 68 77
62 68 77
55 61 69
51 59 69
54 60 69
61 68 77
57 64 73
58 64 73
62 70 80
64 71 80
58 66 77
49 56 64
56 61 68
54 60 69
60 67 77
54 60 68
52 59 68
49 56 64
58 65 73
60 65 73
57 64 73
58 64 73
54 60 68
58 64 73
54 60 69
58 64 73
63 71 80
56 63 73
59 67 77
55 61 69
61 68 77
59 65 73
56 63 73
65 72 80
61 68 77
52 59 69
54 60 69
55 60 68
49 56 64
65 72 80
54 60 69
59 65 73
51 56 64
53 60 69
65 72 80
55 61 69
58 64 73
52 57 64
60 66 73
61 68 77
65 71 80
62 68 77
40 44 49
63 69 77
63 69 77
58 64 73
57 64 73
51 57 64
54 60 69
54 61 69
61 68 77
56 63 73
56 63 73
60 67 77
58 64 73
59 65 73
59 66 77
59 65 73
53 60 69
62 68 77
55 61 69
64 69 77
124 137 153
208 228 255
208 228 255
208 228 255
208 228 255
208 228 255
208 228 255
208 228 255
208 228 255
208 228 255
208 228 255
208 228 255
208 228 255
209 228 255
209 229 255
209 229 255
209 229 255
209 229 255
209 229 255
209 229 255
209 229 255
209 229 255
209 229 255
209 229 255
209 229 255
209 229 255
209 229 255
209 229 255
209 229 255
209 229 255
209 229 255
209 229 255
209 229 255
209 229 255
209 229 255
210 229 255
210 229 255
210 229 255
210 229 255
210 229 255
210 229 255
210 229 255
210 229 255
210 229 255
210 229 255
210 229 255
210 229 255
210 229 255
210 229 255
210 229 255
210 229 255
210 229 255
210 229 255
210 229 255
210 229 255
210 230 255
210 230 255
211 230 255
211 230 255
211 230 255
211 230 255
211 230 255
211 230 255
211 230 255
211 230 255
211 230 255
211 230 255
211 230 255
211 230 255
211 230 255
211 230 255
211 230 255
211 230 255
211 230 255
211 230 255
211 230 255
211 230 255
211 230 255
211 230 255
211 230 255
212 230 255
212 230 255
212 230 255
212 230 255
212 230 255
212 230 255
212 230 255
212 230 255
212 230 255
212 230 255
212 230 255
212 230 255
212 230 255
212 230 255
212 230 255
212 230 255
212 230 255
212 230 255
212 231 255
212 231 255
212 231 255
212 231 255
212 231 255
212 231 255
212 231 255
212 231 255
213 231 255
213 231 255
213 231 255
213 231 255
213 231 255
213 231 255
213 231 255
213 231 255
213 231 255
213 231 255
213 231 255
213 231 255
213 231 255
213 231 255
213 231 255
213 231 255
213 231 255
213 231 255
213 231 255
213 231 255
213 231 255
213 231 255
213 231 255
213 231 255
213 231 255
213 231 255
213 231 255
213 231 255
213 231 255
213 231 255
213 231 255
213 231 255
214 231 255
214 231 255
214 231 255
214 231 255
214 231 255
214 231 255
214 231 255
214 231 255
214 231 255
214 231 255
214 231 255
214 231 255
214 231 255
214 231 255
214 231 255
214 231 255
214 232 255
214 232 255
214 232 255
214 232 255
214 231 255
214 231 255
214 231 255
214 231 255
214 231 255
214 231 255
214 231 255
214 231 255
214 231 255
214 231 255
214 231 255
214 231 255
214 231 255
214 231 255
214 231 255
214 231 255
214 231 255
214 231 255
214 231 255
213 231 255
213 231 255
213 231 255
213 231 255
213 231 255
213 231 255
213 231 255
213 231 255
213 231 255
213 231 255
213 231 255
213 231 255
213 231 255
213 231 255
213 231 255
213 231 255
213 231 255
213 231 255
213 231 255
213 231 255
213 231 255
213 231 255
213 231 255
213 231 255
213 231 255
213 231 255
213 231 255
213 231 255
213 231 255
213 231 255
212 231 255
212 231 255
212 231 255
212 231 255
212 231 255
212 231 255
212 231 255
212 231 255
212 230 255
212 230 255
212 230 255
212 230 255
212 230 255
212 230 255
212 230 255
212 230 255
212 230 255
212 230 255
212 230 255
212 230 255
212 230 255
212 230 255
212 230 255
212 230 255
212 230 255
212 230 255
211 230 255
211 230 255
211 230 255
211 230 255
211 230 255
211 230 255
211 230 255
211 230 255
211 230 255
211 230 255
211 230 255
211 230 255
211 230 255
211 230 255
211 230 255
211 230 255
211 230 255
211 230 255
211 230 255
211 230 255
211 230 255
211 230 255
211 230 255
210 230 255
210 230 255
210 229 255
210 229 255
210 229 255
210 229 255
210 229 255
210 229 255
210 229 255
210 229 255
210 229 255
210 229 255
210 229 255
210 229 255
210 229 255
210 229 255
210 229 255
210 229 255
210 229 255
210 229 255
210 229 255
210 229 255
209 229 255
209 229 255
209 229 255
209 229 255
209 229 255
209 229 255
209 229 255
209 229 255
209 229 255
209 229 255
209 229 255
209 229 255
209 229 255
209 229 255
209 229 255
209 229 255
209 229 255
209 229 255
209 229 255
209 229 255
209 229 255
209 229 255
209 228 255
208 228 255
208 228 255
208 228 255
208 228 255
208 228 255
152 167 188
61 68 77
60 67 77
62 68 77
58 64 73
60 67 77
59 65 73
42 47 54
61 68 77
57 64 73
60 67 77
54 60 69
57 64 73
54 60 69
62 68 77
57 64 73
55 61 69
60 65 73
59 67 77
52 59 69
63 71 80
54 60 69
60 65 73
57 62 69
64 71 80
61 68 77
55 61 69
55 61 69
58 65 73
51 56 64
53 60 69
57 64 73
53 60 69
47 52 60
59 67 77
60 67 77
59 67 77
51 57 64
59 65 73
58 64 73
59 67 77
58 64 73
55 61 69
59 65 73
61 68 77
59 65 72
55 61 69
45 51 60
57 64 73
58 64 73
52 57 64
57 62 69
58 64 73
40 46 54
63 70 80
58 64 73
56 61 69
46 52 60
56 63 73
62 70 80
49 56 64
49 56 64
60 65 73
52 59 69
57 64 73
61 68 77
58 64 73
57 64 73
56 61 69
56 63 73
61 68 77
56 61 69
60 67 77
51 59 69
55 63 73
55 61 69
57 64 73
59 65 73
58 64 73
65 72 80
45 51 60
62 68 77
58 65 73
59 67 77
57 66 77
59 65 73
59 67 77
55 61 69
58 64 73
59 67 77
61 68 77
64 69 77
58 64 73
56 63 73
62 68 77
107 118 133
208 228 255
208 228 255
208 228 255
208 228 255
209 228 255
209 228 255
209 228 255
209 229 255
209 229 255
209 229 255
209 229 255
209 229 255
209 229 255
209 229 255
209 229 255
209 229 255
209 229 255
209 229 255
209 229 255
209 229 255
209 229 255
209 229 255
209 229 255
209 229 255
209 229 255
209 229 255
209 229 255
210 229 255
210 229 255
210 229 255
210 229 255
210 229 255
210 229 255
210 229 255
210 229 255
210 229 255
210 229 255
210 229 255
210 229 255
210 229 255
210 229 255
210 229 255
210 229 255
210 229 255
210 229 255
210 229 255
210 229 255
210 230 255
210 230 255
210 230 255
211 230 255
211 230 255
211 230 255
211 230 255
211 230 255
211 230 255
211 230 255
211 230 255
211 230 255
211 230 255
211 230 255
211 230 255
211 230 255
211 230 255
211 230 255
211 230 255
211 230 255
211 230 255
211 230 255
211 230 255
211 230 255
211 230 255
211 230 255
211 230 255
212 230 255
212 230 255
212 230 255
212 230 255
212 230 255
212 230 255
212 230 255
212 230 255
212 230 255
212 230 255
212 230 255
212 230 255
212 230 255
212 230 255
212 230 255
212 230 255
212 230 255
212 231 255
212 231 255
212 231 255
212 231 255
212 231 255
212 231 255
212 231 255
212 231 255
213 231 255
213 231 255
213 231 255
213 231 255
213 231 255
213 231 255
213 231 255
213 231 255
213 231 255
213 231 255
213 231 255
213 231 255
213 231 255
213 231 255
213 231 255
213 231 255
213 231 255
213 231 255
213 231 255
213 231 255
213 231 255
213 231 255
213 231 255
213 231 255
213 231 255
213 231 255
213 231 255
213 231 255
213 231 255
213 231 255
213 231 255
214 231 255
214 231 255
214 231 255
214 231 255
214 231 255
214 231 255
214 231 255
214 231 255
214 231 255
214 231 255
214 231 255
214 231 255
214 231 255
214 231 255
214 231 255
214 231 255
214 231 255
214 232 255
214 232 255
214 232 255
214 232 255
214 232 255
214 232 255
214 232 255
214 232 255
214 232 255
214 232 255
214 232 255
214 232 255
214 232 255
214 232 255
214 232 255
214 231 255
214 231 255
214 231 255
214 231 255
214 231 255
214 231 255
214 231 255
214 231 255
214 231 255
214 231 255
214 231 255
214 231 255
214 231 255
214 231 255
214 231 255
214 231 255
214 231 255
214 231 255
213 231 255
213 231 255
213 231 255
213 231 255
213 231 255
213 231 255
213 231 255
213 231 255
213 231 255
213 231 255
213 231 255
213 231 255
213 231 255
213 231 255
213 231 255
213 231 255
213 231 255
213 231 255
213 231 255
213 231 255
213 231 255
213 231 255
213 231 255
213 231 255
213 231 255
213 231 255
213 231 255
213 231 255
213 231 255
213 231 255
212 231 255
212 231 255
212 231 255
212 231 255
212 231 255
212 231 255
212 231 255
212 231 255
212 230 255
212 230 255
212 230 255
212 230 255
212 230 255
212 230 255
212 230 255
212 230 255
212 230 255
212 230 255
212 230 255
212 230 255
212 230 255
212 230 255
212 230 255
212 230 255
212 230 255
211 230 255
211 230 255
211 230 255
211 230 255
211 230 255
211 230 255
211 230 255
211 230 255
211 230 255
211 230 255
211 230 255
211 230 255
211 230 255
211 230 255
211 230 255
211 230 255
211 230 255
211 230 255
211 230 255
211 230 255
211 230 255
211 230 255
211 230 255
211 230 255
210 230 255
210 230 255
210 229 255
210 229 255
210 229 255
210 229 255
210 229 255
210 229 255
210 229 255
210 229 255
210 229 255
210 229 255
210 229 255
210 229 255
210 229 255
210 229 255
210 229 255
210 229 255
210 229 255
210 229 255
210 229 255
210 229 255
209 229 255
209 229 255
209 229 255
209 229 255
209 229 255
209 229 255
209 229 255
209 229 255
209 229 255
209 229 255
209 229 255
209 229 255
209 229 255
209 229 255
209 229 255
209 229 255
209 229 255
209 229 255
209 229 255
209 229 255
209 229 255
209 229 255
123 135 151
57 64 73
47 53 60
57 64 73
56 63 73
62 70 80
61 68 77
55 61 69
56 63 73
56 61 69
64 71 80
59 65 73
61 68 77
52 59 69
58 64 73
62 70 80
58 64 72
53 60 69
58 64 73
56 63 72
59 65 73
55 61 69
60 67 77
55 63 73
63 69 77
53 60 69
53 60 69
58 64 73
54 60 68
54 60 69
61 68 77
61 68 77
57 64 73
63 70 80
61 69 80
54 60 69
54 60 69
64 70 77
55 63 73
53 58 64
56 63 73
56 63 73
52 59 68
53 60 69
63 71 80
55 61 69
57 64 73
57 64 73
57 64 73
60 67 77
62 70 80
53 60 69
63 69 77
58 64 73
58 64 73
57 64 73
50 56 64
60 67 77
62 68 77
55 61 69
58 64 72
59 65 73
57 64 73
64 71 80
52 59 69
52 57 64
51 57 64
61 69 80
61 68 77
59 65 73
65 72 80
55 61 69
60 67 77
60 67 77
52 57 64
58 64 73
58 64 73
55 61 69
51 57 64
61 68 77
61 68 77
57 64 73
58 65 73
57 64 73
54 60 69
53 60 69
58 64 73
60 67 77
61 68 77
59 67 77
54 60 69
56 61 69
55 63 73
52 59 68
61 68 77
64 71 80
54 60 69
125 137 153
209 229 255
209 229 255
209 229 255
209 229 255
209 229 255
209 229 255
209 229 255
209 229 255
209 229 255
209 229 255
209 229 255
209 229 255
209 229 255
209 229 255
209 229 255
209 229 255
209 229 255
209 229 255
209 229 255
209 229 255
209 229 255
210 229 255
210 229 255
210 229 255
210 229 255
210 229 255
210 229 255
210 229 255
210 229 255
210 229 255
210 229 255
210 229 255
210 229 255
210 229 255
210 229 255
210 229 255
210 229 255
210 229 255
210 229 255
210 229 255
210 229 255
210 230 255
210 230 255
210 230 255
211 230 255
211 230 255
211 230 255
211 230 255
211 230 255
211 230 255
211 230 255
211 230 255
211 230 255
211 230 255
211 230 255
211 230 255
211 230 255
211 230 255
211 230 255
211 230 255
211 230 255
211 230 255
211 230 255
211 230 255
211 230 255
211 230 255
211 230 255
212 230 255
212 230 255
212 230 255
212 230 255
212 230 255
212 230 255
212 230 255
212 230 255
212 230 255
212 230 255
212 230 255
212 230 255
212 230 255
212 230 255
212 230 255
212 230 255
212 230 255
212 230 255
212 231 255
212 231 255
212 231 255
212 231 255
212 231 255
212 231 255
212 231 255
212 231 255
213 231 255
213 231 255
213 231 255
213 231 255
213 231 255
213 231 255
213 231 255
213 231 255
213 231 255
213 231 255
213 231 255
213 231 255
213 231 255
213 231 255
213 231 255
213 231 255
213 231 255
213 231 255
213 231 255
213 231 255
213 231 255
213 231 255
213 231 255
213 231 255
213 231 255
213 231 255
213 231 255
213 231 255
213 231 255
213 231 255
214 231 255
214 231 255
214 231 255
214 231 255
214 231 255
214 231 255
214 231 255
214 231 255
214 231 255
214 231 255
214 231 255
214 231 255
214 231 255
214 231 255
214 231 255
214 231 255
214 231 255
214 231 255
214 232 255
214 232 255
214 232 255
214 232 255
214 232 255
214 232 255
214 232 255
214 232 255
214 232 255
214 232 255
214 232 255
214 232 255
214 232 255
214 232 255
214 232 255
214 232 255
214 232 255
214 232 255
214 232 255
214 232 255
214 232 255
214 232 255
214 232 255
214 232 255
214 232 255
214 232 255
214 231 255
214 231 255
214 231 255
214 231 255
214 231 255
214 231 255
214 231 255
214 231 255
214 231 255
214 231 255
214 231 255
214 231 255
214 231 255
214 231 255
214 231 255
214 231 255
214 231 255
214 231 255
213 231 255
213 231 255
213 231 255
213 231 255
213 231 255
213 231 255
213 231 255
213 231 255
213 231 255
213 231 255
213 231 255
213 231 255
213 231 255
213 231 255
213 231 255
213 231 255
213 231 255
213 231 255
213 231 255
213 231 255
213 231 255
213 231 255
213 231 255
213 231 255
213 231 255
213 231 255
213 231 255
213 231 255
213 231 255
212 231 255
212 231 255
212 231 255
212 231 255
212 231 255
212 231 255
212 231 255
212 231 255
212 230 255
212 230 255
212 230 255
212 230 255
212 230 255
212 230 255
212 230 255
212 230 255
212 230 255
212 230 255
212 230 255
212 230 255
212 230 255
212 230 255
212 230 255
212 230 255
212 230 255
212 230 255
212 230 255
211 230 255
211 230 255
211 230 255
211 230 255
211 230 255
211 230 255
211 230 255
211 230 255
211 230 255
211 230 255
211 230 255
211 230 255
211 230 255
211 230 255
211 230 255
211 230 255
211 230 255
211 230 255
211 230 255
211 230 255
211 230 255
211 230 255
211 230 255
210 230 255
210 230 255
210 229 255
210 229 255
210 229 255
210 229 255
210 229 255
210 229 255
210 229 255
210 229 255
210 229 255
210 229 255
210 229 255
210 229 255
210 229 255
210 229 255
210 229 255
210 229 255
210 229 255
210 229 255
210 229 255
210 229 255
210 229 255
209 229 255
209 229 255
209 229 255
209 229 255
209 229 255
209 229 255
209 229 255
209 229 255
209 229 255
209 229 255
209 229 255
209 229 255
209 229 255
209 229 255
177 194 217
64 71 80
60 67 77
55 61 69
58 64 73
51 57 64
63 71 80
55 61 69
61 69 80
57 64 73
58 65 73
55 61 69
55 61 69
53 60 69
59 65 73
49 56 64
58 64 73
57 64 73
59 65 73
50 56 64
65 72 80
53 60 68
62 68 77
58 64 73
52 59 69
60 67 77
61 68 77
62 68 77
57 64 73
60 65 73
60 67 77
56 61 68
61 68 77
51 57 64
59 65 73
61 68 77
60 67 77
61 68 77
61 68 77
57 64 73
47 52 60
56 61 69
62 68 77
59 65 73
61 68 77
61 68 77
53 60 69
49 56 64
60 67 77
56 61 69
55 61 69
52 59 69
49 53 60
54 60 69
57 64 73
64 71 80
52 59 69
58 65 73
55 61 69
61 68 77
53 60 69
52 57 64
57 64 73
61 68 77
54 60 69
62 70 80
56 63 73
57 64 73
54 60 69
59 67 77
62 68 77
58 64 73
54 60 69
58 65 73
50 56 64
54 60 69
61 68 77
64 71 80
51 57 64
60 67 77
51 56 64
59 65 73
56 63 73
58 64 73
61 68 77
56 63 73
52 57 64
59 65 73
55 63 73
64 71 80
62 68 77
57 64 73
61 68 77
49 56 64
46 51 59
56 61 69
55 61 69
56 63 73
55 63 73
140 153 171
209 229 255
209 229 255
209 229 255
209 229 255
209 229 255
209 229 255
209 229 255
209 229 255
209 229 255
209 229 255
209 229 255
209 229 255
209 229 255
209 229 255
210 229 255
210 229 255
210 229 255
210 229 255
210 229 255
210 229 255
210 229 255
210 229 255
210 229 255
210 229 255
210 229 255
210 229 255
210 229 255
210 229 255
210 229 255
210 229 255
210 229 255
210 229 255
210 229 255
210 229 255
210 230 255
210 230 255
210 230 255
211 230 255
211 230 255
211 230 255
211 230 255
211 230 255
211 230 255
211 230 255
211 230 255
211 230 255
211 230 255
211 230 255
211 230 255
211 230 255
211 230 255
211 230 255
211 230 255
211 230 255
211 230 255
211 230 255
211 230 255
211 230 255
211 230 255
211 230 255
211 230 255
212 230 255
212 230 255
212 230 255
212 230 255
212 230 255
212 230 255
212 230 255
212 230 255
212 230 255
212 230 255
212 230 255
212 230 255
212 230 255
212 230 255
212 230 255
212 230 255
212 230 255
212 230 255
212 231 255
212 231 255
212 231 255
212 231 255
212 231 255
212 231 255
212 231 255
213 231 255
213 231 255
213 231 255
213 231 255
213 231 255
213 231 255
213 231 255
213 231 255
213 231 255
213 231 255
213 231 255
213 231 255
213 231 255
213 231 255
213 231 255
213 231 255
213 231 255
213 231 255
213 231 255
213 231 255
213 231 255
213 231 255
213 231 255
213 231 255
213 231 255
213 231 255
213 231 255
213 231 255
213 231 255
213 231 255
214 231 255
214 231 255
214 231 255
214 231 255
214 231 255
214 231 255
214 231 255
214 231 255
214 231 255
214 231 255
214 231 255
214 231 255
214 231 255
214 231 255
214 231 255
214 231 255
214 231 255
214 231 255
214 232 255
214 232 255
214 232 255
214 232 255
214 232 255
214 232 255
214 232 255
214 232 255
214 232 255
214 232 255
214 232 255
214 232 255
214 232 255
214 232 255
214 232 255
214 232 255
215 232 255
215 232 255
215 232 255
215 232 255
214 232 255
214 232 255
214 232 255
214 232 255
214 232 255
214 232 255
214 232 255
214 232 255
214 232 255
214 232 255
214 232 255
214 232 255
214 232 255
214 232 255
214 232 255
214 232 255
214 232 255
214 231 255
214 231 255
214 231 255
214 231 255
214 231 255
214 231 255
214 231 255
214 231 255
214 231 255
214 231 255
214 231 255
214 231 255
214 231 255
214 231 255
214 231 255
214 231 255
214 231 255
214 231 255
213 231 255
213 231 255
213 231 255
213 231 255
213 231 255
213 231 255
213 231 255
213 231 255
213 231 255
213 231 255
213 231 255
213 231 255
213 231 255
213 231 255
213 231 255
213 231 255
213 231 255
213 231 255
213 231 255
213 231 255
213 231 255
213 231 255
213 231 255
213 231 255
213 231 255
213 231 255
213 231 255
213 231 255
213 231 255
213 231 255
212 231 255
212 231 255
212 231 255
212 231 255
212 231 255
212 231 255
212 231 255
212 231 255
212 230 255
212 230 255
212 230 255
212 230 255
212 230 255
212 230 255
212 230 255
212 230 255
212 230 255
212 230 255
212 230 255
212 230 255
212 230 255
212 230 255
212 230 255
212 230 255
212 230 255
211 230 255
211 230 255
211 230 255
211 230 255
211 230 255
211 230 255
211 230 255
211 230 255
211 230 255
211 230 255
211 230 255
211 230 255
211 230 255
211 230 255
211 230 255
211 230 255
211 230 255
211 230 255
211 230 255
211 230 255
211 230 255
211 230 255
211 230 255
211 230 255
210 230 255
210 230 255
210 229 255
210 229 255
210 229 255
210 229 255
210 229 255
210 229 255
210 229 255
210 229 255
210 229 255
210 229 255
210 229 255
210 229 255
210 229 255
210 229 255
210 229 255
210 229 255
210 229 255
210 229 255
210 229 255
210 229 255
210 229 255
210 229 255
209 229 255
209 229 255
209 229 255
209 229 255
209 229 255
209 229 255
209 229 255
177 194 217
60 67 77
51 57 64
63 71 80
62 70 80
49 56 64
57 64 73
60 67 77
58 64 73
56 63 73
61 68 77
54 60 69
63 70 80
60 67 77
56 63 72
61 68 77
46 52 60
56 61 69
58 64 73
61 68 77
56 62 69
51 57 64
55 61 69
56 63 73
60 67 77
57 64 73
50 56 64
65 71 80
62 70 80
63 69 77
53 60 69
54 60 69
52 57 64
55 61 69
49 53 60
54 60 69
56 62 69
47 53 60
65 71 80
61 70 80
61 68 77
63 69 77
55 61 69
56 61 69
44 48 54
60 65 73
51 57 64
52 57 64
55 61 69
50 56 64
60 67 77
54 60 69
54 60 69
55 61 68
61 68 77
58 65 73
54 60 69
61 68 77
55 61 69
61 68 77
60 67 77
53 60 69
55 61 69
62 68 77
53 58 64
53 58 64
63 69 77
57 64 73
62 70 80
58 64 73
53 60 69
66 72 80
53 57 64
62 68 77
56 63 72
48 53 60
63 70 80
57 64 73
52 57 64
65 71 80
53 60 69
53 60 69
61 67 77
47 53 60
53 60 69
53 58 64
59 67 77
62 68 77
48 53 60
51 57 64
53 58 64
54 62 73
50 56 64
55 61 69
55 61 69
56 63 73
63 71 80
55 61 69
59 65 73
63 70 80
61 68 77
189 207 231
209 229 255
209 229 255
209 229 255
209 229 255
209 229 255
209 229 255
209 229 255
210 229 255
210 229 255
210 229 255
210 229 255
210 229 255
210 229 255
210 229 255
210 229 255
210 229 255
210 229 255
210 229 255
210 229 255
210 229 255
210 229 255
210 229 255
210 229 255
210 229 255
210 229 255
210 229 255
210 229 255
210 230 255
210 229 255
210 230 255
211 230 255
211 230 255
211 230 255
211 230 255
211 230 255
211 230 255
211 230 255
211 230 255
211 230 255
211 230 255
211 230 255
211 230 255
211 230 255
211 230 255
211 230 255
211 230 255
211 230 255
211 230 255
211 230 255
211 230 255
211 230 255
211 230 255
211 230 255
211 230 255
212 230 255
212 230 255
212 230 255
212 230 255
212 230 255
212 230 255
212 230 255
212 230 255
212 230 255
212 230 255
212 230 255
212 230 255
212 230 255
212 230 255
212 230 255
212 230 255
212 230 255
212 230 255
212 231 255
212 231 255
212 231 255
212 231 255
212 231 255
212 231 255
212 231 255
212 231 255
213 231 255
213 231 255
213 231 255
213 231 255
213 231 255
213 231 255
213 231 255
213 231 255
213 231 255
213 231 255
213 231 255
213 231 255
213 231 255
213 231 255
213 231 255
213 231 255
213 231 255
213 231 255
213 231 255
213 231 255
213 231 255
213 231 255
213 231 255
213 231 255
213 231 255
213 231 255
213 231 255
213 231 255
213 231 255
213 231 255
214 231 255
214 231 255
214 231 255
214 231 255
214 231 255
214 231 255
214 231 255
214 231 255
214 231 255
214 231 255
214 231 255
214 231 255
214 231 255
214 231 255
214 231 255
214 231 255
214 231 255
214 232 255
214 232 255
214 232 255
214 232 255
214 232 255
214 232 255
214 232 255
214 232 255
214 232 255
214 232 255
214 232 255
214 232 255
214 232 255
214 232 255
214 232 255
214 232 255
214 232 255
214 232 255
215 232 255
215 232 255
215 232 255
215 232 255
215 232 255
215 232 255
215 232 255
215 232 255
215 232 255
215 232 255
215 232 255
215 232 255
215 232 255
214 232 255
215 232 255
214 232 255
214 232 255
214 232 255
214 232 255
214 232 255
214 232 255
214 232 255
214 232 255
214 232 255
214 232 255
214 232 255
214 232 255
214 232 255
214 232 255
214 232 255
214 232 255
214 232 255
214 232 255
214 231 255
214 231 255
214 231 255
214 231 255
214 231 255
214 231 255
214 231 255
214 231 255
214 231 255
214 231 255
214 231 255
214 231 255
214 231 255
214 231 255
214 231 255
214 231 255
213 231 255
213 231 255
213 231 255
213 231 255
213 231 255
213 231 255
213 231 255
213 231 255
213 231 255
213 231 255
213 231 255
213 231 255
213 231 255
213 231 255
213 231 255
213 231 255
213 231 255
213 231 255
213 231 255
213 231 255
213 231 255
213 231 255
213 231 255
213 231 255
213 231 255
213 231 255
213 231 255
213 231 255
213 231 255
213 231 255
212 231 255
212 231 255
212 231 255
212 231 255
212 231 255
212 231 255
212 231 255
212 231 255
212 230 255
212 230 255
212 230 255
212 230 255
212 230 255
212 230 255
212 230 255
212 230 255
212 230 255
212 230 255
212 230 255
212 230 255
212 230 255
212 230 255
212 230 255
212 230 255
212 230 255
211 230 255
211 230 255
211 230 255
211 230 255
211 230 255
211 230 255
211 230 255
211 230 255
211 230 255
211 230 255
211 230 255
211 230 255
211 230 255
211 230 255
211 230 255
211 230 255
211 230 255
211 230 255
211 230 255
211 230 255
211 230 255
211 230 255
211 230 255
211 230 255
210 230 255
210 230 255
210 230 255
210 229 255
210 229 255
210 229 255
210 229 255
210 229 255
210 229 255
210 229 255
210 229 255
210 229 255
210 229 255
210 229 255
210 229 255
210 229 255
210 229 255
210 229 255
210 229 255
210 229 255
210 229 255
210 229 255
210 229 255
210 229 255
188 206 230
53 60 69
59 65 73
55 63 73
52 57 64
49 56 64
56 64 73
60 67 77
57 64 73
58 66 77
58 64 73
63 71 80
58 64 73
66 72 80
57 64 73
57 64 73
50 56 64
64 71 80
53 60 69
55 61 69
57 64 73
42 47 54
62 70 80
55 61 69
58 64 73
63 70 80
60 67 77
58 64 73
56 62 69
59 65 73
60 67 77
52 57 64
58 65 73
58 64 73
55 60 68
54 60 69
57 64 73
57 64 73
53 60 69
63 69 77
60 67 77
54 60 69
55 61 69
57 64 73
52 59 68
53 60 69
61 68 77
66 72 80
56 61 69
61 66 73
61 68 77
65 72 80
59 65 73
51 57 64
60 67 77
61 66 73
47 53 60
59 65 73
45 51 60
58 64 73
46 52 60
54 61 69
52 57 64
60 66 73
63 69 77
57 64 73
51 56 64
54 61 69
55 61 69
56 61 69
62 69 77
63 70 80
62 68 77
43 48 54
59 65 73
54 60 69
50 56 64
54 60 69
49 56 64
56 63 73
55 61 69
54 60 69
59 65 73
62 68 77
53 60 69
57 64 73
59 65 73
57 64 73
58 64 73
58 64 73
55 61 69
64 71 80
62 68 77
48 53 60
57 64 73
49 53 60
53 60 69
52 57 64
56 62 69
56 61 69
56 62 69
64 71 80
65 72 80
189 206 230
210 229 255
210 229 255
210 229 255
210 229 255
210 229 255
210 229 255
210 229 255
210 229 255
210 229 255
210 229 255
210 229 255
210 229 255
210 229 255
210 229 255
210 229 255
210 229 255
210 229 255
210 229 255
210 229 255
210 229 255
210 229 255
210 230 255
210 230 255
210 230 255
210 230 255
211 230 255
211 230 255
211 230 255
211 230 255
211 230 255
211 230 255
211 230 255
211 230 255
211 230 255
211 230 255
211 230 255
211 230 255
211 230 255
211 230 255
211 230 255
211 230 255
211 230 255
211 230 255
211 230 255
211 230 255
211 230 255
211 230 255
211 230 255
212 230 255
212 230 255
212 230 255
212 230 255
212 230 255
212 230 255
212 230 255
212 230 255
212 230 255
212 230 255
212 230 255
212 230 255
212 230 255
212 230 255
212 230 255
212 230 255
212 230 255
212 231 255
212 231 255
212 231 255
212 231 255
212 231 255
212 231 255
212 231 255
212 231 255
213 231 255
213 231 255
213 231 255
213 231 255
213 231 255
213 231 255
213 231 255
213 231 255
213 231 255
213 231 255
213 231 255
213 231 255
213 231 255
213 231 255
213 231 255
213 231 255
213 231 255
213 231 255
213 231 255
213 231 255
213 231 255
213 231 255
213 231 255
213 231 255
213 231 255
213 231 255
213 231 255
213 231 255
213 231 255
213 231 255
214 231 255
214 231 255
214 231 255
214 231 255
214 231 255
214 231 255
214 231 255
214 231 255
214 231 255
214 231 255
214 231 255
214 231 255
214 231 255
214 231 255
214 231 255
214 231 255
214 231 255
214 232 255
214 232 255
214 232 255
214 232 255
214 232 255
214 232 255
214 232 255
214 232 255
214 232 255
214 232 255
214 232 255
214 232 255
214 232 255
214 232 255
214 232 255
214 232 255
214 232 255
214 232 255
215 232 255
215 232 255
215 232 255
215 232 255
215 232 255
215 232 255
215 232 255
215 232 255
215 232 255
215 232 255
215 232 255
215 232 255
215 232 255
215 232 255
215 232 255
215 232 255
215 232 255
215 232 255
215 232 255
215 232 255
215 232 255
215 232 255
215 232 255
215 232 255
215 232 255
215 232 255
215 232 255
214 232 255
214 232 255
214 232 255
214 232 255
214 232 255
214 232 255
214 232 255
214 232 255
214 232 255
214 232 255
214 232 255
214 232 255
214 232 255
214 232 255
214 232 255
214 232 255
214 232 255
214 232 255
214 231 255
214 231 255
214 231 255
214 231 255
214 231 255
214 231 255
214 231 255
214 231 255
214 231 255
214 231 255
214 231 255
214 231 255
214 231 255
214 231 255
214 231 255
214 231 255
213 231 255
213 231 255
213 231 255
213 231 255
213 231 255
213 231 255
213 231 255
213 231 255
213 231 255
213 231 255
213 231 255
213 231 255
213 231 255
213 231 255
213 231 255
213 231 255
213 231 255
213 231 255
213 231 255
213 231 255
213 231 255
213 231 255
213 231 255
213 231 255
213 231 255
213 231 255
213 231 255
213 231 255
213 231 255
212 231 255
212 231 255
212 231 255
212 231 255
212 231 255
212 231 255
212 231 255
212 231 255
212 230 255
212 230 255
212 230 255
212 230 255
212 230 255
212 230 255
212 230 255
212 230 255
212 230 255
212 230 255
212 230 255
212 230 255
212 230 255
212 230 255
212 230 255
212 230 255
212 230 255
212 230 255
211 230 255
211 230 255
211 230 255
211 230 255
211 230 255
211 230 255
211 230 255
211 230 255
211 230 255
211 230 255
211 230 255
211 230 255
211 230 255
211 230 255
211 230 255
211 230 255
211 230 255
211 230 255
211 230 255
211 230 255
211 230 255
211 230 255
211 230 255
211 230 255
210 230 255
210 230 255
210 230 255
210 229 255
210 229 255
210 229 255
210 229 255
210 229 255
210 229 255
210 229 255
210 229 255
210 229 255
210 229 255
210 229 255
210 229 255
210 229 255
210 229 255
189 206 230
141 155 173
59 65 73
64 71 80
53 60 69
57 64 73
58 65 73
61 68 77
60 65 73
58 64 73
53 58 64
62 68 77
62 68 77
61 68 77
54 60 69
58 64 73
59 65 73
63 71 80
57 64 73
63 70 80
60 67 77
58 64 73
55 61 69
58 64 73
49 54 60
56 63 73
59 65 73
59 65 73
52 57 64
59 65 73
56 63 73
50 56 64
54 60 69
50 56 64
64 71 80
51 57 64
59 67 77
58 66 77
56 61 69
63 69 77
55 61 69
51 57 64
50 56 64
61 66 73
58 64 73
63 69 77
61 66 73
54 60 68
57 64 73
47 53 60
40 46 54
51 57 64
59 65 73
55 61 69
56 63 73
61 68 77
56 63 73
57 64 73
57 62 69
55 61 69
63 69 77
55 61 69
61 68 77
57 64 73
49 53 60
59 65 73
62 70 80
59 65 73
60 67 77
63 69 77
52 57 64
56 61 69
51 57 64
53 60 69
61 66 73
60 67 77
55 61 69
51 57 64
54 60 69
54 60 68
54 60 68
63 71 80
56 63 73
57 64 73
56 63 73
58 64 73
52 57 64
64 71 80
54 60 69
51 57 64
56 61 69
54 60 69
61 66 73
61 69 80
56 61 69
64 71 80
52 59 69
50 56 64
57 64 73
57 64 73
56 63 73
57 64 73
57 62 69
59 67 77
53 60 69
210 229 255
210 229 255
210 229 255
210 229 255
210 229 255
210 229 255
210 229 255
210 229 255
210 229 255
210 229 255
210 229 255
210 229 255
210 229 255
210 229 255
210 229 255
210 229 255
210 230 255
210 230 255
211 230 255
211 230 255
211 230 255
211 230 255
211 230 255
211 230 255
211 230 255
211 230 255
211 230 255
211 230 255
211 230 255
211 230 255
211 230 255
211 230 255
211 230 255
211 230 255
211 230 255
211 230 255
211 230 255
211 230 255
211 230 255
211 230 255
211 230 255
211 230 255
212 230 255
212 230 255
212 230 255
212 230 255
212 230 255
212 230 255
212 230 255
212 230 255
212 230 255
212 230 255
212 230 255
212 230 255
212 230 255
212 230 255
212 230 255
212 230 255
212 230 255
212 230 255
212 230 255
212 231 255
212 231 255
212 231 255
212 231 255
212 231 255
212 231 255
213 231 255
213 231 255
213 231 255
213 231 255
213 231 255
213 231 255
213 231 255
213 231 255
213 231 255
213 231 255
213 231 255
213 231 255
213 231 255
213 231 255
213 231 255
213 231 255
213 231 255
213 231 255
213 231 255
213 231 255
213 231 255
213 231 255
213 231 255
213 231 255
213 231 255
213 231 255
213 231 255
213 231 255
213 231 255
213 231 255
214 231 255
214 231 255
214 231 255
214 231 255
214 231 255
214 231 255
214 231 255
214 231 255
214 231 255
214 231 255
214 231 255
214 231 255
214 231 255
214 231 255
214 231 255
214 231 255
214 232 255
214 232 255
214 232 255
214 232 255
214 232 255
214 232 255
214 232 255
214 232 255
214 232 255
214 232 255
214 232 255
214 232 255
214 232 255
214 232 255
214 232 255
214 232 255
214 232 255
215 232 255
215 232 255
215 232 255
215 232 255
215 232 255
215 232 255
215 232 255
215 232 255
215 232 255
215 232 255
215 232 255
215 232 255
215 232 255
215 232 255
215 232 255
215 232 255
215 232 255
215 232 255
215 232 255
215 232 255
215 232 255
215 232 255
215 232 255
215 232 255
215 232 255
215 232 255
215 232 255
215 232 255
215 232 255
215 232 255
215 232 255
215 232 255
215 232 255
215 232 255
215 232 255
215 232 255
215 232 255
215 232 255
215 232 255
215 232 255
215 232 255
215 232 255
214 232 255
214 232 255
214 232 255
214 232 255
214 232 255
214 232 255
214 232 255
214 232 255
214 232 255
214 232 255
214 232 255
214 232 255
214 232 255
214 232 255
214 232 255
214 232 255
214 232 255
214 231 255
214 231 255
214 231 255
214 231 255
214 231 255
214 231 255
214 231 255
214 231 255
214 231 255
214 231 255
214 231 255
214 231 255
214 231 255
214 231 255
214 231 255
214 231 255
214 231 255
213 231 255
213 231 255
213 231 255
213 231 255
213 231 255
213 231 255
213 231 255
213 231 255
213 231 255
213 231 255
213 231 255
213 231 255
213 231 255
213 231 255
213 231 255
213 231 255
213 231 255
213 231 255
213 231 255
213 231 255
213 231 255
213 231 255
213 231 255
213 231 255
213 231 255
213 231 255
213 231 255
213 231 255
212 231 255
212 231 255
212 231 255
212 231 255
212 231 255
212 231 255
212 231 255
212 231 255
212 230 255
212 230 255
212 230 255
212 230 255
212 230 255
212 230 255
212 230 255
212 230 255
212 230 255
212 230 255
212 230 255
212 230 255
212 230 255
212 230 255
212 230 255
212 230 255
212 230 255
211 230 255
211 230 255
211 230 255
211 230 255
211 230 255
211 230 255
211 230 255
211 230 255
211 230 255
211 230 255
211 230 255
211 230 255
211 230 255
211 230 255
211 230 255
211 230 255
211 230 255
211 230 255
211 230 255
211 230 255
211 230 255
211 230 255
211 230 255
211 230 255
211 230 255
211 230 255
210 230 255
210 230 255
210 229 255
210 229 255
210 229 255
210 229 255
210 229 255
210 229 255
210 229 255
210 229 255
139 152 170
49 56 64
58 64 73
62 68 77
53 60 69
57 62 69
55 61 69
52 59 69
42 48 54
62 68 77
56 63 73
49 56 64
56 61 69
59 65 73
56 63 73
65 72 80
59 67 77
50 56 64
62 68 77
56 63 72
53 58 64
55 63 73
57 64 73
56 61 69
64 69 77
64 71 80
48 53 60
56 61 69
62 68 77
61 68 77
47 53 60
62 68 77
54 61 69
63 71 80
61 68 77
58 66 77
56 63 73
44 48 54
53 58 64
50 56 64
61 68 77
58 65 73
61 68 77
50 56 64
62 68 76
61 68 77
51 57 64
58 65 73
59 65 73
57 64 73
47 53 60
63 69 77
63 69 77
55 61 69
61 68 77
52 57 64
55 61 69
58 64 73
57 64 73
62 68 77
61 70 80
62 70 80
55 61 69
50 56 64
59 65 73
57 64 73
54 60 69
53 60 69
58 65 73
54 60 68
61 68 77
54 60 69
58 64 73
59 65 73
57 62 69
42 48 54
51 57 64
63 69 77
61 67 77
46 52 60
59 65 73
60 65 73
50 56 64
61 68 77
61 68 77
53 60 68
58 65 73
53 60 69
63 71 80
65 71 80
52 57 64
60 67 77
63 69 77
55 61 69
60 67 77
57 64 73
58 64 73
65 71 80
49 56 64
51 56 64
63 71 80
60 67 77
58 64 73
62 68 77
57 64 73
124 135 151
210 229 255
210 229 255
210 229 255
210 229 255
210 229 255
210 229 255
210 230 255
210 229 255
210 230 255
210 230 255
210 230 255
211 230 255
211 230 255
211 230 255
211 230 255
211 230 255
211 230 255
211 230 255
211 230 255
211 230 255
211 230 255
211 230 255
211 230 255
211 230 255
211 230 255
211 230 255
211 230 255
211 230 255
211 230 255
211 230 255
211 230 255
211 230 255
211 230 255
211 230 255
211 230 255
211 230 255
212 230 255
212 230 255
212 230 255
212 230 255
212 230 255
212 230 255
212 230 255
212 230 255
212 230 255
212 230 255
212 230 255
212 230 255
212 230 255
212 230 255
212 230 255
212 230 255
212 230 255
212 231 255
212 231 255
212 231 255
212 231 255
212 231 255
212 231 255
212 231 255
213 231 255
213 231 255
213 231 255
213 231 255
213 231 255
213 231 255
213 231 255
213 231 255
213 231 255
213 231 255
213 231 255
213 231 255
213 231 255
213 231 255
213 231 255
213 231 255
213 231 255
213 231 255
213 231 255
213 231 255
213 231 255
213 231 255
213 231 255
213 231 255
213 231 255
213 231 255
213 231 255
213 231 255
213 231 255
214 231 255
214 231 255
214 231 255
214 231 255
214 231 255
214 231 255
214 231 255
214 231 255
214 231 255
214 231 255
214 231 255
214 231 255
214 231 255
214 231 255
214 231 255
214 231 255
214 231 255
214 231 255
214 232 255
214 232 255
214 232 255
214 232 255
214 232 255
214 232 255
214 232 255
214 232 255
214 232 255
214 232 255
214 232 255
214 232 255
214 232 255
214 232 255
214 232 255
214 232 255
215 232 255
215 232 255
215 232 255
215 232 255
215 232 255
215 232 255
215 232 255
215 232 255
215 232 255
215 232 255
215 232 255
215 232 255
215 232 255
215 232 255
215 232 255
215 232 255
215 232 255
215 232 255
215 232 255
215 232 255
215 232 255
215 232 255
215 232 255
215 232 255
215 232 255
215 232 255
215 232 255
215 232 255
215 232 255
215 232 255
215 232 255
215 232 255
215 232 255
215 232 255
215 232 255
215 232 255
215 232 255
215 232 255
215 232 255
215 232 255
215 232 255
215 232 255
215 232 255
215 232 255
215 232 255
215 232 255
215 232 255
215 232 255
215 232 255
215 232 255
215 232 255
215 232 255
215 232 255
215 232 255
215 232 255
214 232 255
214 232 255
214 232 255
214 232 255
214 232 255
214 232 255
214 232 255
214 232 255
214 232 255
214 232 255
214 232 255
214 232 255
214 232 255
214 232 255
214 232 255
214 231 255
214 232 255
214 231 255
214 231 255
214 231 255
214 231 255
214 231 255
214 231 255
214 231 255
214 231 255
214 231 255
214 231 255
214 231 255
214 231 255
214 231 255
214 231 255
214 231 255
214 231 255
213 231 255
213 231 255
213 231 255
213 231 255
213 231 255
213 231 255
213 231 255
213 231 255
213 231 255
213 231 255
213 231 255
213 231 255
213 231 255
213 231 255
213 231 255
213 231 255
213 231 255
213 231 255
213 231 255
213 231 255
213 231 255
213 231 255
213 231 255
213 231 255
213 231 255
213 231 255
213 231 255
213 231 255
213 231 255
212 231 255
212 231 255
212 231 255
212 231 255
212 231 255
212 231 255
212 231 255
212 230 255
212 230 255
212 230 255
212 230 255
212 230 255
212 230 255
212 230 255
212 230 255
212 230 255
212 230 255
212 230 255
212 230 255
212 230 255
212 230 255
212 230 255
212 230 255
212 230 255
212 230 255
211 230 255
211 230 255
211 230 255
211 230 255
211 230 255
211 230 255
211 230 255
211 230 255
211 230 255
211 230 255
211 230 255
211 230 255
211 230 255
211 230 255
211 230 255
211 230 255
211 230 255
211 230 255
211 230 255
211 230 255
211 230 255
211 230 255
211 230 255
211 230 255
211 230 255
210 230 255
210 230 255
210 230 255
165 180 200
43 48 54
54 60 69
53 58 64
58 65 73
54 60 69
61 68 77
54 60 69
58 64 73
60 67 77
59 66 77
57 64 73
59 65 73
59 67 77
64 69 77
58 64 73
58 66 77
47 52 60
47 52 60
58 66 77
56 61 69
61 68 77
64 71 80
55 61 69
51 57 64
52 57 64
49 56 64
60 67 77
58 64 73
54 60 69
60 67 77
48 53 60
57 64 73
54 60 69
52 57 64
54 60 69
42 48 54
49 56 64
53 60 69
51 57 64
60 67 77
62 68 77
52 57 64
55 61 69
61 68 77
51 57 64
59 65 73
60 67 77
49 56 64
52 59 69
50 56 64
59 65 73
53 59 68
61 68 77
58 65 73
53 60 69
60 67 77
50 56 64
55 61 69
59 65 73
51 57 64
51 57 64
56 61 69
60 67 77
51 56 64
59 65 73
54 60 69
51 56 64
57 63 72
53 60 69
61 68 77
57 64 73
50 56 64
57 64 73
54 60 69
60 67 77
59 65 73
56 61 69
60 67 77
54 60 69
63 69 77
56 64 73
52 57 64
59 65 73
61 68 77
61 67 77
58 64 73
59 65 73
58 64 73
58 64 73
53 60 69
58 64 73
65 72 80
55 63 73
63 71 80
52 57 64
57 64 73
60 67 77
58 64 73
62 70 80
63 70 80
56 63 73
50 56 64
64 71 80
55 61 69
65 71 80
63 69 77
188 205 229
210 230 255
210 230 255
210 230 255
211 230 255
211 230 255
211 230 255
211 230 255
211 230 255
211 230 255
211 230 255
211 230 255
211 230 255
211 230 255
211 230 255
211 230 255
211 230 255
211 230 255
211 230 255
211 230 255
211 230 255
211 230 255
211 230 255
211 230 255
211 230 255
211 230 255
211 230 255
211 230 255
212 230 255
211 230 255
212 230 255
212 230 255
212 230 255
212 230 255
212 230 255
212 230 255
212 230 255
212 230 255
212 230 255
212 230 255
212 230 255
212 230 255
212 230 255
212 230 255
212 230 255
212 230 255
212 230 255
212 231 255
212 231 255
212 231 255
212 231 255
212 231 255
212 231 255
212 231 255
212 231 255
213 231 255
213 231 255
213 231 255
213 231 255
213 231 255
213 231 255
213 231 255
213 231 255
213 231 255
213 231 255
213 231 255
213 231 255
213 231 255
213 231 255
213 231 255
213 231 255
213 231 255
213 231 255
213 231 255
213 231 255
213 231 255
213 231 255
213 231 255
213 231 255
213 231 255
213 231 255
213 231 255
213 231 255
213 231 255
214 231 255
214 231 255
214 231 255
214 231 255
214 231 255
214 231 255
214 231 255
214 231 255
214 231 255
214 231 255
214 231 255
214 231 255
214 231 255
214 231 255
214 231 255
214 232 255
214 231 255
214 232 255
214 232 255
214 232 255
214 232 255
214 232 255
214 232 255
214 232 255
214 232 255
214 232 255
214 232 255
214 232 255
214 232 255
214 232 255
214 232 255
214 232 255
214 232 255
214 232 255
215 232 255
215 232 255
215 232 255
215 232 255
215 232 255
215 232 255
215 232 255
215 232 255
215 232 255
215 232 255
215 232 255
215 232 255
215 232 255
215 232 255
215 232 255
215 232 255
215 232 255
215 232 255
215 232 255
215 232 255
215 232 255
215 232 255
215 232 255
215 232 255
215 232 255
215 232 255
215 232 255
215 232 255
215 232 255
215 232 255
215 232 255
215 232 255
215 232 255
215 232 255
215 232 255
215 232 255
215 232 255
215 232 255
215 232 255
215 232 255
215 232 255
215 232 255
215 232 255
215 232 255
215 232 255
215 232 255
215 232 255
215 232 255
215 232 255
215 232 255
215 232 255
215 232 255
215 232 255
215 232 255
215 232 255
215 232 255
215 232 255
215 232 255
215 232 255
215 232 255
215 232 255
215 232 255
215 232 255
215 232 255
215 232 255
214 232 255
214 232 255
214 232 255
214 232 255
214 232 255
214 232 255
214 232 255
214 232 255
214 232 255
214 232 255
214 232 255
214 232 255
214 232 255
214 232 255
214 232 255
214 232 255
214 232 255
214 232 255
214 231 255
214 231 255
214 231 255
214 231 255
214 231 255
214 231 255
214 231 255
214 231 255
214 231 255
214 231 255
214 231 255
214 231 255
214 231 255
214 231 255
214 231 255
214 231 255
213 231 255
213 231 255
213 231 255
213 231 255
213 231 255
213 231 255
213 231 255
213 231 255
213 231 255
213 231 255
213 231 255
213 231 255
213 231 255
213 231 255
213 231 255
213 231 255
213 231 255
213 231 255
213 231 255
213 231 255
213 231 255
213 231 255
213 231 255
213 231 255
213 231 255
213 231 255
213 231 255
213 231 255
213 231 255
212 231 255
212 231 255
212 231 255
212 231 255
212 231 255
212 231 255
212 231 255
212 230 255
212 230 255
212 230 255
212 230 255
212 230 255
212 230 255
212 230 255
212 230 255
212 230 255
212 230 255
212 230 255
212 230 255
212 230 255
212 230 255
212 230 255
212 230 255
212 230 255
212 230 255
212 230 255
211 230 255
211 230 255
211 230 255
211 230 255
211 230 255
211 230 255
211 230 255
211 230 255
211 230 255
211 230 255
211 230 255
211 230 255
211 230 255
211 230 255
211 230 255
211 230 255
211 230 255
211 230 255
211 230 255
211 230 255
201 219 244
58 64 73
60 67 77
60 65 73
59 67 77
63 71 80
57 64 73
58 64 73
56 63 73
51 57 64
55 61 69
60 67 77
48 55 64
58 64 73
59 67 77
52 57 64
61 68 77
50 56 64
54 60 69
56 63 73
55 61 69
55 61 69
57 62 69
57 64 73
57 64 73
54 60 69
57 64 73
61 68 77
58 64 73
46 52 60
54 60 69
57 64 73
65 71 80
54 60 69
55 61 69
47 53 60
56 62 69
58 64 73
54 60 69
54 60 69
58 62 69
56 63 73
60 66 73
53 60 69
54 60 69
55 61 69
61 68 77
46 52 60
55 61 69
58 64 73
55 61 69
56 61 69
56 61 69
57 62 69
55 61 69
51 57 64
45 51 58
56 62 69
61 68 77
59 67 77
63 69 77
59 67 77
50 56 64
48 53 60
61 68 77
46 51 59
61 68 77
61 68 77
54 60 69
58 64 73
57 64 73
51 57 64
48 53 60
56 63 73
52 57 64
61 68 77
63 69 77
49 53 60
52 57 64
54 61 69
53 60 69
55 61 69
58 66 77
54 60 69
58 64 73
63 69 77
58 65 73
61 68 77
53 58 64
61 68 77
54 61 69
58 64 73
56 61 69
53 60 69
60 65 73
66 72 80
57 62 68
52 59 68
53 60 69
51 57 64
60 67 77
51 57 64
63 70 80
59 67 77
62 68 77
60 65 73
57 64 73
37 42 49
85 94 106
201 219 244
211 230 255
211 230 255
211 230 255
211 230 255
211 230 255
211 230 255
211 230 255
211 230 255
211 230 255
211 230 255
211 230 255
211 230 255
211 230 255
211 230 255
211 230 255
211 230 255
211 230 255
211 230 255
211 230 255
211 230 255
212 230 255
212 230 255
212 230 255
212 230 255
212 230 255
212 230 255
212 230 255
212 230 255
212 230 255
212 230 255
212 230 255
212 230 255
212 230 255
212 230 255
212 230 255
212 230 255
212 230 255
212 230 255
212 231 255
212 231 255
212 231 255
212 231 255
212 231 255
212 231 255
212 231 255
212 231 255
212 231 255
213 231 255
213 231 255
213 231 255
213 231 255
213 231 255
213 231 255
213 231 255
213 231 255
213 231 255
213 231 255
213 231 255
213 231 255
213 231 255
213 231 255
213 231 255
213 231 255
213 231 255
213 231 255
213 231 255
213 231 255
213 231 255
213 231 255
213 231 255
213 231 255
213 231 255
213 231 255
213 231 255
213 231 255
213 231 255
214 231 255
214 231 255
214 231 255
214 231 255
214 231 255
214 231 255
214 231 255
214 231 255
214 231 255
214 231 255
214 231 255
214 231 255
214 231 255
214 231 255
214 231 255
214 231 255
214 232 255
214 232 255
214 232 255
214 232 255
214 232 255
214 232 255
214 232 255
214 232 255
214 232 255
214 232 255
214 232 255
214 232 255
214 232 255
214 232 255
214 232 255
214 232 255
214 232 255
215 232 255
215 232 255
215 232 255
215 232 255
215 232 255
215 232 255
215 232 255
215 232 255
215 232 255
215 232 255
215 232 255
215 232 255
215 232 255
215 232 255
215 232 255
215 232 255
215 232 255
215 232 255
215 232 255
215 232 255
215 232 255
215 232 255
215 232 255
215 232 255
215 232 255
215 232 255
215 232 255
215 232 255
215 232 255
215 232 255
215 232 255
215 232 255
215 232 255
215 232 255
215 232 255
215 232 255
216 232 255
215 232 255
216 232 255
215 232 255
215 232 255
215 232 255
215 232 255
215 232 255
215 232 255
215 232 255
215 232 255
215 232 255
215 232 255
215 232 255
215 232 255
215 232 255
215 232 255
215 232 255
215 232 255
215 232 255
215 232 255
215 232 255
215 232 255
215 232 255
215 232 255
215 232 255
215 232 255
215 232 255
215 232 255
215 232 255
215 232 255
215 232 255
215 232 255
215 232 255
215 232 255
215 232 255
215 232 255
215 232 255
215 232 255
215 232 255
215 232 255
215 232 255
215 232 255
215 232 255
214 232 255
214 232 255
214 232 255
214 232 255
214 232 255
214 232 255
214 232 255
214 232 255
214 232 255
214 232 255
214 232 255
214 232 255
214 232 255
214 232 255
214 232 255
214 232 255
214 232 255
214 231 255
214 231 255
214 231 255
214 231 255
214 231 255
214 231 255
214 231 255
214 231 255
214 231 255
214 231 255
214 231 255
214 231 255
214 231 255
214 231 255
214 231 255
213 231 255
213 231 255
213 231 255
213 231 255
213 231 255
213 231 255
213 231 255
213 231 255
213 231 255
213 231 255
213 231 255
213 231 255
213 231 255
213 231 255
213 231 255
213 231 255
213 231 255
213 231 255
213 231 255
213 231 255
213 231 255
213 231 255
213 231 255
213 231 255
213 231 255
213 231 255
213 231 255
213 231 255
213 231 255
212 231 255
212 231 255
212 231 255
212 231 255
212 231 255
212 231 255
212 231 255
212 230 255
212 230 255
212 230 255
212 230 255
212 230 255
212 230 255
212 230 255
212 230 255
212 230 255
212 230 255
212 230 255
212 230 255
212 230 255
212 230 255
212 230 255
212 230 255
212 230 255
212 230 255
212 230 255
212 230 255
211 230 255
211 230 255
211 230 255
211 230 255
211 230 255
211 230 255
211 230 255
211 230 255
211 230 255
211 230 255
211 230 255
211 230 255
211 230 255
104 113 126
63 70 80
59 65 73
62 68 77
55 61 69
62 68 77
56 62 69
58 64 73
59 65 73
60 65 73
59 67 77
54 60 69
59 67 77
55 61 69
55 61 69
52 57 64
62 68 77
48 53 60
57 64 72
54 60 69
53 60 69
51 56 64
62 68 77
62 68 77
52 57 64
52 59 69
49 56 64
64 71 80
62 68 77
57 64 73
63 69 77
60 67 77
58 64 73
51 57 64
58 64 72
53 60 69
52 57 64
59 65 73
56 61 69
50 56 64
57 62 69
60 67 77
53 60 69
56 61 69
55 61 69
52 57 64
52 57 64
55 61 69
52 57 64
59 65 73
62 68 77
62 68 77
45 51 60
59 65 73
52 57 64
58 64 73
51 56 64
61 68 77
56 63 73
53 60 69
62 68 77
58 64 73
53 60 69
52 59 68
58 65 73
63 69 77
51 57 64
62 69 77
54 58 64
40 44 49
51 57 64
49 56 64
58 64 73
53 58 64
56 61 69
46 52 60
59 65 73
61 67 77
55 61 69
52 59 69
44 48 54
57 64 73
62 68 77
61 68 77
49 54 60
63 70 80
59 65 73
53 58 64
59 65 73
58 64 73
50 56 64
53 60 69
56 63 73
55 61 69
59 65 73
52 57 64
58 64 73
53 59 68
54 60 69
63 69 77
59 65 73
56 62 69
58 64 73
55 60 68
46 52 60
50 56 64
56 61 69
61 68 77
52 57 64
140 152 170
211 230 255
211 230 255
211 230 255
211 230 255
211 230 255
211 230 255
211 230 255
211 230 255
211 230 255
211 230 255
211 230 255
211 230 255
212 230 255
211 230 255
212 230 255
212 230 255
212 230 255
212 230 255
212 230 255
212 230 255
212 230 255
212 230 255
212 230 255
212 230 255
212 230 255
212 230 255
212 230 255
212 230 255
212 230 255
212 230 255
212 230 255
212 230 255
212 231 255
212 231 255
212 231 255
212 231 255
212 231 255
212 231 255
212 231 255
212 231 255
213 231 255
213 231 255
213 231 255
213 231 255
213 231 255
213 231 255
213 231 255
213 231 255
213 231 255
213 231 255
213 231 255
213 231 255
213 231 255
213 231 255
213 231 255
213 231 255
213 231 255
213 231 255
213 231 255
213 231 255
213 231 255
213 231 255
213 231 255
213 231 255
213 231 255
213 231 255
213 231 255
213 231 255
214 231 255
214 231 255
214 231 255
214 231 255
214 231 255
214 231 255
214 231 255
214 231 255
214 231 255
214 231 255
214 231 255
214 231 255
214 231 255
214 231 255
214 231 255
214 231 255
214 231 255
214 232 255
214 232 255
214 232 255
214 232 255
214 232 255
214 232 255
214 232 255
214 232 255
214 232 255
214 232 255
214 232 255
214 232 255
214 232 255
214 232 255
214 232 255
214 232 255
215 232 255
215 232 255
215 232 255
215 232 255
215 232 255
215 232 255
215 232 255
215 232 255
215 232 255
215 232 255
215 232 255
215 232 255
215 232 255
215 232 255
215 232 255
215 232 255
215 232 255
215 232 255
215 232 255
215 232 255
215 232 255
215 232 255
215 232 255
215 232 255
215 232 255
215 232 255
215 232 255
215 232 255
215 232 255
215 232 255
215 232 255
215 232 255
215 232 255
215 232 255
215 232 255
215 232 255
215 232 255
215 232 255
215 232 255
215 232 255
215 232 255
216 232 255
216 232 255
216 232 255
216 232 255
216 232 255
216 232 255
216 232 255
216 232 255
216 232 255
216 232 255
216 232 255
216 232 255
216 232 255
215 232 255
215 232 255
215 232 255
215 232 255
215 232 255
215 232 255
215 232 255
215 232 255
215 232 255
215 232 255
215 232 255
215 232 255
215 232 255
215 232 255
215 232 255
215 232 255
215 232 255
215 232 255
215 232 255
215 232 255
215 232 255
215 232 255
215 232 255
215 232 255
215 232 255
215 232 255
215 232 255
215 232 255
215 232 255
215 232 255
215 232 255
215 232 255
215 232 255
215 232 255
215 232 255
215 232 255
215 232 255
215 232 255
215 232 255
215 232 255
215 232 255
214 232 255
214 232 255
214 232 255
214 232 255
214 232 255
214 232 255
214 232 255
214 232 255
214 232 255
214 232 255
214 232 255
214 232 255
214 232 255
214 232 255
214 232 255
214 232 255
214 231 255
214 231 255
214 231 255
214 231 255
214 231 255
214 231 255
214 231 255
214 231 255
214 231 255
214 231 255
214 231 255
214 231 255
214 231 255
214 231 255
214 231 255
213 231 255
213 231 255
213 231 255
213 231 255
213 231 255
213 231 255
213 231 255
213 231 255
213 231 255
213 231 255
213 231 255
213 231 255
213 231 255
213 231 255
213 231 255
213 231 255
213 231 255
213 231 255
213 231 255
213 231 255
213 231 255
213 231 255
213 231 255
213 231 255
213 231 255
213 231 255
213 231 255
213 231 255
213 231 255
212 231 255
212 231 255
212 231 255
212 231 255
212 231 255
212 231 255
212 231 255
212 231 255
212 230 255
212 230 255
212 230 255
212 230 255
212 230 255
212 230 255
212 230 255
212 230 255
212 230 255
212 230 255
212 230 255
212 230 255
212 230 255
212 230 255
212 230 255
212 230 255
212 230 255
212 230 255
212 230 255
212 230 255
211 230 255
211 230 255
211 230 255
211 230 255
211 230 255
201 219 244
53 60 69
46 52 60
62 68 77
61 68 77
46 52 60
57 64 73
56 63 73
55 61 69
58 64 73
47 53 60
55 61 69
55 61 68
59 65 73
56 61 69
55 61 69
51 57 64
58 64 73
62 68 77
58 64 73
61 68 77
53 58 64
55 61 69
62 68 77
56 61 69
51 57 64
39 43 49
51 57 64
56 63 73
57 64 73
62 68 77
61 68 77
63 69 77
65 70 77
50 56 64
66 72 80
48 53 60
51 57 64
46 52 60
50 56 64
54 60 69
58 64 73
61 68 77
52 57 64
59 67 77
57 64 73
54 60 69
54 60 69
50 56 64
56 63 73
54 60 69
55 61 69
56 63 73
60 67 77
58 64 73
56 61 69
58 64 73
47 52 59
60 67 77
57 62 69
51 57 64
53 60 68
58 64 73
64 71 80
52 57 64
50 56 64
55 60 68
57 64 73
53 60 69
56 63 73
56 61 69
61 68 77
54 60 68
55 61 69
59 65 73
59 65 73
49 56 64
57 64 73
63 69 77
58 62 69
59 65 73
62 68 77
56 61 69
53 58 64
62 68 77
64 71 80
64 71 80
55 61 68
58 65 73
54 60 69
55 61 68
59 65 73
47 52 60
57 64 73
53 60 68
54 60 69
64 71 80
52 59 69
57 64 73
52 57 64
59 65 73
60 67 77
58 64 72
46 52 60
61 68 77
59 65 73
53 60 69
58 64 73
53 58 64
55 60 68
55 61 69
211 230 255
211 230 255
211 230 255
211 230 255
211 230 255
211 230 255
212 230 255
212 230 255
212 230 255
212 230 255
212 230 255
212 230 255
212 230 255
212 230 255
212 230 255
212 230 255
212 230 255
212 230 255
212 230 255
212 230 255
212 230 255
212 230 255
212 230 255
212 230 255
212 230 255
212 230 255
212 231 255
212 231 255
212 231 255
212 231 255
212 231 255
212 231 255
212 231 255
213 231 255
213 231 255
213 231 255
213 231 255
213 231 255
213 231 255
213 231 255
213 231 255
213 231 255
213 231 255
213 231 255
213 231 255
213 231 255
213 231 255
213 231 255
213 231 255
213 231 255
213 231 255
213 231 255
213 231 255
213 231 255
213 231 255
213 231 255
213 231 255
213 231 255
213 231 255
213 231 255
213 231 255
213 231 255
214 231 255
214 231 255
214 231 255
214 231 255
214 231 255
214 231 255
214 231 255
214 231 255
214 231 255
214 231 255
214 231 255
214 231 255
214 231 255
214 231 255
214 231 255
214 231 255
214 232 255
214 232 255
214 232 255
214 232 255
214 232 255
214 232 255
214 232 255
214 232 255
214 232 255
214 232 255
214 232 255
214 232 255
214 232 255
214 232 255
214 232 255
214 232 255
214 232 255
215 232 255
215 232 255
215 232 255
215 232 255
215 232 255
215 232 255
215 232 255
215 232 255
215 232 255
215 232 255
215 232 255
215 232 255
215 232 255
215 232 255
215 232 255
215 232 255
215 232 255
215 232 255
215 232 255
215 232 255
215 232 255
215 232 255
215 232 255
215 232 255
215 232 255
215 232 255
215 232 255
215 232 255
215 232 255
215 232 255
215 232 255
215 232 255
215 232 255
215 232 255
215 232 255
215 232 255
215 232 255
215 232 255
215 232 255
215 232 255
216 232 255
216 232 255
216 232 255
216 232 255
216 232 255
216 232 255
216 232 255
216 232 255
216 232 255
216 232 255
216 233 255
216 233 255
216 233 255
216 233 255
216 232 255
216 232 255
216 232 255
216 232 255
216 232 255
216 232 255
216 232 255
216 232 255
216 232 255
216 232 255
216 232 255
216 232 255
216 232 255
216 232 255
215 232 255
215 232 255
215 232 255
215 232 255
215 232 255
215 232 255
215 232 255
215 232 255
215 232 255
215 232 255
215 232 255
215 232 255
215 232 255
215 232 255
215 232 255
215 232 255
215 232 255
215 232 255
215 232 255
215 232 255
215 232 255
215 232 255
215 232 255
215 232 255
215 232 255
215 232 255
215 232 255
215 232 255
215 232 255
215 232 255
215 232 255
215 232 255
215 232 255
215 232 255
215 232 255
215 232 255
215 232 255
215 232 255
214 232 255
214 232 255
214 232 255
214 232 255
214 232 255
214 232 255
214 232 255
214 232 255
214 232 255
214 232 255
214 232 255
214 232 255
214 232 255
214 232 255
214 232 255
214 232 255
214 232 255
214 232 255
214 231 255
214 231 255
214 231 255
214 231 255
214 231 255
214 231 255
214 231 255
214 231 255
214 231 255
214 231 255
214 231 255
214 231 255
214 231 255
214 231 255
214 231 255
213 231 255
213 231 255
213 231 255
213 231 255
213 231 255
213 231 255
213 231 255
213 231 255
213 231 255
213 231 255
213 231 255
213 231 255
213 231 255
213 231 255
213 231 255
213 231 255
213 231 255
213 231 255
213 231 255
213 231 255
213 231 255
213 231 255
213 231 255
213 231 255
213 231 255
213 231 255
213 231 255
213 231 255
213 231 255
212 231 255
212 231 255
212 231 255
212 231 255
212 231 255
212 231 255
212 231 255
212 231 255
212 231 255
212 230 255
212 230 255
212 230 255
212 230 255
212 230 255
212 230 255
212 230 255
212 230 255
212 230 255
212 230 255
212 230 255
212 230 255
212 230 255
212 230 255
212 230 255
212 230 255
212 230 255
125 137 153
52 57 64
53 60 69
59 65 73
58 64 73
61 68 77
54 58 64
48 53 60
49 56 64
54 60 69
54 60 69
47 52 60
56 63 73
50 56 64
60 67 77
60 67 77
51 57 64
60 67 77
54 60 69
51 57 64
54 60 69
49 55 64
56 61 69
44 48 54
49 56 64
59 65 73
55 61 69
58 64 73
51 57 64
54 60 68
55 61 69
55 61 69
49 53 60
56 61 69
63 69 77
46 52 60
58 64 73
59 65 73
47 52 60
51 57 64
55 61 69
51 56 64
51 56 64
48 53 59
54 60 69
57 62 69
52 57 64
43 48 54
49 56 64
55 61 69
58 64 73
56 61 69
42 48 54
54 60 69
59 65 73
62 68 77
60 67 77
58 64 73
61 68 77
61 68 77
60 65 73
59 65 73
49 54 60
46 52 60
56 63 73
54 60 69
62 70 80
61 68 77
53 60 69
58 64 73
56 63 73
56 61 69
60 66 73
62 69 77
55 61 69
50 56 64
58 62 69
60 67 77
60 65 73
61 68 77
56 61 68
62 68 77
62 68 77
58 64 73
62 68 77
53 60 69
55 61 69
59 65 73
51 57 64
58 64 73
58 64 72
55 61 69
60 67 77
51 57 64
57 64 73
55 61 68
61 67 77
59 65 73
52 57 64
58 64 73
57 64 73
59 65 73
43 48 54
56 63 73
60 65 73
55 61 69
53 60 69
61 66 73
56 63 73
60 65 73
55 61 69
87 96 108
212 230 255
212 230 255
212 230 255
212 230 255
212 230 255
212 230 255
212 230 255
212 230 255
212 230 255
212 230 255
212 230 255
212 230 255
212 230 255
212 230 255
212 230 255
212 230 255
212 230 255
212 231 255
212 231 255
212 231 255
212 231 255
212 231 255
212 231 255
212 231 255
212 231 255
213 231 255
212 231 255
213 231 255
213 231 255
213 231 255
213 231 255
213 231 255
213 231 255
213 231 255
213 231 255
213 231 255
213 231 255
213 231 255
213 231 255
213 231 255
213 231 255
213 231 255
213 231 255
213 231 255
213 231 255
213 231 255
213 231 255
213 231 255
213 231 255
213 231 255
213 231 255
213 231 255
213 231 255
213 231 255
213 231 255
214 231 255
214 231 255
214 231 255
214 231 255
214 231 255
214 231 255
214 231 255
214 231 255
214 231 255
214 231 255
214 231 255
214 231 255
214 231 255
214 231 255
214 231 255
214 231 255
214 231 255
214 232 255
214 232 255
214 232 255
214 232 255
214 232 255
214 232 255
214 232 255
214 232 255
214 232 255
214 232 255
214 232 255
214 232 255
214 232 255
214 232 255
215 232 255
215 232 255
215 232 255
215 232 255
215 232 255
215 232 255
215 232 255
215 232 255
215 232 255
215 232 255
215 232 255
215 232 255
215 232 255
215 232 255
215 232 255
215 232 255
215 232 255
215 232 255
215 232 255
215 232 255
215 232 255
215 232 255
215 232 255
215 232 255
215 232 255
215 232 255
215 232 255
215 232 255
215 232 255
215 232 255
215 232 255
215 232 255
215 232 255
215 232 255
215 232 255
215 232 255
215 232 255
215 232 255
215 232 255
215 232 255
216 232 255
216 232 255
216 232 255
216 232 255
216 232 255
216 232 255
216 232 255
216 232 255
216 232 255
216 232 255
216 232 255
216 232 255
216 232 255
216 232 255
216 233 255
216 233 255
216 233 255
216 233 255
216 233 255
216 233 255
216 233 255
216 233 255
216 233 255
216 233 255
216 233 255
216 233 255
216 233 255
216 233 255
216 233 255
216 232 255
216 232 255
216 232 255
216 232 255
216 232 255
216 232 255
216 232 255
216 232 255
216 232 255
216 232 255
216 232 255
216 232 255
216 232 255
216 232 255
216 232 255
215 232 255
215 232 255
215 232 255
215 232 255
215 232 255
215 232 255
215 232 255
215 232 255
215 232 255
215 232 255
215 232 255
215 232 255
215 232 255
215 232 255
215 232 255
215 232 255
215 232 255
215 232 255
215 232 255
215 232 255
215 232 255
215 232 255
215 232 255
215 232 255
215 232 255
215 232 255
215 232 255
215 232 255
215 232 255
215 232 255
215 232 255
215 232 255
215 232 255
215 232 255
215 232 255
215 232 255
215 232 255
215 232 255
214 232 255
214 232 255
214 232 255
214 232 255
214 232 255
214 232 255
214 232 255
214 232 255
214 232 255
214 232 255
214 232 255
214 232 255
214 232 255
214 232 255
214 232 255
214 232 255
214 232 255
214 231 255
214 231 255
214 231 255
214 231 255
214 231 255
214 231 255
214 231 255
214 231 255
214 231 255
214 231 255
214 231 255
214 231 255
214 231 255
214 231 255
214 231 255
213 231 255
213 231 255
213 231 255
213 231 255
213 231 255
213 231 255
213 231 255
213 231 255
213 231 255
213 231 255
213 231 255
213 231 255
213 231 255
213 231 255
213 231 255
213 231 255
213 231 255
213 231 255
213 231 255
213 231 255
213 231 255
213 231 255
213 231 255
213 231 255
213 231 255
213 231 255
213 231 255
213 231 255
213 231 255
212 231 255
212 231 255
212 231 255
212 231 255
212 231 255
212 231 255
212 231 255
212 231 255
212 231 255
212 230 255
212 230 255
212 230 255
212 230 255
212 230 255
212 230 255
212 230 255
212 230 255
212 230 255
155 169 188
64 71 80
57 64 73
56 64 73
60 65 73
53 60 69
53 60 69
59 65 73
54 60 69
46 52 60
53 60 69
65 72 80
47 53 60
55 61 69
58 65 73
62 68 77
49 55 64
46 52 60
51 57 64
50 56 64
53 60 69
61 68 77
58 65 73
57 64 73
49 56 64
60 66 73
63 69 77
50 56 64
60 67 77
41 47 54
59 65 73
56 61 69
59 65 73
55 61 69
59 65 73
44 48 54
58 64 73
52 57 64
53 60 69
44 48 54
48 53 60
56 61 69
51 57 64
59 65 73
56 63 73
47 52 60
61 68 77
52 57 64
61 68 77
60 65 73
54 61 69
54 60 69
48 53 60
55 60 68
62 68 77
63 69 77
53 58 64
40 44 49
55 61 69
62 68 77
55 61 69
55 61 69
54 60 69
58 64 73
58 64 73
62 68 77
63 69 77
59 65 73
60 65 73
58 64 73
54 60 69
57 64 73
57 64 73
52 57 64
51 57 64
47 53 60
57 62 69
61 68 77
60 65 73
48 53 60
49 53 60
48 53 60
57 61 68
57 64 73
55 61 69
62 68 77
52 57 64
58 65 73
46 52 60
62 68 77
51 57 64
54 60 69
51 57 64
52 59 69
59 65 73
60 66 73
49 55 64
45 51 60
60 67 77
54 60 69
65 72 80
49 56 64
60 65 73
53 59 68
62 68 77
50 54 60
57 64 73
54 60 68
59 65 73
63 70 80
54 60 68
50 56 64
59 65 73
124 136 151
212 230 255
212 230 255
212 230 255
212 230 255
212 230 255
212 230 255
212 230 255
212 230 255
212 230 255
212 231 255
212 231 255
212 231 255
212 231 255
212 231 255
212 231 255
212 231 255
212 231 255
213 231 255
213 231 255
213 231 255
213 231 255
213 231 255
213 231 255
213 231 255
213 231 255
213 231 255
213 231 255
213 231 255
213 231 255
213 231 255
213 231 255
213 231 255
213 231 255
213 231 255
213 231 255
213 231 255
213 231 255
213 231 255
213 231 255
213 231 255
213 231 255
213 231 255
213 231 255
213 231 255
213 231 255
213 231 255
213 231 255
214 231 255
214 231 255
214 231 255
214 231 255
214 231 255
214 231 255
214 231 255
214 231 255
214 231 255
214 231 255
214 231 255
214 231 255
214 231 255
214 231 255
214 231 255
214 231 255
214 231 255
214 232 255
214 232 255
214 232 255
214 232 255
214 232 255
214 232 255
214 232 255
214 232 255
214 232 255
214 232 255
214 232 255
214 232 255
214 232 255
214 232 255
215 232 255
215 232 255
215 232 255
215 232 255
215 232 255
215 232 255
215 232 255
215 232 255
215 232 255
215 232 255
215 232 255
215 232 255
215 232 255
215 232 255
215 232 255
215 232 255
215 232 255
215 232 255
215 232 255
215 232 255
215 232 255
215 232 255
215 232 255
215 232 255
215 232 255
215 232 255
215 232 255
215 232 255
215 232 255
215 232 255
215 232 255
215 232 255
215 232 255
215 232 255
215 232 255
215 232 255
215 232 255
215 232 255
215 232 255
216 232 255
215 232 255
216 232 255
216 232 255
216 232 255
216 232 255
216 232 255
216 232 255
216 232 255
216 232 255
216 232 255
216 232 255
216 232 255
216 232 255
216 232 255
216 233 255
216 233 255
216 233 255
216 233 255
216 233 255
216 233 255
216 233 255
216 233 255
216 233 255
216 233 255
216 233 255
216 233 255
216 233 255
216 233 255
216 233 255
216 233 255
216 233 255
216 233 255
216 233 255
216 233 255
216 233 255
216 233 255
216 233 255
216 233 255
216 233 255
216 233 255
216 233 255
216 233 255
216 233 255
216 233 255
216 233 255
216 232 255
216 232 255
216 232 255
216 232 255
216 232 255
216 232 255
216 232 255
216 232 255
216 232 255
216 232 255
216 232 255
216 232 255
216 232 255
215 232 255
216 232 255
215 232 255
215 232 255
215 232 255
215 232 255
215 232 255
215 232 255
215 232 255
215 232 255
215 232 255
215 232 255
215 232 255
215 232 255
215 232 255
215 232 255
215 232 255
215 232 255
215 232 255
215 232 255
215 232 255
215 232 255
215 232 255
215 232 255
215 232 255
215 232 255
215 232 255
215 232 255
215 232 255
215 232 255
215 232 255
215 232 255
215 232 255
215 232 255
215 232 255
215 232 255
215 232 255
215 232 255
214 232 255
214 232 255
214 232 255
214 232 255
214 232 255
214 232 255
214 232 255
214 232 255
214 232 255
214 232 255
214 232 255
214 232 255
214 232 255
214 232 255
214 232 255
214 232 255
214 232 255
214 231 255
214 231 255
214 231 255
214 231 255
214 231 255
214 231 255
214 231 255
214 231 255
214 231 255
214 231 255
214 231 255
214 231 255
214 231 255
214 231 255
214 231 255
214 231 255
213 231 255
213 231 255
213 231 255
213 231 255
213 231 255
213 231 255
213 231 255
213 231 255
213 231 255
213 231 255
213 231 255
213 231 255
213 231 255
213 231 255
213 231 255
213 231 255
213 231 255
213 231 255
213 231 255
213 231 255
213 231 255
213 231 255
213 231 255
213 231 255
213 231 255
213 231 255
213 231 255
213 231 255
213 231 255
212 231 255
212 231 255
212 231 255
212 231 255
212 231 255
212 231 255
212 231 255
212 231 255
212 231 255
201 219 242
59 65 73
55 61 69
52 59 69
59 65 73
46 52 60
56 61 69
56 64 73
59 67 77
65 71 80
54 60 69
56 62 69
51 56 64
51 57 64
64 71 80
54 60 69
51 57 64
48 53 60
54 60 69
53 59 68
58 64 73
45 51 59
48 55 64
52 59 69
58 64 73
63 70 80
56 61 69
60 67 77
52 57 64
54 60 69
53 59 68
48 53 60
62 68 77
52 59 69
57 62 69
52 57 64
58 64 73
51 56 64
62 68 77
48 52 59
59 65 73
53 60 69
57 64 72
43 48 54
54 58 64
59 65 73
60 67 77
47 52 60
57 64 73
55 61 69
47 52 60
59 67 77
59 65 73
62 68 77
48 53 60
57 64 73
55 63 73
51 57 64
52 57 64
54 60 69
57 64 73
61 68 77
60 67 77
47 52 60
52 57 64
58 65 73
42 47 54
52 57 64
57 64 73
53 60 69
51 57 64
58 64 73
60 67 77
62 68 77
61 68 77
58 64 73
58 64 72
44 50 59
55 61 69
64 69 77
62 68 77
58 64 73
48 53 60
49 53 60
55 61 69
62 68 77
65 71 80
59 67 77
46 52 60
63 71 80
58 64 73
62 68 77
50 56 64
61 66 73
60 67 77
48 53 60
52 57 64
54 61 69
58 64 73
52 57 64
65 72 80
58 64 73
46 52 60
46 52 60
60 67 77
60 66 73
59 67 77
62 69 77
59 65 73
57 64 73
54 60 69
59 65 73
39 43 49
55 61 69
82 90 100
181 196 218
212 231 255
212 231 255
212 231 255
212 231 255
212 231 255
212 231 255
212 231 255
212 231 255
213 231 255
213 231 255
213 231 255
213 231 255
213 231 255
213 231 255
213 231 255
213 231 255
213 231 255
213 231 255
213 231 255
213 231 255
213 231 255
213 231 255
213 231 255
213 231 255
213 231 255
213 231 255
213 231 255
213 231 255
213 231 255
213 231 255
213 231 255
213 231 255
213 231 255
213 231 255
213 231 255
213 231 255
213 231 255
213 231 255
214 231 255
214 231 255
214 231 255
214 231 255
214 231 255
214 231 255
214 231 255
214 231 255
214 231 255
214 231 255
214 231 255
214 231 255
214 231 255
214 231 255
214 231 255
214 231 255
214 232 255
214 232 255
214 232 255
214 232 255
214 232 255
214 232 255
214 232 255
214 232 255
214 232 255
214 232 255
214 232 255
214 232 255
214 232 255
214 232 255
214 232 255
214 232 255
215 232 255
215 232 255
215 232 255
215 232 255
215 232 255
215 232 255
215 232 255
215 232 255
215 232 255
215 232 255
215 232 255
215 232 255
215 232 255
215 232 255
215 232 255
215 232 255
215 232 255
215 232 255
215 232 255
215 232 255
215 232 255
215 232 255
215 232 255
215 232 255
215 232 255
215 232 255
215 232 255
215 232 255
215 232 255
215 232 255
215 232 255
215 232 255
215 232 255
215 232 255
215 232 255
215 232 255
215 232 255
215 232 255
215 232 255
216 232 255
216 232 255
216 232 255
216 232 255
216 232 255
216 232 255
216 232 255
216 232 255
216 232 255
216 232 255
216 232 255
216 232 255
216 232 255
216 232 255
216 233 255
216 233 255
216 233 255
216 233 255
216 233 255
216 233 255
216 233 255
216 233 255
216 233 255
216 233 255
216 233 255
216 233 255
216 233 255
216 233 255
216 233 255
216 233 255
216 233 255
216 233 255
216 233 255
216 233 255
216 233 255
216 233 255
216 233 255
216 233 255
216 233 255
216 233 255
216 233 255
216 233 255
216 233 255
216 233 255
216 233 255
216 233 255
216 233 255
216 233 255
216 233 255
216 233 255
216 233 255
216 233 255
216 233 255
216 233 255
216 233 255
216 233 255
216 233 255
216 233 255
216 233 255
216 233 255
216 232 255
216 232 255
216 232 255
216 232 255
216 232 255
216 232 255
216 232 255
216 232 255
216 232 255
216 232 255
216 232 255
216 232 255
216 232 255
216 232 255
215 232 255
215 232 255
215 232 255
215 232 255
215 232 255
215 232 255
215 232 255
215 232 255
215 232 255
215 232 255
215 232 255
215 232 255
215 232 255
215 232 255
215 232 255
215 232 255
215 232 255
215 232 255
215 232 255
215 232 255
215 232 255
215 232 255
215 232 255
215 232 255
215 232 255
215 232 255
215 232 255
215 232 255
215 232 255
215 232 255
215 232 255
215 232 255
215 232 255
215 232 255
215 232 255
215 232 255
215 232 255
214 232 255
214 232 255
214 232 255
214 232 255
214 232 255
214 232 255
214 232 255
214 232 255
214 232 255
214 232 255
214 232 255
214 232 255
214 232 255
214 232 255
214 232 255
214 232 255
214 232 255
214 231 255
214 231 255
214 231 255
214 231 255
214 231 255
214 231 255
214 231 255
214 231 255
214 231 255
214 231 255
214 231 255
214 231 255
214 231 255
214 231 255
214 231 255
214 231 255
213 231 255
213 231 255
213 231 255
213 231 255
213 231 255
213 231 255
213 231 255
213 231 255
213 231 255
213 231 255
213 231 255
213 231 255
213 231 255
213 231 255
213 231 255
213 231 255
213 231 255
213 231 255
213 231 255
213 231 255
213 231 255
213 231 255
213 231 255
213 231 255
213 231 255
213 231 255
213 231 255
213 231 255
213 231 255
213 231 255
212 231 255
122 132 147
55 61 69
57 64 73
55 61 69
56 61 69
50 56 64
56 61 69
62 68 77
62 70 80
53 58 64
55 61 69
55 61 69
48 53 60
63 69 77
57 64 73
62 68 77
59 65 73
51 57 64
54 58 64
59 67 77
56 61 69
55 61 69
61 67 77
59 65 73
58 64 73
62 68 77
57 64 73
50 56 64
60 67 77
58 64 73
54 60 69
54 60 69
64 71 80
61 68 77
57 64 73
60 66 73
58 65 73
55 61 69
59 65 73
41 47 54
54 60 69
50 56 64
50 56 64
56 61 69
51 56 64
58 64 73
51 57 64
50 56 64
55 61 69
47 53 60
42 47 54
57 64 73
58 64 73
62 68 77
50 56 64
55 61 69
61 67 77
55 61 69
60 65 73
52 57 64
57 62 69
54 60 69
58 64 73
58 64 73
57 62 69
53 60 69
40 43 49
56 61 69
60 67 77
53 58 64
55 61 69
61 68 77
52 57 64
57 64 73
61 68 77
57 64 73
52 59 69
47 53 60
58 62 69
60 65 73
57 64 73
55 61 69
58 64 73
50 56 64
52 59 69
56 61 69
50 56 64
59 65 73
43 48 54
58 64 73
50 56 64
52 57 64
54 60 69
52 57 64
56 63 73
52 57 64
55 61 69
58 64 73
56 61 69
53 60 69
55 61 69
55 61 69
56 61 69
43 48 54
56 61 69
52 57 64
59 65 73
46 52 60
59 65 73
63 69 77
52 57 64
49 54 60
52 59 69
60 67 77
54 60 69
126 138 153
213 231 255
213 231 255
213 231 255
213 231 255
213 231 255
213 231 255
213 231 255
213 231 255
213 231 255
213 231 255
213 231 255
213 231 255
213 231 255
213 231 255
213 231 255
213 231 255
213 231 255
213 231 255
213 231 255
213 231 255
213 231 255
213 231 255
213 231 255
213 231 255
213 231 255
213 231 255
213 231 255
213 231 255
213 231 255
213 231 255
214 231 255
214 231 255
214 231 255
214 231 255
214 231 255
214 231 255
214 231 255
214 231 255
214 231 255
214 231 255
214 231 255
214 231 255
214 231 255
214 231 255
214 231 255
214 231 255
214 231 255
214 232 255
214 232 255
214 232 255
214 232 255
214 232 255
214 232 255
214 232 255
214 232 255
214 232 255
214 232 255
214 232 255
214 232 255
214 232 255
214 232 255
214 232 255
215 232 255
214 232 255
215 232 255
215 232 255
215 232 255
215 232 255
215 232 255
215 232 255
215 232 255
215 232 255
215 232 255
215 232 255
215 232 255
215 232 255
215 232 255
215 232 255
215 232 255
215 232 255
215 232 255
215 232 255
215 232 255
215 232 255
215 232 255
215 232 255
215 232 255
215 232 255
215 232 255
215 232 255
215 232 255
215 232 255
215 232 255
215 232 255
215 232 255
215 232 255
215 232 255
215 232 255
215 232 255
215 232 255
215 232 255
216 232 255
216 232 255
216 232 255
216 232 255
216 232 255
216 232 255
216 232 255
216 232 255
216 232 255
216 232 255
216 232 255
216 232 255
216 232 255
216 232 255
216 233 255
216 233 255
216 233 255
216 233 255
216 233 255
216 233 255
216 233 255
216 233 255
216 233 255
216 233 255
216 233 255
216 233 255
216 233 255
216 233 255
216 233 255
216 233 255
216 233 255
216 233 255
216 233 255
216 233 255
216 233 255
216 233 255
216 233 255
216 233 255
216 233 255
216 233 255
216 233 255
217 233 255
217 233 255
216 233 255
216 233 255
216 233 255
216 233 255
216 233 255
216 233 255
216 233 255
216 233 255
216 233 255
216 233 255
216 233 255
216 233 255
216 233 255
216 233 255
216 233 255
216 233 255
216 233 255
216 233 255
216 233 255
216 233 255
216 233 255
216 233 255
216 233 255
216 233 255
216 233 255
216 233 255
216 233 255
216 233 255
216 233 255
216 233 255
216 233 255
216 233 255
216 233 255
216 233 255
216 232 255
216 232 255
216 232 255
216 232 255
216 232 255
216 232 255
216 232 255
216 232 255
216 232 255
216 232 255
216 232 255
216 232 255
216 232 255
216 232 255
215 232 255
215 232 255
215 232 255
215 232 255
215 232 255
215 232 255
215 232 255
215 232 255
215 232 255
215 232 255
215 232 255
215 232 255
215 232 255
215 232 255
215 232 255
215 232 255
215 232 255
215 232 255
215 232 255
215 232 255
215 232 255
215 232 255
215 232 255
215 232 255
215 232 255
215 232 255
215 232 255
215 232 255
215 232 255
215 232 255
215 232 255
215 232 255
215 232 255
215 232 255
215 232 255
215 232 255
215 232 255
214 232 255
214 232 255
214 232 255
214 232 255
214 232 255
214 232 255
214 232 255
214 232 255
214 232 255
214 232 255
214 232 255
214 232 255
214 232 255
214 232 255
214 232 255
214 232 255
214 232 255
214 231 255
214 231 255
214 231 255
214 231 255
214 231 255
214 231 255
214 231 255
214 231 255
214 231 255
214 231 255
214 231 255
214 231 255
214 231 255
214 231 255
214 231 255
213 231 255
213 231 255
213 231 255
213 231 255
213 231 255
213 231 255
213 231 255
213 231 255
213 231 255
213 231 255
213 231 255
213 231 255
213 231 255
213 231 255
213 231 255
213 231 255
213 231 255
213 231 255
213 231 255
213 231 255
213 231 255
213 231 255
213 231 255
81 89 100
51 57 64
56 62 69
61 67 77
60 65 73
51 57 64
48 55 64
57 64 73
55 61 69
58 64 73
56 62 69
57 62 69
55 61 69
58 64 73
55 61 69
58 64 73
62 68 77
55 61 69
53 60 69
57 64 73
54 60 68
58 64 73
62 68 77
51 56 64
48 55 64
55 61 69
59 65 73
54 61 69
50 56 64
64 71 80
33 37 42
56 61 69
58 64 73
47 53 60
63 69 77
61 66 73
66 72 80
51 57 64
58 64 73
42 47 54
59 65 73
44 48 54
56 62 69
62 68 77
50 56 64
53 60 69
47 53 60
57 64 73
55 60 68
54 61 69
48 53 60
58 64 73
62 68 77
52 57 64
55 61 69
50 56 64
58 64 73
51 57 64
52 59 68
55 61 69
42 47 54
55 61 69
41 47 54
52 57 64
52 57 64
59 65 73
60 65 73
51 57 64
38 43 49
56 61 69
53 58 64
54 60 69
66 72 80
57 64 73
55 61 69
54 60 69
57 64 73
63 71 80
58 64 73
54 60 69
61 68 77
58 64 73
51 56 64
58 64 73
54 60 69
52 57 64
61 68 77
60 67 77
58 64 73
53 60 69
53 60 69
61 68 77
60 67 77
57 62 69
52 57 64
52 57 64
59 65 73
48 53 60
62 68 77
59 65 73
57 64 73
53 60 69
61 68 77
58 64 73
58 64 73
53 60 69
58 64 73
63 69 77
58 64 73
60 67 77
60 65 73
61 68 77
56 62 69
57 64 73
58 64 73
56 63 73
213 231 255
213 231 255
213 231 255
213 231 255
213 231 255
213 231 255
213 231 255
213 231 255
213 231 255
213 231 255
213 231 255
213 231 255
213 231 255
213 231 255
213 231 255
213 231 255
213 231 255
213 231 255
213 231 255
213 231 255
213 231 255
213 231 255
213 231 255
214 231 255
214 231 255
214 231 255
214 231 255
214 231 255
214 231 255
214 231 255
214 231 255
214 231 255
214 231 255
214 231 255
214 231 255
214 231 255
214 231 255
214 231 255
214 231 255
214 232 255
214 232 255
214 232 255
214 232 255
214 232 255
214 232 255
214 232 255
214 232 255
214 232 255
214 232 255
214 232 255
214 232 255
214 232 255
214 232 255
214 232 255
214 232 255
215 232 255
215 232 255
215 232 255
215 232 255
215 232 255
215 232 255
215 232 255
215 232 255
215 232 255
215 232 255
215 232 255
215 232 255
215 232 255
215 232 255
215 232 255
215 232 255
215 232 255
215 232 255
215 232 255
215 232 255
215 232 255
215 232 255
215 232 255
215 232 255
215 232 255
215 232 255
215 232 255
215 232 255
215 232 255
215 232 255
215 232 255
215 232 255
215 232 255
215 232 255
215 232 255
215 232 255
215 232 255
215 232 255
215 232 255
216 232 255
216 232 255
216 232 255
216 232 255
216 232 255
216 232 255
216 232 255
216 232 255
216 232 255
216 232 255
216 232 255
216 232 255
216 233 255
216 233 255
216 233 255
216 233 255
216 233 255
216 233 255
216 233 255
216 233 255
216 233 255
216 233 255
216 233 255
216 233 255
216 233 255
216 233 255
216 233 255
216 233 255
216 233 255
216 233 255
216 233 255
216 233 255
216 233 255
216 233 255
216 233 255
216 233 255
216 233 255
216 233 255
216 233 255
216 233 255
216 233 255
216 233 255
216 233 255
216 233 255
216 233 255
217 233 255
216 233 255
217 233 255
217 233 255
217 233 255
217 233 255
217 233 255
217 233 255
217 233 255
217 233 255
217 233 255
217 233 255
217 233 255
217 233 255
216 233 255
216 233 255
216 233 255
216 233 255
216 233 255
216 233 255
216 233 255
216 233 255
216 233 255
216 233 255
216 233 255
216 233 255
216 233 255
216 233 255
216 233 255
216 233 255
216 233 255
216 233 255
216 233 255
216 233 255
216 233 255
216 233 255
216 233 255
216 233 255
216 233 255
216 233 255
216 233 255
216 233 255
216 233 255
216 233 255
216 233 255
216 233 255
216 233 255
216 233 255
216 232 255
216 232 255
216 232 255
216 232 255
216 232 255
216 232 255
216 232 255
216 232 255
216 232 255
216 232 255
216 232 255
216 232 255
215 232 255
215 232 255
215 232 255
215 232 255
215 232 255
215 232 255
215 232 255
215 232 255
215 232 255
215 232 255
215 232 255
215 232 255
215 232 255
215 232 255
215 232 255
215 232 255
215 232 255
215 232 255
215 232 255
215 232 255
215 232 255
215 232 255
215 232 255
215 232 255
215 232 255
215 232 255
215 232 255
215 232 255
215 232 255
215 232 255
215 232 255
215 232 255
215 232 255
215 232 255
215 232 255
215 232 255
215 232 255
214 232 255
214 232 255
214 232 255
214 232 255
214 232 255
214 232 255
214 232 255
214 232 255
214 232 255
214 232 255
214 232 255
214 232 255
214 232 255
214 232 255
214 232 255
214 232 255
214 231 255
214 232 255
214 231 255
214 231 255
214 231 255
214 231 255
214 231 255
214 231 255
214 231 255
214 231 255
214 231 255
214 231 255
214 231 255
214 231 255
214 231 255
214 231 255
214 231 255
214 231 255
213 231 255
213 231 255
213 231 255
213 231 255
213 231 255
213 231 255
213 231 255
213 231 255
213 231 255
213 231 255
213 231 255
213 231 255
213 231 255
83 92 103
49 56 64
57 64 73
47 52 60
51 57 64
54 60 69
47 52 60
63 69 77
55 61 69
54 60 69
62 68 77
62 68 77
56 61 69
60 67 77
56 61 69
59 65 73
50 56 64
58 64 73
42 47 54
58 64 73
59 65 73
51 57 64
58 64 73
57 61 68
55 61 69
59 65 73
55 61 69
53 60 69
50 56 64
57 64 73
55 61 69
37 42 49
59 65 73
59 65 73
54 60 69
59 65 73
53 60 69
63 69 77
61 66 73
49 55 64
63 69 77
54 58 64
59 65 73
57 64 73
58 64 73
54 60 69
58 64 73
52 57 64
60 67 77
53 57 64
55 61 68
58 64 73
51 56 64
63 69 77
50 56 64
57 63 72
56 61 69
59 65 73
66 72 80
61 68 77
62 68 77
54 60 69
50 56 64
53 58 64
55 61 69
51 57 64
56 61 69
60 65 73
53 60 69
60 65 73
64 71 80
56 61 69
50 56 64
59 65 72
59 67 77
61 68 76
56 61 69
57 64 73
58 64 72
53 58 64
56 61 69
62 68 77
53 60 69
50 54 60
58 64 73
50 56 64
58 64 73
45 52 60
56 61 69
51 57 64
51 57 64
52 57 64
60 65 73
54 58 64
56 61 69
55 61 69
63 69 77
53 58 64
58 64 73
59 65 73
58 64 73
48 53 59
59 65 73
64 70 77
54 60 69
54 60 69
59 67 77
50 56 64
57 64 73
51 57 64
58 64 73
62 68 77
60 65 73
57 64 73
62 68 77
60 67 77
62 68 77
125 136 151
213 231 255
213 231 255
213 231 255
213 231 255
213 231 255
213 231 255
213 231 255
213 231 255
213 231 255
213 231 255
213 231 255
213 231 255
213 231 255
213 231 255
214 231 255
214 231 255
214 231 255
214 231 255
214 231 255
214 231 255
214 231 255
214 231 255
214 231 255
214 231 255
214 231 255
214 231 255
214 231 255
214 231 255
214 231 255
214 231 255
214 232 255
214 232 255
214 232 255
214 232 255
214 232 255
214 232 255
214 232 255
214 232 255
214 232 255
214 232 255
214 232 255
214 232 255
214 232 255
214 232 255
214 232 255
214 232 255
215 232 255
215 232 255
215 232 255
215 232 255
215 232 255
215 232 255
215 232 255
215 232 255
215 232 255
215 232 255
215 232 255
215 232 255
215 232 255
215 232 255
215 232 255
215 232 255
215 232 255
215 232 255
215 232 255
215 232 255
215 232 255
215 232 255
215 232 255
215 232 255
215 232 255
215 232 255
215 232 255
215 232 255
215 232 255
215 232 255
215 232 255
215 232 255
215 232 255
215 232 255
215 232 255
215 232 255
215 232 255
216 232 255
216 232 255
216 232 255
216 232 255
216 232 255
216 232 255
216 232 255
216 232 255
216 232 255
216 232 255
216 232 255
216 232 255
216 233 255
216 232 255
216 233 255
216 233 255
216 233 255
216 233 255
216 233 255
216 233 255
216 233 255
216 233 255
216 233 255
216 233 255
216 233 255
216 233 255
216 233 255
216 233 255
216 233 255
216 233 255
216 233 255
216 233 255
216 233 255
216 233 255
216 233 255
216 233 255
216 233 255
216 233 255
216 233 255
216 233 255
216 233 255
216 233 255
216 233 255
216 233 255
216 233 255
216 233 255
216 233 255
216 233 255
216 233 255
217 233 255
217 233 255
217 233 255
217 233 255
217 233 255
217 233 255
217 233 255
217 233 255
217 233 255
217 233 255
217 233 255
217 233 255
217 233 255
217 233 255
217 233 255
217 233 255
217 233 255
217 233 255
217 233 255
217 233 255
217 233 255
217 233 255
217 233 255
217 233 255
217 233 255
217 233 255
217 233 255
217 233 255
217 233 255
216 233 255
216 233 255
216 233 255
216 233 255
216 233 255
216 233 255
216 233 255
216 233 255
216 233 255
216 233 255
216 233 255
216 233 255
216 233 255
216 233 255
216 233 255
216 233 255
216 233 255
216 233 255
216 233 255
216 233 255
216 233 255
216 233 255
216 233 255
216 233 255
216 233 255
216 233 255
216 233 255
216 233 255
216 233 255
216 233 255
216 233 255
216 233 255
216 233 255
216 232 255
216 232 255
216 232 255
216 232 255
216 232 255
216 232 255
216 232 255
216 232 255
216 232 255
216 232 255
216 232 255
216 232 255
216 232 255
216 232 255
215 232 255
215 232 255
215 232 255
215 232 255
215 232 255
215 232 255
215 232 255
215 232 255
215 232 255
215 232 255
215 232 255
215 232 255
215 232 255
215 232 255
215 232 255
215 232 255
215 232 255
215 232 255
215 232 255
215 232 255
215 232 255
215 232 255
215 232 255
215 232 255
215 232 255
215 232 255
215 232 255
215 232 255
215 232 255
215 232 255
215 232 255
215 232 255
215 232 255
215 232 255
214 232 255
215 232 255
214 232 255
214 232 255
214 232 255
214 232 255
214 232 255
214 232 255
214 232 255
214 232 255
214 232 255
214 232 255
214 232 255
214 232 255
214 232 255
214 232 255
214 232 255
214 232 255
214 232 255
214 231 255
214 231 255
214 231 255
214 231 255
214 231 255
214 231 255
214 231 255
214 231 255
214 231 255
214 231 255
214 231 255
214 231 255
214 231 255
214 231 255
214 231 255
214 231 255
214 231 255
213 231 255
213 231 255
213 231 255
213 231 255
51 57 64
56 61 69
55 61 69
56 61 69
57 64 73
38 43 49
56 61 69
58 64 73
50 56 64
62 68 76
56 61 69
59 65 73
58 64 73
61 68 77
60 67 77
60 65 73
54 60 69
62 70 80
53 58 64
56 61 69
50 56 64
48 53 60
62 68 77
43 48 54
58 64 73
56 61 69
41 47 54
62 68 77
40 44 49
53 60 69
51 57 64
60 67 77
63 70 80
58 64 73
59 65 73
60 67 77
65 72 80
55 63 72
55 61 69
55 61 69
54 58 64
59 65 73
63 71 80
61 68 77
59 65 73
52 57 64
59 65 73
56 61 69
39 43 49
54 60 69
51 57 64
58 64 73
54 58 64
54 60 69
62 68 77
54 60 69
61 68 77
51 57 64
51 59 69
51 57 64
59 65 73
62 68 77
47 52 60
57 64 73
49 56 64
46 52 60
51 57 64
47 52 59
54 60 68
44 48 54
42 47 54
55 61 69
59 65 73
59 65 73
51 57 64
63 70 80
63 69 77
59 65 73
55 62 72
52 57 64
51 57 64
54 60 69
66 72 80
50 56 64
63 69 77
55 63 73
59 65 73
54 60 68
56 62 69
47 52 60
51 57 64
56 61 69
47 54 64
60 67 77
49 53 60
61 68 77
51 56 64
34 37 42
60 65 73
63 69 77
53 58 64
59 65 73
55 61 69
60 65 73
59 65 73
51 57 64
61 68 77
62 68 77
58 64 73
52 57 64
59 65 73
58 62 69
56 61 69
63 69 77
56 64 73
58 64 73
55 63 73
62 69 77
192 208 230
213 231 255
213 231 255
213 231 255
214 231 255
214 231 255
214 231 255
214 231 255
214 231 255
214 231 255
214 231 255
214 231 255
214 231 255
214 231 255
214 231 255
214 231 255
214 231 255
214 231 255
214 231 255
214 231 255
214 231 255
214 231 255
214 232 255
214 232 255
214 232 255
214 232 255
214 232 255
214 232 255
214 232 255
214 232 255
214 232 255
214 232 255
214 232 255
214 232 255
214 232 255
214 232 255
214 232 255
214 232 255
215 232 255
215 232 255
215 232 255
215 232 255
215 232 255
215 232 255
215 232 255
215 232 255
215 232 255
215 232 255
215 232 255
215 232 255
215 232 255
215 232 255
215 232 255
215 232 255
215 232 255
215 232 255
215 232 255
215 232 255
215 232 255
215 232 255
215 232 255
215 232 255
215 232 255
215 232 255
215 232 255
215 232 255
215 232 255
215 232 255
215 232 255
215 232 255
215 232 255
215 232 255
215 232 255
215 232 255
215 232 255
216 232 255
216 232 255
216 232 255
216 232 255
216 232 255
216 232 255
216 232 255
216 232 255
216 232 255
216 232 255
216 232 255
216 232 255
216 232 255
216 233 255
216 233 255
216 233 255
216 233 255
216 233 255
216 233 255
216 233 255
216 233 255
216 233 255
216 233 255
216 233 255
216 233 255
216 233 255
216 233 255
216 233 255
216 233 255
216 233 255
216 233 255
216 233 255
216 233 255
216 233 255
216 233 255
216 233 255
216 233 255
216 233 255
216 233 255
216 233 255
216 233 255
216 233 255
216 233 255
216 233 255
216 233 255
217 233 255
217 233 255
217 233 255
217 233 255
217 233 255
217 233 255
217 233 255
217 233 255
217 233 255
217 233 255
217 233 255
217 233 255
217 233 255
217 233 255
217 233 255
217 233 255
217 233 255
217 233 255
217 233 255
217 233 255
217 233 255
217 233 255
217 233 255
217 233 255
217 233 255
217 233 255
217 233 255
217 233 255
217 233 255
217 233 255
217 233 255
217 233 255
217 233 255
217 233 255
217 233 255
217 233 255
217 233 255
217 233 255
217 233 255
217 233 255
217 233 255
217 233 255
217 233 255
217 233 255
217 233 255
217 233 255
217 233 255
217 233 255
217 233 255
216 233 255
217 233 255
216 233 255
216 233 255
216 233 255
216 233 255
216 233 255
216 233 255
216 233 255
216 233 255
216 233 255
216 233 255
216 233 255
216 233 255
216 233 255
216 233 255
216 233 255
216 233 255
216 233 255
216 233 255
216 233 255
216 233 255
216 233 255
216 233 255
216 233 255
216 233 255
216 233 255
216 233 255
216 233 255
216 233 255
216 233 255
216 233 255
216 233 255
216 233 255
216 232 255
216 232 255
216 232 255
216 232 255
216 232 255
216 232 255
216 232 255
216 232 255
216 232 255
216 232 255
216 232 255
216 232 255
215 232 255
215 232 255
215 232 255
215 232 255
215 232 255
215 232 255
215 232 255
215 232 255
215 232 255
215 232 255
215 232 255
215 232 255
215 232 255
215 232 255
215 232 255
215 232 255
215 232 255
215 232 255
215 232 255
215 232 255
215 232 255
215 232 255
215 232 255
215 232 255
215 232 255
215 232 255
215 232 255
215 232 255
215 232 255
215 232 255
215 232 255
215 232 255
215 232 255
215 232 255
215 232 255
215 232 255
215 232 255
214 232 255
214 232 255
214 232 255
214 232 255
214 232 255
214 232 255
214 232 255
214 232 255
214 232 255
214 232 255
214 232 255
214 232 255
214 232 255
214 232 255
214 232 255
214 232 255
214 232 255
214 231 255
214 231 255
214 231 255
214 231 255
214 231 255
214 231 255
214 231 255
214 231 255
214 231 255
214 231 255
214 231 255
214 231 255
167 181 200
58 65 73
51 57 64
50 56 64
55 61 69
56 63 73
51 56 64
61 68 77
61 67 77
50 56 64
47 53 60
58 64 73
50 56 64
52 57 64
50 56 64
51 57 64
44 48 54
57 63 72
53 58 64
59 65 73
55 61 69
49 55 64
54 60 69
55 61 69
56 61 69
59 65 73
60 67 77
56 61 68
54 58 64
46 52 60
55 61 69
55 63 73
52 59 69
58 64 73
59 67 77
54 60 69
49 53 60
44 48 54
63 69 77
60 67 77
58 62 69
44 51 60
65 70 77
45 51 60
61 68 77
49 53 60
49 56 64
55 61 68
60 65 73
55 60 68
58 64 72
52 57 64
55 61 69
52 57 64
62 68 77
48 53 60
56 61 69
57 64 73
61 66 73
59 65 73
43 48 54
51 57 64
60 65 72
53 60 69
60 67 77
55 61 69
63 69 77
59 65 73
59 67 77
56 61 69
58 64 73
57 62 69
48 53 60
52 57 64
51 57 64
51 57 64
51 57 64
53 60 69
54 60 68
57 64 73
61 67 77
50 56 64
57 64 73
57 64 73
59 65 73
55 61 69
55 61 69
57 62 69
59 64 72
62 70 80
57 64 73
52 57 64
54 60 69
59 65 73
65 72 80
54 61 69
49 53 60
47 53 60
59 65 73
55 61 69
59 65 73
59 65 73
56 62 69
49 53 60
58 64 73
60 67 77
57 64 73
62 68 76
56 61 69
57 64 73
56 61 69
57 64 73
61 67 77
55 61 69
56 61 69
49 53 60
55 61 69
50 56 64
62 70 80
141 153 170
214 231 255
214 231 255
214 231 255
214 231 255
214 231 255
214 231 255
214 231 255
214 231 255
214 231 255
214 231 255
214 231 255
214 231 255
214 232 255
214 232 255
214 232 255
214 232 255
214 232 255
214 232 255
214 232 255
214 232 255
214 232 255
214 232 255
214 232 255
214 232 255
214 232 255
214 232 255
214 232 255
214 232 255
215 232 255
215 232 255
215 232 255
215 232 255
215 232 255
215 232 255
215 232 255
215 232 255
215 232 255
215 232 255
215 232 255
215 232 255
215 232 255
215 232 255
215 232 255
215 232 255
215 232 255
215 232 255
215 232 255
215 232 255
215 232 255
215 232 255
215 232 255
215 232 255
215 232 255
215 232 255
215 232 255
215 232 255
215 232 255
215 232 255
215 232 255
215 232 255
215 232 255
215 232 255
215 232 255
215 232 255
215 232 255
215 232 255
216 232 255
216 232 255
216 232 255
216 232 255
216 232 255
216 232 255
216 232 255
216 232 255
216 232 255
216 232 255
216 232 255
216 232 255
216 232 255
216 232 255
216 233 255
216 233 255
216 233 255
216 233 255
216 233 255
216 233 255
216 233 255
216 233 255
216 233 255
216 233 255
216 233 255
216 233 255
216 233 255
216 233 255
216 233 255
216 233 255
216 233 255
216 233 255
216 233 255
216 233 255
216 233 255
216 233 255
216 233 255
216 233 255
216 233 255
216 233 255
216 233 255
216 233 255
216 233 255
216 233 255
216 233 255
217 233 255
217 233 255
217 233 255
217 233 255
217 233 255
217 233 255
217 233 255
217 233 255
217 233 255
217 233 255
217 233 255
217 233 255
217 233 255
217 233 255
217 233 255
217 233 255
217 233 255
217 233 255
217 233 255
217 233 255
217 233 255
217 233 255
217 233 255
217 233 255
217 233 255
217 233 255
217 233 255
217 233 255
217 233 255
217 233 255
217 233 255
217 233 255
217 233 255
217 233 255
217 233 255
217 233 255
217 233 255
217 233 255
217 233 255
217 233 255
217 233 255
217 233 255
217 233 255
217 233 255
217 233 255
217 233 255
217 233 255
217 233 255
217 233 255
217 233 255
217 233 255
217 233 255
217 233 255
217 233 255
217 233 255
217 233 255
217 233 255
217 233 255
217 233 255
217 233 255
217 233 255
217 233 255
217 233 255
217 233 255
217 233 255
217 233 255
217 233 255
217 233 255
216 233 255
216 233 255
216 233 255
216 233 255
216 233 255
216 233 255
216 233 255
216 233 255
216 233 255
216 233 255
216 233 255
216 233 255
216 233 255
216 233 255
216 233 255
216 233 255
216 233 255
216 233 255
216 233 255
216 233 255
216 233 255
216 233 255
216 233 255
216 233 255
216 233 255
216 233 255
216 233 255
216 233 255
216 233 255
216 233 255
216 233 255
216 232 255
216 232 255
216 232 255
216 232 255
216 232 255
216 232 255
216 232 255
216 232 255
216 232 255
216 232 255
216 232 255
216 232 255
216 232 255
216 232 255
215 232 255
215 232 255
215 232 255
215 232 255
215 232 255
215 232 255
215 232 255
215 232 255
215 232 255
215 232 255
215 232 255
215 232 255
215 232 255
215 232 255
215 232 255
215 232 255
215 232 255
215 232 255
215 232 255
215 232 255
215 232 255
215 232 255
215 232 255
215 232 255
215 232 255
215 232 255
215 232 255
215 232 255
215 232 255
215 232 255
215 232 255
215 232 255
215 232 255
215 232 255
215 232 255
215 232 255
214 232 255
214 232 255
214 232 255
214 232 255
214 232 255
214 232 255
214 232 255
214 232 255
214 232 255
214 232 255
214 232 255
214 232 255
214 232 255
214 232 255
214 232 255
214 232 255
214 232 255
214 232 255
214 231 255
204 221 244
58 64 73
55 61 69
53 60 69
54 60 69
55 61 69
59 65 73
55 61 68
56 61 69
54 60 68
54 60 68
48 53 60
63 69 77
51 57 64
56 61 69
59 65 73
47 52 60
49 55 64
55 61 69
52 57 64
55 61 69
50 56 64
51 57 64
47 52 59
58 64 73
46 52 60
58 64 73
43 48 54
46 52 60
55 61 69
52 57 64
54 60 69
59 65 73
54 60 69
48 53 60
57 64 73
63 69 77
54 60 69
54 60 68
58 64 73
65 71 80
61 68 77
62 68 77
55 61 69
55 61 69
60 65 73
53 60 69
48 53 60
66 72 80
52 57 64
50 56 64
53 60 69
53 60 69
51 57 64
50 56 64
57 62 69
52 57 64
61 68 77
63 69 77
57 64 73
58 64 73
65 72 80
62 68 77
52 57 64
65 72 80
65 72 80
63 69 77
51 57 64
41 47 54
55 61 69
42 47 54
49 55 64
57 64 73
54 58 64
44 51 60
63 71 80
53 60 69
62 68 77
58 64 73
59 67 77
58 64 73
56 63 73
58 64 73
63 71 80
57 64 73
55 61 69
55 61 69
61 68 77
52 59 69
61 68 77
51 57 64
38 42 48
50 56 64
55 61 69
57 64 73
61 66 73
57 64 73
48 53 60
62 68 77
55 61 69
51 57 64
59 65 73
55 61 69
53 58 64
61 68 77
50 56 64
57 64 73
54 61 69
43 48 54
55 61 69
52 59 69
49 56 64
59 65 73
59 65 73
58 64 73
63 69 77
49 55 64
56 61 69
48 53 60
49 53 60
83 90 100
214 231 255
214 232 255
214 231 255
214 232 255
214 232 255
214 232 255
214 232 255
214 232 255
214 232 255
214 232 255
214 232 255
214 232 255
214 232 255
214 232 255
214 232 255
214 232 255
214 232 255
214 232 255
214 232 255
214 232 255
215 232 255
215 232 255
215 232 255
215 232 255
215 232 255
215 232 255
215 232 255
215 232 255
215 232 255
215 232 255
215 232 255
215 232 255
215 232 255
215 232 255
215 232 255
215 232 255
215 232 255
215 232 255
215 232 255
215 232 255
215 232 255
215 232 255
215 232 255
215 232 255
215 232 255
215 232 255
215 232 255
215 232 255
215 232 255
215 232 255
215 232 255
215 232 255
215 232 255
215 232 255
215 232 255
215 232 255
215 232 255
216 232 255
216 232 255
216 232 255
216 232 255
216 232 255
216 232 255
216 232 255
216 232 255
216 232 255
216 232 255
216 232 255
216 232 255
216 233 255
216 233 255
216 233 255
216 233 255
216 233 255
216 233 255
216 233 255
216 233 255
216 233 255
216 233 255
216 233 255
216 233 255
216 233 255
216 233 255
216 233 255
216 233 255
216 233 255
216 233 255
216 233 255
216 233 255
216 233 255
216 233 255
216 233 255
216 233 255
216 233 255
216 233 255
216 233 255
216 233 255
216 233 255
216 233 255
216 233 255
216 233 255
216 233 255
216 233 255
217 233 255
217 233 255
217 233 255
217 233 255
217 233 255
217 233 255
217 233 255
217 233 255
217 233 255
217 233 255
217 233 255
217 233 255
217 233 255
217 233 255
217 233 255
217 233 255
217 233 255
217 233 255
217 233 255
217 233 255
217 233 255
217 233 255
217 233 255
217 233 255
217 233 255
217 233 255
217 233 255
217 233 255
217 233 255
217 233 255
217 233 255
217 233 255
217 233 255
217 233 255
217 233 255
217 233 255
217 233 255
217 233 255
217 233 255
217 233 255
217 233 255
217 233 255
217 233 255
217 233 255
217 233 255
217 233 255
217 233 255
217 233 255
217 233 255
217 233 255
217 233 255
217 233 255
217 233 255
217 233 255
217 233 255
217 233 255
217 233 255
217 233 255
217 233 255
217 233 255
217 233 255
217 233 255
217 233 255
217 233 255
217 233 255
217 233 255
217 233 255
217 233 255
217 233 255
217 233 255
217 233 255
217 233 255
217 233 255
217 233 255
217 233 255
217 233 255
217 233 255
217 233 255
217 233 255
217 233 255
217 233 255
217 233 255
217 233 255
217 233 255
217 233 255
216 233 255
216 233 255
216 233 255
216 233 255
216 233 255
216 233 255
216 233 255
216 233 255
216 233 255
216 233 255
216 233 255
216 233 255
216 233 255
216 233 255
216 233 255
216 233 255
216 233 255
216 233 255
216 233 255
216 233 255
216 233 255
216 233 255
216 233 255
216 233 255
216 233 255
216 233 255
216 233 255
216 233 255
216 233 255
216 233 255
216 233 255
216 232 255
216 232 255
216 232 255
216 232 255
216 232 255
216 232 255
216 232 255
216 232 255
216 232 255
216 232 255
216 232 255
216 232 255
216 232 255
215 232 255
215 232 255
215 232 255
215 232 255
215 232 255
215 232 255
215 232 255
215 232 255
215 232 255
215 232 255
215 232 255
215 232 255
215 232 255
215 232 255
215 232 255
215 232 255
215 232 255
215 232 255
215 232 255
215 232 255
215 232 255
215 232 255
215 232 255
215 232 255
215 232 255
215 232 255
215 232 255
215 232 255
215 232 255
215 232 255
215 232 255
215 232 255
215 232 255
215 232 255
215 232 255
215 232 255
215 232 255
215 232 255
214 232 255
214 232 255
214 232 255
214 232 255
214 232 255
214 232 255
214 232 255
214 232 255
214 232 255
214 232 255
52 57 64
56 62 69
53 60 69
44 51 60
53 58 64
50 56 64
50 56 64
52 57 64
59 65 73
61 66 73
61 68 77
51 56 64
59 65 73
63 71 80
62 68 77
61 67 77
46 52 60
54 60 68
59 65 73
45 49 54
52 57 64
39 43 49
51 56 64
61 68 77
63 69 77
63 69 77
52 57 64
56 61 69
55 61 69
58 64 73
46 51 59
46 52 60
52 57 64
58 65 73
51 57 64
52 57 64
37 42 48
60 65 73
52 57 64
52 57 64
56 61 69
52 57 64
55 61 69
59 65 73
58 64 73
62 68 77
48 53 60
55 61 69
57 64 73
53 60 69
53 60 69
58 65 73
54 61 69
59 65 73
51 57 64
65 72 80
53 60 69
55 61 69
60 66 73
54 60 68
63 69 77
51 57 64
45 49 54
58 65 73
58 64 73
50 56 64
57 64 73
60 67 77
41 47 54
52 57 64
59 65 73
44 48 54
56 61 69
60 66 73
50 56 64
43 48 54
56 62 69
59 65 73
45 52 60
55 61 69
58 64 73
55 61 69
54 60 69
58 64 73
53 60 69
58 64 73
57 62 69
60 67 77
64 71 80
58 64 73
57 64 73
52 57 64
56 63 73
36 42 49
57 64 73
55 61 69
55 61 69
54 60 69
59 65 73
47 52 60
57 64 73
55 61 69
46 52 60
58 64 73
61 68 77
60 65 73
37 42 48
53 59 69
60 65 72
54 60 69
55 61 69
58 64 73
51 57 64
60 66 73
52 57 64
58 64 73
56 61 69
52 57 64
60 67 77
43 48 54
167 181 200
214 232 255
214 232 255
214 232 255
214 232 255
214 232 255
214 232 255
214 232 255
214 232 255
214 232 255
215 232 255
215 232 255
215 232 255
215 232 255
215 232 255
215 232 255
215 232 255
215 232 255
215 232 255
215 232 255
215 232 255
215 232 255
215 232 255
215 232 255
215 232 255
215 232 255
215 232 255
215 232 255
215 232 255
215 232 255
215 232 255
215 232 255
215 232 255
215 232 255
215 232 255
215 232 255
215 232 255
215 232 255
215 232 255
215 232 255
215 232 255
215 232 255
215 232 255
215 232 255
215 232 255
215 232 255
215 232 255
216 232 255
216 232 255
216 232 255
216 232 255
216 232 255
216 232 255
216 232 255
216 232 255
216 232 255
216 232 255
216 232 255
216 232 255
216 232 255
216 233 255
216 233 255
216 233 255
216 233 255
216 233 255
216 233 255
216 233 255
216 233 255
216 233 255
216 233 255
216 233 255
216 233 255
216 233 255
216 233 255
216 233 255
216 233 255
216 233 255
216 233 255
216 233 255
216 233 255
216 233 255
216 233 255
216 233 255
216 233 255
216 233 255
216 233 255
216 233 255
216 233 255
216 233 255
216 233 255
216 233 255
216 233 255
217 233 255
216 233 255
217 233 255
217 233 255
217 233 255
217 233 255
217 233 255
217 233 255
217 233 255
217 233 255
217 233 255
217 233 255
217 233 255
217 233 255
217 233 255
217 233 255
217 233 255
217 233 255
217 233 255
217 233 255
217 233 255
217 233 255
217 233 255
217 233 255
217 233 255
217 233 255
217 233 255
217 233 255
217 233 255
217 233 255
217 233 255
217 233 255
217 233 255
217 233 255
217 233 255
217 233 255
217 233 255
217 233 255
217 233 255
217 233 255
217 233 255
217 233 255
217 233 255
217 233 255
217 233 255
217 233 255
217 233 255
217 233 255
217 233 255
217 233 255
217 233 255
217 233 255
217 233 255
217 233 255
217 233 255
217 233 255
217 233 255
217 233 255
217 233 255
217 233 255
217 233 255
217 233 255
217 233 255
217 233 255
217 233 255
217 233 255
217 233 255
217 233 255
217 233 255
217 233 255
217 233 255
217 233 255
217 233 255
217 233 255
217 233 255
217 233 255
217 233 255
217 233 255
217 233 255
217 233 255
217 233 255
217 233 255
217 233 255
217 233 255
217 233 255
217 233 255
217 233 255
217 233 255
217 233 255
217 233 255
217 233 255
217 233 255
217 233 255
217 233 255
217 233 255
217 233 255
217 233 255
217 233 255
217 233 255
217 233 255
217 233 255
217 233 255
217 233 255
217 233 255
217 233 255
217 233 255
216 233 255
216 233 255
216 233 255
216 233 255
216 233 255
216 233 255
216 233 255
216 233 255
216 233 255
216 233 255
216 233 255
216 233 255
216 233 255
216 233 255
216 233 255
216 233 255
216 233 255
216 233 255
216 233 255
216 233 255
216 233 255
216 233 255
216 233 255
216 233 255
216 233 255
216 233 255
216 233 255
216 233 255
216 233 255
216 233 255
216 233 255
216 232 255
216 232 255
216 232 255
216 232 255
216 232 255
216 232 255
216 232 255
216 232 255
216 232 255
216 232 255
216 232 255
216 232 255
216 232 255
216 232 255
215 232 255
215 232 255
215 232 255
215 232 255
215 232 255
215 232 255
215 232 255
215 232 255
215 232 255
215 232 255
215 232 255
215 232 255
215 232 255
215 232 255
215 232 255
215 232 255
215 232 255
215 232 255
215 232 255
215 232 255
215 232 255
215 232 255
215 232 255
215 232 255
215 232 255
215 232 255
215 232 255
215 232 255
215 232 255
215 232 255
215 232 255
215 232 255
215 232 255
215 232 255
215 232 255
215 232 255
125 135 149
61 68 77
56 61 69
51 57 64
56 63 73
50 56 64
53 60 69
56 61 69
62 68 77
57 62 69
52 57 64
55 61 69
39 43 49
51 57 64
38 43 49
52 57 64
59 65 73
54 60 69
56 63 73
57 64 73
51 57 64
63 69 77
48 53 60
63 69 77
60 65 73
56 62 69
48 53 59
49 56 64
61 66 73
58 64 73
52 57 64
57 64 73
50 56 64
58 64 73
59 65 73
54 60 69
56 61 69
58 62 69
51 57 64
58 64 73
60 65 73
60 65 73
52 57 64
61 68 77
53 58 64
63 69 77
60 65 73
62 68 77
45 51 60
66 72 80
50 56 64
58 65 73
56 61 69
49 53 60
46 52 60
62 68 77
48 52 59
47 52 59
51 57 64
51 57 64
57 64 73
37 42 48
58 64 73
51 57 64
37 42 49
57 64 73
62 68 77
57 62 68
47 53 60
59 65 73
60 65 73
57 62 69
58 64 73
57 64 72
60 65 73
61 68 77
48 53 60
58 62 69
49 56 64
52 57 64
58 64 73
58 64 73
53 58 64
52 57 64
51 57 64
58 64 73
51 57 64
50 54 60
61 68 77
53 60 69
51 57 64
55 61 69
59 65 73
53 60 69
59 65 73
57 64 73
59 65 73
62 69 77
51 56 64
51 57 64
52 57 64
57 64 73
48 53 60
52 57 64
53 58 64
50 56 64
59 65 72
52 57 64
57 64 72
56 63 73
58 64 72
58 64 73
57 64 73
56 61 69
54 60 68
53 58 64
49 54 60
52 57 64
52 57 64
57 64 73
55 61 69
109 119 133
215 232 255
215 232 255
215 232 255
215 232 255
215 232 255
215 232 255
215 232 255
215 232 255
215 232 255
215 232 255
215 232 255
215 232 255
215 232 255
215 232 255
215 232 255
215 232 255
215 232 255
215 232 255
215 232 255
215 232 255
215 232 255
215 232 255
215 232 255
215 232 255
215 232 255
215 232 255
215 232 255
215 232 255
215 232 255
215 232 255
215 232 255
215 232 255
215 232 255
215 232 255
215 232 255
215 232 255
216 232 255
216 232 255
216 232 255
216 232 255
216 232 255
216 232 255
216 232 255
216 232 255
216 232 255
216 232 255
216 232 255
216 232 255
216 232 255
216 232 255
216 233 255
216 233 255
216 233 255
216 233 255
216 233 255
216 233 255
216 233 255
216 233 255
216 233 255
216 233 255
216 233 255
216 233 255
216 233 255
216 233 255
216 233 255
216 233 255
216 233 255
216 233 255
216 233 255
216 233 255
216 233 255
216 233 255
216 233 255
216 233 255
216 233 255
216 233 255
216 233 255
216 233 255
216 233 255
216 233 255
216 233 255
216 233 255
217 233 255
217 233 255
217 233 255
217 233 255
217 233 255
217 233 255
217 233 255
217 233 255
217 233 255
217 233 255
217 233 255
217 233 255
217 233 255
217 233 255
217 233 255
217 233 255
217 233 255
217 233 255
217 233 255
217 233 255
217 233 255
217 233 255
217 233 255
217 233 255
217 233 255
217 233 255
217 233 255
217 233 255
217 233 255
217 233 255
217 233 255
217 233 255
217 233 255
217 233 255
217 233 255
217 233 255
217 233 255
217 233 255
217 233 255
217 233 255
217 233 255
217 233 255
217 233 255
217 233 255
217 233 255
217 233 255
217 233 255
217 233 255
217 233 255
217 233 255
217 233 255
217 233 255
217 233 255
217 233 255
217 233 255
217 233 255
217 233 255
218 234 255
218 234 255
218 233 255
218 233 255
218 233 255
218 233 255
218 233 255
218 233 255
218 233 255
218 233 255
218 233 255
217 233 255
217 233 255
217 233 255
217 233 255
217 233 255
217 233 255
217 233 255
217 233 255
217 233 255
217 233 255
217 233 255
217 233 255
217 233 255
217 233 255
217 233 255
217 233 255
217 233 255
217 233 255
217 233 255
217 233 255
217 233 255
217 233 255
217 233 255
217 233 255
217 233 255
217 233 255
217 233 255
217 233 255
217 233 255
217 233 255
217 233 255
217 233 255
217 233 255
217 233 255
217 233 255
217 233 255
217 233 255
217 233 255
217 233 255
217 233 255
217 233 255
217 233 255
217 233 255
217 233 255
217 233 255
217 233 255
217 233 255
217 233 255
217 233 255
217 233 255
217 233 255
217 233 255
217 233 255
217 233 255
217 233 255
217 233 255
217 233 255
217 233 255
216 233 255
216 233 255
216 233 255
216 233 255
216 233 255
216 233 255
216 233 255
216 233 255
216 233 255
216 233 255
216 233 255
216 233 255
216 233 255
216 233 255
216 233 255
216 233 255
216 233 255
216 233 255
216 233 255
216 233 255
216 233 255
216 233 255
216 233 255
216 233 255
216 233 255
216 233 255
216 233 255
216 233 255
216 233 255
216 233 255
216 233 255
216 232 255
216 232 255
216 232 255
216 232 255
216 232 255
216 232 255
216 232 255
216 232 255
216 232 255
216 232 255
216 232 255
216 232 255
215 232 255
215 232 255
215 232 255
215 232 255
215 232 255
215 232 255
215 232 255
215 232 255
215 232 255
215 232 255
215 232 255
215 232 255
215 232 255
215 232 255
215 232 255
215 232 255
215 232 255
215 232 255
215 232 255
215 232 255
215 232 255
215 232 255
215 232 255
215 232 255
215 232 255
215 232 255
205 221 244
54 60 69
46 52 60
56 61 69
59 65 73
59 65 73
55 61 69
56 62 69
56 61 69
56 62 69
59 65 73
52 57 64
62 68 77
64 71 80
49 56 64
50 56 64
51 57 64
48 53 60
47 52 60
58 64 73
60 65 73
53 60 69
48 53 60
52 57 64
43 48 54
55 61 69
53 60 69
51 57 64
53 60 69
48 53 60
49 53 60
54 60 69
54 60 69
58 64 73
61 66 73
48 53 60
38 42 49
52 57 64
56 62 69
66 72 80
56 61 69
49 53 60
49 56 64
52 57 64
54 60 69
60 67 77
55 61 69
42 47 54
57 64 73
57 62 68
49 56 64
52 57 64
60 65 73
57 64 73
48 53 60
54 60 69
51 57 64
50 54 60
47 52 60
51 57 64
46 52 60
50 56 64
52 57 64
61 68 77
51 56 64
59 65 73
42 47 54
52 57 64
59 65 73
48 53 59
64 71 80
44 48 54
56 61 69
54 60 69
50 56 64
48 52 59
43 48 54
53 60 69
50 56 64
57 62 68
53 60 69
47 53 60
57 64 73
58 65 73
56 63 72
53 58 64
62 68 77
53 58 64
66 72 80
49 53 60
53 58 64
54 60 69
55 61 69
48 53 60
58 65 73
54 60 69
50 54 60
55 61 69
52 57 64
44 48 54
62 68 77
60 67 77
50 56 64
52 57 64
55 61 69
49 55 64
49 56 64
54 61 69
60 67 77
54 60 69
54 60 69
46 52 59
47 52 60
60 65 73
57 62 69
62 68 77
49 53 60
54 60 69
47 53 60
62 68 77
56 61 69
52 57 64
47 52 60
215 232 255
215 232 255
215 232 255
215 232 255
215 232 255
215 232 255
215 232 255
215 232 255
215 232 255
215 232 255
215 232 255
215 232 255
215 232 255
215 232 255
215 232 255
215 232 255
215 232 255
215 232 255
215 232 255
215 232 255
215 232 255
215 232 255
215 232 255
215 232 255
215 232 255
215 232 255
215 232 255
216 232 255
215 232 255
216 232 255
216 232 255
216 232 255
216 232 255
216 232 255
216 232 255
216 232 255
216 232 255
216 232 255
216 233 255
216 233 255
216 232 255
216 233 255
216 233 255
216 233 255
216 233 255
216 233 255
216 233 255
216 233 255
216 233 255
216 233 255
216 233 255
216 233 255
216 233 255
216 233 255
216 233 255
216 233 255
216 233 255
216 233 255
216 233 255
216 233 255
216 233 255
216 233 255
216 233 255
216 233 255
216 233 255
216 233 255
216 233 255
216 233 255
216 233 255
216 233 255
216 233 255
217 233 255
217 233 255
217 233 255
217 233 255
217 233 255
217 233 255
217 233 255
217 233 255
217 233 255
217 233 255
217 233 255
217 233 255
217 233 255
217 233 255
217 233 255
217 233 255
217 233 255
217 233 255
217 233 255
217 233 255
217 233 255
217 233 255
217 233 255
217 233 255
217 233 255
217 233 255
217 233 255
217 233 255
217 233 255
217 233 255
217 233 255
217 233 255
217 233 255
217 233 255
217 233 255
217 233 255
217 233 255
217 233 255
217 233 255
217 233 255
217 233 255
217 233 255
217 233 255
217 233 255
217 233 255
217 233 255
217 233 255
217 233 255
217 233 255
217 233 255
217 233 255
217 233 255
217 233 255
217 233 255
217 233 255
217 233 255
218 233 255
218 233 255
218 233 255
218 233 255
218 233 255
218 233 255
218 233 255
218 233 255
218 233 255
218 234 255
218 233 255
218 234 255
218 234 255
218 234 255
218 234 255
218 234 255
218 234 255
218 234 255
218 234 255
218 234 255
218 234 255
218 234 255
218 234 255
218 234 255
218 234 255
218 233 255
218 233 255
218 233 255
218 233 255
218 233 255
218 233 255
218 233 255
218 233 255
218 233 255
218 233 255
217 233 255
217 233 255
217 233 255
217 233 255
217 233 255
217 233 255
217 233 255
217 233 255
217 233 255
217 233 255
217 233 255
217 233 255
217 233 255
217 233 255
217 233 255
217 233 255
217 233 255
217 233 255
217 233 255
217 233 255
217 233 255
217 233 255
217 233 255
217 233 255
217 233 255
217 233 255
217 233 255
217 233 255
217 233 255
217 233 255
217 233 255
217 233 255
217 233 255
217 233 255
217 233 255
217 233 255
217 233 255
217 233 255
217 233 255
217 233 255
217 233 255
217 233 255
217 233 255
217 233 255
217 233 255
217 233 255
217 233 255
217 233 255
217 233 255
217 233 255
217 233 255
217 233 255
217 233 255
217 233 255
217 233 255
217 233 255
216 233 255
216 233 255
216 233 255
216 233 255
216 233 255
216 233 255
216 233 255
216 233 255
216 233 255
216 233 255
216 233 255
216 233 255
216 233 255
216 233 255
216 233 255
216 233 255
216 233 255
216 233 255
216 233 255
216 233 255
216 233 255
216 233 255
216 233 255
216 233 255
216 233 255
216 233 255
216 233 255
216 233 255
216 233 255
216 233 255
216 233 255
216 233 255
216 232 255
216 232 255
216 232 255
216 232 255
216 232 255
216 232 255
216 232 255
216 232 255
216 232 255
216 232 255
216 232 255
216 232 255
216 232 255
215 232 255
216 232 255
215 232 255
215 232 255
215 232 255
215 232 255
215 232 255
215 232 255
215 232 255
215 232 255
215 232 255
215 232 255
215 232 255
215 232 255
169 183 201
64 70 77
56 61 69
50 56 64
55 61 69
62 68 77
51 57 64
64 71 80
38 42 48
54 60 69
56 62 69
56 61 69
58 64 73
61 68 77
56 61 69
60 66 73
40 43 49
42 48 54
52 59 69
41 47 54
57 64 73
61 68 77
62 68 77
55 60 68
50 56 64
52 57 64
51 57 64
54 60 69
54 60 68
54 60 69
50 54 60
51 57 64
53 60 69
54 60 68
66 72 80
54 60 69
54 61 69
57 64 73
59 65 72
46 52 60
60 67 77
52 57 64
57 64 73
52 57 64
49 53 60
52 57 64
38 42 48
53 58 64
62 68 77
59 65 73
46 52 59
62 68 77
49 56 64
58 64 73
52 57 64
45 49 54
51 57 64
47 52 60
48 53 60
54 60 69
64 69 77
58 64 73
58 64 72
57 64 73
54 60 69
63 69 77
59 65 73
47 52 60
50 56 64
59 65 73
51 57 64
56 61 69
48 53 60
58 64 72
51 56 64
58 64 73
51 57 64
51 57 64
59 65 73
51 57 64
48 53 59
39 43 48
52 57 64
56 61 69
42 47 54
62 68 77
48 53 59
59 65 73
50 56 64
57 62 69
38 43 49
43 48 54
61 68 77
49 56 64
62 68 77
47 52 60
46 52 60
57 64 73
54 58 64
62 68 77
52 57 64
42 47 54
51 57 64
63 69 77
64 71 80
54 61 69
57 64 73
55 61 69
59 65 73
60 66 73
52 57 64
52 57 64
55 61 69
57 64 73
53 60 69
57 64 73
57 64 73
57 62 69
57 62 69
50 56 64
61 67 77
53 60 69
41 47 54
158 170 188
215 232 255
215 232 255
215 232 255
215 232 255
215 232 255
215 232 255
215 232 255
215 232 255
215 232 255
215 232 255
215 232 255
215 232 255
215 232 255
215 232 255
215 232 255
216 232 255
216 232 255
216 232 255
216 232 255
216 232 255
216 232 255
216 232 255
216 232 255
216 232 255
216 232 255
216 232 255
216 232 255
216 232 255
216 233 255
216 233 255
216 233 255
216 233 255
216 233 255
216 233 255
216 233 255
216 233 255
216 233 255
216 233 255
216 233 255
216 233 255
216 233 255
216 233 255
216 233 255
216 233 255
216 233 255
216 233 255
216 233 255
216 233 255
216 233 255
216 233 255
216 233 255
216 233 255
216 233 255
216 233 255
216 233 255
216 233 255
216 233 255
216 233 255
217 233 255
217 233 255
217 233 255
217 233 255
217 233 255
217 233 255
217 233 255
217 233 255
217 233 255
217 233 255
217 233 255
217 233 255
217 233 255
217 233 255
217 233 255
217 233 255
217 233 255
217 233 255
217 233 255
217 233 255
217 233 255
217 233 255
217 233 255
217 233 255
217 233 255
217 233 255
217 233 255
217 233 255
217 233 255
217 233 255
217 233 255
217 233 255
217 233 255
217 233 255
217 233 255
217 233 255
217 233 255
217 233 255
217 233 255
217 233 255
217 233 255
217 233 255
217 233 255
217 233 255
217 233 255
217 233 255
217 233 255
217 233 255
217 233 255
217 233 255
217 233 255
217 233 255
217 233 255
217 233 255
217 233 255
217 233 255
217 233 255
217 233 255
218 233 255
218 233 255
218 233 255
218 233 255
218 233 255
218 233 255
218 234 255
218 234 255
218 234 255
218 234 255
218 234 255
218 234 255
218 234 255
218 234 255
218 234 255
218 234 255
218 234 255
218 234 255
218 234 255
218 234 255
218 234 255
218 234 255
218 234 255
218 234 255
218 234 255
218 234 255
218 234 255
218 234 255
218 234 255
218 234 255
218 234 255
218 234 255
218 234 255
218 234 255
218 234 255
218 234 255
218 234 255
218 234 255
218 234 255
218 234 255
218 234 255
218 234 255
218 234 255
218 234 255
218 234 255
218 234 255
218 234 255
218 234 255
218 234 255
218 233 255
218 234 255
218 233 255
218 233 255
218 233 255
218 233 255
218 233 255
217 233 255
217 233 255
217 233 255
217 233 255
217 233 255
217 233 255
217 233 255
217 233 255
217 233 255
217 233 255
217 233 255
217 233 255
217 233 255
217 233 255
217 233 255
217 233 255
217 233 255
217 233 255
217 233 255
217 233 255
217 233 255
217 233 255
217 233 255
217 233 255
217 233 255
217 233 255
217 233 255
217 233 255
217 233 255
217 233 255
217 233 255
217 233 255
217 233 255
217 233 255
217 233 255
217 233 255
217 233 255
217 233 255
217 233 255
217 233 255
217 233 255
217 233 255
217 233 255
217 233 255
217 233 255
217 233 255
217 233 255
217 233 255
217 233 255
217 233 255
217 233 255
217 233 255
217 233 255
217 233 255
217 233 255
217 233 255
216 233 255
216 233 255
216 233 255
216 233 255
216 233 255
216 233 255
216 233 255
216 233 255
216 233 255
216 233 255
216 233 255
216 233 255
216 233 255
216 233 255
216 233 255
216 233 255
216 233 255
216 233 255
216 233 255
216 233 255
216 233 255
216 233 255
216 233 255
216 233 255
216 233 255
216 233 255
216 233 255
216 233 255
216 233 255
216 233 255
216 233 255
216 232 255
216 233 255
216 232 255
216 232 255
216 232 255
216 232 255
216 232 255
216 232 255
216 232 255
216 232 255
216 232 255
216 232 255
216 232 255
215 232 255
215 232 255
215 232 255
215 232 255
90 98 108
53 60 69
56 61 69
60 67 77
46 51 59
50 56 64
63 69 77
52 57 64
57 62 69
57 64 73
52 57 64
44 48 54
43 48 54
40 46 54
56 62 69
55 59 64
61 68 77
52 57 64
55 61 69
55 60 68
47 53 60
50 56 64
50 56 64
40 43 48
38 42 49
56 61 69
50 56 64
52 57 64
58 64 73
57 64 72
51 57 64
56 63 73
50 56 64
52 59 68
56 61 69
48 53 60
66 72 80
59 65 73
45 49 54
60 66 73
58 64 73
55 61 69
56 61 69
50 54 60
52 57 64
41 47 54
63 67 73
50 56 64
56 61 69
61 68 77
61 68 77
44 48 54
52 57 64
59 65 73
57 63 72
56 61 69
58 64 73
52 57 64
59 65 73
55 61 69
59 65 72
51 57 64
54 60 69
56 61 69
49 56 64
55 61 69
49 53 60
54 60 69
45 49 54
48 53 59
54 60 69
49 55 64
51 57 64
55 61 69
59 65 73
60 65 73
46 52 60
53 58 64
59 65 73
44 48 54
45 51 59
55 63 72
58 65 73
48 53 60
46 51 58
58 64 73
54 60 69
38 43 49
52 57 64
52 57 64
53 60 69
56 62 69
65 72 80
58 64 73
51 57 64
55 61 69
48 53 59
46 52 59
54 60 69
48 53 60
53 57 64
55 61 69
61 68 77
57 62 69
56 63 73
64 69 77
56 61 69
49 54 60
60 67 77
56 63 72
55 61 69
54 60 69
58 64 72
55 61 68
63 69 77
57 64 73
54 60 69
56 61 69
42 47 54
38 43 49
60 65 73
59 65 73
58 64 73
127 137 151
215 232 255
215 232 255
215 232 255
215 232 255
216 232 255
216 232 255
216 232 255
216 232 255
216 232 255
216 232 255
216 232 255
216 232 255
216 232 255
216 232 255
216 232 255
216 232 255
216 232 255
216 232 255
216 233 255
216 233 255
216 233 255
216 233 255
216 233 255
216 233 255
216 233 255
216 233 255
216 233 255
216 233 255
216 233 255
216 233 255
216 233 255
216 233 255
216 233 255
216 233 255
216 233 255
216 233 255
216 233 255
216 233 255
216 233 255
216 233 255
216 233 255
216 233 255
216 233 255
216 233 255
216 233 255
216 233 255
216 233 255
216 233 255
216 233 255
217 233 255
217 233 255
217 233 255
217 233 255
217 233 255
217 233 255
217 233 255
217 233 255
217 233 255
217 233 255
217 233 255
217 233 255
217 233 255
217 233 255
217 233 255
217 233 255
217 233 255
217 233 255
217 233 255
217 233 255
217 233 255
217 233 255
217 233 255
217 233 255
217 233 255
217 233 255
217 233 255
217 233 255
217 233 255
217 233 255
217 233 255
217 233 255
217 233 255
217 233 255
217 233 255
217 233 255
217 233 255
217 233 255
217 233 255
217 233 255
217 233 255
217 233 255
217 233 255
217 233 255
217 233 255
217 233 255
217 233 255
217 233 255
217 233 255
217 233 255
217 233 255
217 233 255
218 233 255
217 233 255
217 233 255
218 233 255
218 233 255
218 233 255
218 233 255
218 233 255
218 234 255
218 233 255
218 234 255
218 234 255
218 234 255
218 234 255
218 234 255
218 234 255
218 234 255
218 234 255
218 234 255
218 234 255
218 234 255
218 234 255
218 234 255
218 234 255
218 234 255
218 234 255
218 234 255
218 234 255
218 234 255
218 234 255
218 234 255
218 234 255
218 234 255
218 234 255
218 234 255
218 234 255
218 234 255
218 234 255
218 234 255
218 234 255
218 234 255
218 234 255
218 234 255
218 234 255
218 234 255
218 234 255
218 234 255
218 234 255
218 234 255
218 234 255
218 234 255
218 234 255
218 234 255
218 234 255
218 234 255
218 234 255
218 234 255
218 234 255
218 234 255
218 234 255
218 234 255
218 234 255
218 234 255
218 234 255
218 234 255
218 234 255
218 234 255
218 234 255
218 234 255
218 234 255
218 234 255
218 234 255
218 234 255
218 234 255
218 234 255
218 234 255
218 234 255
218 233 255
218 233 255
218 233 255
218 233 255
218 233 255
217 233 255
217 233 255
217 233 255
217 233 255
217 233 255
217 233 255
217 233 255
217 233 255
217 233 255
217 233 255
217 233 255
217 233 255
217 233 255
217 233 255
217 233 255
217 233 255
217 233 255
217 233 255
217 233 255
217 233 255
217 233 255
217 233 255
217 233 255
217 233 255
217 233 255
217 233 255
217 233 255
217 233 255
217 233 255
217 233 255
217 233 255
217 233 255
217 233 255
217 233 255
217 233 255
217 233 255
217 233 255
217 233 255
217 233 255
217 233 255
217 233 255
217 233 255
217 233 255
217 233 255
217 233 255
217 233 255
217 233 255
217 233 255
217 233 255
217 233 255
217 233 255
217 233 255
217 233 255
217 233 255
217 233 255
217 233 255
216 233 255
216 233 255
216 233 255
216 233 255
216 233 255
216 233 255
216 233 255
216 233 255
216 233 255
216 233 255
216 233 255
216 233 255
216 233 255
216 233 255
216 233 255
216 233 255
216 233 255
216 233 255
216 233 255
216 233 255
216 233 255
216 233 255
216 233 255
216 233 255
216 233 255
216 233 255
216 233 255
216 233 255
216 233 255
216 233 255
216 233 255
216 233 255
216 233 255
216 232 255
216 232 255
216 232 255
194 209 230
62 68 77
51 57 64
53 58 64
60 65 72
57 64 73
64 69 77
57 64 73
60 65 73
39 43 49
45 51 60
46 52 60
50 56 64
45 51 60
60 67 77
62 66 73
48 53 60
56 63 73
51 56 64
54 58 64
54 60 69
50 56 64
55 61 69
61 68 77
52 57 64
57 64 73
57 64 73
54 60 69
58 64 73
66 72 80
55 61 69
55 61 69
54 60 69
51 57 64
45 49 54
49 56 64
50 56 64
50 56 64
48 53 60
63 69 77
48 53 60
51 56 64
51 57 64
54 61 69
56 61 69
46 52 60
57 62 69
60 65 73
51 56 64
61 66 73
41 47 54
58 64 73
55 61 69
55 61 69
59 65 73
58 65 73
60 65 73
48 53 60
51 57 64
49 53 59
58 64 73
51 57 64
50 56 64
49 53 59
53 58 64
58 64 73
65 72 80
51 57 64
53 58 64
56 62 69
51 57 64
53 58 64
61 68 77
55 61 69
54 60 68
46 52 60
53 60 69
46 52 60
63 69 77
50 56 64
51 57 64
59 65 73
65 72 80
51 56 64
59 65 73
57 64 73
57 64 73
50 56 64
61 68 77
57 64 73
53 58 64
54 60 69
46 52 59
56 62 69
47 52 60
50 54 60
47 52 60
55 61 69
59 67 77
57 64 73
52 57 64
43 48 54
51 57 64
60 67 76
40 46 54
42 47 54
54 60 69
57 64 73
58 64 73
57 62 69
54 60 69
49 54 60
61 68 77
56 61 69
56 63 73
51 56 64
49 53 60
47 52 60
55 61 69
54 58 64
56 61 69
54 60 69
49 55 63
47 52 60
41 47 54
206 222 244
216 232 255
216 232 255
216 233 255
216 232 255
216 233 255
216 233 255
216 233 255
216 233 255
216 233 255
216 233 255
216 233 255
216 233 255
216 233 255
216 233 255
216 233 255
216 233 255
216 233 255
216 233 255
216 233 255
216 233 255
216 233 255
216 233 255
216 233 255
216 233 255
216 233 255
216 233 255
216 233 255
216 233 255
216 233 255
216 233 255
216 233 255
216 233 255
216 233 255
216 233 255
216 233 255
217 233 255
217 233 255
217 233 255
217 233 255
217 233 255
217 233 255
217 233 255
217 233 255
217 233 255
217 233 255
217 233 255
217 233 255
217 233 255
217 233 255
217 233 255
217 233 255
217 233 255
217 233 255
217 233 255
217 233 255
217 233 255
217 233 255
217 233 255
217 233 255
217 233 255
217 233 255
217 233 255
217 233 255
217 233 255
217 233 255
217 233 255
217 233 255
217 233 255
217 233 255
217 233 255
217 233 255
217 233 255
217 233 255
217 233 255
217 233 255
217 233 255
217 233 255
217 233 255
217 233 255
217 233 255
217 233 255
217 233 255
217 233 255
217 233 255
217 233 255
217 233 255
217 233 255
217 233 255
217 233 255
217 233 255
217 233 255
218 233 255
218 233 255
218 233 255
218 233 255
218 233 255
218 233 255
218 234 255
218 234 255
218 234 255
218 234 255
218 234 255
218 234 255
218 234 255
218 234 255
218 234 255
218 234 255
218 234 255
218 234 255
218 234 255
218 234 255
218 234 255
218 234 255
218 234 255
218 234 255
218 234 255
218 234 255
218 234 255
218 234 255
218 234 255
218 234 255
218 234 255
218 234 255
218 234 255
218 234 255
218 234 255
218 234 255
218 234 255
218 234 255
218 234 255
218 234 255
218 234 255
218 234 255
218 234 255
218 234 255
218 234 255
218 234 255
218 234 255
218 234 255
218 234 255
218 234 255
218 234 255
218 234 255
218 234 255
218 234 255
218 234 255
218 234 255
218 234 255
218 234 255
218 234 255
218 234 255
218 234 255
218 234 255
218 234 255
218 234 255
218 234 255
218 234 255
218 234 255
218 234 255
218 234 255
218 234 255
218 234 255
218 234 255
218 234 255
218 234 255
218 234 255
218 234 255
218 234 255
218 234 255
218 234 255
218 234 255
218 234 255
218 234 255
218 234 255
218 234 255
218 234 255
218 234 255
218 234 255
218 234 255
218 234 255
218 234 255
218 234 255
218 234 255
218 234 255
218 234 255
218 234 255
218 234 255
218 234 255
218 234 255
218 233 255
218 233 255
218 233 255
218 233 255
218 233 255
218 233 255
218 233 255
218 233 255
217 233 255
217 233 255
217 233 255
217 233 255
217 233 255
217 233 255
217 233 255
217 233 255
217 233 255
217 233 255
217 233 255
217 233 255
217 233 255
217 233 255
217 233 255
217 233 255
217 233 255
217 233 255
217 233 255
217 233 255
217 233 255
217 233 255
217 233 255
217 233 255
217 233 255
217 233 255
217 233 255
217 233 255
217 233 255
217 233 255
217 233 255
217 233 255
217 233 255
217 233 255
217 233 255
217 233 255
217 233 255
217 233 255
217 233 255
217 233 255
217 233 255
217 233 255
217 233 255
217 233 255
217 233 255
217 233 255
217 233 255
217 233 255
217 233 255
217 233 255
217 233 255
217 233 255
217 233 255
217 233 255
216 233 255
216 233 255
216 233 255
216 233 255
216 233 255
216 233 255
216 233 255
216 233 255
216 233 255
216 233 255
216 233 255
216 233 255
216 233 255
216 233 255
216 233 255
216 233 255
216 233 255
216 233 255
216 233 255
216 233 255
216 233 255
216 233 255
216 233 255
170 183 201
53 60 69
58 64 73
47 52 60
48 53 60
55 61 69
51 56 64
61 66 73
47 53 60
51 57 64
47 52 60
61 66 73
58 64 73
55 61 69
55 61 69
47 52 60
47 53 60
47 52 60
52 57 64
54 60 69
47 52 60
53 58 64
62 68 77
52 57 64
52 57 64
47 53 60
49 53 59
61 69 80
42 47 54
45 51 60
59 65 73
53 58 64
48 53 59
50 54 60
45 51 60
46 52 59
51 57 64
51 56 64
57 64 73
57 64 73
50 56 64
52 57 64
54 60 69
54 60 69
52 57 64
49 53 60
52 57 64
52 57 64
52 57 64
52 57 64
48 53 60
55 61 69
51 57 64
66 72 80
63 69 77
54 58 64
54 60 68
59 65 73
57 64 73
46 49 54
44 48 54
56 61 68
48 53 60
49 56 64
56 61 69
55 63 73
53 58 64
57 64 73
55 61 69
43 48 54
59 65 73
53 60 69
63 69 77
57 62 68
47 53 60
49 53 60
65 71 80
63 69 77
57 64 73
59 65 73
55 61 69
52 57 64
34 38 42
55 61 69
59 65 73
57 64 73
58 65 73
59 65 73
54 60 69
58 64 73
54 60 69
53 60 69
35 38 42
47 52 59
58 64 73
42 47 54
40 44 49
46 52 60
61 67 77
48 53 60
50 56 64
55 61 69
45 49 54
57 62 69
46 49 54
43 48 54
64 71 80
52 57 64
53 60 69
60 67 77
55 61 69
59 65 73
48 53 60
62 68 77
53 60 69
42 48 54
53 58 64
51 57 64
52 57 64
53 60 69
55 61 69
60 66 73
49 56 64
49 56 64
53 58 64
171 184 203
216 233 255
216 233 255
216 233 255
216 233 255
216 233 255
216 233 255
216 233 255
216 233 255
216 233 255
216 233 255
216 233 255
216 233 255
216 233 255
216 233 255
216 233 255
216 233 255
216 233 255
216 233 255
216 233 255
216 233 255
216 233 255
216 233 255
216 233 255
216 233 255
217 233 255
217 233 255
217 233 255
217 233 255
217 233 255
217 233 255
217 233 255
217 233 255
217 233 255
217 233 255
217 233 255
217 233 255
217 233 255
217 233 255
217 233 255
217 233 255
217 233 255
217 233 255
217 233 255
217 233 255
217 233 255
217 233 255
217 233 255
217 233 255
217 233 255
217 233 255
217 233 255
217 233 255
217 233 255
217 233 255
217 233 255
217 233 255
217 233 255
217 233 255
217 233 255
217 233 255
217 233 255
217 233 255
217 233 255
217 233 255
217 233 255
217 233 255
217 233 255
217 233 255
217 233 255
217 233 255
217 233 255
217 233 255
217 233 255
217 233 255
217 233 255
217 233 255
217 233 255
218 233 255
217 233 255
218 233 255
218 233 255
218 233 255
218 233 255
218 233 255
218 233 255
218 234 255
218 234 255
218 234 255
218 234 255
218 234 255
218 234 255
218 234 255
218 234 255
218 234 255
218 234 255
218 234 255
218 234 255
218 234 255
218 234 255
218 234 255
218 234 255
218 234 255
218 234 255
218 234 255
218 234 255
218 234 255
218 234 255
218 234 255
218 234 255
218 234 255
218 234 255
218 234 255
218 234 255
218 234 255
218 234 255
218 234 255
218 234 255
218 234 255
218 234 255
218 234 255
218 234 255
218 234 255
218 234 255
218 234 255
218 234 255
218 234 255
218 234 255
218 234 255
218 234 255
218 234 255
218 234 255
218 234 255
218 234 255
218 234 255
218 234 255
218 234 255
218 234 255
218 234 255
218 234 255
218 234 255
218 234 255
218 234 255
218 234 255
218 234 255
218 234 255
218 234 255
218 234 255
218 234 255
218 234 255
218 234 255
218 234 255
218 234 255
218 234 255
218 234 255
218 234 255
218 234 255
218 234 255
218 234 255
218 234 255
218 234 255
218 234 255
218 234 255
218 234 255
218 234 255
218 234 255
218 234 255
218 234 255
218 234 255
218 234 255
218 234 255
218 234 255
218 234 255
218 234 255
218 234 255
218 234 255
218 234 255
218 234 255
218 234 255
218 234 255
218 234 255
218 234 255
218 234 255
218 234 255
218 234 255
218 234 255
218 234 255
218 234 255
218 234 255
218 234 255
218 234 255
218 234 255
218 234 255
218 234 255
218 234 255
218 234 255
218 234 255
218 234 255
218 234 255
218 234 255
218 234 255
218 234 255
218 233 255
218 233 255
218 234 255
218 234 255
218 233 255
218 233 255
218 233 255
218 233 255
217 233 255
217 233 255
217 233 255
217 233 255
217 233 255
217 233 255
217 233 255
217 233 255
217 233 255
217 233 255
217 233 255
217 233 255
217 233 255
217 233 255
217 233 255
217 233 255
217 233 255
217 233 255
217 233 255
217 233 255
217 233 255
217 233 255
217 233 255
217 233 255
217 233 255
217 233 255
217 233 255
217 233 255
217 233 255
217 233 255
217 233 255
217 233 255
217 233 255
217 233 255
217 233 255
217 233 255
217 233 255
217 233 255
217 233 255
217 233 255
217 233 255
217 233 255
217 233 255
217 233 255
217 233 255
217 233 255
217 233 255
217 233 255
217 233 255
217 233 255
217 233 255
217 233 255
217 233 255
217 233 255
216 233 255
217 233 255
217 233 255
216 233 255
216 233 255
216 233 255
216 233 255
216 233 255
216 233 255
216 233 255
216 233 255
170 183 201
56 63 73
55 61 69
54 60 69
59 65 73
55 61 69
61 66 73
55 61 69
56 61 69
59 65 73
48 53 59
48 53 60
48 55 64
58 64 73
57 64 73
58 64 73
49 53 60
42 47 54
61 68 77
44 51 60
43 48 54
53 58 64
51 57 64
54 60 69
56 61 69
40 43 49
58 64 73
51 56 64
55 61 69
48 53 59
60 65 73
56 61 69
56 61 69
59 65 73
51 57 64
53 58 64
48 53 60
38 42 49
58 64 73
60 65 73
54 61 69
43 48 54
51 57 64
44 48 54
47 52 60
55 61 69
48 53 60
55 61 69
51 56 64
54 60 69
57 62 69
52 57 64
54 60 69
48 53 60
49 53 60
61 66 73
55 61 69
46 52 59
48 53 60
61 68 77
50 54 60
48 53 60
56 61 69
54 58 64
66 72 80
57 64 73
47 52 58
58 64 72
53 58 64
57 62 69
53 60 68
56 61 69
60 67 77
47 53 60
53 60 69
48 53 60
48 53 59
53 60 69
46 52 60
61 68 77
44 48 54
51 57 64
56 61 69
59 65 73
48 53 60
53 58 64
42 47 54
57 62 69
47 53 60
55 61 69
54 60 69
55 61 69
36 38 42
58 65 73
53 57 64
60 66 73
51 57 64
58 64 73
55 61 69
53 58 64
49 53 59
49 53 60
51 56 64
34 37 42
60 65 72
61 66 73
58 64 73
49 55 64
55 60 68
51 57 64
55 61 69
52 59 68
59 65 73
59 65 73
55 61 69
58 64 73
38 43 49
56 63 72
58 64 73
57 64 73
55 61 68
43 48 54
55 61 69
54 60 69
46 52 60
108 116 128
216 233 255
216 233 255
216 233 255
216 233 255
216 233 255
216 233 255
216 233 255
216 233 255
216 233 255
216 233 255
217 233 255
216 233 255
217 233 255
217 233 255
217 233 255
217 233 255
217 233 255
217 233 255
217 233 255
217 233 255
217 233 255
217 233 255
217 233 255
217 233 255
217 233 255
217 233 255
217 233 255
217 233 255
217 233 255
217 233 255
217 233 255
217 233 255
217 233 255
217 233 255
217 233 255
217 233 255
217 233 255
217 233 255
217 233 255
217 233 255
217 233 255
217 233 255
217 233 255
217 233 255
217 233 255
217 233 255
217 233 255
217 233 255
217 233 255
217 233 255
217 233 255
217 233 255
217 233 255
217 233 255
217 233 255
217 233 255
217 233 255
217 233 255
217 233 255
217 233 255
217 233 255
217 233 255
217 233 255
217 233 255
217 233 255
217 233 255
218 233 255
218 233 255
218 233 255
218 233 255
218 233 255
218 233 255
218 234 255
218 234 255
218 234 255
218 234 255
218 234 255
218 234 255
218 234 255
218 234 255
218 234 255
218 234 255
218 234 255
218 234 255
218 234 255
218 234 255
218 234 255
218 234 255
218 234 255
218 234 255
218 234 255
218 234 255
218 234 255
218 234 255
218 234 255
218 234 255
218 234 255
218 234 255
218 234 255
218 234 255
218 234 255
218 234 255
218 234 255
218 234 255
218 234 255
218 234 255
218 234 255
218 234 255
218 234 255
218 234 255
218 234 255
218 234 255
218 234 255
218 234 255
218 234 255
218 234 255
218 234 255
218 234 255
218 234 255
218 234 255
218 234 255
218 234 255
218 234 255
218 234 255
218 234 255
218 234 255
218 234 255
218 234 255
218 234 255
218 234 255
218 234 255
218 234 255
218 234 255
218 234 255
218 234 255
218 234 255
218 234 255
219 234 255
219 234 255
219 234 255
219 234 255
219 234 255
219 234 255
219 234 255
219 234 255
219 234 255
219 234 255
219 234 255
219 234 255
218 234 255
218 234 255
218 234 255
218 234 255
218 234 255
218 234 255
218 234 255
218 234 255
218 234 255
218 234 255
218 234 255
218 234 255
218 234 255
218 234 255
218 234 255
218 234 255
218 234 255
218 234 255
218 234 255
218 234 255
218 234 255
218 234 255
218 234 255
218 234 255
218 234 255
218 234 255
218 234 255
218 234 255
218 234 255
218 234 255
218 234 255
218 234 255
218 234 255
218 234 255
218 234 255
218 234 255
218 234 255
218 234 255
218 234 255
218 234 255
218 234 255
218 234 255
218 234 255
218 234 255
218 234 255
218 234 255
218 234 255
218 234 255
218 234 255
218 234 255
218 234 255
218 234 255
218 234 255
218 234 255
218 234 255
218 234 255
218 234 255
218 234 255
218 234 255
218 234 255
218 234 255
218 234 255
218 234 255
218 234 255
218 234 255
218 234 255
218 234 255
218 233 255
218 233 255
218 233 255
218 233 255
218 233 255
218 233 255
217 233 255
217 233 255
218 233 255
217 233 255
217 233 255
217 233 255
217 233 255
217 233 255
217 233 255
217 233 255
217 233 255
217 233 255
217 233 255
217 233 255
217 233 255
217 233 255
217 233 255
217 233 255
217 233 255
217 233 255
217 233 255
217 233 255
217 233 255
217 233 255
217 233 255
217 233 255
217 233 255
217 233 255
217 233 255
217 233 255
217 233 255
217 233 255
217 233 255
217 233 255
217 233 255
217 233 255
217 233 255
217 233 255
217 233 255
217 233 255
217 233 255
217 233 255
217 233 255
217 233 255
217 233 255
217 233 255
217 233 255
217 233 255
217 233 255
217 233 255
217 233 255
217 233 255
57 62 69
49 54 60
58 64 72
52 57 64
60 67 77
54 60 68
46 52 60
52 57 64
47 52 60
48 53 60
48 53 59
33 37 42
64 71 80
57 64 72
54 60 69
51 57 64
58 64 73
48 53 60
45 51 60
48 53 60
45 49 54
52 57 64
47 52 60
45 51 59
50 56 64
48 53 59
55 61 69
47 53 60
52 57 64
48 53 60
48 53 60
52 57 64
59 65 73
45 49 54
57 64 73
49 56 64
56 61 69
63 69 77
56 61 68
59 65 73
50 54 60
49 53 60
50 56 64
51 57 64
56 63 73
43 48 54
47 53 60
54 60 69
51 57 64
56 61 69
55 61 69
46 52 59
57 62 69
61 66 73
58 64 73
51 57 64
50 56 64
54 60 68
48 53 60
47 52 60
50 54 60
51 57 64
49 53 60
65 71 80
48 53 60
57 62 69
60 65 73
48 53 60
52 57 64
51 56 64
60 67 77
48 53 60
46 52 60
46 52 60
55 61 69
41 47 54
62 68 77
62 68 77
55 61 69
58 64 73
57 64 73
57 64 73
52 57 64
59 65 73
57 64 73
47 52 59
48 53 59
56 61 68
50 56 64
47 52 59
52 57 64
60 67 77
54 60 69
54 58 64
49 56 64
46 52 59
52 59 69
59 65 73
50 56 64
59 67 77
55 61 69
51 57 64
43 48 54
48 53 60
54 60 69
58 64 73
54 60 69
46 51 59
41 44 49
56 61 68
55 61 69
56 61 69
43 48 54
51 56 64
44 48 54
48 53 60
45 51 60
42 47 54
53 58 64
64 69 77
57 64 72
55 61 69
39 43 48
49 55 64
51 57 64
52 57 64
217 233 255
217 233 255
217 233 255
217 233 255
217 233 255
217 233 255
217 233 255
217 233 255
217 233 255
217 233 255
217 233 255
217 233 255
217 233 255
217 233 255
217 233 255
217 233 255
217 233 255
217 233 255
217 233 255
217 233 255
217 233 255
217 233 255
217 233 255
217 233 255
217 233 255
217 233 255
217 233 255
217 233 255
217 233 255
217 233 255
217 233 255
217 233 255
217 233 255
217 233 255
217 233 255
217 233 255
217 233 255
217 233 255
217 233 255
217 233 255
217 233 255
217 233 255
217 233 255
217 233 255
217 233 255
217 233 255
217 233 255
217 233 255
217 233 255
217 233 255
217 233 255
218 233 255
217 233 255
218 233 255
218 233 255
218 233 255
218 233 255
218 233 255
218 233 255
218 234 255
218 234 255
218 234 255
218 234 255
218 234 255
218 234 255
218 234 255
218 234 255
218 234 255
218 234 255
218 234 255
218 234 255
218 234 255
218 234 255
218 234 255
218 234 255
218 234 255
218 234 255
218 234 255
218 234 255
218 234 255
218 234 255
218 234 255
218 234 255
218 234 255
218 234 255
218 234 255
218 234 255
218 234 255
218 234 255
218 234 255
218 234 255
218 234 255
218 234 255
218 234 255
218 234 255
218 234 255
218 234 255
218 234 255
218 234 255
218 234 255
218 234 255
218 234 255
218 234 255
218 234 255
218 234 255
218 234 255
218 234 255
218 234 255
218 234 255
218 234 255
218 234 255
218 234 255
218 234 255
218 234 255
218 234 255
218 234 255
218 234 255
218 234 255
218 234 255
218 234 255
218 234 255
218 234 255
218 234 255
218 234 255
219 234 255
219 234 255
219 234 255
219 234 255
219 234 255
219 234 255
219 234 255
219 234 255
219 234 255
219 234 255
219 234 255
219 234 255
219 234 255
219 234 255
219 234 255
219 234 255
219 234 255
219 234 255
219 234 255
219 234 255
219 234 255
219 234 255
219 234 255
219 234 255
219 234 255
219 234 255
219 234 255
219 234 255
219 234 255
219 234 255
219 234 255
219 234 255
219 234 255
219 234 255
219 234 255
219 234 255
219 234 255
219 234 255
219 234 255
219 234 255
219 234 255
218 234 255
218 234 255
218 234 255
218 234 255
218 234 255
218 234 255
218 234 255
218 234 255
218 234 255
218 234 255
218 234 255
218 234 255
218 234 255
218 234 255
218 234 255
218 234 255
218 234 255
218 234 255
218 234 255
218 234 255
218 234 255
218 234 255
218 234 255
218 234 255
218 234 255
218 234 255
218 234 255
218 234 255
218 234 255
218 234 255
218 234 255
218 234 255
218 234 255
218 234 255
218 234 255
218 234 255
218 234 255
218 234 255
218 234 255
218 234 255
218 234 255
218 234 255
218 234 255
218 234 255
218 234 255
218 234 255
218 234 255
218 234 255
218 234 255
218 234 255
218 234 255
218 234 255
218 234 255
218 234 255
218 234 255
218 234 255
218 234 255
218 234 255
218 234 255
218 234 255
218 234 255
218 234 255
218 234 255
218 234 255
218 233 255
218 234 255
218 234 255
218 233 255
218 233 255
218 233 255
218 233 255
218 233 255
217 233 255
218 233 255
217 233 255
217 233 255
217 233 255
217 233 255
217 233 255
217 233 255
217 233 255
217 233 255
217 233 255
217 233 255
217 233 255
217 233 255
217 233 255
217 233 255
217 233 255
217 233 255
217 233 255
217 233 255
217 233 255
217 233 255
217 233 255
217 233 255
217 233 255
217 233 255
217 233 255
217 233 255
217 233 255
217 233 255
217 233 255
217 233 255
217 233 255
217 233 255
217 233 255
217 233 255
217 233 255
45 49 54
58 64 73
43 48 54
46 52 60
56 61 69
50 56 64
57 62 69
55 61 69
50 56 64
60 65 73
51 57 64
47 52 60
55 61 69
47 52 60
43 48 54
51 57 64
59 65 73
53 58 64
54 60 69
48 55 64
56 61 68
56 62 69
45 49 54
57 62 69
55 61 69
63 69 77
58 64 73
62 68 77
48 53 60
53 58 64
44 48 54
58 65 73
50 56 64
61 68 76
52 57 64
52 57 64
60 67 77
58 64 73
42 47 54
60 65 73
58 64 73
49 53 59
49 53 60
51 59 69
58 64 73
57 62 69
51 55 60
44 49 54
38 42 49
60 65 72
57 62 69
38 43 48
52 57 64
56 61 69
52 57 64
45 49 54
45 51 60
39 43 49
53 60 69
58 65 73
51 57 64
52 57 64
50 56 63
50 56 64
49 56 64
56 62 69
55 61 68
51 57 64
39 43 48
52 57 64
58 64 73
43 48 54
57 64 73
43 48 54
56 63 72
52 57 64
51 57 64
55 61 69
55 59 64
51 57 64
62 68 77
41 44 49
47 52 60
48 53 60
51 56 64
58 62 69
41 47 54
53 60 69
53 58 64
59 65 73
63 69 77
54 60 69
55 61 69
56 61 69
44 49 54
53 58 64
59 65 73
50 56 64
53 58 64
49 53 59
60 65 72
53 60 69
35 38 42
44 48 54
46 52 60
50 56 64
53 58 64
51 57 64
39 43 49
63 69 77
53 58 64
47 52 60
54 60 69
46 52 60
46 52 60
49 56 64
53 58 64
51 57 64
49 56 64
41 44 49
52 57 64
45 51 60
59 65 73
61 68 77
54 60 69
55 61 69
196 211 231
217 233 255
217 233 255
217 233 255
217 233 255
217 233 255
217 233 255
217 233 255
217 233 255
217 233 255
217 233 255
217 233 255
217 233 255
217 233 255
217 233 255
217 233 255
217 233 255
217 233 255
217 233 255
217 233 255
217 233 255
217 233 255
217 233 255
217 233 255
217 233 255
217 233 255
217 233 255
217 233 255
217 233 255
217 233 255
217 233 255
217 233 255
217 233 255
217 233 255
217 233 255
217 233 255
217 233 255
218 233 255
218 233 255
218 233 255
218 233 255
218 234 255
218 233 255
218 234 255
218 234 255
218 234 255
218 234 255
218 234 255
218 234 255
218 234 255
218 234 255
218 234 255
218 234 255
218 234 255
218 234 255
218 234 255
218 234 255
218 234 255
218 234 255
218 234 255
218 234 255
218 234 255
218 234 255
218 234 255
218 234 255
218 234 255
218 234 255
218 234 255
218 234 255
218 234 255
218 234 255
218 234 255
218 234 255
218 234 255
218 234 255
218 234 255
218 234 255
218 234 255
218 234 255
218 234 255
218 234 255
218 234 255
218 234 255
218 234 255
218 234 255
218 234 255
218 234 255
218 234 255
218 234 255
218 234 255
218 234 255
218 234 255
218 234 255
218 234 255
218 234 255
218 234 255
218 234 255
218 234 255
218 234 255
218 234 255
218 234 255
218 234 255
218 234 255
218 234 255
218 234 255
218 234 255
218 234 255
218 234 255
219 234 255
219 234 255
219 234 255
219 234 255
219 234 255
219 234 255
219 234 255
219 234 255
219 234 255
219 234 255
219 234 255
219 234 255
219 234 255
219 234 255
219 234 255
219 234 255
219 234 255
219 234 255
219 234 255
219 234 255
219 234 255
219 234 255
219 234 255
219 234 255
219 234 255
219 234 255
219 234 255
219 234 255
219 234 255
219 234 255
219 234 255
219 234 255
219 234 255
219 234 255
219 234 255
219 234 255
219 234 255
219 234 255
219 234 255
219 234 255
219 234 255
219 234 255
219 234 255
219 234 255
219 234 255
219 234 255
219 234 255
219 234 255
219 234 255
219 234 255
219 234 255
219 234 255
219 234 255
219 234 255
219 234 255
219 234 255
219 234 255
219 234 255
219 234 255
219 234 255
219 234 255
219 234 255
219 234 255
219 234 255
219 234 255
219 234 255
219 234 255
219 234 255
219 234 255
219 234 255
219 234 255
219 234 255
219 234 255
218 234 255
218 234 255
218 234 255
218 234 255
218 234 255
218 234 255
218 234 255
218 234 255
218 234 255
218 234 255
218 234 255
218 234 255
218 234 255
218 234 255
218 234 255
218 234 255
218 234 255
218 234 255
218 234 255
218 234 255
218 234 255
218 234 255
218 234 255
218 234 255
218 234 255
218 234 255
218 234 255
218 234 255
218 234 255
218 234 255
218 234 255
218 234 255
218 234 255
218 234 255
218 234 255
218 234 255
218 234 255
218 234 255
218 234 255
218 234 255
218 234 255
218 234 255
218 234 255
218 234 255
218 234 255
218 234 255
218 234 255
218 234 255
218 234 255
218 234 255
218 234 255
218 234 255
218 234 255
218 234 255
218 234 255
218 234 255
218 234 255
218 234 255
218 234 255
218 234 255
218 234 255
218 234 255
218 234 255
218 234 255
218 234 255
218 234 255
218 233 255
218 233 255
218 233 255
218 233 255
218 233 255
218 233 255
217 233 255
218 233 255
217 233 255
217 233 255
217 233 255
217 233 255
217 233 255
217 233 255
217 233 255
217 233 255
217 233 255
217 233 255
217 233 255
217 233 255
217 233 255
217 233 255
217 233 255
217 233 255
217 233 255
217 233 255
172 185 203
46 52 60
55 61 69
46 52 60
44 49 54
53 60 69
53 58 64
51 57 64
45 49 54
51 57 64
44 48 54
51 57 64
52 57 64
45 51 60
52 57 64
50 54 60
56 61 69
46 51 59
54 60 68
50 54 60
63 69 77
55 61 69
62 68 77
56 62 69
48 53 60
52 57 64
59 65 73
57 62 69
60 65 73
47 52 60
43 48 54
58 64 73
56 61 69
52 57 64
58 64 73
53 59 68
58 65 73
50 56 64
55 61 69
51 56 64
54 60 69
57 62 69
50 56 64
42 47 54
43 48 54
57 62 69
48 53 60
54 60 68
51 57 64
49 55 64
38 42 49
58 65 73
54 60 68
54 60 68
46 52 60
51 57 64
53 60 69
50 54 60
54 60 69
47 52 59
56 61 69
37 42 48
54 60 68
48 53 60
60 65 73
62 68 77
48 53 60
42 47 54
61 68 77
50 56 64
49 54 60
38 42 49
54 60 69
56 61 69
44 48 54
51 56 64
54 60 69
44 49 54
60 66 73
53 58 64
48 53 60
58 64 73
63 69 77
52 57 64
53 58 64
51 57 64
52 57 64
38 43 49
51 57 64
45 52 60
54 58 64
40 44 49
54 60 69
57 64 73
52 57 64
58 64 73
46 52 59
57 64 73
50 56 64
51 57 64
46 52 60
50 56 64
58 62 69
45 49 54
47 52 59
47 52 60
63 69 77
42 47 54
48 53 60
55 61 69
56 61 69
55 61 69
37 42 49
64 69 77
48 53 60
46 52 60
44 49 54
43 48 54
48 53 60
59 65 72
59 65 73
52 57 64
60 67 77
51 57 64
52 57 64
57 64 73
52 57 64
184 198 217
217 233 255
217 233 255
217 233 255
217 233 255
217 233 255
217 233 255
217 233 255
217 233 255
217 233 255
217 233 255
217 233 255
217 233 255
217 233 255
217 233 255
217 233 255
217 233 255
217 233 255
217 233 255
218 233 255
218 233 255
218 233 255
218 233 255
218 233 255
218 233 255
218 234 255
218 233 255
218 234 255
218 234 255
218 234 255
218 234 255
218 234 255
218 234 255
218 234 255
218 234 255
218 234 255
218 234 255
218 234 255
218 234 255
218 234 255
218 234 255
218 234 255
218 234 255
218 234 255
218 234 255
218 234 255
218 234 255
218 234 255
218 234 255
218 234 255
218 234 255
218 234 255
218 234 255
218 234 255
218 234 255
218 234 255
218 234 255
218 234 255
218 234 255
218 234 255
218 234 255
218 234 255
218 234 255
218 234 255
218 234 255
218 234 255
218 234 255
218 234 255
218 234 255
218 234 255
218 234 255
218 234 255
218 234 255
218 234 255
218 234 255
218 234 255
218 234 255
218 234 255
218 234 255
218 234 255
218 234 255
218 234 255
218 234 255
218 234 255
218 234 255
218 234 255
218 234 255
218 234 255
218 234 255
218 234 255
218 234 255
218 234 255
219 234 255
219 234 255
219 234 255
219 234 255
219 234 255
219 234 255
219 234 255
219 234 255
219 234 255
219 234 255
219 234 255
219 234 255
219 234 255
219 234 255
219 234 255
219 234 255
219 234 255
219 234 255
219 234 255
219 234 255
219 234 255
219 234 255
219 234 255
219 234 255
219 234 255
219 234 255
219 234 255
219 234 255
219 234 255
219 234 255
219 234 255
219 234 255
219 234 255
219 234 255
219 234 255
219 234 255
219 234 255
219 234 255
219 234 255
219 234 255
219 234 255
219 234 255
219 234 255
219 234 255
219 234 255
219 234 255
219 234 255
219 234 255
219 234 255
219 234 255
219 234 255
219 234 255
219 234 255
219 234 255
219 234 255
219 234 255
219 234 255
219 234 255
219 234 255
219 234 255
219 234 255
219 234 255
219 234 255
219 234 255
219 234 255
219 234 255
219 234 255
219 234 255
219 234 255
219 234 255
219 234 255
219 234 255
219 234 255
219 234 255
219 234 255
219 234 255
219 234 255
219 234 255
219 234 255
219 234 255
219 234 255
219 234 255
219 234 255
219 234 255
219 234 255
219 234 255
219 234 255
219 234 255
219 234 255
219 234 255
219 234 255
219 234 255
219 234 255
219 234 255
219 234 255
219 234 255
219 234 255
219 234 255
219 234 255
219 234 255
219 234 255
219 234 255
219 234 255
219 234 255
219 234 255
218 234 255
219 234 255
218 234 255
218 234 255
218 234 255
218 234 255
218 234 255
218 234 255
218 234 255
218 234 255
218 234 255
218 234 255
218 234 255
218 234 255
218 234 255
218 234 255
218 234 255
218 234 255
218 234 255
218 234 255
218 234 255
218 234 255
218 234 255
218 234 255
218 234 255
218 234 255
218 234 255
218 234 255
218 234 255
218 234 255
218 234 255
218 234 255
218 234 255
218 234 255
218 234 255
218 234 255
218 234 255
218 234 255
218 234 255
218 234 255
218 234 255
218 234 255
218 234 255
218 234 255
218 234 255
218 234 255
218 234 255
218 234 255
218 234 255
218 234 255
218 234 255
218 234 255
218 234 255
218 234 255
218 234 255
218 234 255
218 234 255
218 234 255
218 234 255
218 234 255
218 234 255
218 234 255
218 234 255
218 234 255
218 234 255
218 233 255
218 233 255
218 234 255
218 233 255
218 233 255
218 233 255
218 233 255
218 233 255
218 233 255
217 233 255
217 233 255
173 186 204
52 57 64
58 64 73
62 68 77
53 57 64
58 64 73
61 68 77
59 65 73
57 64 73
56 61 69
43 48 54
58 64 73
56 61 69
65 72 80
52 57 64
61 68 77
56 61 69
47 52 59
46 52 60
55 61 69
45 49 54
52 57 64
57 64 73
51 57 64
51 57 64
62 68 77
56 63 73
49 53 60
51 57 64
50 56 64
54 60 69
55 61 69
52 57 64
53 58 64
51 56 64
52 57 64
58 64 73
50 56 64
53 58 64
55 61 69
50 56 64
51 57 64
51 57 64
48 53 59
61 66 73
52 57 64
51 56 64
59 65 73
56 63 73
56 61 69
60 65 73
61 68 77
47 53 60
51 57 64
51 57 64
57 64 73
55 61 69
47 52 59
52 57 64
55 61 69
48 53 60
60 65 73
52 57 64
60 65 73
50 56 64
56 61 68
63 69 77
51 57 64
55 61 69
60 67 77
37 42 49
59 65 73
54 61 69
52 57 64
40 44 49
47 53 60
48 53 59
51 57 64
50 56 64
51 57 64
49 54 60
51 57 64
49 56 64
45 49 54
54 58 64
49 55 64
57 62 69
53 58 64
63 69 77
46 52 60
54 60 69
49 53 60
43 48 54
54 61 69
56 62 69
46 52 59
52 57 64
56 61 69
68 73 80
50 56 64
46 52 59
55 61 69
52 57 64
53 58 64
53 57 64
62 68 77
52 57 64
47 52 59
49 54 60
45 51 59
57 62 69
52 57 64
43 48 54
55 61 68
49 54 60
56 61 69
55 61 69
59 65 73
58 62 69
51 56 64
52 57 64
51 57 64
56 61 69
59 65 73
63 69 77
54 60 69
60 66 73
143 154 170
218 233 255
218 233 255
218 233 255
218 233 255
218 233 255
218 233 255
218 233 255
218 233 255
218 233 255
218 233 255
218 234 255
218 234 255
218 234 255
218 234 255
218 234 255
218 234 255
218 234 255
218 234 255
218 234 255
218 234 255
218 234 255
218 234 255
218 234 255
218 234 255
218 234 255
218 234 255
218 234 255
218 234 255
218 234 255
218 234 255
218 234 255
218 234 255
218 234 255
218 234 255
218 234 255
218 234 255
218 234 255
218 234 255
218 234 255
218 234 255
218 234 255
218 234 255
218 234 255
218 234 255
218 234 255
218 234 255
218 234 255
218 234 255
218 234 255
218 234 255
218 234 255
218 234 255
218 234 255
218 234 255
218 234 255
218 234 255
218 234 255
218 234 255
218 234 255
218 234 255
218 234 255
218 234 255
218 234 255
218 234 255
218 234 255
218 234 255
218 234 255
218 234 255
218 234 255
218 234 255
218 234 255
219 234 255
218 234 255
219 234 255
218 234 255
219 234 255
219 234 255
219 234 255
219 234 255
219 234 255
219 234 255
219 234 255
219 234 255
219 234 255
219 234 255
219 234 255
219 234 255
219 234 255
219 234 255
219 234 255
219 234 255
219 234 255
219 234 255
219 234 255
219 234 255
219 234 255
219 234 255
219 234 255
219 234 255
219 234 255
219 234 255
219 234 255
219 234 255
219 234 255
219 234 255
219 234 255
219 234 255
219 234 255
219 234 255
219 234 255
219 234 255
219 234 255
219 234 255
219 234 255
219 234 255
219 234 255
219 234 255
219 234 255
219 234 255
219 234 255
219 234 255
219 234 255
219 234 255
219 234 255
219 234 255
219 234 255
219 234 255
219 234 255
219 234 255
219 234 255
219 234 255
219 234 255
219 234 255
219 234 255
219 234 255
219 234 255
219 234 255
219 234 255
219 234 255
219 234 255
219 234 255
219 234 255
219 234 255
219 234 255
219 234 255
219 234 255
219 234 255
219 234 255
219 234 255
219 234 255
219 234 255
219 234 255
219 234 255
219 234 255
219 234 255
219 234 255
219 234 255
219 234 255
219 234 255
219 234 255
219 234 255
219 234 255
219 234 255
219 234 255
219 234 255
219 234 255
219 234 255
219 234 255
219 234 255
219 234 255
219 234 255
219 234 255
219 234 255
219 234 255
219 234 255
219 234 255
219 234 255
219 234 255
219 234 255
219 234 255
219 234 255
219 234 255
219 234 255
219 234 255
219 234 255
219 234 255
219 234 255
219 234 255
219 234 255
219 234 255
219 234 255
219 234 255
219 234 255
219 234 255
219 234 255
219 234 255
219 234 255
219 234 255
219 234 255
219 234 255
219 234 255
219 234 255
219 234 255
219 234 255
219 234 255
219 234 255
219 234 255
219 234 255
219 234 255
219 234 255
219 234 255
219 234 255
219 234 255
219 234 255
218 234 255
219 234 255
218 234 255
219 234 255
218 234 255
218 234 255
218 234 255
218 234 255
218 234 255
218 234 255
218 234 255
218 234 255
218 234 255
218 234 255
218 234 255
218 234 255
218 234 255
218 234 255
218 234 255
218 234 255
218 234 255
218 234 255
218 234 255
218 234 255
218 234 255
218 234 255
218 234 255
218 234 255
218 234 255
218 234 255
218 234 255
218 234 255
218 234 255
218 234 255
218 234 255
218 234 255
218 234 255
218 234 255
218 234 255
218 234 255
218 234 255
218 234 255
218 234 255
218 234 255
218 234 255
218 234 255
218 234 255
218 234 255
218 234 255
218 234 255
218 234 255
218 234 255
218 234 255
218 234 255
218 234 255
218 234 255
218 234 255
218 234 255
145 156 171
41 44 49
52 57 64
52 57 64
39 43 49
57 64 73
41 47 54
57 62 69
54 60 69
53 60 69
62 66 73
51 59 68
63 69 77
51 57 64
66 72 80
54 60 69
59 65 73
51 57 64
49 53 60
52 57 64
47 53 60
55 61 69
57 63 72
54 60 69
56 61 69
55 61 69
47 53 60
58 64 72
62 68 77
53 60 69
52 57 64
58 64 73
44 48 54
44 48 54
59 65 73
51 57 64
61 66 73
59 65 73
58 64 73
49 56 64
48 53 60
60 65 73
53 58 64
44 49 54
59 65 73
47 52 60
57 62 69
59 65 73
47 53 60
47 52 60
53 58 64
50 56 64
42 47 54
55 61 69
52 57 64
47 52 59
54 58 64
58 64 73
38 42 48
46 52 60
51 57 64
52 57 64
39 43 49
50 56 64
50 56 64
58 65 73
42 48 54
56 61 68
38 42 48
46 49 54
51 56 64
48 53 60
52 57 64
63 71 80
48 55 64
50 56 64
55 61 69
47 53 60
50 56 64
60 67 77
50 56 64
50 56 64
58 64 73
51 57 64
52 57 64
50 56 64
52 57 64
51 57 64
58 64 73
58 62 69
58 64 73
43 47 54
60 65 72
52 57 64
62 68 77
55 61 69
54 59 64
53 60 68
43 48 54
47 52 60
54 58 64
51 57 64
47 52 60
54 60 69
52 57 64
54 60 69
53 58 64
43 48 54
54 61 69
56 63 73
49 54 60
55 61 69
57 64 72
50 56 64
55 61 68
62 68 77
62 68 77
51 57 64
50 56 64
57 62 69
50 56 64
44 49 54
54 58 64
59 65 73
43 48 54
50 56 64
56 61 68
47 52 60
218 234 255
218 234 255
218 234 255
218 234 255
218 234 255
218 234 255
218 234 255
218 234 255
218 234 255
218 234 255
218 234 255
218 234 255
218 234 255
218 234 255
218 234 255
218 234 255
218 234 255
218 234 255
218 234 255
218 234 255
218 234 255
218 234 255
218 234 255
218 234 255
218 234 255
218 234 255
218 234 255
218 234 255
218 234 255
218 234 255
218 234 255
218 234 255
218 234 255
218 234 255
218 234 255
218 234 255
218 234 255
218 234 255
218 234 255
218 234 255
218 234 255
218 234 255
218 234 255
218 234 255
218 234 255
218 234 255
218 234 255
218 234 255
218 234 255
218 234 255
218 234 255
218 234 255
218 234 255
218 234 255
218 234 255
218 234 255
218 234 255
219 234 255
219 234 255
219 234 255
219 234 255
219 234 255
219 234 255
219 234 255
219 234 255
219 234 255
219 234 255
219 234 255
219 234 255
219 234 255
219 234 255
219 234 255
219 234 255
219 234 255
219 234 255
219 234 255
219 234 255
219 234 255
219 234 255
219 234 255
219 234 255
219 234 255
219 234 255
219 234 255
219 234 255
219 234 255
219 234 255
219 234 255
219 234 255
219 234 255
219 234 255
219 234 255
219 234 255
219 234 255
219 234 255
219 234 255
219 234 255
219 234 255
219 234 255
219 234 255
219 234 255
219 234 255
219 234 255
219 234 255
219 234 255
219 234 255
219 234 255
219 234 255
219 234 255
219 234 255
219 234 255
219 234 255
219 234 255
219 234 255
219 234 255
219 234 255
219 234 255
219 234 255
219 234 255
219 234 255
219 234 255
219 234 255
219 234 255
219 234 255
219 234 255
219 234 255
219 234 255
219 234 255
219 234 255
219 234 255
219 234 255
219 234 255
219 234 255
219 234 255
219 234 255
219 234 255
219 235 255
219 235 255
219 235 255
219 235 255
219 235 255
219 235 255
219 235 255
219 234 255
219 234 255
219 234 255
219 234 255
219 234 255
219 234 255
219 234 255
219 234 255
219 234 255
219 234 255
219 234 255
219 234 255
219 234 255
219 234 255
219 234 255
219 234 255
219 234 255
219 234 255
219 234 255
219 234 255
219 234 255
219 234 255
219 234 255
219 234 255
219 234 255
219 234 255
219 234 255
219 234 255
219 234 255
219 234 255
219 234 255
219 234 255
219 234 255
219 234 255
219 234 255
219 234 255
219 234 255
219 234 255
219 234 255
219 234 255
219 234 255
219 234 255
219 234 255
219 234 255
219 234 255
219 234 255
219 234 255
219 234 255
219 234 255
219 234 255
219 234 255
219 234 255
219 234 255
219 234 255
219 234 255
219 234 255
219 234 255
219 234 255
219 234 255
219 234 255
219 234 255
219 234 255
219 234 255
219 234 255
219 234 255
219 234 255
219 234 255
219 234 255
219 234 255
219 234 255
219 234 255
219 234 255
219 234 255
219 234 255
219 234 255
219 234 255
219 234 255
219 234 255
219 234 255
219 234 255
219 234 255
219 234 255
219 234 255
219 234 255
219 234 255
219 234 255
219 234 255
219 234 255
219 234 255
219 234 255
219 234 255
219 234 255
218 234 255
219 234 255
219 234 255
218 234 255
218 234 255
218 234 255
218 234 255
218 234 255
218 234 255
218 234 255
218 234 255
218 234 255
218 234 255
218 234 255
218 234 255
218 234 255
218 234 255
218 234 255
218 234 255
218 234 255
218 234 255
218 234 255
218 234 255
218 234 255
218 234 255
218 234 255
218 234 255
218 234 255
218 234 255
218 234 255
218 234 255
218 234 255
218 234 255
218 234 255
218 234 255
218 234 255
218 234 255
49 56 64
49 53 60
54 60 69
50 56 64
60 65 73
54 60 69
63 69 77
42 47 54
56 61 68
57 62 69
49 53 60
48 53 60
57 62 69
56 61 69
60 67 76
56 61 69
51 57 64
62 69 77
47 52 60
47 52 60
56 61 69
47 53 60
43 48 54
39 43 49
33 37 42
55 60 68
35 38 42
60 67 77
65 70 77
46 52 60
56 61 69
56 62 69
47 52 60
48 53 60
61 66 73
48 53 60
52 57 64
43 48 54
50 54 60
50 54 60
63 69 77
52 57 64
55 61 69
49 53 59
56 61 69
44 48 54
59 65 73
43 48 54
56 61 69
61 66 73
46 51 59
52 57 64
39 43 49
56 61 69
59 65 73
52 57 64
48 53 60
57 64 73
56 61 68
52 57 64
57 64 73
53 58 64
54 60 69
50 56 64
47 53 60
55 61 69
51 57 64
48 53 60
53 58 64
50 56 64
59 65 73
57 64 72
56 63 73
51 57 64
57 64 73
63 69 77
53 58 64
54 61 69
41 47 54
42 47 54
47 52 60
59 65 73
53 58 64
55 61 69
42 47 54
53 60 69
53 58 64
44 48 54
60 65 73
54 60 69
52 57 64
48 52 59
51 56 64
52 57 64
61 68 77
59 65 73
40 44 48
59 65 73
54 60 69
53 60 69
54 61 69
46 52 60
66 72 80
56 62 69
48 53 60
56 61 69
51 57 64
52 57 64
52 57 64
47 52 60
58 64 73
49 53 60
56 61 69
61 67 77
57 64 73
61 67 77
42 47 54
57 62 69
60 67 77
62 68 77
57 62 69
48 53 60
55 61 69
48 53 60
60 67 77
63 69 77
51 57 64
88 95 106
218 234 255
218 234 255
218 234 255
218 234 255
218 234 255
218 234 255
218 234 255
218 234 255
218 234 255
218 234 255
218 234 255
218 234 255
218 234 255
218 234 255
218 234 255
218 234 255
218 234 255
218 234 255
218 234 255
218 234 255
218 234 255
218 234 255
218 234 255
218 234 255
218 234 255
218 234 255
218 234 255
218 234 255
218 234 255
218 234 255
218 234 255
218 234 255
218 234 255
218 234 255
218 234 255
218 234 255
219 234 255
218 234 255
218 234 255
219 234 255
219 234 255
219 234 255
219 234 255
219 234 255
219 234 255
219 234 255
219 234 255
219 234 255
219 234 255
219 234 255
219 234 255
219 234 255
219 234 255
219 234 255
219 234 255
219 234 255
219 234 255
219 234 255
219 234 255
219 234 255
219 234 255
219 234 255
219 234 255
219 234 255
219 234 255
219 234 255
219 234 255
219 234 255
219 234 255
219 234 255
219 234 255
219 234 255
219 234 255
219 234 255
219 234 255
219 234 255
219 234 255
219 234 255
219 234 255
219 234 255
219 234 255
219 234 255
219 234 255
219 234 255
219 234 255
219 234 255
219 234 255
219 234 255
219 234 255
219 234 255
219 234 255
219 234 255
219 234 255
219 234 255
219 234 255
219 234 255
219 234 255
219 234 255
219 234 255
219 234 255
219 234 255
219 234 255
219 234 255
219 234 255
219 234 255
219 234 255
219 234 255
219 234 255
219 234 255
219 234 255
219 234 255
219 234 255
219 234 255
219 234 255
219 234 255
219 234 255
219 234 255
219 234 255
219 234 255
219 234 255
219 234 255
219 234 255
219 234 255
219 234 255
219 234 255
219 234 255
219 234 255
219 234 255
219 235 255
219 235 255
219 234 255
219 235 255
219 235 255
219 235 255
219 235 255
219 235 255
220 235 255
220 235 255
220 235 255
220 235 255
220 235 255
220 235 255
220 235 255
220 235 255
220 235 255
220 235 255
220 235 255
220 235 255
220 235 255
219 235 255
220 235 255
219 235 255
219 235 255
219 235 255
219 235 255
219 235 255
219 235 255
219 235 255
219 235 255
219 235 255
219 235 255
219 235 255
219 235 255
219 235 255
219 235 255
219 235 255
219 235 255
219 234 255
219 234 255
219 234 255
219 234 255
219 234 255
219 234 255
219 234 255
219 234 255
219 234 255
219 234 255
219 234 255
219 234 255
219 234 255
219 234 255
219 234 255
219 234 255
219 234 255
219 234 255
219 234 255
219 234 255
219 234 255
219 234 255
219 234 255
219 234 255
219 234 255
219 234 255
219 234 255
219 234 255
219 234 255
219 234 255
219 234 255
219 234 255
219 234 255
219 234 255
219 234 255
219 234 255
219 234 255
219 234 255
219 234 255
219 234 255
219 234 255
219 234 255
219 234 255
219 234 255
219 234 255
219 234 255
219 234 255
219 234 255
219 234 255
219 234 255
219 234 255
219 234 255
219 234 255
219 234 255
219 234 255
219 234 255
219 234 255
219 234 255
219 234 255
219 234 255
219 234 255
219 234 255
219 234 255
219 234 255
219 234 255
219 234 255
219 234 255
219 234 255
219 234 255
219 234 255
219 234 255
219 234 255
219 234 255
219 234 255
219 234 255
219 234 255
219 234 255
219 234 255
219 234 255
219 234 255
219 234 255
219 234 255
219 234 255
219 234 255
219 234 255
219 234 255
219 234 255
219 234 255
218 234 255
218 234 255
218 234 255
218 234 255
218 234 255
218 234 255
218 234 255
218 234 255
218 234 255
218 234 255
218 234 255
218 234 255
218 234 255
218 234 255
218 234 255
218 234 255
196 210 230
56 61 69
44 49 54
55 61 69
52 57 64
52 57 64
57 62 69
52 57 64
52 57 64
52 59 69
58 65 73
52 57 64
61 68 77
57 64 73
49 54 60
56 61 68
52 57 64
62 68 77
59 65 73
56 61 69
48 53 60
59 65 73
53 58 64
50 56 64
61 68 77
57 64 73
54 60 69
49 53 59
43 48 54
56 61 68
48 53 59
38 42 49
47 53 60
39 43 48
60 65 73
52 57 64
39 43 49
56 61 69
59 65 73
59 65 72
46 52 59
44 48 54
48 53 60
64 69 77
55 61 69
53 57 64
56 61 67
59 65 73
60 66 73
55 61 69
49 53 60
49 53 60
53 58 64
60 67 77
42 48 54
51 56 64
63 69 77
46 51 59
55 63 73
55 61 69
41 44 49
42 47 54
60 65 73
59 65 73
37 42 48
64 69 77
56 61 68
45 51 60
54 60 69
48 52 58
53 58 64
46 52 59
52 57 64
54 61 69
43 48 54
52 57 64
50 56 64
42 47 54
45 51 60
42 47 53
65 71 80
55 61 69
59 65 73
50 56 64
51 57 64
50 54 60
48 53 60
56 61 69
45 49 54
52 57 64
50 56 64
56 61 69
53 58 64
48 53 60
60 67 77
53 60 69
47 52 60
59 65 73
52 57 64
47 52 60
60 65 73
56 61 69
51 57 64
52 57 64
49 53 60
55 61 68
47 52 60
52 57 64
56 61 69
60 65 73
53 58 64
45 49 54
56 61 69
49 53 60
40 44 49
51 57 64
51 57 64
57 64 73
52 57 64
50 56 64
53 60 68
57 62 69
48 53 60
52 57 64
52 57 64
47 52 60
59 65 73
58 64 73
60 67 77
184 197 216
218 234 255
218 234 255
218 234 255
218 234 255
218 234 255
218 234 255
218 234 255
218 234 255
218 234 255
218 234 255
218 234 255
218 234 255
219 234 255
218 234 255
219 234 255
219 234 255
219 234 255
219 234 255
219 234 255
219 234 255
219 234 255
219 234 255
219 234 255
219 234 255
219 234 255
219 234 255
219 234 255
219 234 255
219 234 255
219 234 255
219 234 255
219 234 255
219 234 255
219 234 255
219 234 255
219 234 255
219 234 255
219 234 255
219 234 255
219 234 255
219 234 255
219 234 255
219 234 255
219 234 255
219 234 255
219 234 255
219 234 255
219 234 255
219 234 255
219 234 255
219 234 255
219 234 255
219 234 255
219 234 255
219 234 255
219 234 255
219 234 255
219 234 255
219 234 255
219 234 255
219 234 255
219 234 255
219 234 255
219 234 255
219 234 255
219 234 255
219 234 255
219 234 255
219 234 255
219 234 255
219 234 255
219 234 255
219 234 255
219 234 255
219 234 255
219 234 255
219 234 255
219 234 255
219 234 255
219 234 255
219 234 255
219 234 255
219 234 255
219 234 255
219 234 255
219 234 255
219 234 255
219 234 255
219 234 255
219 234 255
219 234 255
219 234 255
219 234 255
219 234 255
219 234 255
219 234 255
219 234 255
219 234 255
219 235 255
219 234 255
219 234 255
219 234 255
219 234 255
219 234 255
219 234 255
219 235 255
219 235 255
219 235 255
219 235 255
219 235 255
219 235 255
219 235 255
219 235 255
219 235 255
219 235 255
219 235 255
219 235 255
219 235 255
219 235 255
219 235 255
219 235 255
219 235 255
220 235 255
219 235 255
220 235 255
220 235 255
220 235 255
220 235 255
220 235 255
220 235 255
220 235 255
220 235 255
220 235 255
220 235 255
220 235 255
220 235 255
220 235 255
220 235 255
220 235 255
220 235 255
220 235 255
220 235 255
220 235 255
220 235 255
220 235 255
220 235 255
220 235 255
220 235 255
220 235 255
220 235 255
220 235 255
220 235 255
220 235 255
220 235 255
220 235 255
220 235 255
220 235 255
220 235 255
220 235 255
220 235 255
220 235 255
220 235 255
220 235 255
220 235 255
220 235 255
220 235 255
220 235 255
220 235 255
220 235 255
220 235 255
219 235 255
219 235 255
220 235 255
219 235 255
220 235 255
219 235 255
219 235 255
219 235 255
219 235 255
219 235 255
219 235 255
219 235 255
219 235 255
219 235 255
219 235 255
219 235 255
219 235 255
219 234 255
219 235 255
219 234 255
219 234 255
219 235 255
219 234 255
219 234 255
219 234 255
219 234 255
219 234 255
219 234 255
219 234 255
219 234 255
219 234 255
219 234 255
219 234 255
219 234 255
219 234 255
219 234 255
219 234 255
219 234 255
219 234 255
219 234 255
219 234 255
219 234 255
219 234 255
219 234 255
219 234 255
219 234 255
219 234 255
219 234 255
219 234 255
219 234 255
219 234 255
219 234 255
219 234 255
219 234 255
219 234 255
219 234 255
219 234 255
219 234 255
219 234 255
219 234 255
219 234 255
219 234 255
219 234 255
219 234 255
219 234 255
219 234 255
219 234 255
219 234 255
219 234 255
219 234 255
219 234 255
219 234 255
219 234 255
219 234 255
219 234 255
219 234 255
219 234 255
219 234 255
219 234 255
219 234 255
219 234 255
219 234 255
219 234 255
219 234 255
219 234 255
219 234 255
219 234 255
219 234 255
219 234 255
219 234 255
219 234 255
219 234 255
219 234 255
219 234 255
219 234 255
219 234 255
219 234 255
219 234 255
219 234 255
219 234 255
197 211 230
47 52 60
59 65 73
59 65 73
51 57 64
48 53 60
56 61 69
42 47 54
56 61 69
48 53 60
43 48 54
47 52 59
58 64 73
51 57 64
47 52 60
60 65 73
46 52 59
64 69 77
54 60 69
56 61 69
49 56 64
56 61 69
44 48 54
57 64 73
49 56 64
55 61 69
52 57 64
55 61 69
55 61 69
66 72 80
55 61 68
59 65 73
58 64 73
62 68 77
31 36 42
52 57 64
52 57 64
44 48 54
57 64 73
60 67 77
60 67 77
50 54 60
56 61 69
53 60 68
48 53 60
57 62 69
58 64 73
47 52 60
43 48 54
48 53 59
61 68 76
48 53 59
45 49 54
48 53 60
47 52 60
57 62 69
55 61 69
50 56 64
48 53 60
54 58 64
53 58 64
55 61 69
59 65 73
55 61 69
52 57 64
59 65 73
47 52 60
46 52 60
58 65 73
55 61 69
49 54 60
47 52 60
38 43 49
52 57 64
33 36 41
44 48 54
51 57 64
39 43 48
50 56 63
51 57 64
50 56 64
44 48 54
53 58 64
48 53 60
55 61 68
57 62 69
56 61 69
44 49 54
57 62 69
51 56 64
58 64 73
49 56 64
54 60 68
55 61 69
55 61 69
53 60 69
43 48 54
53 60 69
52 57 64
46 52 60
54 60 69
47 52 59
49 53 59
48 53 59
57 62 69
55 61 69
49 54 60
51 56 64
48 52 58
59 65 73
58 64 73
48 53 60
39 43 49
47 52 60
48 53 60
52 57 64
58 64 73
41 47 54
53 60 69
50 56 64
60 66 73
44 49 54
49 53 60
62 68 77
63 69 77
57 64 73
57 62 69
46 52 60
54 60 69
208 223 244
219 234 255
219 234 255
219 234 255
219 234 255
219 234 255
219 234 255
219 234 255
219 234 255
219 234 255
219 234 255
219 234 255
219 234 255
219 234 255
219 234 255
219 234 255
219 234 255
219 234 255
219 234 255
219 234 255
219 234 255
219 234 255
219 234 255
219 234 255
219 234 255
219 234 255
219 234 255
219 234 255
219 234 255
219 234 255
219 234 255
219 234 255
219 234 255
219 234 255
219 234 255
219 234 255
219 234 255
219 234 255
219 234 255
219 234 255
219 234 255
219 234 255
219 234 255
219 234 255
219 234 255
219 234 255
219 234 255
219 234 255
219 234 255
219 234 255
219 234 255
219 234 255
219 234 255
219 234 255
219 234 255
219 234 255
219 234 255
219 234 255
219 234 255
219 234 255
219 234 255
219 234 255
219 234 255
219 234 255
219 234 255
219 234 255
219 234 255
219 234 255
219 234 255
219 234 255
219 234 255
219 234 255
219 234 255
219 234 255
219 234 255
219 234 255
219 234 255
219 234 255
219 234 255
219 234 255
219 234 255
219 235 255
219 235 255
219 234 255
219 235 255
219 235 255
219 235 255
219 235 255
219 235 255
219 235 255
219 235 255
219 235 255
219 235 255
219 235 255
219 235 255
219 235 255
220 235 255
220 235 255
220 235 255
220 235 255
220 235 255
220 235 255
220 235 255
220 235 255
220 235 255
220 235 255
220 235 255
220 235 255
220 235 255
220 235 255
220 235 255
220 235 255
220 235 255
220 235 255
220 235 255
220 235 255
220 235 255
220 235 255
220 235 255
220 235 255
220 235 255
220 235 255
220 235 255
220 235 255
220 235 255
220 235 255
220 235 255
220 235 255
220 235 255
220 235 255
220 235 255
220 235 255
220 235 255
220 235 255
220 235 255
220 235 255
220 235 255
220 235 255
220 235 255
220 235 255
220 235 255
220 235 255
220 235 255
220 235 255
220 235 255
220 235 255
220 235 255
220 235 255
220 235 255
220 235 255
220 235 255
220 235 255
220 235 255
220 235 255
220 235 255
220 235 255
220 235 255
220 235 255
220 235 255
220 235 255
220 235 255
220 235 255
220 235 255
220 235 255
220 235 255
220 235 255
220 235 255
220 235 255
220 235 255
220 235 255
220 235 255
220 235 255
220 235 255
220 235 255
220 235 255
220 235 255
220 235 255
220 235 255
220 235 255
220 235 255
220 235 255
220 235 255
220 235 255
220 235 255
220 235 255
220 235 255
220 235 255
220 235 255
220 235 255
220 235 255
220 235 255
220 235 255
220 235 255
220 235 255
220 235 255
220 235 255
220 235 255
220 235 255
220 235 255
220 235 255
220 235 255
220 235 255
219 235 255
220 235 255
219 235 255
219 235 255
219 235 255
219 235 255
219 235 255
219 235 255
219 235 255
219 235 255
219 235 255
219 235 255
219 234 255
219 235 255
219 234 255
219 235 255
219 234 255
219 234 255
219 234 255
219 235 255
219 234 255
219 234 255
219 234 255
219 234 255
219 234 255
219 234 255
219 234 255
219 234 255
219 234 255
219 234 255
219 234 255
219 234 255
219 234 255
219 234 255
219 234 255
219 234 255
219 234 255
219 234 255
219 234 255
219 234 255
219 234 255
219 234 255
219 234 255
219 234 255
219 234 255
219 234 255
219 234 255
219 234 255
219 234 255
219 234 255
219 234 255
219 234 255
219 234 255
219 234 255
219 234 255
219 234 255
219 234 255
219 234 255
219 234 255
219 234 255
219 234 255
219 234 255
219 234 255
219 234 255
219 234 255
219 234 255
219 234 255
219 234 255
219 234 255
124 133 145
48 53 60
52 57 64
62 68 77
47 52 60
55 61 69
43 48 54
42 48 54
48 53 60
60 67 77
55 61 69
59 65 73
54 60 68
50 56 64
59 65 73
54 60 69
60 66 73
50 56 64
56 62 69
48 53 60
54 60 69
50 56 64
55 61 69
57 64 72
47 52 60
38 43 48
51 57 64
41 47 54
37 42 47
59 65 72
43 48 54
48 53 60
53 58 64
43 47 54
40 44 49
44 48 54
55 61 69
52 57 64
48 53 60
54 61 69
45 51 58
55 61 69
56 63 73
55 61 69
47 52 59
47 52 59
56 61 68
58 64 73
55 61 69
51 57 64
55 59 64
59 67 77
51 57 64
62 69 77
44 48 54
53 58 64
58 62 69
49 53 60
54 60 69
40 43 48
47 52 60
44 48 54
51 56 64
56 62 69
55 61 69
61 68 77
48 53 60
42 47 54
54 60 68
52 57 64
43 48 54
55 61 69
62 68 77
64 69 77
48 53 60
48 53 59
48 53 60
52 57 64
56 61 69
47 52 60
51 57 64
57 62 69
49 56 64
51 57 64
64 71 80
56 61 69
61 67 76
51 57 64
59 65 73
55 61 69
48 53 59
51 57 64
54 60 69
38 42 48
55 61 69
45 49 54
52 57 64
56 62 69
43 48 54
52 57 64
53 58 64
49 56 64
44 48 54
57 62 69
61 68 77
38 42 48
52 57 64
50 56 64
54 58 64
48 53 60
59 65 73
50 56 64
44 48 54
57 62 69
52 57 64
43 48 54
43 48 54
59 65 73
51 57 64
48 53 60
51 56 64
56 61 69
48 53 60
50 56 64
50 56 64
50 56 64
54 60 69
55 61 69
62 68 77
172 184 201
219 234 255
219 234 255
219 234 255
219 234 255
219 234 255
219 234 255
219 234 255
219 234 255
219 234 255
219 234 255
219 234 255
219 234 255
219 234 255
219 234 255
219 234 255
219 234 255
219 234 255
219 234 255
219 234 255
219 234 255
219 234 255
219 234 255
219 234 255
219 234 255
219 234 255
219 234 255
219 234 255
219 234 255
219 234 255
219 234 255
219 234 255
219 234 255
219 234 255
219 234 255
219 234 255
219 234 255
219 234 255
219 234 255
219 234 255
219 234 255
219 234 255
219 234 255
219 234 255
219 234 255
219 234 255
219 234 255
219 234 255
219 234 255
219 234 255
219 234 255
219 235 255
219 234 255
219 234 255
219 234 255
219 235 255
219 235 255
219 235 255
219 235 255
219 235 255
219 235 255
219 235 255
219 235 255
219 235 255
219 235 255
219 235 255
219 235 255
219 235 255
220 235 255
219 235 255
220 235 255
219 235 255
220 235 255
220 235 255
220 235 255
220 235 255
220 235 255
220 235 255
220 235 255
220 235 255
220 235 255
220 235 255
220 235 255
220 235 255
220 235 255
220 235 255
220 235 255
220 235 255
220 235 255
220 235 255
220 235 255
220 235 255
220 235 255
220 235 255
220 235 255
220 235 255
220 235 255
220 235 255
220 235 255
220 235 255
220 235 255
220 235 255
220 235 255
220 235 255
220 235 255
220 235 255
220 235 255
220 235 255
220 235 255
220 235 255
220 235 255
220 235 255
220 235 255
220 235 255
220 235 255
220 235 255
220 235 255
220 235 255
220 235 255
220 235 255
220 235 255
220 235 255
220 235 255
220 235 255
220 235 255
220 235 255
220 235 255
220 235 255
220 235 255
220 235 255
220 235 255
220 235 255
220 235 255
220 235 255
220 235 255
220 235 255
220 235 255
220 235 255
220 235 255
220 235 255
220 235 255
220 235 255
220 235 255
220 235 255
220 235 255
220 235 255
220 235 255
220 235 255
220 235 255
220 235 255
220 235 255
220 235 255
220 235 255
220 235 255
220 235 255
220 235 255
220 235 255
220 235 255
220 235 255
220 235 255
220 235 255
220 235 255
220 235 255
220 235 255
220 235 255
220 235 255
220 235 255
220 235 255
220 235 255
220 235 255
220 235 255
220 235 255
220 235 255
220 235 255
220 235 255
220 235 255
220 235 255
220 235 255
220 235 255
220 235 255
220 235 255
220 235 255
220 235 255
220 235 255
220 235 255
220 235 255
220 235 255
220 235 255
220 235 255
220 235 255
220 235 255
220 235 255
220 235 255
220 235 255
220 235 255
220 235 255
220 235 255
220 235 255
220 235 255
220 235 255
220 235 255
220 235 255
220 235 255
220 235 255
220 235 255
220 235 255
220 235 255
220 235 255
220 235 255
220 235 255
220 235 255
220 235 255
220 235 255
220 235 255
220 235 255
220 235 255
220 235 255
220 235 255
220 235 255
220 235 255
220 235 255
220 235 255
220 235 255
220 235 255
220 235 255
220 235 255
220 235 255
220 235 255
220 235 255
220 235 255
220 235 255
220 235 255
220 235 255
220 235 255
219 235 255
220 235 255
219 235 255
219 235 255
219 235 255
219 235 255
219 235 255
219 235 255
219 235 255
219 235 255
219 235 255
219 235 255
219 234 255
219 235 255
219 235 255
219 234 255
219 234 255
219 234 255
219 234 255
219 234 255
219 234 255
219 234 255
219 234 255
219 234 255
219 234 255
219 234 255
219 234 255
219 234 255
219 234 255
219 234 255
219 234 255
219 234 255
219 234 255
219 234 255
219 234 255
219 234 255
219 234 255
123 131 143
45 51 59
55 61 68
43 48 54
51 57 64
51 57 64
48 53 60
58 64 73
57 62 69
59 65 73
52 57 64
44 48 54
52 57 64
62 68 77
58 65 73
51 57 64
54 60 69
59 64 72
56 61 69
52 57 64
51 57 64
43 48 54
53 60 69
55 61 69
59 65 73
47 52 60
60 66 73
57 64 73
37 42 48
52 57 64
43 48 54
47 52 60
51 57 64
52 57 64
58 64 73
53 57 64
55 61 69
62 68 77
58 64 72
53 60 69
57 62 69
52 57 64
56 61 69
53 58 64
47 52 59
49 54 60
49 53 60
48 53 60
56 61 69
44 48 54
64 69 77
65 72 80
53 58 64
62 68 77
52 57 64
58 64 73
43 48 54
62 68 77
56 61 69
38 42 48
38 43 49
37 42 49
49 53 60
55 61 69
59 65 73
38 42 48
42 47 54
45 49 54
44 48 54
55 61 68
47 52 59
52 57 64
48 53 60
49 56 64
43 47 54
56 61 69
48 53 60
44 49 54
52 57 64
57 62 68
47 53 60
59 65 73
52 57 64
42 47 54
50 56 64
59 67 77
39 43 49
53 60 69
61 68 77
45 51 60
55 61 69
48 53 60
58 64 72
48 53 60
52 57 64
58 64 73
52 57 64
48 53 60
53 58 64
56 61 68
44 48 54
51 57 64
50 56 64
54 60 69
54 60 69
51 57 64
52 57 64
55 61 69
49 53 59
45 51 59
49 53 60
44 49 54
55 61 69
56 61 69
58 64 73
50 54 60
52 57 64
53 58 64
33 37 42
43 48 54
48 53 59
61 66 73
47 52 60
52 57 64
50 56 64
56 61 69
49 53 60
57 62 69
61 66 73
110 119 131
219 234 255
219 234 255
219 234 255
219 234 255
219 234 255
219 234 255
219 234 255
219 234 255
219 234 255
219 234 255
219 234 255
219 234 255
219 234 255
219 234 255
219 234 255
219 234 255
219 234 255
219 234 255
219 234 255
219 234 255
219 234 255
219 234 255
219 234 255
219 234 255
219 235 255
219 235 255
219 235 255
219 235 255
219 235 255
219 235 255
219 235 255
219 235 255
219 235 255
219 235 255
219 235 255
219 235 255
219 235 255
219 235 255
219 235 255
219 235 255
219 235 255
220 235 255
220 235 255
220 235 255
220 235 255
220 235 255
220 235 255
220 235 255
220 235 255
220 235 255
220 235 255
220 235 255
220 235 255
220 235 255
220 235 255
220 235 255
220 235 255
220 235 255
220 235 255
220 235 255
220 235 255
220 235 255
220 235 255
220 235 255
220 235 255
220 235 255
220 235 255
220 235 255
220 235 255
220 235 255
220 235 255
220 235 255
220 235 255
220 235 255
220 235 255
220 235 255
220 235 255
220 235 255
220 235 255
220 235 255
220 235 255
220 235 255
220 235 255
220 235 255
220 235 255
220 235 255
220 235 255
220 235 255
220 235 255
220 235 255
220 235 255
220 235 255
220 235 255
220 235 255
220 235 255
220 235 255
220 235 255
220 235 255
220 235 255
220 235 255
220 235 255
220 235 255
220 235 255
220 235 255
220 235 255
220 235 255
220 235 255
220 235 255
220 235 255
220 235 255
220 235 255
220 235 255
220 235 255
220 235 255
220 235 255
220 235 255
220 235 255
220 235 255
220 235 255
220 235 255
220 235 255
220 235 255
220 235 255
220 235 255
220 235 255
220 235 255
220 235 255
220 235 255
220 235 255
220 235 255
220 235 255
220 235 255
220 235 255
220 235 255
220 235 255
220 235 255
220 235 255
220 235 255
220 235 255
220 235 255
220 235 255
220 235 255
220 235 255
220 235 255
220 235 255
220 235 255
220 235 255
220 235 255
220 235 255
220 235 255
220 235 255
220 235 255
220 235 255
220 235 255
220 235 255
220 235 255
220 235 255
220 235 255
220 235 255
220 235 255
220 235 255
220 235 255
220 235 255
220 235 255
220 235 255
220 235 255
220 235 255
220 235 255
220 235 255
220 235 255
220 235 255
220 235 255
220 235 255
220 235 255
220 235 255
220 235 255
220 235 255
220 235 255
220 235 255
220 235 255
220 235 255
220 235 255
220 235 255
220 235 255
220 235 255
220 235 255
220 235 255
220 235 255
220 235 255
220 235 255
220 235 255
220 235 255
220 235 255
220 235 255
220 235 255
220 235 255
220 235 255
220 235 255
220 235 255
220 235 255
220 235 255
220 235 255
220 235 255
220 235 255
220 235 255
220 235 255
220 235 255
220 235 255
220 235 255
220 235 255
220 235 255
220 235 255
220 235 255
220 235 255
220 235 255
220 235 255
220 235 255
220 235 255
220 235 255
220 235 255
220 235 255
220 235 255
220 235 255
220 235 255
220 235 255
220 235 255
220 235 255
220 235 255
220 235 255
220 235 255
220 235 255
220 235 255
220 235 255
220 235 255
220 235 255
220 235 255
220 235 255
220 235 255
220 235 255
220 235 255
220 235 255
220 235 255
220 235 255
220 235 255
220 235 255
220 235 255
220 235 255
220 235 255
220 235 255
220 235 255
220 235 255
220 235 255
220 235 255
220 235 255
220 235 255
220 235 255
220 235 255
220 235 255
220 235 255
220 235 255
220 235 255
220 235 255
220 235 255
220 235 255
220 235 255
219 235 255
219 235 255
219 235 255
219 235 255
220 235 255
127 137 149
52 57 64
59 65 73
58 64 73
61 66 73
49 53 60
47 52 60
59 65 73
52 57 64
52 57 64
52 57 64
54 60 68
48 53 60
49 53 60
54 58 64
52 57 64
57 61 68
47 52 60
48 53 60
49 54 60
47 52 60
52 57 64
46 52 60
52 57 64
38 43 49
49 56 64
42 47 54
52 57 64
44 49 54
55 61 69
43 48 54
52 57 64
51 57 64
59 65 73
43 48 54
52 57 64
55 61 69
51 57 64
52 57 64
58 64 73
52 59 69
53 58 64
55 61 69
45 52 60
59 65 72
44 49 54
51 56 64
49 53 60
59 65 73
50 56 64
58 64 73
54 60 68
57 62 69
51 57 64
47 52 60
52 57 64
44 48 54
47 53 60
54 60 68
56 61 69
60 66 73
54 58 64
51 57 64
60 65 73
43 47 54
63 69 77
42 47 54
50 56 64
56 61 69
41 47 54
49 53 60
53 58 64
51 57 64
38 43 49
50 54 60
58 65 73
43 48 54
52 57 64
47 52 59
43 48 54
54 60 69
40 43 47
54 60 69
45 49 54
57 62 69
58 65 73
62 68 77
51 57 64
51 56 64
53 58 64
47 52 59
57 62 69
51 57 64
50 54 60
56 61 69
52 57 64
53 58 64
43 48 54
49 53 60
43 48 54
53 58 64
61 66 73
57 62 69
59 65 73
54 60 69
46 51 58
51 56 64
51 57 64
51 57 64
60 66 73
44 49 54
39 43 49
45 49 54
46 52 60
56 62 69
52 57 64
58 62 69
37 42 49
48 53 60
53 58 64
52 57 64
51 57 64
52 57 64
43 48 54
63 69 77
38 43 49
49 53 60
60 65 73
51 56 64
87 94 103
219 235 255
219 235 255
220 235 255
220 235 255
220 235 255
220 235 255
220 235 255
220 235 255
220 235 255
220 235 255
220 235 255
220 235 255
220 235 255
220 235 255
220 235 255
220 235 255
220 235 255
220 235 255
220 235 255
220 235 255
220 235 255
220 235 255
220 235 255
220 235 255
220 235 255
220 235 255
220 235 255
220 235 255
220 235 255
220 235 255
220 235 255
220 235 255
220 235 255
220 235 255
220 235 255
220 235 255
220 235 255
220 235 255
220 235 255
220 235 255
220 235 255
220 235 255
220 235 255
220 235 255
220 235 255
220 235 255
220 235 255
220 235 255
220 235 255
220 235 255
220 235 255
220 235 255
220 235 255
220 235 255
220 235 255
220 235 255
220 235 255
220 235 255
220 235 255
220 235 255
220 235 255
220 235 255
220 235 255
220 235 255
220 235 255
220 235 255
220 235 255
220 235 255
220 235 255
220 235 255
220 235 255
220 235 255
220 235 255
220 235 255
220 235 255
220 235 255
220 235 255
220 235 255
220 235 255
220 235 255
220 235 255
220 235 255
220 235 255
220 235 255
220 235 255
220 235 255
220 235 255
220 235 255
220 235 255
220 235 255
220 235 255
220 235 255
220 235 255
220 235 255
220 235 255
220 235 255
220 235 255
220 235 255
220 235 255
220 235 255
220 235 255
220 235 255
220 235 255
220 235 255
220 235 255
220 235 255
220 235 255
220 235 255
220 235 255
220 235 255
220 235 255
220 235 255
220 235 255
220 235 255
220 235 255
220 235 255
220 235 255
220 235 255
220 235 255
220 235 255
220 235 255
220 235 255
220 235 255
220 235 255
220 235 255
220 235 255
220 235 255
220 235 255
220 235 255
220 235 255
220 235 255
220 235 255
220 235 255
220 235 255
220 235 255
220 235 255
220 235 255
220 235 255
220 235 255
220 235 255
220 235 255
220 235 255
220 235 255
220 235 255
220 235 255
220 235 255
220 235 255
220 235 255
220 235 255
220 235 255
220 235 255
220 235 255
220 235 255
220 235 255
220 235 255
220 235 255
220 235 255
220 235 255
220 235 255
220 235 255
220 235 255
220 235 255
220 235 255
220 235 255
220 235 255
220 235 255
220 235 255
220 235 255
220 235 255
220 235 255
220 235 255
220 235 255
220 235 255
220 235 255
220 235 255
220 235 255
220 235 255
220 235 255
220 235 255
220 235 255
220 235 255
220 235 255
220 235 255
220 235 255
220 235 255
220 235 255
220 235 255
220 235 255
220 235 255
220 235 255
220 235 255
220 235 255
220 235 255
220 235 255
220 235 255
220 235 255
220 235 255
220 235 255
220 235 255
220 235 255
220 235 255
220 235 255
220 235 255
220 235 255
220 235 255
220 235 255
220 235 255
220 235 255
220 235 255
220 235 255
220 235 255
220 235 255
220 235 255
220 235 255
220 235 255
220 235 255
220 235 255
220 235 255
220 235 255
220 235 255
220 235 255
220 235 255
220 235 255
220 235 255
220 235 255
220 235 255
220 235 255
220 235 255
220 235 255
220 235 255
220 235 255
220 235 255
220 235 255
220 235 255
220 235 255
220 235 255
220 235 255
220 235 255
220 235 255
220 235 255
220 235 255
220 235 255
220 235 255
220 235 255
220 235 255
220 235 255
220 235 255
220 235 255
220 235 255
220 235 255
220 235 255
220 235 255
220 235 255
220 235 255
220 235 255
220 235 255
220 235 255
220 235 255
220 235 255
220 235 255
220 235 255
220 235 255
220 235 255
220 235 255
220 235 255
220 235 255
220 235 255
220 235 255
220 235 255
220 235 255
125 133 145
58 65 73
48 53 60
57 62 69
51 57 64
55 61 69
56 61 69
61 66 73
49 53 59
53 60 69
61 68 77
57 64 73
43 48 54
48 53 60
39 43 49
54 60 69
55 61 68
34 37 42
52 57 64
48 53 60
56 62 69
53 58 64
43 48 54
50 56 64
44 49 54
54 60 69
56 61 69
55 61 69
44 48 54
47 52 60
48 53 60
46 51 59
39 43 49
51 57 64
44 49 54
54 60 69
43 48 54
54 60 69
49 54 60
56 61 69
59 65 73
51 57 64
44 49 54
52 57 64
60 65 72
37 42 48
51 57 64
51 57 64
49 53 60
45 49 54
53 60 68
45 49 54
52 57 64
55 61 69
48 53 60
52 57 64
46 52 60
54 60 69
47 53 60
48 53 58
56 61 68
57 62 69
54 60 69
44 48 54
43 48 54
53 57 64
51 57 64
44 48 54
61 66 73
53 58 64
51 57 64
39 43 49
60 67 77
56 62 69
54 58 64
55 61 68
54 58 64
42 47 54
48 53 60
52 57 64
59 65 73
47 52 60
50 56 64
46 49 54
52 57 64
55 61 69
56 61 69
64 69 77
48 53 60
59 65 73
39 43 48
49 54 60
53 58 64
40 44 49
51 57 64
58 63 69
41 44 49
44 48 54
48 53 60
51 57 64
44 48 54
56 61 69
63 69 77
51 56 64
60 65 73
55 61 69
61 68 77
55 61 69
49 53 60
55 61 69
41 44 49
52 57 64
48 53 60
54 58 64
43 48 54
49 53 59
41 47 54
48 53 60
50 56 64
49 53 60
43 48 54
48 53 60
47 53 60
36 42 49
47 53 60
46 52 59
38 43 49
59 65 73
49 53 60
113 121 133
220 235 255
220 235 255
220 235 255
220 235 255
220 235 255
220 235 255
220 235 255
220 235 255
220 235 255
220 235 255
220 235 255
220 235 255
220 235 255
220 235 255
220 235 255
220 235 255
220 235 255
220 235 255
220 235 255
220 235 255
220 235 255
220 235 255
220 235 255
220 235 255
220 235 255
220 235 255
220 235 255
220 235 255
220 235 255
220 235 255
220 235 255
220 235 255
220 235 255
220 235 255
220 235 255
220 235 255
220 235 255
220 235 255
220 235 255
220 235 255
220 235 255
220 235 255
220 235 255
220 235 255
220 235 255
220 235 255
220 235 255
220 235 255
220 235 255
220 235 255
220 235 255
220 235 255
220 235 255
220 235 255
220 235 255
220 235 255
220 235 255
220 235 255
220 235 255
220 235 255
220 235 255
220 235 255
220 235 255
220 235 255
220 235 255
220 235 255
220 235 255
220 235 255
220 235 255
220 235 255
220 235 255
220 235 255
220 235 255
220 235 255
220 235 255
220 235 255
220 235 255
220 235 255
220 235 255
220 235 255
220 235 255
220 235 255
220 235 255
220 235 255
220 235 255
220 235 255
220 235 255
220 235 255
220 235 255
220 235 255
220 235 255
220 235 255
220 235 255
220 235 255
220 235 255
220 235 255
220 235 255
220 235 255
220 235 255
220 235 255
220 235 255
220 235 255
220 235 255
220 235 255
220 235 255
220 235 255
220 235 255
220 235 255
220 235 255
220 235 255
220 235 255
220 235 255
220 235 255
220 235 255
220 235 255
220 235 255
220 235 255
220 235 255
220 235 255
220 235 255
220 235 255
220 235 255
220 235 255
220 235 255
220 235 255
220 235 255
220 235 255
220 235 255
220 235 255
220 235 255
220 235 255
220 235 255
220 235 255
220 235 255
220 235 255
221 235 255
221 235 255
221 235 255
221 235 255
221 235 255
221 235 255
221 235 255
221 235 255
221 235 255
221 235 255
221 235 255
221 235 255
221 235 255
221 235 255
221 235 255
220 235 255
220 235 255
221 235 255
221 235 255
221 235 255
221 235 255
220 235 255
221 235 255
220 235 255
221 235 255
221 235 255
220 235 255
220 235 255
220 235 255
220 235 255
220 235 255
220 235 255
220 235 255
220 235 255
220 235 255
220 235 255
220 235 255
220 235 255
220 235 255
220 235 255
220 235 255
220 235 255
220 235 255
220 235 255
220 235 255
220 235 255
220 235 255
220 235 255
220 235 255
220 235 255
220 235 255
220 235 255
220 235 255
220 235 255
220 235 255
220 235 255
220 235 255
220 235 255
220 235 255
220 235 255
220 235 255
220 235 255
220 235 255
220 235 255
220 235 255
220 235 255
220 235 255
220 235 255
220 235 255
220 235 255
220 235 255
220 235 255
220 235 255
220 235 255
220 235 255
220 235 255
220 235 255
220 235 255
220 235 255
220 235 255
220 235 255
220 235 255
220 235 255
220 235 255
220 235 255
220 235 255
220 235 255
220 235 255
220 235 255
220 235 255
220 235 255
220 235 255
220 235 255
220 235 255
220 235 255
220 235 255
220 235 255
220 235 255
220 235 255
220 235 255
220 235 255
220 235 255
220 235 255
220 235 255
220 235 255
220 235 255
220 235 255
220 235 255
220 235 255
220 235 255
220 235 255
220 235 255
220 235 255
220 235 255
220 235 255
220 235 255
220 235 255
220 235 255
220 235 255
220 235 255
220 235 255
220 235 255
220 235 255
220 235 255
220 235 255
220 235 255
220 235 255
220 235 255
220 235 255
220 235 255
220 235 255
220 235 255
220 235 255
220 235 255
220 235 255
89 96 106
53 58 64
54 60 68
50 56 64
48 53 59
53 58 64
56 61 69
46 52 59
38 42 48
45 52 60
45 49 54
55 61 69
46 52 60
55 61 69
51 57 64
55 61 69
53 57 64
52 57 64
52 57 64
55 61 69
53 60 69
53 57 64
47 52 60
59 65 73
53 60 69
53 57 64
51 56 64
55 61 69
50 56 64
56 61 68
44 48 54
59 65 73
52 57 64
40 44 49
49 54 60
49 53 60
47 52 60
51 57 64
58 65 73
56 61 69
40 44 49
57 62 69
48 53 59
58 64 73
43 48 54
57 62 68
59 65 73
55 61 69
51 57 64
55 61 69
53 60 69
43 48 54
53 58 64
51 57 64
50 56 64
56 61 69
56 61 69
47 52 60
43 48 54
50 56 64
55 61 69
52 57 64
46 51 59
46 52 59
53 58 64
39 43 48
47 52 59
55 61 69
56 61 69
37 42 48
62 68 77
51 56 63
42 47 54
51 56 64
45 49 54
53 58 64
57 62 69
53 58 64
58 64 73
43 48 54
48 53 59
42 47 54
60 66 73
54 60 69
52 57 64
54 61 69
53 60 69
48 53 60
42 47 54
57 62 69
35 38 42
52 57 64
45 49 54
59 65 73
58 64 73
36 38 42
44 51 60
56 61 69
59 65 73
60 67 77
54 60 69
55 61 69
53 58 64
51 57 64
48 53 60
52 57 63
49 56 64
42 48 54
54 58 64
48 53 60
37 42 49
44 48 54
56 61 69
59 64 72
48 53 60
56 62 69
47 52 59
48 53 59
53 60 69
57 62 69
59 65 73
59 66 77
65 71 80
55 61 69
44 48 54
53 58 64
46 52 60
43 48 54
51 57 64
51 57 64
220 235 255
220 235 255
220 235 255
220 235 255
220 235 255
220 235 255
220 235 255
220 235 255
220 235 255
220 235 255
220 235 255
220 235 255
220 235 255
220 235 255
220 235 255
220 235 255
220 235 255
220 235 255
220 235 255
220 235 255
220 235 255
220 235 255
220 235 255
220 235 255
220 235 255
220 235 255
220 235 255
220 235 255
220 235 255
220 235 255
220 235 255
220 235 255
220 235 255
220 235 255
220 235 255
220 235 255
220 235 255
220 235 255
220 235 255
220 235 255
220 235 255
220 235 255
220 235 255
220 235 255
220 235 255
220 235 255
220 235 255
220 235 255
220 235 255
220 235 255
220 235 255
220 235 255
220 235 255
220 235 255
220 235 255
220 235 255
220 235 255
220 235 255
220 235 255
220 235 255
220 235 255
220 235 255
220 235 255
220 235 255
220 235 255
220 235 255
220 235 255
220 235 255
220 235 255
220 235 255
220 235 255
220 235 255
220 235 255
220 235 255
220 235 255
220 235 255
220 235 255
220 235 255
220 235 255
220 235 255
220 235 255
220 235 255
220 235 255
220 235 255
220 235 255
220 235 255
220 235 255
220 235 255
220 235 255
220 235 255
220 235 255
220 235 255
220 235 255
220 235 255
220 235 255
220 235 255
220 235 255
220 235 255
220 235 255
220 235 255
220 235 255
220 235 255
220 235 255
220 235 255
220 235 255
220 235 255
220 235 255
220 235 255
220 235 255
220 235 255
220 235 255
220 235 255
220 235 255
221 235 255
221 235 255
221 235 255
221 235 255
221 235 255
221 235 255
220 235 255
221 235 255
221 235 255
221 235 255
221 235 255
221 235 255
221 235 255
221 235 255
221 235 255
221 235 255
221 235 255
221 235 255
221 235 255
221 235 255
221 235 255
221 235 255
221 235 255
221 235 255
221 235 255
221 235 255
221 235 255
221 235 255
221 235 255
221 235 255
221 235 255
221 235 255
221 235 255
221 235 255
221 235 255
221 235 255
221 235 255
221 235 255
221 235 255
221 235 255
221 235 255
221 235 255
221 235 255
221 235 255
221 235 255
221 235 255
221 235 255
221 235 255
221 235 255
221 235 255
221 235 255
221 235 255
221 235 255
221 235 255
221 235 255
221 235 255
221 235 255
221 235 255
221 235 255
221 235 255
221 235 255
221 235 255
221 235 255
221 235 255
221 235 255
221 235 255
221 235 255
221 235 255
221 235 255
221 235 255
221 235 255
221 235 255
221 235 255
221 235 255
221 235 255
221 235 255
221 235 255
221 235 255
221 235 255
221 235 255
221 235 255
221 235 255
221 235 255
221 235 255
221 235 255
221 235 255
221 235 255
221 235 255
221 235 255
221 235 255
221 235 255
221 235 255
221 235 255
221 235 255
221 235 255
221 235 255
221 235 255
221 235 255
221 235 255
221 235 255
221 235 255
221 235 255
221 235 255
221 235 255
221 235 255
221 235 255
221 235 255
221 235 255
220 235 255
220 235 255
221 235 255
220 235 255
221 235 255
221 235 255
221 235 255
220 235 255
220 235 255
221 235 255
221 235 255
220 235 255
220 235 255
220 235 255
220 235 255
220 235 255
220 235 255
220 235 255
220 235 255
220 235 255
220 235 255
220 235 255
220 235 255
220 235 255
220 235 255
220 235 255
220 235 255
220 235 255
220 235 255
220 235 255
220 235 255
220 235 255
220 235 255
220 235 255
220 235 255
220 235 255
220 235 255
220 235 255
220 235 255
220 235 255
220 235 255
220 235 255
220 235 255
220 235 255
220 235 255
220 235 255
220 235 255
220 235 255
220 235 255
52 57 64
49 54 60
64 70 77
52 57 64
52 57 64
39 43 48
57 62 69
48 53 60
32 37 42
51 57 64
59 66 77
53 58 64
48 53 60
52 57 64
53 58 64
33 37 42
48 53 59
60 65 73
56 62 69
57 62 69
53 57 64
44 49 54
60 65 73
61 66 72
57 62 69
56 62 69
48 53 60
43 48 54
49 56 64
51 56 64
49 54 60
45 51 59
54 60 69
55 61 69
55 61 69
39 43 48
34 37 42
47 52 60
48 53 60
53 58 64
45 51 59
50 56 64
54 60 69
62 68 77
62 68 77
43 48 54
52 57 64
47 52 60
40 44 49
44 48 54
37 42 49
54 60 69
55 61 69
53 58 64
54 58 64
47 52 59
53 58 64
62 67 73
42 47 54
55 61 69
41 44 49
46 52 59
49 53 59
43 48 54
52 57 64
58 64 73
48 53 60
56 61 69
59 65 73
52 57 64
52 57 64
56 61 69
53 57 64
45 49 54
59 65 73
47 53 60
50 56 64
52 57 64
52 57 64
47 52 60
57 62 69
37 42 49
46 52 60
48 53 60
63 71 80
56 63 73
48 53 60
59 65 73
56 61 68
58 64 73
47 53 60
53 58 64
43 48 54
51 57 64
48 53 59
52 57 64
50 54 60
50 56 64
55 60 68
44 48 54
58 64 73
47 52 60
52 57 64
50 56 64
47 52 60
50 56 64
47 52 60
39 43 48
51 56 64
46 52 60
63 69 77
49 53 60
56 61 69
56 61 69
54 60 68
54 61 69
45 52 60
59 65 73
52 57 64
59 65 73
56 61 69
63 69 77
58 62 69
39 43 48
40 43 49
44 48 54
62 68 77
58 62 69
50 54 60
130 139 151
220 235 255
220 235 255
220 235 255
220 235 255
220 235 255
220 235 255
220 235 255
220 235 255
220 235 255
220 235 255
220 235 255
220 235 255
220 235 255
220 235 255
220 235 255
220 235 255
220 235 255
220 235 255
220 235 255
220 235 255
220 235 255
220 235 255
220 235 255
220 235 255
220 235 255
220 235 255
220 235 255
220 235 255
220 235 255
220 235 255
220 235 255
220 235 255
220 235 255
220 235 255
220 235 255
220 235 255
220 235 255
220 235 255
220 235 255
221 235 255
220 235 255
220 235 255
220 235 255
221 235 255
221 235 255
221 235 255
221 235 255
221 235 255
220 235 255
221 235 255
221 235 255
221 235 255
221 235 255
220 235 255
221 235 255
221 235 255
221 235 255
221 235 255
221 235 255
221 235 255
221 235 255
221 235 255
221 235 255
221 235 255
221 235 255
221 235 255
221 235 255
221 235 255
221 235 255
221 235 255
221 235 255
221 235 255
221 235 255
221 235 255
221 235 255
221 235 255
221 235 255
221 235 255
221 235 255
221 235 255
221 235 255
221 235 255
221 235 255
221 235 255
221 235 255
221 235 255
221 235 255
221 235 255
221 235 255
221 235 255
221 235 255
221 235 255
221 235 255
221 235 255
221 235 255
221 235 255
221 235 255
221 235 255
221 235 255
221 235 255
221 235 255
221 235 255
221 235 255
221 235 255
221 235 255
221 235 255
221 235 255
221 235 255
221 235 255
221 235 255
221 235 255
221 235 255
221 235 255
221 235 255
221 235 255
221 235 255
221 235 255
221 235 255
221 235 255
221 235 255
221 235 255
221 235 255
221 235 255
221 235 255
221 235 255
221 235 255
221 235 255
221 235 255
221 235 255
221 235 255
221 235 255
221 235 255
221 235 255
221 235 255
221 235 255
221 235 255
221 235 255
221 235 255
221 235 255
221 235 255
221 235 255
221 235 255
221 235 255
221 235 255
221 235 255
221 235 255
221 235 255
221 235 255
221 235 255
221 235 255
221 235 255
221 235 255
221 235 255
221 235 255
221 235 255
221 235 255
221 235 255
221 235 255
221 235 255
221 235 255
221 235 255
221 235 255
221 235 255
221 235 255
221 235 255
221 235 255
221 235 255
221 235 255
221 235 255
221 235 255
221 235 255
221 235 255
221 235 255
221 235 255
221 235 255
221 235 255
221 235 255
221 235 255
221 235 255
221 235 255
221 235 255
221 235 255
221 235 255
221 235 255
221 235 255
221 235 255
221 235 255
221 235 255
221 235 255
221 235 255
221 235 255
221 235 255
221 235 255
221 235 255
221 235 255
221 235 255
221 235 255
221 235 255
221 235 255
221 235 255
221 235 255
221 235 255
221 235 255
221 235 255
221 235 255
221 235 255
221 235 255
221 235 255
221 235 255
221 235 255
221 235 255
221 235 255
221 235 255
221 235 255
221 235 255
221 235 255
221 235 255
221 235 255
221 235 255
221 235 255
221 235 255
221 235 255
221 235 255
221 235 255
221 235 255
221 235 255
221 235 255
221 235 255
221 235 255
221 235 255
221 235 255
221 235 255
221 235 255
221 235 255
221 235 255
221 235 255
221 235 255
221 235 255
221 235 255
221 235 255
221 235 255
221 235 255
221 235 255
221 235 255
221 235 255
221 235 255
221 235 255
221 235 255
221 235 255
221 235 255
221 235 255
221 235 255
221 235 255
221 235 255
221 235 255
221 235 255
221 235 255
221 235 255
221 235 255
221 235 255
221 235 255
221 235 255
221 235 255
221 235 255
221 235 255
221 235 255
221 235 255
221 235 255
221 235 255
221 235 255
87 93 102
39 43 48
62 68 77
51 57 64
52 57 64
52 57 64
60 65 73
32 37 42
52 59 69
39 43 49
34 38 42
47 53 60
49 53 60
38 42 47
60 67 77
55 61 69
48 53 60
53 58 64
47 52 60
44 49 54
45 49 54
38 43 49
54 58 64
49 53 60
53 60 69
62 68 77
55 61 69
60 66 73
48 53 60
60 67 77
55 61 69
51 56 64
66 72 80
44 48 54
55 61 69
52 57 64
52 57 64
58 64 73
38 42 48
55 61 69
52 57 64
52 57 64
43 48 54
57 62 69
55 61 69
62 68 77
62 68 77
53 58 64
48 53 60
53 58 64
55 61 68
51 57 64
38 43 49
48 52 59
54 60 69
35 40 47
52 57 64
52 57 64
51 56 64
49 54 60
46 52 60
51 57 64
46 52 60
56 61 69
52 57 64
59 65 72
65 72 80
50 54 60
53 60 69
61 68 77
46 52 60
48 53 60
48 53 59
56 61 69
58 65 73
48 53 59
56 61 69
53 58 64
48 53 60
43 48 54
47 52 59
27 30 34
47 52 60
47 52 60
44 48 54
57 64 73
39 43 48
44 48 54
58 64 73
62 68 77
52 57 64
44 48 54
57 64 73
51 57 64
49 53 60
49 53 59
47 52 60
57 62 69
62 68 77
52 57 64
52 57 64
52 57 64
65 70 77
65 72 80
48 53 60
52 57 64
57 62 69
46 51 59
48 53 60
59 65 73
49 53 59
39 43 49
52 57 64
50 56 64
53 58 64
46 52 60
45 51 58
50 56 64
48 53 60
54 61 69
42 47 54
43 48 53
58 64 73
45 49 54
53 58 64
45 49 54
53 58 64
60 65 73
48 53 60
77 83 91
221 235 255
221 235 255
221 235 255
221 235 255
221 235 255
221 235 255
221 235 255
221 235 255
221 235 255
221 235 255
221 235 255
221 235 255
221 235 255
221 235 255
221 235 255
221 235 255
221 235 255
221 235 255
221 235 255
221 235 255
221 235 255
221 235 255
221 235 255
221 235 255
221 235 255
221 235 255
221 235 255
221 235 255
221 235 255
221 235 255
221 235 255
221 235 255
221 235 255
221 235 255
221 235 255
221 235 255
221 235 255
221 235 255
221 235 255
221 235 255
221 235 255
221 235 255
221 235 255
221 235 255
221 235 255
221 235 255
221 235 255
221 235 255
221 235 255
221 235 255
221 235 255
221 235 255
221 235 255
221 235 255
221 235 255
221 235 255
221 235 255
221 235 255
221 235 255
221 235 255
221 235 255
221 235 255
221 235 255
221 235 255
221 235 255
221 235 255
221 235 255
221 235 255
221 235 255
221 235 255
221 235 255
221 235 255
221 235 255
221 235 255
221 235 255
221 235 255
221 235 255
221 235 255
221 235 255
221 235 255
221 235 255
221 235 255
221 235 255
221 235 255
221 235 255
221 235 255
221 235 255
221 235 255
221 235 255
221 235 255
221 235 255
221 235 255
221 235 255
221 235 255
221 235 255
221 235 255
221 235 255
221 235 255
221 235 255
221 235 255
221 235 255
221 235 255
221 235 255
221 235 255
221 235 255
221 235 255
221 235 255
221 235 255
221 235 255
221 235 255
221 235 255
221 235 255
221 235 255
221 235 255
221 235 255
221 235 255
221 235 255
221 235 255
221 235 255
221 235 255
221 235 255
221 235 255
221 235 255
221 235 255
221 235 255
221 235 255
221 235 255
221 235 255
221 235 255
221 235 255
221 235 255
221 235 255
221 235 255
221 235 255
221 235 255
221 235 255
221 235 255
221 235 255
221 235 255
221 235 255
221 235 255
221 235 255
221 235 255
221 235 255
221 235 255
221 235 255
221 235 255
221 235 255
221 235 255
221 235 255
221 235 255
221 235 255
221 235 255
221 235 255
221 235 255
221 235 255
221 235 255
221 235 255
221 235 255
221 235 255
221 235 255
221 235 255
221 235 255
221 235 255
221 235 255
221 235 255
221 235 255
221 235 255
221 235 255
221 235 255
221 235 255
221 235 255
221 235 255
221 235 255
221 235 255
221 235 255
221 235 255
221 235 255
221 235 255
221 235 255
221 235 255
221 235 255
221 235 255
221 235 255
221 235 255
221 235 255
221 235 255
221 235 255
221 235 255
221 235 255
221 235 255
221 235 255
221 235 255
221 235 255
221 235 255
221 235 255
221 235 255
221 235 255
221 235 255
221 235 255
221 235 255
221 235 255
221 235 255
221 235 255
221 235 255
221 235 255
221 235 255
221 235 255
221 235 255
221 235 255
221 235 255
221 235 255
221 235 255
221 235 255
221 235 255
221 235 255
221 235 255
221 235 255
221 235 255
221 235 255
221 235 255
221 235 255
221 235 255
221 235 255
221 235 255
221 235 255
221 235 255
221 235 255
221 235 255
221 235 255
221 235 255
221 235 255
221 235 255
221 235 255
221 235 255
221 235 255
221 235 255
221 235 255
221 235 255
221 235 255
221 235 255
221 235 255
221 235 255
221 235 255
221 235 255
221 235 255
221 235 255
221 235 255
221 235 255
221 235 255
221 235 255
221 235 255
221 235 255
221 235 255
221 235 255
221 235 255
221 235 255
221 235 255
221 235 255
221 235 255
221 235 255
221 235 255
221 235 255
221 235 255
221 235 255
221 235 255
221 235 255
221 235 255
221 235 255
221 235 255
46 52 60
50 56 64
53 60 69
60 67 77
58 64 73
51 57 64
58 64 73
51 57 64
54 60 69
56 61 69
43 48 54
59 65 73
43 48 54
56 62 69
48 53 60
53 57 64
57 64 73
56 61 68
47 52 59
44 48 54
44 48 54
45 49 54
49 53 60
55 61 69
48 53 60
54 61 69
48 53 60
51 57 64
43 48 54
49 53 60
48 53 60
51 57 64
53 60 69
55 61 69
50 56 64
49 53 60
40 44 49
46 52 59
58 64 73
52 57 64
46 52 59
44 49 54
52 57 64
57 62 69
42 47 54
40 44 49
53 57 64
52 57 64
49 53 60
49 53 60
52 59 69
56 61 68
46 52 59
44 48 54
44 48 54
48 53 59
61 68 77
39 43 49
48 53 60
48 53 60
53 58 64
62 68 77
53 58 64
53 58 64
56 61 69
47 52 59
52 57 64
48 53 60
49 53 60
55 61 68
43 48 54
52 57 64
52 57 64
44 49 54
43 48 54
54 60 68
58 64 73
41 47 54
56 61 69
52 59 69
51 56 64
51 56 64
55 61 69
50 56 64
54 60 69
54 58 64
53 58 64
48 53 60
51 57 64
43 48 54
60 65 73
52 57 64
47 52 59
45 51 59
41 47 54
57 62 69
55 61 69
44 49 54
47 52 59
49 53 60
63 69 77
59 65 73
52 57 64
54 61 69
60 65 72
59 65 72
48 53 60
43 48 54
48 53 59
50 56 64
55 61 69
47 52 59
48 53 60
43 48 54
53 58 64
53 58 64
57 62 68
54 60 68
51 57 64
51 57 64
57 62 69
42 47 54
58 65 73
58 64 73
52 57 64
46 49 54
58 64 73
52 57 64
57 64 73
51 57 64
221 235 255
221 235 255
221 235 255
221 235 255
221 235 255
221 235 255
221 235 255
221 235 255
221 235 255
221 235 255
221 235 255
221 235 255
221 235 255
221 235 255
221 235 255
221 235 255
221 235 255
221 235 255
221 235 255
221 235 255
221 235 255
221 235 255
221 235 255
221 235 255
221 235 255
221 235 255
221 235 255
221 235 255
221 235 255
221 235 255
221 235 255
221 235 255
221 235 255
221 235 255
221 235 255
221 235 255
221 235 255
221 235 255
221 235 255
221 235 255
221 235 255
221 235 255
221 235 255
221 235 255
221 235 255
221 235 255
221 235 255
221 235 255
221 235 255
221 235 255
221 235 255
221 235 255
221 235 255
221 235 255
221 235 255
221 235 255
221 235 255
221 235 255
221 235 255
221 235 255
221 235 255
221 235 255
221 235 255
221 235 255
221 235 255
221 235 255
221 235 255
221 235 255
221 235 255
221 235 255
221 235 255
221 235 255
221 235 255
221 235 255
221 235 255
221 235 255
221 235 255
221 235 255
221 235 255
221 235 255
221 235 255
221 235 255
221 235 255
221 235 255
221 235 255
221 235 255
221 235 255
221 235 255
221 235 255
221 235 255
221 235 255
221 235 255
221 235 255
221 235 255
221 235 255
221 235 255
221 235 255
221 235 255
221 235 255
221 235 255
221 235 255
221 235 255
221 235 255
221 235 255
221 235 255
221 235 255
221 235 255
221 235 255
221 235 255
221 235 255
221 235 255
221 235 255
221 235 255
221 235 255
221 235 255
221 235 255
221 235 255
221 235 255
221 235 255
221 235 255
221 235 255
221 235 255
221 235 255
221 235 255
221 235 255
221 235 255
221 235 255
221 235 255
221 235 255
221 235 255
221 235 255
221 235 255
221 235 255
221 235 255
221 235 255
221 236 255
221 236 255
221 236 255
221 236 255
221 236 255
221 236 255
221 236 255
221 236 255
221 236 255
221 236 255
221 236 255
221 236 255
221 236 255
221 236 255
221 236 255
221 236 255
221 236 255
221 236 255
221 236 255
221 236 255
221 236 255
221 236 255
221 236 255
221 236 255
221 236 255
221 236 255
221 236 255
221 236 255
221 236 255
221 236 255
221 236 255
221 236 255
221 236 255
221 236 255
221 236 255
221 236 255
221 236 255
221 236 255
221 236 255
221 236 255
221 236 255
221 236 255
221 236 255
221 236 255
221 236 255
221 236 255
221 236 255
221 236 255
221 236 255
221 236 255
221 236 255
221 236 255
221 236 255
221 236 255
221 236 255
221 236 255
221 236 255
221 236 255
221 236 255
221 236 255
221 236 255
221 236 255
221 236 255
221 236 255
221 236 255
221 236 255
221 236 255
221 236 255
221 236 255
221 236 255
221 236 255
221 236 255
221 236 255
221 236 255
221 236 255
221 236 255
221 236 255
221 236 255
221 236 255
221 236 255
221 236 255
221 236 255
221 236 255
221 236 255
221 236 255
221 236 255
221 236 255
221 236 255
221 236 255
221 236 255
221 236 255
221 236 255
221 236 255
221 236 255
221 236 255
221 236 255
221 236 255
221 236 255
221 236 255
221 236 255
221 236 255
221 236 255
221 236 255
221 236 255
221 236 255
221 236 255
221 236 255
221 236 255
221 236 255
221 236 255
221 236 255
221 236 255
221 236 255
221 236 255
221 236 255
221 236 255
221 236 255
221 236 255
221 236 255
221 236 255
221 235 255
221 236 255
221 236 255
221 235 255
221 236 255
221 236 255
221 236 255
221 235 255
221 236 255
221 236 255
221 236 255
221 236 255
221 235 255
221 236 255
221 236 255
87 93 102
49 54 60
51 57 64
60 65 73
43 48 54
38 43 49
47 52 60
55 61 69
54 60 69
53 58 64
47 52 59
58 65 73
50 56 64
62 67 73
54 61 69
51 57 64
57 62 69
44 48 54
44 48 54
51 57 64
47 52 60
61 68 77
51 56 64
44 48 54
44 49 54
43 48 54
55 61 69
48 53 60
56 61 69
57 64 73
59 65 73
53 58 64
54 58 64
47 52 60
56 61 69
45 51 60
55 61 69
49 54 60
65 72 80
32 37 42
60 65 72
43 48 54
56 61 68
58 65 73
55 61 69
55 61 68
52 57 64
58 64 73
39 43 48
55 61 69
54 61 69
41 44 49
60 65 73
57 64 73
60 65 73
53 60 69
54 60 69
42 47 54
52 57 64
42 47 54
48 53 60
50 54 60
62 68 77
59 65 73
47 53 60
55 61 69
44 49 54
47 52 60
54 60 69
46 52 60
51 57 64
50 56 64
53 60 69
43 48 54
52 57 64
45 49 54
53 60 68
42 47 54
52 57 64
50 54 60
42 47 54
42 47 54
54 60 69
42 48 54
43 48 54
38 42 48
45 49 54
48 53 60
48 53 60
45 49 54
52 57 64
45 49 54
51 57 64
43 48 54
52 57 64
38 42 48
46 51 59
39 43 49
49 53 60
54 60 69
49 53 60
55 61 69
52 57 64
47 52 60
52 57 64
38 42 48
47 52 59
56 61 69
44 48 54
59 65 73
47 52 60
52 57 64
59 65 72
43 48 54
61 66 73
54 61 69
50 54 60
49 53 60
56 61 69
48 53 60
54 61 69
56 61 68
54 61 69
52 57 64
57 62 69
46 49 54
46 52 59
63 69 77
48 53 60
77 83 91
221 236 255
221 236 255
221 236 255
221 236 255
221 236 255
221 236 255
221 236 255
221 236 255
221 236 255
221 236 255
221 236 255
221 236 255
221 236 255
221 236 255
221 236 255
221 235 255
221 236 255
221 236 255
221 236 255
221 236 255
221 236 255
221 236 255
221 236 255
221 236 255
221 236 255
221 236 255
221 236 255
221 236 255
221 236 255
221 236 255
221 236 255
221 236 255
221 236 255
221 235 255
221 235 255
221 236 255
221 236 255
221 236 255
221 235 255
221 236 255
221 236 255
221 236 255
221 235 255
221 236 255
221 236 255
221 236 255
221 236 255
221 236 255
221 236 255
221 236 255
221 236 255
221 236 255
221 236 255
221 236 255
221 236 255
221 236 255
221 236 255
221 236 255
221 236 255
221 236 255
221 236 255
221 236 255
221 236 255
221 236 255
221 236 255
221 236 255
221 236 255
221 236 255
221 236 255
221 236 255
221 236 255
221 236 255
221 236 255
221 236 255
221 235 255
221 236 255
221 236 255
221 236 255
221 236 255
221 236 255
221 236 255
221 236 255
221 236 255
221 236 255
221 236 255
221 236 255
221 236 255
221 236 255
221 236 255
221 236 255
221 236 255
221 236 255
221 236 255
221 236 255
221 235 255
221 236 255
221 236 255
221 236 255
221 236 255
221 236 255
221 236 255
221 236 255
221 236 255
221 236 255
221 236 255
221 236 255
221 236 255
221 236 255
221 236 255
221 236 255
221 236 255
221 236 255
221 236 255
221 236 255
221 236 255
221 236 255
221 236 255
221 236 255
221 236 255
221 236 255
221 236 255
221 236 255
221 236 255
221 236 255
221 236 255
221 236 255
221 236 255
221 236 255
221 236 255
221 236 255
221 236 255
221 236 255
221 236 255
221 236 255
221 236 255
221 236 255
221 236 255
221 236 255
221 236 255
221 236 255
221 236 255
221 236 255
221 236 255
221 236 255
221 236 255
221 236 255
221 236 255
221 236 255
221 236 255
221 236 255
221 236 255
221 236 255
221 236 255
221 236 255
221 236 255
221 236 255
221 236 255
221 236 255
221 236 255
221 236 255
221 236 255
221 236 255
221 236 255
221 236 255
221 236 255
221 236 255
221 236 255
221 236 255
221 236 255
221 236 255
221 236 255
221 236 255
221 236 255
221 236 255
221 236 255
221 236 255
221 236 255
221 236 255
221 236 255
221 236 255
221 236 255
221 236 255
221 236 255
221 236 255
221 236 255
221 236 255
221 236 255
221 236 255
221 236 255
221 236 255
221 236 255
221 236 255
221 236 255
221 236 255
221 236 255
221 236 255
221 236 255
221 236 255
221 236 255
221 236 255
221 236 255
221 236 255
221 236 255
221 236 255
221 236 255
221 236 255
221 236 255
221 236 255
221 236 255
221 236 255
221 236 255
221 236 255
221 236 255
221 236 255
221 236 255
221 236 255
221 236 255
221 236 255
221 236 255
221 236 255
221 236 255
221 236 255
221 236 255
221 236 255
221 236 255
221 236 255
221 236 255
221 236 255
221 236 255
221 236 255
221 236 255
221 236 255
221 236 255
221 236 255
221 236 255
221 236 255
221 236 255
221 236 255
221 236 255
221 236 255
221 236 255
221 236 255
221 236 255
221 236 255
221 236 255
221 236 255
221 236 255
222 236 255
221 236 255
221 236 255
221 236 255
221 236 255
221 236 255
221 236 255
221 236 255
222 236 255
221 236 255
221 236 255
221 236 255
221 236 255
221 236 255
221 236 255
222 236 255
221 236 255
221 236 255
221 236 255
221 236 255
222 236 255
221 236 255
221 236 255
86 93 103
54 60 69
44 49 54
43 48 54
43 48 54
56 61 68
50 56 64
38 43 49
47 53 60
51 57 64
53 57 63
50 56 64
52 57 64
36 41 48
47 53 60
34 37 42
64 69 77
44 48 54
58 64 73
43 48 54
47 52 60
51 56 64
48 53 60
55 61 69
56 61 69
57 62 69
52 57 64
57 62 69
52 57 64
52 57 64
54 61 69
50 56 64
57 64 73
44 49 54
58 65 73
44 48 54
49 53 60
61 68 77
59 65 73
43 48 54
48 53 59
52 57 64
52 57 64
47 53 60
52 57 64
47 52 59
52 57 64
39 43 49
43 48 54
52 57 64
46 52 60
52 57 64
44 48 54
51 56 64
60 65 72
63 69 77
46 52 60
51 56 64
49 53 60
43 48 54
47 53 60
49 54 60
52 57 64
45 49 54
57 62 69
52 57 64
48 53 59
56 61 69
50 56 64
58 64 73
51 57 64
56 61 69
57 64 73
44 48 54
42 47 53
53 60 69
48 53 60
56 61 69
55 61 69
48 53 60
48 53 60
52 57 64
49 54 60
55 61 69
56 61 69
64 69 77
44 49 54
38 43 49
52 57 64
51 57 64
33 36 42
43 47 54
48 53 59
52 57 64
38 43 49
39 43 48
49 53 60
57 64 73
56 61 69
39 43 49
59 65 73
44 49 54
51 56 64
50 56 64
53 58 64
34 37 41
47 52 59
47 53 60
46 52 59
56 61 69
42 47 54
46 52 60
60 65 73
55 61 69
38 42 48
48 53 60
53 58 64
62 68 77
56 62 69
46 52 60
59 65 73
39 43 49
49 56 64
49 53 60
55 61 69
54 61 69
54 60 69
38 43 49
56 63 73
44 48 54
221 236 255
222 236 255
222 236 255
222 236 255
221 236 255
221 236 255
221 236 255
221 236 255
221 236 255
221 236 255
221 236 255
221 236 255
221 236 255
222 236 255
221 236 255
221 236 255
222 236 255
221 236 255
221 236 255
221 236 255
221 236 255
221 236 255
221 236 255
221 236 255
221 236 255
221 236 255
221 236 255
221 236 255
221 236 255
221 236 255
221 236 255
221 236 255
221 236 255
221 236 255
221 236 255
222 236 255
221 236 255
221 236 255
221 236 255
221 236 255
221 236 255
221 236 255
221 236 255
221 236 255
221 236 255
221 236 255
221 236 255
221 236 255
221 236 255
221 236 255
221 236 255
221 236 255
221 236 255
221 236 255
221 236 255
221 236 255
221 236 255
221 236 255
221 236 255
221 236 255
221 236 255
221 236 255
221 236 255
221 236 255
221 236 255
221 236 255
221 236 255
221 236 255
221 236 255
221 236 255
221 236 255
221 236 255
221 236 255
221 236 255
221 236 255
221 236 255
221 236 255
221 236 255
221 236 255
221 236 255
221 236 255
221 236 255
221 236 255
221 236 255
221 236 255
221 236 255
221 236 255
221 236 255
221 236 255
221 236 255
221 236 255
221 236 255
221 236 255
221 236 255
221 236 255
221 236 255
221 236 255
221 236 255
221 236 255
221 236 255
221 236 255
221 236 255
221 236 255
221 236 255
221 236 255
221 236 255
221 236 255
221 236 255
221 236 255
221 236 255
221 236 255
221 236 255
221 236 255
221 236 255
221 236 255
221 236 255
221 236 255
221 236 255
221 236 255
221 236 255
221 236 255
221 236 255
221 236 255
221 236 255
221 236 255
221 236 255
221 236 255
221 236 255
221 236 255
221 236 255
221 236 255
221 236 255
221 236 255
221 236 255
221 236 255
221 236 255
222 236 255
222 236 255
222 236 255
222 236 255
222 236 255
222 236 255
222 236 255
222 236 255
222 236 255
222 236 255
222 236 255
222 236 255
222 236 255
222 236 255
222 236 255
222 236 255
222 236 255
222 236 255
222 236 255
222 236 255
222 236 255
222 236 255
222 236 255
222 236 255
222 236 255
222 236 255
222 236 255
222 236 255
222 236 255
222 236 255
222 236 255
222 236 255
222 236 255
222 236 255
222 236 255
222 236 255
222 236 255
222 236 255
222 236 255
222 236 255
222 236 255
222 236 255
222 236 255
222 236 255
222 236 255
222 236 255
222 236 255
222 236 255
222 236 255
222 236 255
222 236 255
222 236 255
222 236 255
222 236 255
222 236 255
222 236 255
222 236 255
222 236 255
222 236 255
222 236 255
222 236 255
222 236 255
222 236 255
222 236 255
222 236 255
222 236 255
222 236 255
222 236 255
222 236 255
222 236 255
222 236 255
222 236 255
222 236 255
222 236 255
222 236 255
222 236 255
222 236 255
222 236 255
222 236 255
222 236 255
222 236 255
222 236 255
222 236 255
222 236 255
222 236 255
222 236 255
222 236 255
222 236 255
222 236 255
222 236 255
222 236 255
222 236 255
222 236 255
222 236 255
222 236 255
222 236 255
222 236 255
222 236 255
222 236 255
222 236 255
222 236 255
222 236 255
222 236 255
222 236 255
222 236 255
222 236 255
222 236 255
222 236 255
222 236 255
222 236 255
222 236 255
222 236 255
222 236 255
222 236 255
222 236 255
222 236 255
222 236 255
222 236 255
222 236 255
222 236 255
222 236 255
222 236 255
222 236 255
222 236 255
222 236 255
222 236 255
222 236 255
222 236 255
222 236 255
222 236 255
222 236 255
222 236 255
222 236 255
222 236 255
87 94 103
54 58 64
57 64 72
55 61 69
60 66 73
47 52 60
53 58 64
47 53 60
58 64 72
51 56 63
51 57 64
49 53 59
54 60 69
49 53 60
51 57 64
44 48 54
55 61 69
50 56 64
56 61 69
54 58 64
42 47 53
49 54 60
50 56 64
47 52 59
56 61 69
47 52 59
56 61 69
52 57 64
38 42 48
48 53 59
44 48 54
59 65 72
50 54 60
52 57 64
47 52 60
47 52 59
53 58 64
53 58 64
54 58 64
54 60 68
54 60 68
56 61 69
40 44 49
56 61 69
45 51 60
52 57 64
48 53 60
48 53 60
34 37 42
56 61 69
55 61 69
59 64 72
49 54 60
55 61 69
49 53 59
55 60 68
45 49 54
55 61 69
39 43 49
60 66 73
55 61 69
50 54 60
56 62 69
48 53 60
59 65 73
48 53 60
57 64 73
43 47 54
48 53 59
43 48 54
44 48 54
55 60 68
51 57 64
55 61 69
49 53 60
59 65 73
53 60 69
49 53 59
57 61 68
55 61 69
56 61 69
56 62 69
58 62 68
53 58 64
41 44 49
51 57 64
53 58 64
42 47 54
47 52 60
44 48 54
43 48 54
49 53 60
47 52 60
49 54 60
54 60 68
44 48 53
50 56 63
48 53 60
52 57 64
51 57 64
53 57 64
43 48 54
50 54 60
49 53 60
49 53 60
50 56 64
39 43 49
39 43 48
44 48 54
55 59 64
57 62 69
54 60 69
48 53 60
48 53 60
49 53 60
51 55 60
56 61 69
33 37 42
47 52 60
39 43 49
48 53 60
34 37 42
49 54 60
48 53 60
38 43 49
45 49 54
47 52 60
58 64 72
49 53 60
80 86 94
222 236 255
222 236 255
222 236 255
222 236 255
222 236 255
222 236 255
222 236 255
222 236 255
222 236 255
222 236 255
222 236 255
222 236 255
222 236 255
222 236 255
222 236 255
222 236 255
222 236 255
222 236 255
222 236 255
222 236 255
222 236 255
222 236 255
222 236 255
222 236 255
222 236 255
222 236 255
222 236 255
222 236 255
222 236 255
222 236 255
222 236 255
222 236 255
222 236 255
222 236 255
222 236 255
222 236 255
222 236 255
222 236 255
222 236 255
222 236 255
222 236 255
222 236 255
222 236 255
222 236 255
222 236 255
222 236 255
222 236 255
222 236 255
222 236 255
222 236 255
222 236 255
222 236 255
222 236 255
222 236 255
222 236 255
222 236 255
222 236 255
222 236 255
222 236 255
222 236 255
222 236 255
222 236 255
222 236 255
222 236 255
222 236 255
222 236 255
222 236 255
222 236 255
222 236 255
222 236 255
222 236 255
222 236 255
222 236 255
222 236 255
222 236 255
222 236 255
222 236 255
222 236 255
222 236 255
222 236 255
222 236 255
222 236 255
222 236 255
222 236 255
222 236 255
222 236 255
222 236 255
222 236 255
222 236 255
222 236 255
222 236 255
222 236 255
222 236 255
222 236 255
222 236 255
222 236 255
222 236 255
222 236 255
222 236 255
222 236 255
222 236 255
222 236 255
222 236 255
222 236 255
222 236 255
222 236 255
222 236 255
222 236 255
222 236 255
222 236 255
222 236 255
222 236 255
222 236 255
222 236 255
222 236 255
222 236 255
222 236 255
222 236 255
222 236 255
222 236 255
222 236 255
222 236 255
222 236 255
222 236 255
222 236 255
222 236 255
222 236 255
222 236 255
222 236 255
222 236 255
222 236 255
222 236 255
222 236 255
222 236 255
222 236 255
222 236 255
222 236 255
222 236 255
222 236 255
222 236 255
222 236 255
222 236 255
222 236 255
222 236 255
222 236 255
222 236 255
222 236 255
222 236 255
222 236 255
222 236 255
222 236 255
222 236 255
222 236 255
222 236 255
222 236 255
222 236 255
222 236 255
222 236 255
222 236 255
222 236 255
222 236 255
222 236 255
222 236 255
222 236 255
222 236 255
222 236 255
222 236 255
222 236 255
222 236 255
222 236 255
222 236 255
222 236 255
222 236 255
222 236 255
222 236 255
222 236 255
222 236 255
222 236 255
222 236 255
222 236 255
222 236 255
222 236 255
222 236 255
222 236 255
222 236 255
222 236 255
222 236 255
222 236 255
222 236 255
222 236 255
222 236 255
222 236 255
222 236 255
222 236 255
222 236 255
222 236 255
222 236 255
222 236 255
222 236 255
222 236 255
222 236 255
222 236 255
222 236 255
222 236 255
222 236 255
222 236 255
222 236 255
222 236 255
222 236 255
222 236 255
222 236 255
222 236 255
222 236 255
222 236 255
222 236 255
222 236 255
222 236 255
222 236 255
222 236 255
222 236 255
222 236 255
222 236 255
222 236 255
222 236 255
222 236 255
222 236 255
222 236 255
222 236 255
222 236 255
222 236 255
222 236 255
222 236 255
222 236 255
222 236 255
222 236 255
222 236 255
222 236 255
222 236 255
222 236 255
222 236 255
222 236 255
222 236 255
222 236 255
222 236 255
222 236 255
222 236 255
222 236 255
222 236 255
222 236 255
222 236 255
222 236 255
222 236 255
222 236 255
222 236 255
222 236 255
222 236 255
222 236 255
222 236 255
222 236 255
222 236 255
222 236 255
222 236 255
222 236 255
222 236 255
222 236 255
222 236 255
222 236 255
222 236 255
222 236 255
222 236 255
82 89 97
41 46 53
52 57 64
42 47 54
53 57 64
40 44 49
47 52 60
48 53 60
61 68 77
52 57 64
41 47 54
52 57 64
56 61 69
55 61 69
37 42 48
48 53 60
51 57 64
44 48 54
46 52 59
54 58 64
56 63 72
56 63 73
48 52 58
52 59 69
43 48 54
55 61 69
47 52 60
48 53 60
51 57 64
43 48 54
43 48 53
55 61 69
47 52 59
37 42 49
59 65 72
46 52 60
47 53 60
46 52 59
57 62 69
46 52 59
48 53 60
48 53 60
48 52 58
55 61 69
58 64 73
47 52 60
51 57 64
59 65 73
56 63 73
57 64 73
53 58 64
50 56 64
48 52 58
43 48 54
52 59 69
48 53 60
43 48 54
39 43 48
42 48 54
41 44 48
52 57 64
43 48 54
48 53 60
49 54 60
56 61 69
40 43 49
56 61 69
45 49 54
52 57 63
40 44 49
52 57 64
50 56 64
53 58 64
52 57 64
42 47 54
52 57 64
45 49 54
65 72 80
47 52 60
58 63 69
40 44 49
43 48 54
50 54 60
43 48 54
45 51 59
44 48 54
51 57 64
48 53 60
59 65 72
49 53 59
47 52 59
46 52 60
56 61 69
49 53 59
55 61 69
43 47 54
52 57 64
47 53 60
58 64 73
40 44 49
43 48 54
49 53 60
51 57 64
47 52 60
40 43 48
42 47 54
54 58 64
51 56 64
45 49 54
56 61 69
56 61 68
51 57 64
52 57 64
59 65 73
44 48 54
42 47 54
55 61 68
52 57 64
60 66 73
40 43 49
47 52 59
43 48 54
48 52 58
55 61 69
59 65 73
49 54 60
51 56 64
48 53 60
51 57 64
52 57 64
222 236 255
222 236 255
222 236 255
222 236 255
222 236 255
222 236 255
222 236 255
222 236 255
222 236 255
222 236 255
222 236 255
222 236 255
222 236 255
222 236 255
222 236 255
222 236 255
222 236 255
222 236 255
222 236 255
222 236 255
222 236 255
222 236 255
222 236 255
222 236 255
222 236 255
222 236 255
222 236 255
222 236 255
222 236 255
222 236 255
222 236 255
222 236 255
222 236 255
222 236 255
222 236 255
222 236 255
222 236 255
222 236 255
222 236 255
222 236 255
222 236 255
222 236 255
222 236 255
222 236 255
222 236 255
222 236 255
222 236 255
222 236 255
222 236 255
222 236 255
222 236 255
222 236 255
222 236 255
222 236 255
222 236 255
222 236 255
222 236 255
222 236 255
222 236 255
222 236 255
222 236 255
222 236 255
222 236 255
222 236 255
222 236 255
222 236 255
222 236 255
222 236 255
222 236 255
222 236 255
222 236 255
222 236 255
222 236 255
222 236 255
222 236 255
222 236 255
222 236 255
222 236 255
222 236 255
222 236 255
222 236 255
222 236 255
222 236 255
222 236 255
222 236 255
222 236 255
222 236 255
222 236 255
222 236 255
222 236 255
222 236 255
222 236 255
222 236 255
222 236 255
222 236 255
222 236 255
222 236 255
222 236 255
222 236 255
222 236 255
222 236 255
222 236 255
222 236 255
222 236 255
222 236 255
222 236 255
222 236 255
222 236 255
222 236 255
222 236 255
222 236 255
222 236 255
222 236 255
222 236 255
222 236 255
222 236 255
222 236 255
222 236 255
222 236 255
222 236 255
222 236 255
222 236 255
222 236 255
222 236 255
222 236 255
222 236 255
222 236 255
222 236 255
222 236 255
222 236 255
222 236 255
222 236 255
222 236 255
222 236 255
222 236 255
222 236 255
222 236 255
222 236 255
222 236 255
222 236 255
222 236 255
222 236 255
222 236 255
222 236 255
222 236 255
222 236 255
222 236 255
222 236 255
222 236 255
222 236 255
222 236 255
222 236 255
222 236 255
222 236 255
222 236 255
222 236 255
222 236 255
222 236 255
222 236 255
222 236 255
222 236 255
222 236 255
222 236 255
222 236 255
222 236 255
222 236 255
222 236 255
222 236 255
222 236 255
222 236 255
222 236 255
222 236 255
222 236 255
222 236 255
222 236 255
222 236 255
222 236 255
222 236 255
222 236 255
222 236 255
222 236 255
222 236 255
222 236 255
222 236 255
222 236 255
222 236 255
222 236 255
222 236 255
222 236 255
222 236 255
222 236 255
222 236 255
222 236 255
222 236 255
222 236 255
222 236 255
222 236 255
222 236 255
222 236 255
222 236 255
222 236 255
222 236 255
222 236 255
222 236 255
222 236 255
222 236 255
222 236 255
222 236 255
222 236 255
222 236 255
222 236 255
222 236 255
222 236 255
222 236 255
222 236 255
222 236 255
222 236 255
222 236 255
222 236 255
222 236 255
222 236 255
222 236 255
222 236 255
222 236 255
222 236 255
222 236 255
222 236 255
222 236 255
222 236 255
222 236 255
222 236 255
222 236 255
222 236 255
222 236 255
222 236 255
222 236 255
222 236 255
222 236 255
222 236 255
222 236 255
222 236 255
222 236 255
222 236 255
222 236 255
222 236 255
222 236 255
222 236 255
222 236 255
222 236 255
222 236 255
222 236 255
222 236 255
222 236 255
222 236 255
222 236 255
222 236 255
222 236 255
222 236 255
222 236 255
222 236 255
222 236 255
222 236 255
222 236 255
222 236 255
222 236 255
222 236 255
222 236 255
222 236 255
222 236 255
222 236 255
85 91 100
46 52 59
39 43 49
52 57 64
38 42 48
43 48 54
53 58 64
51 57 64
56 61 69
49 53 59
60 65 73
58 64 73
54 60 69
37 42 49
58 62 69
61 66 73
50 56 63
32 36 42
55 61 69
51 57 64
56 61 69
60 66 73
48 53 60
53 58 64
48 53 60
43 48 54
48 53 60
48 53 60
40 43 48
48 53 60
55 61 69
50 56 64
60 65 73
49 54 60
42 47 54
53 57 64
57 62 69
51 56 64
58 64 73
38 43 49
55 61 69
52 57 64
56 63 72
54 60 69
46 50 54
51 57 64
60 65 73
42 47 54
53 58 64
43 48 54
59 65 73
48 53 60
54 60 68
35 38 42
47 52 59
48 53 59
49 54 60
39 43 48
52 57 64
43 48 54
44 48 54
43 48 54
41 45 49
56 62 69
47 52 60
49 53 59
50 56 64
53 58 64
49 53 60
47 53 60
56 61 69
60 65 73
49 53 60
45 49 54
49 53 60
50 54 60
55 61 69
44 48 54
35 38 42
51 57 64
48 53 60
56 61 69
52 57 64
45 49 54
44 49 54
50 54 60
57 64 73
52 57 64
50 56 64
44 48 54
51 57 64
54 60 69
43 48 54
43 48 54
39 43 48
58 63 69
59 65 73
43 48 54
52 57 64
51 57 64
56 61 69
64 69 77
52 57 64
57 64 73
53 58 64
55 61 68
57 62 69
48 53 60
53 58 64
44 48 54
55 61 69
49 53 59
44 48 54
54 58 64
57 62 69
39 43 49
53 58 64
55 61 69
49 53 60
52 57 64
56 61 68
50 56 64
54 60 69
57 62 69
47 52 59
50 56 64
37 42 47
44 48 54
56 61 69
129 137 149
222 236 255
222 236 255
222 236 255
222 236 255
222 236 255
222 236 255
222 236 255
222 236 255
222 236 255
222 236 255
222 236 255
222 236 255
222 236 255
222 236 255
222 236 255
222 236 255
222 236 255
222 236 255
222 236 255
222 236 255
222 236 255
222 236 255
222 236 255
222 236 255
222 236 255
222 236 255
222 236 255
222 236 255
222 236 255
222 236 255
222 236 255
222 236 255
222 236 255
222 236 255
222 236 255
222 236 255
222 236 255
222 236 255
222 236 255
222 236 255
222 236 255
222 236 255
222 236 255
222 236 255
222 236 255
222 236 255
222 236 255
222 236 255
222 236 255
222 236 255
222 236 255
222 236 255
222 236 255
222 236 255
222 236 255
222 236 255
222 236 255
222 236 255
222 236 255
222 236 255
222 236 255
222 236 255
222 236 255
222 236 255
222 236 255
222 236 255
222 236 255
222 236 255
222 236 255
222 236 255
222 236 255
222 236 255
222 236 255
222 236 255
222 236 255
222 236 255
222 236 255
222 236 255
222 236 255
222 236 255
222 236 255
222 236 255
222 236 255
222 236 255
222 236 255
222 236 255
222 236 255
222 236 255
222 236 255
222 236 255
222 236 255
222 236 255
222 236 255
222 236 255
222 236 255
222 236 255
222 236 255
222 236 255
222 236 255
222 236 255
222 236 255
222 236 255
222 236 255
222 236 255
222 236 255
222 236 255
222 236 255
222 236 255
222 236 255
222 236 255
222 236 255
222 236 255
222 236 255
222 236 255
222 236 255
222 236 255
222 236 255
222 236 255
222 236 255
222 236 255
222 236 255
222 236 255
222 236 255
222 236 255
222 236 255
222 236 255
222 236 255
222 236 255
222 236 255
222 236 255
222 236 255
222 236 255
222 236 255
222 236 255
222 236 255
222 236 255
222 236 255
222 236 255
222 236 255
222 236 255
222 236 255
222 236 255
222 236 255
222 236 255
222 236 255
222 236 255
222 236 255
222 236 255
222 236 255
222 236 255
222 236 255
222 236 255
222 236 255
222 236 255
222 236 255
222 236 255
222 236 255
222 236 255
222 236 255
222 236 255
222 236 255
222 236 255
222 236 255
222 236 255
222 236 255
222 236 255
222 236 255
222 236 255
222 236 255
222 236 255
222 236 255
222 236 255
222 236 255
222 236 255
222 236 255
222 236 255
222 236 255
222 236 255
222 236 255
222 236 255
222 236 255
222 236 255
222 236 255
222 236 255
222 236 255
222 236 255
222 236 255
222 236 255
222 236 255
222 236 255
222 236 255
222 236 255
222 236 255
222 236 255
222 236 255
222 236 255
222 236 255
222 236 255
222 236 255
222 236 255
222 236 255
222 236 255
222 236 255
222 236 255
222 236 255
222 236 255
222 236 255
222 236 255
222 236 255
222 236 255
222 236 255
222 236 255
222 236 255
222 236 255
222 236 255
222 236 255
222 236 255
222 236 255
222 236 255
222 236 255
222 236 255
222 236 255
222 236 255
222 236 255
222 236 255
222 236 255
222 236 255
222 236 255
222 236 255
222 236 255
222 236 255
222 236 255
222 236 255
222 236 255
222 236 255
222 236 255
222 236 255
222 236 255
223 236 255
222 236 255
223 236 255
223 236 255
222 236 255
222 236 255
222 236 255
222 236 255
222 236 255
223 236 255
223 236 255
223 236 255
223 236 255
222 236 255
223 236 255
223 236 255
223 236 255
223 236 255
223 236 255
223 236 255
223 236 255
223 236 255
223 236 255
223 236 255
223 236 255
223 236 255
223 236 255
223 236 255
223 236 255
223 236 255
223 236 255
223 236 255
163 173 188
54 61 69
55 61 69
46 49 54
47 52 60
39 43 49
39 43 49
51 57 64
40 43 48
43 48 54
45 52 60
38 43 49
48 53 60
47 52 59
52 57 64
52 57 64
39 43 48
52 57 64
50 56 64
39 42 47
46 52 60
36 41 47
52 57 64
50 56 64
33 37 42
38 42 48
49 53 60
50 56 64
65 72 80
43 47 54
47 52 60
49 54 60
57 62 69
47 52 59
51 57 64
49 53 60
47 52 60
55 61 69
47 53 60
51 56 64
33 36 42
46 52 60
57 64 73
52 57 64
43 48 54
54 58 64
47 52 60
38 42 48
46 52 59
57 64 73
48 53 60
57 62 69
49 53 60
58 64 73
51 56 64
49 53 60
57 64 73
43 48 54
53 58 64
51 56 64
52 57 64
42 47 54
45 49 54
50 56 64
40 44 49
57 62 69
56 61 68
44 49 54
51 57 64
51 57 64
53 60 69
58 64 73
51 57 64
60 67 77
57 62 69
43 47 54
48 53 60
43 48 54
51 56 64
45 49 54
52 57 64
47 53 60
53 58 64
47 52 60
57 64 73
57 62 68
50 56 64
49 53 60
48 53 60
56 61 69
45 49 54
52 57 64
44 49 54
56 61 69
43 48 54
53 57 64
54 60 69
45 49 54
52 57 64
56 61 69
43 48 54
59 65 73
48 53 60
53 58 64
54 60 68
38 42 48
48 53 60
54 60 69
39 43 48
50 54 60
51 57 64
45 49 54
49 53 60
43 48 54
48 52 59
56 62 69
54 60 69
58 65 73
52 57 64
47 53 60
49 53 60
57 62 69
47 53 60
59 65 73
46 52 60
43 48 54
49 53 60
39 43 48
61 66 73
87 93 102
223 236 255
223 236 255
223 236 255
223 236 255
223 236 255
223 236 255
223 236 255
223 236 255
223 236 255
223 236 255
223 236 255
223 236 255
223 236 255
223 236 255
223 236 255
223 236 255
223 236 255
223 236 255
223 236 255
223 236 255
223 236 255
222 236 255
223 236 255
222 236 255
222 236 255
222 236 255
222 236 255
223 236 255
222 236 255
222 236 255
222 236 255
222 236 255
222 236 255
222 236 255
222 236 255
222 236 255
222 236 255
222 236 255
222 236 255
222 236 255
222 236 255
222 236 255
222 236 255
222 236 255
222 236 255
222 236 255
222 236 255
222 236 255
222 236 255
222 236 255
222 236 255
222 236 255
222 236 255
222 236 255
222 236 255
222 236 255
222 236 255
222 236 255
222 236 255
222 236 255
222 236 255
222 236 255
222 236 255
222 236 255
222 236 255
222 236 255
222 236 255
222 236 255
222 236 255
222 236 255
222 236 255
222 236 255
222 236 255
222 236 255
222 236 255
222 236 255
222 236 255
222 236 255
222 236 255
222 236 255
222 236 255
222 236 255
222 236 255
222 236 255
222 236 255
222 236 255
222 236 255
222 236 255
222 236 255
222 236 255
222 236 255
222 236 255
222 236 255
222 236 255
222 236 255
222 236 255
222 236 255
222 236 255
222 236 255
222 236 255
222 236 255
222 236 255
222 236 255
222 236 255
222 236 255
222 236 255
222 236 255
222 236 255
222 236 255
222 236 255
222 236 255
222 236 255
222 236 255
222 236 255
222 236 255
222 236 255
222 236 255
222 236 255
222 236 255
222 236 255
222 236 255
222 236 255
222 236 255
222 236 255
222 236 255
222 236 255
222 236 255
222 236 255
222 236 255
222 236 255
222 236 255
222 236 255
222 236 255
222 236 255
222 236 255
222 236 255
222 236 255
222 236 255
222 236 255
222 236 255
222 236 255
222 236 255
222 236 255
222 236 255
222 236 255
222 236 255
222 236 255
222 236 255
222 236 255
222 236 255
222 236 255
222 236 255
222 236 255
222 236 255
222 236 255
222 236 255
222 236 255
222 236 255
222 236 255
222 236 255
222 236 255
222 236 255
222 236 255
222 236 255
222 236 255
222 236 255
222 236 255
222 236 255
222 236 255
222 236 255
222 236 255
222 236 255
222 236 255
222 236 255
222 236 255
222 236 255
222 236 255
222 236 255
222 236 255
222 236 255
222 236 255
222 236 255
222 236 255
222 236 255
222 236 255
222 236 255
222 236 255
222 236 255
222 236 255
222 236 255
222 236 255
222 236 255
222 236 255
222 236 255
222 236 255
222 236 255
222 236 255
222 236 255
222 236 255
222 236 255
222 236 255
222 236 255
222 236 255
222 236 255
222 236 255
223 236 255
222 236 255
222 236 255
223 236 255
223 236 255
223 236 255
223 236 255
223 236 255
223 236 255
223 236 255
223 236 255
223 236 255
223 236 255
223 236 255
223 236 255
223 236 255
223 236 255
223 236 255
223 236 255
223 236 255
223 236 255
223 236 255
223 236 255
223 236 255
223 236 255
223 236 255
223 236 255
223 236 255
223 236 255
223 236 255
223 236 255
223 236 255
223 236 255
223 236 255
223 236 255
223 236 255
223 236 255
223 236 255
223 236 255
223 236 255
223 236 255
223 236 255
223 236 255
223 236 255
223 236 255
223 236 255
223 236 255
223 236 255
223 236 255
223 236 255
223 236 255
223 236 255
223 236 255
223 236 255
223 236 255
223 236 255
223 236 255
223 236 255
223 236 255
223 236 255
223 236 255
223 236 255
223 236 255
223 236 255
223 236 255
177 189 204
56 61 69
38 42 48
57 62 68
52 57 64
54 60 68
52 57 64
47 52 60
47 53 60
53 58 64
34 37 42
55 61 69
33 36 42
52 56 63
43 48 54
43 48 54
38 42 49
47 52 60
48 53 60
64 71 80
53 58 64
49 53 60
58 64 73
49 53 60
48 53 60
39 43 49
52 57 64
42 47 54
51 56 64
39 43 48
44 48 54
44 48 54
40 43 49
52 57 64
44 49 54
39 43 49
53 60 69
39 43 48
57 64 73
54 58 64
56 62 69
46 52 60
57 62 69
44 48 54
49 54 60
39 43 48
48 53 59
58 65 73
60 65 73
55 61 69
49 54 60
53 58 64
62 68 77
43 48 54
56 61 69
47 52 59
60 65 73
45 49 54
39 43 47
37 42 49
39 43 49
55 61 69
49 54 60
49 56 64
43 48 54
40 44 49
43 47 54
55 61 69
48 55 64
38 42 48
38 43 49
51 57 64
52 57 64
55 61 69
48 53 60
45 49 54
37 42 49
58 64 72
40 43 48
55 61 69
55 61 69
52 57 64
50 56 64
28 31 35
45 51 60
39 43 49
39 43 48
43 48 54
33 37 42
50 56 64
49 53 60
53 57 64
53 57 64
43 48 53
55 61 69
52 57 64
44 49 54
44 49 54
56 61 69
38 42 48
43 48 54
47 52 59
58 62 69
49 53 60
34 37 42
58 62 68
48 53 60
49 56 64
48 53 60
54 58 64
57 62 69
43 47 53
53 58 64
52 57 64
51 57 64
51 57 64
47 52 60
34 38 42
51 56 63
40 43 49
51 56 64
53 58 64
42 47 54
43 48 54
45 48 54
51 57 64
55 61 69
52 57 64
43 48 54
129 138 149
223 236 255
223 236 255
223 236 255
223 236 255
223 236 255
223 236 255
223 236 255
223 236 255
223 236 255
223 236 255
223 236 255
223 236 255
223 236 255
223 236 255
223 236 255
223 236 255
223 236 255
223 236 255
223 236 255
223 236 255
223 236 255
223 236 255
223 236 255
223 236 255
223 236 255
223 236 255
223 236 255
223 236 255
223 236 255
223 236 255
223 236 255
223 236 255
223 236 255
223 236 255
223 236 255
223 236 255
223 236 255
223 236 255
223 236 255
223 236 255
223 236 255
223 236 255
223 236 255
223 236 255
223 236 255
223 236 255
223 236 255
223 236 255
223 236 255
223 236 255
223 236 255
223 236 255
223 236 255
223 236 255
223 236 255
223 236 255
223 236 255
223 236 255
223 236 255
223 236 255
223 236 255
223 236 255
222 236 255
223 236 255
223 236 255
222 236 255
222 236 255
222 236 255
222 236 255
222 236 255
222 236 255
222 236 255
222 236 255
222 236 255
222 236 255
222 236 255
222 236 255
222 236 255
222 236 255
222 236 255
222 236 255
222 236 255
222 236 255
222 236 255
222 236 255
222 236 255
222 236 255
222 236 255
222 236 255
222 236 255
222 236 255
222 236 255
222 236 255
222 236 255
222 236 255
222 236 255
222 236 255
222 236 255
222 236 255
222 236 255
222 236 255
222 236 255
222 236 255
222 236 255
222 236 255
222 236 255
222 236 255
222 236 255
222 236 255
222 236 255
222 236 255
222 236 255
222 236 255
222 236 255
222 236 255
222 236 255
222 236 255
222 236 255
222 236 255
222 236 255
222 236 255
222 236 255
222 236 255
222 236 255
222 236 255
222 236 255
222 236 255
222 236 255
222 236 255
222 236 255
222 236 255
222 236 255
222 236 255
222 236 255
222 236 255
222 236 255
222 236 255
222 236 255
222 236 255
222 236 255
222 236 255
222 236 255
222 236 255
222 236 255
222 236 255
222 236 255
222 236 255
222 236 255
222 236 255
222 236 255
222 236 255
222 236 255
222 236 255
222 236 255
222 236 255
222 236 255
222 236 255
222 236 255
222 236 255
222 236 255
222 236 255
222 236 255
222 236 255
222 236 255
223 236 255
222 236 255
223 236 255
222 236 255
222 236 255
223 236 255
222 236 255
222 236 255
223 236 255
223 236 255
223 236 255
223 236 255
223 236 255
223 236 255
223 236 255
223 236 255
223 236 255
223 236 255
223 236 255
223 236 255
223 236 255
223 236 255
223 236 255
223 236 255
223 236 255
223 236 255
223 236 255
223 236 255
223 236 255
223 236 255
223 236 255
223 236 255
223 236 255
223 236 255
223 236 255
223 236 255
223 236 255
223 236 255
223 236 255
223 236 255
223 236 255
223 236 255
223 236 255
223 236 255
223 236 255
223 236 255
223 236 255
223 236 255
223 236 255
223 236 255
223 236 255
223 236 255
223 236 255
223 236 255
223 236 255
223 236 255
223 236 255
223 236 255
223 236 255
223 236 255
223 236 255
223 236 255
223 236 255
223 236 255
223 236 255
223 236 255
223 236 255
223 236 255
223 236 255
223 236 255
223 236 255
223 237 255
223 236 255
223 236 255
223 237 255
223 236 255
223 237 255
223 237 255
223 237 255
223 237 255
223 237 255
223 237 255
223 237 255
223 237 255
223 237 255
223 237 255
223 237 255
223 237 255
223 237 255
223 237 255
223 237 255
223 237 255
223 237 255
223 237 255
223 237 255
223 237 255
223 237 255
223 237 255
223 237 255
223 237 255
223 237 255
223 237 255
223 237 255
223 237 255
223 237 255
223 237 255
145 155 168
47 52 59
48 53 60
62 68 77
46 49 54
51 57 64
48 53 59
37 42 47
56 64 73
51 57 64
50 56 64
47 52 59
57 62 69
46 51 58
49 53 60
55 61 69
49 53 60
48 53 60
51 57 64
43 47 53
46 52 59
60 65 73
47 52 60
53 58 64
57 62 69
31 36 42
53 58 64
56 61 69
44 48 54
51 57 64
44 48 54
39 43 49
53 58 64
52 57 63
41 44 48
50 54 60
39 43 48
54 58 64
51 57 64
48 53 60
44 48 54
49 53 60
57 62 69
47 52 60
52 57 64
52 57 64
44 48 54
51 57 64
54 58 64
51 57 64
50 54 60
40 44 48
53 58 64
51 56 64
27 30 34
52 57 64
43 48 54
57 62 69
50 56 63
52 57 64
38 43 49
51 57 64
56 61 68
44 48 54
53 60 69
50 56 64
52 57 64
45 51 60
59 65 73
52 57 64
46 52 59
46 52 60
48 53 60
52 57 64
44 49 54
48 53 60
43 48 54
44 48 54
48 53 60
52 57 64
41 46 54
49 54 60
44 48 54
57 62 69
47 52 60
56 61 69
54 61 69
46 52 60
50 54 60
50 54 60
52 57 64
46 50 54
49 53 60
55 61 69
48 53 60
40 44 49
55 61 69
44 48 54
45 49 54
53 58 64
42 48 54
48 53 60
53 58 64
56 61 68
48 53 60
51 56 63
48 53 60
47 52 60
52 57 64
51 56 63
52 57 64
55 61 69
52 57 64
44 48 53
55 61 69
39 43 48
51 57 64
38 43 48
58 64 73
48 53 60
51 56 64
39 43 48
48 53 60
45 49 54
56 61 69
50 56 64
43 47 53
44 49 54
42 47 54
189 201 217
223 237 255
223 237 255
223 237 255
223 237 255
223 237 255
223 237 255
223 237 255
223 237 255
223 237 255
223 237 255
223 237 255
223 237 255
223 237 255
223 237 255
223 237 255
223 237 255
223 237 255
223 237 255
223 237 255
223 237 255
223 237 255
223 237 255
223 237 255
223 237 255
223 237 255
223 237 255
223 237 255
223 236 255
223 237 255
223 236 255
223 236 255
223 236 255
223 236 255
223 236 255
223 236 255
223 236 255
223 237 255
223 237 255
223 236 255
223 236 255
223 236 255
223 236 255
223 236 255
223 236 255
223 236 255
223 236 255
223 236 255
223 236 255
223 236 255
223 236 255
223 236 255
223 236 255
223 236 255
223 236 255
223 236 255
223 236 255
223 236 255
223 236 255
223 236 255
223 236 255
223 236 255
223 236 255
223 236 255
223 236 255
223 236 255
223 236 255
223 236 255
223 236 255
223 236 255
223 236 255
223 236 255
223 236 255
223 236 255
223 236 255
223 236 255
223 236 255
223 236 255
223 236 255
223 236 255
223 236 255
223 236 255
223 236 255
223 236 255
223 236 255
223 236 255
223 236 255
223 236 255
223 236 255
223 236 255
223 236 255
223 236 255
223 236 255
223 236 255
223 236 255
223 236 255
223 236 255
223 236 255
223 236 255
223 236 255
222 236 255
222 236 255
222 236 255
222 236 255
222 236 255
222 236 255
222 236 255
222 236 255
222 236 255
222 236 255
222 236 255
222 236 255
222 236 255
222 236 255
222 236 255
222 236 255
222 236 255
222 236 255
222 236 255
222 236 255
222 236 255
222 236 255
222 236 255
222 236 255
222 236 255
222 236 255
222 236 255
222 236 255
222 236 255
222 236 255
222 236 255
222 236 255
222 236 255
222 236 255
222 236 255
222 236 255
222 236 255
222 236 255
222 236 255
222 236 255
222 236 255
223 236 255
223 236 255
223 236 255
223 236 255
223 236 255
223 236 255
223 236 255
223 236 255
223 236 255
223 236 255
223 236 255
223 236 255
223 236 255
223 236 255
223 236 255
223 236 255
223 236 255
223 236 255
223 236 255
223 236 255
223 236 255
223 236 255
223 236 255
223 236 255
223 236 255
223 236 255
223 236 255
223 236 255
223 236 255
223 236 255
223 236 255
223 236 255
223 236 255
223 236 255
223 236 255
223 236 255
223 236 255
223 236 255
223 236 255
223 236 255
223 236 255
223 236 255
223 236 255
223 236 255
223 236 255
223 236 255
223 236 255
223 236 255
223 236 255
223 236 255
223 236 255
223 236 255
223 236 255
223 236 255
223 236 255
223 236 255
223 236 255
223 236 255
223 236 255
223 236 255
223 236 255
223 236 255
223 236 255
223 236 255
223 236 255
223 236 255
223 237 255
223 237 255
223 236 255
223 237 255
223 237 255
223 237 255
223 237 255
223 237 255
223 237 255
223 237 255
223 237 255
223 237 255
223 237 255
223 237 255
223 237 255
223 237 255
223 237 255
223 237 255
223 237 255
223 237 255
223 237 255
223 237 255
223 237 255
223 237 255
223 237 255
223 237 255
223 237 255
223 237 255
223 237 255
223 237 255
223 237 255
223 237 255
223 237 255
223 237 255
223 237 255
223 237 255
223 237 255
223 237 255
223 237 255
223 237 255
223 237 255
223 237 255
223 237 255
223 237 255
223 237 255
223 237 255
223 237 255
223 237 255
223 237 255
223 237 255
223 237 255
223 237 255
223 237 255
223 237 255
223 237 255
223 237 255
223 237 255
223 237 255
223 237 255
223 237 255
223 237 255
223 237 255
223 237 255
223 237 255
160 169 183
39 43 48
56 61 69
46 52 60
51 56 64
48 53 59
44 49 54
57 62 69
40 43 48
47 52 59
48 53 59
50 54 60
43 48 54
56 61 69
44 49 54
56 61 68
48 53 60
48 53 60
46 49 54
60 65 73
47 52 59
53 58 64
57 64 73
59 65 73
55 61 69
40 44 49
52 57 64
53 58 64
39 43 49
46 50 54
44 48 54
44 48 54
64 69 77
52 57 64
48 53 60
38 43 49
48 53 59
41 44 49
37 42 48
56 61 69
47 52 59
49 53 59
49 53 60
63 69 77
59 65 73
53 57 64
57 62 69
51 56 64
50 54 60
58 62 69
43 48 54
51 57 64
51 57 64
43 48 54
37 42 49
58 64 73
49 53 59
46 49 54
48 53 59
57 62 69
48 53 59
43 48 54
52 57 64
53 58 64
62 68 77
54 60 69
45 49 54
48 53 60
56 62 69
56 61 69
53 58 64
48 53 60
47 53 60
47 52 59
52 57 64
48 53 60
47 52 60
48 53 60
38 42 47
58 62 69
49 53 60
48 53 60
51 57 64
49 54 60
47 53 60
43 47 54
59 65 73
52 57 64
48 52 59
38 43 49
43 48 54
43 48 54
48 53 60
47 52 60
51 57 64
43 48 54
43 48 54
43 48 54
51 56 64
46 52 60
52 57 64
46 52 60
56 61 69
39 43 49
37 42 48
45 49 54
51 56 64
57 62 69
54 58 64
39 43 49
56 61 69
44 48 54
46 49 54
38 43 49
51 56 64
33 36 41
43 48 54
35 38 42
52 57 64
47 52 60
53 58 64
44 48 54
54 60 69
19 21 25
53 57 64
42 47 54
52 57 64
43 48 54
53 58 64
148 157 170
223 237 255
223 237 255
223 237 255
223 237 255
223 237 255
223 237 255
223 237 255
223 237 255
223 237 255
223 237 255
223 237 255
223 237 255
223 237 255
223 237 255
223 237 255
223 237 255
223 237 255
223 237 255
223 237 255
223 237 255
223 237 255
223 237 255
223 237 255
223 237 255
223 237 255
223 237 255
223 237 255
223 237 255
223 237 255
223 237 255
223 237 255
223 237 255
223 237 255
223 237 255
223 237 255
223 237 255
223 237 255
223 237 255
223 237 255
223 237 255
223 237 255
223 237 255
223 237 255
223 237 255
223 237 255
223 237 255
223 237 255
223 237 255
223 237 255
223 237 255
223 237 255
223 237 255
223 237 255
223 237 255
223 237 255
223 237 255
223 237 255
223 237 255
223 237 255
223 237 255
223 237 255
223 237 255
223 237 255
223 237 255
223 236 255
223 236 255
223 236 255
223 236 255
223 236 255
223 236 255
223 236 255
223 236 255
223 236 255
223 236 255
223 236 255
223 236 255
223 236 255
223 236 255
223 236 255
223 236 255
223 236 255
223 236 255
223 236 255
223 236 255
223 236 255
223 236 255
223 236 255
223 236 255
223 236 255
223 236 255
223 236 255
223 236 255
223 236 255
223 236 255
223 236 255
223 236 255
223 236 255
223 236 255
223 236 255
223 236 255
223 236 255
223 236 255
223 236 255
223 236 255
223 236 255
223 236 255
223 236 255
223 236 255
223 236 255
223 236 255
223 236 255
223 236 255
223 236 255
223 236 255
223 236 255
223 236 255
223 236 255
223 236 255
223 236 255
223 236 255
223 236 255
223 236 255
223 236 255
223 236 255
223 236 255
223 236 255
223 236 255
223 236 255
223 236 255
223 236 255
223 236 255
223 236 255
223 236 255
223 236 255
222 236 255
223 236 255
223 236 255
223 236 255
223 236 255
223 236 255
223 236 255
223 236 255
223 236 255
223 236 255
223 236 255
223 236 255
223 236 255
223 236 255
223 236 255
223 236 255
223 236 255
223 236 255
223 236 255
223 236 255
223 236 255
223 236 255
223 236 255
223 236 255
223 236 255
223 236 255
223 236 255
223 236 255
223 236 255
223 236 255
223 236 255
223 236 255
223 236 255
223 236 255
223 236 255
223 236 255
223 236 255
223 236 255
223 236 255
223 236 255
223 236 255
223 236 255
223 236 255
223 236 255
223 236 255
223 236 255
223 237 255
223 237 255
223 237 255
223 237 255
223 237 255
223 237 255
223 237 255
223 237 255
223 237 255
223 237 255
223 237 255
223 237 255
223 237 255
223 237 255
223 237 255
223 237 255
223 237 255
223 237 255
223 237 255
223 237 255
223 237 255
223 237 255
223 237 255
223 237 255
223 237 255
223 237 255
223 237 255
223 237 255
223 237 255
223 237 255
223 237 255
223 237 255
223 237 255
223 237 255
223 237 255
223 237 255
223 237 255
223 237 255
223 237 255
223 237 255
223 237 255
223 237 255
223 237 255
223 237 255
223 237 255
223 237 255
223 237 255
223 237 255
223 237 255
223 237 255
223 237 255
223 237 255
223 237 255
223 237 255
223 237 255
223 237 255
223 237 255
223 237 255
223 237 255
223 237 255
223 237 255
224 237 255
223 237 255
223 237 255
223 237 255
223 237 255
224 237 255
224 237 255
224 237 255
224 237 255
224 237 255
224 237 255
224 237 255
224 237 255
224 237 255
224 237 255
224 237 255
224 237 255
224 237 255
224 237 255
224 237 255
224 237 255
224 237 255
224 237 255
224 237 255
224 237 255
224 237 255
224 237 255
224 237 255
224 237 255
187 199 214
49 53 60
44 49 54
52 57 64
55 60 68
44 48 54
27 30 34
48 53 60
45 49 54
48 53 60
35 38 42
64 69 77
44 48 54
54 58 64
53 58 64
52 57 64
46 49 54
44 49 54
55 61 69
49 56 64
51 57 64
39 43 49
49 53 60
34 37 42
38 43 49
51 57 64
49 53 59
53 58 64
41 44 48
54 60 69
47 52 60
59 65 73
52 57 64
39 43 49
50 54 59
46 52 60
45 49 54
44 48 54
35 38 42
60 65 73
52 57 64
50 56 64
47 52 60
43 47 53
58 64 73
54 58 64
34 37 41
52 57 64
43 48 54
34 38 42
35 38 42
51 57 64
53 57 64
42 48 54
49 53 60
50 54 60
55 59 64
52 57 64
52 57 64
64 71 80
52 57 64
47 52 59
40 44 49
56 61 69
42 47 54
42 47 54
54 58 64
53 58 64
49 53 60
39 43 48
51 56 64
54 61 69
48 53 60
47 52 59
44 48 54
34 38 42
39 43 48
42 47 54
43 48 54
52 57 64
47 53 60
57 62 69
55 61 68
50 54 60
33 37 42
44 48 54
48 53 59
51 57 64
59 65 73
60 65 73
39 43 49
56 61 69
44 48 54
58 64 73
43 48 54
56 61 68
60 65 73
46 52 60
48 53 60
50 54 60
58 64 73
52 57 64
59 65 73
52 57 64
56 61 69
52 57 64
52 57 64
38 43 49
44 48 54
49 54 60
55 61 69
52 57 64
44 48 54
51 57 64
44 48 54
55 61 68
56 61 69
49 53 60
38 42 47
52 57 64
44 48 54
43 48 54
49 53 60
54 58 64
46 52 60
61 68 77
49 54 60
39 42 47
44 48 54
189 201 217
224 237 255
224 237 255
224 237 255
224 237 255
224 237 255
224 237 255
224 237 255
224 237 255
224 237 255
224 237 255
224 237 255
224 237 255
224 237 255
224 237 255
224 237 255
224 237 255
224 237 255
224 237 255
224 237 255
224 237 255
223 237 255
224 237 255
223 237 255
224 237 255
224 237 255
223 237 255
224 237 255
223 237 255
223 237 255
223 237 255
223 237 255
223 237 255
223 237 255
223 237 255
223 237 255
223 237 255
223 237 255
223 237 255
223 237 255
223 237 255
223 237 255
223 237 255
223 237 255
223 237 255
223 237 255
223 237 255
223 237 255
223 237 255
223 237 255
223 237 255
223 237 255
223 237 255
223 237 255
223 237 255
223 237 255
223 237 255
223 237 255
223 237 255
223 237 255
223 237 255
223 237 255
223 237 255
223 237 255
223 237 255
223 237 255
223 237 255
223 237 255
223 237 255
223 237 255
223 237 255
223 237 255
223 237 255
223 237 255
223 237 255
223 237 255
223 237 255
223 237 255
223 237 255
223 237 255
223 237 255
223 237 255
223 237 255
223 237 255
223 237 255
223 237 255
223 237 255
223 236 255
223 237 255
223 237 255
223 236 255
223 237 255
223 236 255
223 236 255
223 236 255
223 236 255
223 236 255
223 236 255
223 236 255
223 236 255
223 236 255
223 236 255
223 236 255
223 236 255
223 236 255
223 236 255
223 236 255
223 236 255
223 236 255
223 236 255
223 236 255
223 236 255
223 236 255
223 236 255
223 236 255
223 236 255
223 236 255
223 236 255
223 236 255
223 236 255
223 236 255
223 236 255
223 236 255
223 236 255
223 236 255
223 236 255
223 236 255
223 236 255
223 236 255
223 236 255
223 236 255
223 236 255
223 236 255
223 236 255
223 236 255
223 236 255
223 236 255
223 236 255
223 236 255
223 236 255
223 236 255
223 236 255
223 236 255
223 236 255
223 236 255
223 236 255
223 236 255
223 236 255
223 236 255
223 236 255
223 236 255
223 236 255
223 236 255
223 236 255
223 236 255
223 237 255
223 236 255
223 237 255
223 237 255
223 237 255
223 237 255
223 237 255
223 237 255
223 237 255
223 237 255
223 237 255
223 237 255
223 237 255
223 237 255
223 237 255
223 237 255
223 237 255
223 237 255
223 237 255
223 237 255
223 237 255
223 237 255
223 237 255
223 237 255
223 237 255
223 237 255
223 237 255
223 237 255
223 237 255
223 237 255
223 237 255
223 237 255
223 237 255
223 237 255
223 237 255
223 237 255
223 237 255
223 237 255
223 237 255
223 237 255
223 237 255
223 237 255
223 237 255
223 237 255
223 237 255
223 237 255
223 237 255
223 237 255
223 237 255
223 237 255
223 237 255
223 237 255
223 237 255
223 237 255
223 237 255
223 237 255
223 237 255
223 237 255
223 237 255
223 237 255
223 237 255
223 237 255
223 237 255
223 237 255
223 237 255
223 237 255
223 237 255
224 237 255
224 237 255
223 237 255
224 237 255
224 237 255
224 237 255
224 237 255
224 237 255
224 237 255
224 237 255
224 237 255
224 237 255
224 237 255
224 237 255
224 237 255
224 237 255
224 237 255
224 237 255
224 237 255
224 237 255
224 237 255
224 237 255
224 237 255
224 237 255
224 237 255
224 237 255
224 237 255
224 237 255
224 237 255
224 237 255
224 237 255
224 237 255
224 237 255
224 237 255
224 237 255
224 237 255
224 237 255
224 237 255
224 237 255
224 237 255
224 237 255
224 237 255
224 237 255
224 237 255
224 237 255
224 237 255
224 237 255
224 237 255
224 237 255
189 200 216
49 53 60
52 57 63
53 58 64
48 53 60
52 57 64
46 52 60
48 53 60
43 48 54
45 49 54
41 47 54
49 54 60
49 53 60
47 52 60
56 61 69
53 58 64
45 49 54
48 53 60
37 42 49
58 64 73
48 53 59
33 37 42
38 42 49
46 52 60
44 49 54
43 47 54
38 42 48
45 48 54
52 57 64
48 53 60
33 37 42
59 65 73
48 53 60
55 61 69
58 64 72
50 54 60
51 56 64
50 54 60
51 57 64
50 56 64
48 53 59
34 37 41
53 57 64
48 53 60
41 44 49
56 61 69
38 43 49
44 48 54
50 56 64
44 49 54
40 44 49
49 56 64
56 61 69
40 44 49
56 62 69
43 48 54
56 61 69
61 67 76
56 61 69
44 48 54
44 49 54
51 57 64
57 62 69
52 57 63
40 43 48
55 61 69
53 58 64
48 53 60
49 54 60
49 53 59
55 61 69
58 65 73
45 49 54
26 29 34
52 57 64
51 57 64
51 57 64
42 47 54
49 53 60
52 57 64
55 61 69
43 48 54
57 62 69
50 56 64
39 43 47
49 53 60
57 62 68
51 57 64
45 49 54
44 48 54
43 48 54
49 53 59
51 57 64
55 61 69
46 52 59
58 62 69
47 52 58
48 53 60
55 61 69
52 57 64
51 57 64
44 49 54
48 53 59
52 57 64
42 48 54
55 61 69
40 44 49
37 42 49
44 48 54
48 53 60
49 54 60
59 65 73
53 58 64
44 49 54
52 57 64
48 53 60
47 52 58
47 53 60
46 52 60
49 54 60
52 57 64
56 61 69
50 56 64
57 62 69
43 48 54
45 49 54
55 61 69
47 52 59
43 48 54
203 214 231
224 237 255
224 237 255
224 237 255
224 237 255
224 237 255
224 237 255
224 237 255
224 237 255
224 237 255
224 237 255
224 237 255
224 237 255
224 237 255
224 237 255
224 237 255
224 237 255
224 237 255
224 237 255
224 237 255
224 237 255
224 237 255
224 237 255
224 237 255
224 237 255
224 237 255
224 237 255
224 237 255
224 237 255
224 237 255
224 237 255
224 237 255
224 237 255
224 237 255
224 237 255
224 237 255
224 237 255
224 237 255
224 237 255
224 237 255
224 237 255
224 237 255
224 237 255
224 237 255
224 237 255
224 237 255
224 237 255
224 237 255
224 237 255
223 237 255
223 237 255
224 237 255
223 237 255
223 237 255
223 237 255
223 237 255
223 237 255
223 237 255
223 237 255
223 237 255
223 237 255
223 237 255
223 237 255
223 237 255
223 237 255
223 237 255
223 237 255
223 237 255
223 237 255
223 237 255
223 237 255
223 237 255
223 237 255
223 237 255
223 237 255
223 237 255
223 237 255
223 237 255
223 237 255
223 237 255
223 237 255
223 237 255
223 237 255
223 237 255
223 237 255
223 237 255
223 237 255
223 237 255
223 237 255
223 237 255
223 237 255
223 237 255
223 237 255
223 237 255
223 237 255
223 237 255
223 237 255
223 237 255
223 237 255
223 237 255
223 237 255
223 237 255
223 237 255
223 237 255
223 237 255
223 237 255
223 237 255
223 237 255
223 237 255
223 237 255
223 237 255
223 237 255
223 237 255
223 237 255
223 236 255
223 236 255
223 237 255
223 236 255
223 236 255
223 236 255
223 236 255
223 236 255
223 236 255
223 236 255
223 236 255
223 236 255
223 236 255
223 236 255
223 236 255
223 236 255
223 236 255
223 236 255
223 236 255
223 236 255
223 236 255
223 236 255
223 237 255
223 237 255
223 237 255
223 237 255
223 237 255
223 237 255
223 237 255
223 237 255
223 237 255
223 237 255
223 237 255
223 237 255
223 237 255
223 237 255
223 237 255
223 237 255
223 237 255
223 237 255
223 237 255
223 237 255
223 237 255
223 237 255
223 237 255
223 237 255
223 237 255
223 237 255
223 237 255
223 237 255
223 237 255
223 237 255
223 237 255
223 237 255
223 237 255
223 237 255
223 237 255
223 237 255
223 237 255
223 237 255
223 237 255
223 237 255
223 237 255
223 237 255
223 237 255
223 237 255
223 237 255
223 237 255
223 237 255
223 237 255
223 237 255
223 237 255
223 237 255
223 237 255
223 237 255
223 237 255
223 237 255
223 237 255
223 237 255
223 237 255
223 237 255
223 237 255
223 237 255
223 237 255
223 237 255
223 237 255
223 237 255
223 237 255
223 237 255
224 237 255
224 237 255
224 237 255
224 237 255
224 237 255
224 237 255
224 237 255
224 237 255
224 237 255
224 237 255
224 237 255
224 237 255
224 237 255
224 237 255
224 237 255
224 237 255
224 237 255
224 237 255
224 237 255
224 237 255
224 237 255
224 237 255
224 237 255
224 237 255
224 237 255
224 237 255
224 237 255
224 237 255
224 237 255
224 237 255
224 237 255
224 237 255
224 237 255
224 237 255
224 237 255
224 237 255
224 237 255
224 237 255
224 237 255
224 237 255
224 237 255
224 237 255
224 237 255
224 237 255
224 237 255
224 237 255
224 237 255
224 237 255
224 237 255
224 237 255
224 237 255
224 237 255
224 237 255
224 237 255
224 237 255
224 237 255
224 237 255
224 237 255
224 237 255
224 237 255
224 237 255
224 237 255
224 237 255
224 237 255
224 237 255
224 237 255
224 237 255
224 237 255
224 237 255
51 57 64
52 57 64
35 38 42
44 48 54
48 53 60
49 54 60
44 48 54
48 52 59
54 58 64
54 60 69
50 56 64
39 43 49
38 42 48
52 57 64
34 37 42
50 56 64
52 57 64
47 52 59
51 57 64
55 61 68
59 65 73
43 48 54
54 60 68
44 48 54
51 57 64
41 44 49
40 44 49
47 52 59
46 52 60
44 48 54
48 53 60
43 48 54
51 57 64
42 47 54
35 38 42
48 53 60
59 65 73
45 49 54
56 61 69
40 44 49
51 56 64
47 52 60
40 44 49
47 52 60
34 37 42
47 52 60
51 57 64
38 42 47
40 44 49
34 38 42
46 52 60
39 43 49
52 57 64
45 49 54
44 48 54
42 47 54
47 52 60
52 57 64
57 61 68
49 53 58
55 61 69
49 53 60
31 36 42
32 36 42
58 64 73
46 49 54
49 53 60
48 53 60
52 57 64
43 48 54
52 57 64
48 53 60
35 38 42
46 52 60
52 57 64
52 57 64
50 56 64
44 48 54
40 44 49
52 57 64
51 54 60
49 53 60
45 49 54
47 53 60
56 61 69
49 54 60
44 48 54
56 61 69
41 44 49
52 57 64
47 53 60
50 56 63
53 58 64
48 53 59
53 58 64
53 58 64
41 47 54
56 61 68
48 53 60
56 61 69
43 48 53
53 58 64
51 57 64
53 58 64
43 48 54
54 58 64
61 66 73
43 48 54
45 49 54
62 68 77
48 53 60
56 61 69
45 49 54
49 54 60
43 48 54
45 49 54
57 62 69
49 53 60
55 61 68
48 53 60
49 53 59
39 43 49
38 42 47
45 49 54
43 48 54
52 57 64
57 62 69
52 57 64
224 237 255
224 237 255
224 237 255
224 237 255
224 237 255
224 237 255
224 237 255
224 237 255
224 237 255
224 237 255
224 237 255
224 237 255
224 237 255
224 237 255
224 237 255
224 237 255
224 237 255
224 237 255
224 237 255
224 237 255
224 237 255
224 237 255
224 237 255
224 237 255
224 237 255
224 237 255
224 237 255
224 237 255
224 237 255
224 237 255
224 237 255
224 237 255
224 237 255
224 237 255
224 237 255
224 237 255
224 237 255
224 237 255
224 237 255
224 237 255
224 237 255
224 237 255
224 237 255
224 237 255
224 237 255
224 237 255
224 237 255
224 237 255
224 237 255
224 237 255
224 237 255
224 237 255
224 237 255
224 237 255
224 237 255
224 237 255
224 237 255
224 237 255
224 237 255
224 237 255
224 237 255
224 237 255
224 237 255
224 237 255
224 237 255
224 237 255
224 237 255
224 237 255
224 237 255
224 237 255
223 237 255
223 237 255
223 237 255
223 237 255
223 237 255
223 237 255
223 237 255
223 237 255
223 237 255
223 237 255
223 237 255
223 237 255
223 237 255
223 237 255
223 237 255
223 237 255
223 237 255
223 237 255
223 237 255
223 237 255
223 237 255
223 237 255
223 237 255
223 237 255
223 237 255
223 237 255
223 237 255
223 237 255
223 237 255
223 237 255
223 237 255
223 237 255
223 237 255
223 237 255
223 237 255
223 237 255
223 237 255
223 237 255
223 237 255
223 237 255
223 237 255
223 237 255
223 237 255
223 237 255
223 237 255
223 237 255
223 237 255
223 237 255
223 237 255
223 237 255
223 237 255
223 237 255
223 237 255
223 237 255
223 237 255
223 237 255
223 237 255
223 237 255
223 237 255
223 237 255
223 237 255
223 237 255
223 237 255
223 237 255
223 237 255
223 237 255
223 237 255
223 237 255
223 237 255
223 237 255
223 237 255
223 237 255
223 237 255
223 237 255
223 237 255
223 237 255
223 237 255
223 237 255
223 237 255
223 237 255
223 237 255
223 237 255
223 237 255
223 237 255
223 237 255
223 237 255
223 237 255
223 237 255
223 237 255
223 237 255
223 237 255
223 237 255
223 237 255
223 237 255
223 237 255
223 237 255
223 237 255
223 237 255
223 237 255
223 237 255
223 237 255
223 237 255
223 237 255
223 237 255
223 237 255
223 237 255
223 237 255
223 237 255
224 237 255
223 237 255
224 237 255
224 237 255
224 237 255
224 237 255
224 237 255
224 237 255
224 237 255
224 237 255
224 237 255
224 237 255
224 237 255
224 237 255
224 237 255
224 237 255
224 237 255
224 237 255
224 237 255
224 237 255
224 237 255
224 237 255
224 237 255
224 237 255
224 237 255
224 237 255
224 237 255
224 237 255
224 237 255
224 237 255
224 237 255
224 237 255
224 237 255
224 237 255
224 237 255
224 237 255
224 237 255
224 237 255
224 237 255
224 237 255
224 237 255
224 237 255
224 237 255
224 237 255
224 237 255
224 237 255
224 237 255
224 237 255
224 237 255
224 237 255
224 237 255
224 237 255
224 237 255
224 237 255
224 237 255
224 237 255
224 237 255
224 237 255
224 237 255
224 237 255
224 237 255
224 237 255
224 237 255
224 237 255
224 237 255
224 237 255
224 237 255
224 237 255
224 237 255
224 237 255
224 237 255
224 237 255
224 237 255
224 237 255
224 237 255
224 237 255
224 237 255
224 237 255
224 237 255
224 237 255
224 237 255
224 237 255
224 237 255
224 237 255
224 237 255
214 226 244
202 214 231
203 215 231
224 237 255
150 160 173
191 202 218
164 175 189
178 189 204
150 159 173
48 53 60
38 43 49
46 52 60
63 69 77
40 44 49
40 43 48
56 61 69
52 57 64
51 56 64
50 54 60
38 43 49
48 53 59
45 49 54
49 54 60
44 48 54
66 72 80
46 52 60
53 58 64
39 43 49
37 42 47
59 65 73
53 58 64
49 53 60
48 53 60
43 47 54
42 47 54
32 36 42
56 62 69
47 52 60
49 54 60
49 53 58
51 56 64
47 53 60
49 53 59
45 49 54
57 62 69
27 30 34
43 48 54
55 61 69
45 51 60
39 43 48
52 57 64
52 57 63
47 53 60
48 53 60
46 52 60
39 42 47
43 48 54
55 59 64
48 53 60
55 61 69
52 57 64
51 57 64
49 54 60
41 44 48
47 52 59
48 53 60
63 69 77
52 57 64
44 49 54
52 57 64
54 58 64
58 64 73
38 43 49
59 65 73
44 48 54
44 49 54
52 57 64
48 53 60
52 57 64
55 61 69
38 42 48
43 48 54
38 42 48
49 54 60
38 42 47
40 44 49
48 53 59
45 49 54
47 52 60
45 49 54
53 58 64
49 53 60
58 64 73
44 48 54
44 48 54
48 53 59
49 53 60
55 61 69
48 53 60
60 65 73
53 57 64
49 54 60
46 52 59
52 57 64
49 53 60
52 57 64
49 53 59
38 43 49
52 57 63
42 48 54
34 38 42
53 58 64
60 66 73
51 57 64
48 53 60
51 57 64
40 44 49
52 57 64
53 58 64
42 48 54
49 53 59
55 61 69
48 53 59
50 56 64
36 38 42
51 57 64
43 47 54
53 58 64
43 48 54
43 48 54
52 57 64
36 41 48
47 52 59
45 49 54
46 52 59
49 53 60
57 62 69
165 175 189
164 175 189
191 202 218
191 202 218
191 202 218
178 189 204
214 226 244
214 226 244
203 215 231
191 202 218
224 237 255
224 237 255
224 237 255
224 237 255
224 237 255
224 237 255
224 237 255
224 237 255
224 237 255
224 237 255
224 237 255
224 237 255
224 237 255
224 237 255
224 237 255
224 237 255
224 237 255
224 237 255
224 237 255
224 237 255
224 237 255
224 237 255
224 237 255
224 237 255
224 237 255
224 237 255
224 237 255
224 237 255
224 237 255
224 237 255
224 237 255
224 237 255
224 237 255
224 237 255
224 237 255
224 237 255
224 237 255
224 237 255
224 237 255
224 237 255
224 237 255
224 237 255
224 237 255
224 237 255
224 237 255
224 237 255
224 237 255
224 237 255
224 237 255
224 237 255
224 237 255
224 237 255
224 237 255
224 237 255
224 237 255
224 237 255
224 237 255
224 237 255
224 237 255
224 237 255
224 237 255
224 237 255
224 237 255
224 237 255
224 237 255
224 237 255
224 237 255
224 237 255
224 237 255
224 237 255
224 237 255
224 237 255
224 237 255
224 237 255
224 237 255
224 237 255
224 237 255
224 237 255
224 237 255
224 237 255
224 237 255
224 237 255
223 237 255
223 237 255
223 237 255
223 237 255
223 237 255
223 237 255
223 237 255
223 237 255
223 237 255
223 237 255
223 237 255
223 237 255
223 237 255
223 237 255
223 237 255
223 237 255
223 237 255
223 237 255
223 237 255
223 237 255
223 237 255
223 237 255
223 237 255
223 237 255
223 237 255
223 237 255
223 237 255
223 237 255
223 237 255
223 237 255
223 237 255
223 237 255
223 237 255
223 237 255
223 237 255
223 237 255
223 237 255
223 237 255
223 237 255
223 237 255
223 237 255
223 237 255
223 237 255
223 237 255
223 237 255
223 237 255
223 237 255
223 237 255
223 237 255
223 237 255
223 237 255
223 237 255
223 237 255
223 237 255
223 237 255
223 237 255
223 237 255
223 237 255
223 237 255
223 237 255
223 237 255
223 237 255
223 237 255
223 237 255
223 237 255
223 237 255
223 237 255
223 237 255
223 237 255
223 237 255
223 237 255
224 237 255
224 237 255
224 237 255
224 237 255
224 237 255
224 237 255
224 237 255
224 237 255
224 237 255
224 237 255
224 237 255
224 237 255
224 237 255
224 237 255
224 237 255
224 237 255
224 237 255
224 237 255
224 237 255
224 237 255
224 237 255
224 237 255
224 237 255
224 237 255
224 237 255
224 237 255
224 237 255
224 237 255
224 237 255
224 237 255
224 237 255
224 237 255
224 237 255
224 237 255
224 237 255
224 237 255
224 237 255
224 237 255
224 237 255
224 237 255
224 237 255
224 237 255
224 237 255
224 237 255
224 237 255
224 237 255
224 237 255
224 237 255
224 237 255
224 237 255
224 237 255
224 237 255
224 237 255
224 237 255
224 237 255
224 237 255
224 237 255
224 237 255
224 237 255
224 237 255
224 237 255
224 237 255
224 237 255
224 237 255
224 237 255
224 237 255
224 237 255
224 237 255
224 237 255
224 237 255
224 237 255
224 237 255
224 237 255
224 237 255
224 237 255
224 237 255
224 237 255
224 237 255
224 237 255
224 237 255
224 237 255
224 237 255
224 237 255
203 215 231
214 226 244
214 226 244
178 189 204
150 160 173
164 175 189
165 175 189
165 175 189
164 175 189
91 100 111
133 142 155
150 160 173
91 99 111
92 100 111
62 70 80
62 70 80
61 70 80
61 69 80
61 69 80
61 70 80
60 69 80
60 69 80
63 71 80
61 69 80
63 70 80
61 69 80
39 43 49
33 37 42
44 48 54
54 58 64
48 53 60
53 57 64
61 66 72
43 48 54
56 62 69
48 53 58
47 52 60
44 49 54
44 48 54
44 48 54
35 41 48
49 53 60
57 62 69
46 51 58
48 53 60
55 60 68
43 48 54
56 62 69
41 44 49
47 53 60
52 57 64
55 61 69
43 48 54
25 29 34
47 52 59
52 57 64
52 57 64
47 52 59
33 37 42
40 43 48
46 51 58
44 48 54
51 57 64
43 48 54
34 37 41
39 43 49
44 48 54
49 53 60
52 57 64
62 68 77
44 49 54
54 58 64
33 37 42
37 42 48
44 49 54
38 42 48
33 37 42
43 47 54
45 49 54
40 43 48
45 49 54
58 63 69
52 57 64
44 48 54
48 53 60
41 47 54
55 61 69
33 37 42
54 60 69
34 37 42
44 48 53
47 52 59
52 57 64
47 52 59
36 42 49
33 37 42
53 58 64
52 57 64
52 57 64
42 47 53
49 53 59
50 54 60
39 43 48
48 53 59
44 48 54
49 53 59
33 37 42
54 61 69
52 57 64
44 48 54
52 57 64
51 57 64
52 57 63
56 62 69
52 57 64
56 62 69
49 53 60
52 57 64
52 57 64
52 57 64
49 53 60
46 52 59
52 57 64
45 49 54
53 58 64
52 57 64
55 61 69
37 42 49
60 66 73
52 57 64
53 58 64
44 49 54
48 53 60
44 48 54
38 43 49
48 53 60
43 48 54
51 57 64
48 53 60
38 42 49
45 49 54
52 57 64
44 48 54
47 52 58
26 30 35
48 52 59
58 62 69
48 53 59
44 48 54
55 60 68
38 43 49
61 66 73
43 48 54
48 53 60
61 70 80
63 71 80
61 70 80
62 70 80
61 70 80
62 70 80
59 69 80
61 69 80
62 70 80
61 69 80
62 70 80
62 70 80
62 70 80
115 123 135
114 123 135
92 100 111
134 143 155
165 175 189
133 142 155
150 160 173
191 202 218
164 175 189
214 226 244
214 226 244
202 214 231
224 237 255
224 237 255
214 226 244
224 237 255
224 237 255
224 237 255
224 237 255
224 237 255
224 237 255
224 237 255
224 237 255
224 237 255
224 237 255
224 237 255
224 237 255
224 237 255
224 237 255
224 237 255
224 237 255
224 237 255
224 237 255
224 237 255
224 237 255
224 237 255
224 237 255
224 237 255
224 237 255
224 237 255
224 237 255
224 237 255
224 237 255
224 237 255
224 237 255
224 237 255
224 237 255
224 237 255
224 237 255
224 237 255
224 237 255
224 237 255
224 237 255
224 237 255
224 237 255
224 237 255
224 237 255
224 237 255
224 237 255
224 237 255
224 237 255
224 237 255
224 237 255
224 237 255
224 237 255
224 237 255
224 237 255
224 237 255
224 237 255
224 237 255
224 237 255
224 237 255
224 237 255
224 237 255
224 237 255
224 237 255
224 237 255
224 237 255
224 237 255
224 237 255
224 237 255
224 237 255
224 237 255
224 237 255
224 237 255
224 237 255
224 237 255
224 237 255
224 237 255
224 237 255
224 237 255
224 237 255
224 237 255
224 237 255
224 237 255
224 237 255
224 237 255
224 237 255
224 237 255
223 237 255
223 237 255
223 237 255
223 237 255
223 237 255
223 237 255
223 237 255
223 237 255
223 237 255
223 237 255
223 237 255
223 237 255
223 237 255
223 237 255
223 237 255
223 237 255
223 237 255
223 237 255
223 237 255
223 237 255
223 237 255
223 237 255
223 237 255
223 237 255
223 237 255
223 237 255
223 237 255
224 237 255
223 237 255
223 237 255
224 237 255
224 237 255
224 237 255
224 237 255
224 237 255
224 237 255
224 237 255
224 237 255
224 237 255
224 237 255
224 237 255
224 237 255
224 237 255
224 237 255
224 237 255
224 237 255
224 237 255
224 237 255
224 237 255
224 237 255
224 237 255
224 237 255
224 237 255
224 237 255
224 237 255
224 237 255
224 237 255
224 237 255
224 237 255
224 237 255
224 237 255
224 237 255
224 237 255
224 237 255
224 237 255
224 237 255
224 237 255
224 237 255
224 237 255
224 237 255
224 237 255
224 237 255
224 237 255
224 237 255
224 237 255
224 237 255
224 237 255
224 237 255
224 237 255
224 237 255
224 237 255
224 237 255
224 237 255
224 237 255
224 237 255
224 237 255
224 237 255
224 237 255
224 237 255
224 237 255
224 237 255
224 237 255
224 237 255
224 237 255
224 237 255
224 237 255
224 237 255
224 237 255
224 237 255
224 237 255
224 237 255
224 237 255
224 237 255
224 237 255
224 237 255
224 237 255
224 237 255
224 237 255
224 237 255
224 237 255
224 237 255
224 237 255
224 237 255
224 237 255
224 237 255
224 237 255
224 237 255
225 237 255
224 237 255
191 202 218
225 237 255
178 189 204
178 189 204
178 189 204
191 202 218
63 70 80
178 189 204
133 142 155
62 70 80
91 100 111
93 100 111
62 70 80
63 71 80
61 69 80
62 70 80
62 70 80
59 69 80
60 69 80
61 69 80
61 70 80
60 69 80
59 68 80
60 69 80
62 70 80
60 69 80
63 71 80
62 70 80
62 70 80
61 69 80
62 70 80
60 69 80
61 69 80
62 70 80
59 68 80
62 70 80
61 70 80
62 70 80
61 70 80
61 70 80
60 69 80
56 63 73
42 47 54
48 53 60
49 53 60
41 47 54
48 53 59
47 52 59
56 61 69
40 44 49
52 57 64
47 52 60
50 54 60
53 58 64
43 47 54
45 49 54
47 52 60
35 38 42
39 43 48
57 64 72
40 44 48
59 65 73
46 52 60
53 58 64
52 57 64
42 47 54
55 61 69
43 48 54
50 53 58
39 43 49
44 48 54
28 31 35
53 58 64
37 42 48
47 52 60
50 56 64
52 57 64
44 48 54
48 53 60
56 61 69
40 44 49
48 53 59
46 52 60
50 54 59
44 48 54
56 61 69
43 48 54
49 53 60
40 44 49
38 42 48
49 54 60
48 53 60
38 42 48
55 61 69
40 44 49
38 43 49
49 54 60
45 49 54
35 38 42
47 52 60
38 42 49
57 64 73
47 52 59
43 48 54
44 48 53
52 57 64
43 48 54
52 57 64
54 58 64
49 54 60
49 54 60
46 49 54
55 61 69
59 65 73
46 52 58
54 60 69
43 48 54
53 58 64
48 53 59
48 53 60
49 56 64
33 37 42
47 52 59
57 62 69
41 44 49
44 49 54
56 61 69
33 37 42
48 53 60
44 48 53
55 61 69
54 60 69
49 53 59
47 52 60
44 48 53
40 44 49
54 60 69
57 62 69
51 57 64
50 54 60
53 58 64
37 42 48
55 61 69
39 43 49
51 57 64
54 58 64
53 58 64
54 58 64
51 56 63
48 53 58
53 58 64
50 54 60
43 48 54
40 43 49
53 57 64
52 57 64
48 53 59
38 43 49
51 56 64
58 64 72
58 64 73
58 64 73
53 57 64
53 57 64
44 49 54
58 64 72
40 43 49
53 58 64
49 56 64
61 69 80
59 68 80
63 70 80
61 69 80
61 69 80
60 69 80
62 70 80
61 70 80
61 69 80
61 70 80
62 70 80
62 70 80
60 69 80
62 70 80
61 69 80
61 70 80
61 69 80
61 69 80
59 68 80
62 70 80
61 70 80
62 70 80
60 69 80
60 69 80
62 70 80
63 70 80
61 70 80
60 69 80
92 100 111
62 70 80
62 70 80
149 159 173
149 159 173
114 123 135
149 159 173
178 189 204
164 175 189
191 202 218
191 202 218
178 189 204
203 215 231
150 159 173
214 226 244
224 237 255
224 237 255
224 237 255
224 237 255
224 237 255
224 237 255
224 237 255
224 237 255
224 237 255
224 237 255
224 237 255
224 237 255
224 237 255
224 237 255
224 237 255
224 237 255
224 237 255
224 237 255
224 237 255
224 237 255
224 237 255
224 237 255
224 237 255
224 237 255
224 237 255
224 237 255
224 237 255
224 237 255
224 237 255
224 237 255
224 237 255
224 237 255
224 237 255
224 237 255
224 237 255
224 237 255
224 237 255
224 237 255
224 237 255
224 237 255
224 237 255
224 237 255
224 237 255
224 237 255
224 237 255
224 237 255
224 237 255
224 237 255
224 237 255
224 237 255
224 237 255
224 237 255
224 237 255
224 237 255
224 237 255
224 237 255
224 237 255
224 237 255
224 237 255
224 237 255
224 237 255
224 237 255
224 237 255
224 237 255
224 237 255
224 237 255
224 237 255
224 237 255
224 237 255
224 237 255
224 237 255
224 237 255
224 237 255
224 237 255
224 237 255
224 237 255
224 237 255
224 237 255
224 237 255
224 237 255
224 237 255
224 237 255
224 237 255
224 237 255
223 237 255
224 237 255
224 237 255
223 237 255
224 237 255
223 237 255
223 237 255
223 237 255
223 237 255
224 237 255
224 237 255
224 237 255
224 237 255
224 237 255
224 237 255
224 237 255
224 237 255
224 237 255
224 237 255
224 237 255
224 237 255
224 237 255
224 237 255
224 237 255
224 237 255
224 237 255
224 237 255
224 237 255
224 237 255
224 237 255
224 237 255
224 237 255
224 237 255
224 237 255
224 237 255
224 237 255
224 237 255
224 237 255
224 237 255
224 237 255
224 237 255
224 237 255
224 237 255
224 237 255
224 237 255
224 237 255
224 237 255
224 237 255
224 237 255
224 237 255
224 237 255
224 237 255
224 237 255
224 237 255
224 237 255
224 237 255
224 237 255
224 237 255
224 237 255
224 237 255
224 237 255
224 237 255
224 237 255
224 237 255
224 237 255
224 237 255
224 237 255
224 237 255
224 237 255
224 237 255
224 237 255
224 237 255
224 237 255
224 237 255
224 237 255
224 237 255
224 237 255
224 237 255
224 237 255
224 237 255
224 237 255
224 237 255
224 237 255
224 237 255
224 237 255
224 237 255
225 237 255
225 237 255
225 237 255
203 215 231
214 226 244
203 215 231
203 215 231
178 189 204
150 160 173
150 160 173
164 175 189
114 123 135
164 175 189
61 69 80
61 69 80
92 100 111
62 70 80
63 70 80
62 70 80
62 70 80
62 70 80
62 70 80
62 70 80
61 70 80
62 70 80
62 70 80
61 69 80
62 70 80
61 69 80
62 70 80
61 69 80
61 69 80
61 70 80
60 69 80
64 71 80
60 69 80
61 69 80
62 70 80
61 69 80
61 69 80
61 70 80
63 70 80
60 69 80
60 69 80
63 70 80
63 71 80
61 70 80
62 70 80
62 70 80
62 70 80
62 70 80
63 70 80
60 69 80
61 70 80
62 70 80
62 70 80
62 70 80
63 70 80
62 70 80
60 67 77
42 47 54
53 58 64
45 49 54
44 48 54
51 57 64
52 57 64
49 53 60
60 65 72
54 58 64
49 53 59
48 53 60
50 54 59
39 43 48
47 53 60
53 60 69
61 66 73
44 48 54
40 43 49
55 61 69
44 48 54
46 52 60
47 53 60
48 53 60
48 53 60
42 47 54
43 48 54
39 43 49
53 58 64
44 48 54
50 56 64
51 57 64
54 58 64
39 43 48
53 58 64
44 48 54
52 57 64
56 61 69
50 54 60
44 48 54
44 48 54
54 58 64
34 38 42
44 49 54
54 60 69
44 48 54
43 48 53
52 57 64
48 53 59
45 51 59
55 61 69
43 48 54
47 52 60
33 37 42
47 52 59
39 43 49
45 49 54
45 49 54
47 53 60
41 44 49
50 56 64
47 52 60
48 53 60
53 57 64
47 53 60
57 62 69
48 53 60
55 61 68
34 38 42
49 54 60
44 48 54
37 42 48
38 43 49
56 61 69
43 48 54
39 43 48
39 43 49
51 56 64
51 56 64
52 57 64
39 42 47
45 49 54
43 48 54
27 29 33
42 47 54
43 48 54
51 56 64
62 68 77
56 62 69
49 53 60
58 62 69
44 49 54
50 54 60
49 53 58
48 53 60
49 53 60
49 54 60
43 48 54
49 53 59
54 59 64
37 42 49
44 49 54
48 53 59
48 53 60
45 52 60
37 42 48
47 52 59
45 49 54
48 53 60
51 57 64
52 57 64
38 42 48
61 66 73
44 48 54
46 52 60
52 57 64
44 48 54
45 49 54
50 54 60
50 54 60
52 57 64
45 49 54
38 42 47
54 60 69
44 49 54
44 48 54
58 62 69
58 64 72
62 70 80
61 69 80
61 70 80
62 70 80
61 70 80
63 70 80
63 71 80
61 69 80
61 70 80
60 69 80
60 69 80
62 70 80
60 69 80
62 70 80
61 70 80
63 70 80
60 69 80
61 70 80
61 69 80
59 69 80
62 70 80
61 70 80
61 70 80
63 70 80
63 71 80
60 69 80
60 69 80
60 69 80
62 70 80
62 70 80
64 71 80
61 69 80
63 70 80
62 70 80
64 71 80
61 69 80
62 70 80
61 69 80
62 70 80
63 70 80
60 69 80
62 70 80
61 69 80
61 69 80
62 70 80
61 69 80
150 160 173
149 159 173
150 160 173
150 160 173
133 142 155
133 142 155
134 143 155
203 215 231
191 202 218
178 189 204
225 237 255
225 237 255
224 237 255
224 237 255
224 237 255
224 237 255
224 237 255
224 237 255
224 237 255
224 237 255
224 237 255
224 237 255
224 237 255
224 237 255
224 237 255
224 237 255
224 237 255
224 237 255
224 237 255
224 237 255
224 237 255
224 237 255
224 237 255
224 237 255
224 237 255
224 237 255
224 237 255
224 237 255
224 237 255
224 237 255
224 237 255
224 237 255
224 237 255
224 237 255
224 237 255
224 237 255
224 237 255
224 237 255
224 237 255
224 237 255
224 237 255
224 237 255
224 237 255
224 237 255
224 237 255
224 237 255
224 237 255
224 237 255
224 237 255
224 237 255
224 237 255
224 237 255
224 237 255
224 237 255
224 237 255
224 237 255
224 237 255
224 237 255
224 237 255
224 237 255
224 237 255
224 237 255
224 237 255
224 237 255
224 237 255
224 237 255
224 237 255
224 237 255
224 237 255
224 237 255
224 237 255
224 237 255
224 237 255
224 237 255
224 237 255
224 237 255
224 237 255
224 237 255
224 237 255
224 237 255
224 237 255
224 237 255
224 237 255
224 237 255
224 237 255
224 237 255
224 237 255
224 237 255
224 237 255
224 237 255
224 237 255
224 237 255
224 237 255
224 237 255
224 237 255
224 237 255
224 237 255
224 237 255
224 237 255
224 237 255
224 237 255
224 237 255
224 237 255
224 237 255
224 237 255
224 237 255
224 237 255
224 237 255
224 237 255
224 237 255
224 237 255
224 237 255
224 237 255
224 237 255
224 237 255
224 237 255
224 237 255
224 237 255
224 237 255
224 237 255
224 237 255
224 237 255
224 237 255
224 237 255
224 237 255
224 237 255
224 237 255
224 237 255
224 237 255
224 237 255
224 237 255
224 237 255
224 237 255
224 237 255
224 237 255
224 237 255
224 237 255
224 237 255
224 237 255
224 237 255
224 237 255
224 237 255
224 237 255
225 237 255
225 237 255
224 237 255
225 237 255
203 215 231
214 226 244
203 215 231
179 189 204
178 189 204
165 175 189
115 123 135
115 124 135
132 142 155
133 143 155
60 69 80
92 100 111
60 69 80
61 70 80
62 70 80
60 69 80
63 70 80
61 69 80
60 69 80
61 69 80
61 69 80
63 70 80
61 69 80
60 69 80
62 70 80
61 69 80
62 70 80
62 70 80
61 70 80
63 70 80
61 69 80
62 70 80
61 69 80
61 69 80
60 69 80
61 69 80
62 70 80
64 71 80
62 70 80
62 70 80
61 69 80
62 70 80
62 70 80
60 69 80
61 69 80
60 69 80
62 70 80
61 69 80
61 69 80
60 69 80
63 70 80
63 70 80
64 71 80
62 70 80
60 69 80
62 70 80
62 70 80
60 69 80
63 70 80
61 69 80
62 70 80
61 69 80
62 70 80
60 69 80
60 69 80
61 69 80
60 69 80
61 70 80
60 69 80
62 70 80
27 30 34
48 53 59
40 43 48
42 47 54
44 48 54
50 54 60
45 49 54
53 58 64
43 48 54
56 61 69
43 47 53
34 37 42
39 43 47
39 43 49
47 52 59
44 49 54
52 57 64
51 57 64
55 61 69
48 53 59
44 48 54
47 52 60
35 38 42
49 53 59
44 49 54
43 47 53
45 49 54
61 66 73
44 48 53
49 53 58
54 60 69
52 57 64
51 57 64
38 43 49
49 53 59
49 54 60
44 48 54
47 52 59
40 43 48
46 52 60
40 43 48
56 62 69
39 43 49
51 56 64
48 53 60
43 48 54
39 43 48
53 58 64
39 43 49
33 37 42
52 57 64
51 57 64
50 56 63
52 57 64
47 52 59
39 43 49
45 49 54
48 53 59
47 53 60
43 48 54
54 58 64
59 65 73
48 53 60
50 56 64
56 62 69
40 43 48
51 56 64
53 58 64
59 65 73
55 61 69
34 37 42
39 43 49
48 53 59
53 57 64
44 48 54
38 43 49
54 58 64
53 58 64
53 58 64
49 53 60
47 53 60
53 58 64
46 49 53
56 61 69
44 48 54
44 49 54
44 48 54
50 54 60
44 48 54
44 48 54
46 52 59
43 47 54
40 44 49
34 38 42
50 54 60
41 44 49
44 49 54
49 53 59
49 53 59
44 49 54
48 53 60
39 42 47
50 54 59
50 56 64
48 53 60
60 65 73
44 48 54
48 53 59
52 57 64
45 51 59
44 48 54
43 48 54
50 56 64
48 53 60
52 57 64
42 48 54
53 58 64
44 48 54
33 37 42
46 52 60
44 48 54
53 57 64
54 58 64
47 53 60
56 61 69
44 48 54
61 70 80
62 70 80
62 70 80
63 70 80
61 69 80
62 70 80
62 70 80
63 70 80
61 69 80
63 71 80
60 69 80
61 69 80
62 70 80
58 66 77
61 70 80
61 69 80
62 70 80
63 71 80
60 69 80
61 70 80
61 69 80
62 70 80
60 69 80
61 70 80
62 70 80
62 70 80
61 70 80
62 70 80
61 69 80
60 69 80
61 69 80
63 70 80
59 69 80
62 70 80
61 70 80
61 69 80
63 70 80
60 69 80
60 69 80
64 71 80
62 70 80
63 70 80
63 70 80
59 68 80
60 69 80
62 70 80
62 70 80
59 68 80
61 69 80
61 69 80
63 70 80
60 69 80
60 69 80
61 70 80
61 70 80
60 69 80
61 69 80
62 70 80
61 69 80
114 123 135
114 123 135
114 123 135
165 175 189
134 143 155
165 175 189
150 160 173
178 189 204
191 202 218
191 202 218
214 226 244
214 226 244
225 237 255
225 237 255
225 237 255
225 237 255
224 237 255
224 237 255
224 237 255
224 237 255
224 237 255
224 237 255
224 237 255
224 237 255
224 237 255
224 237 255
224 237 255
224 237 255
224 237 255
224 237 255
224 237 255
224 237 255
224 237 255
224 237 255
224 237 255
224 237 255
224 237 255
224 237 255
224 237 255
224 237 255
224 237 255
224 237 255
224 237 255
224 237 255
224 237 255
224 237 255
224 237 255
224 237 255
224 237 255
224 237 255
224 237 255
224 237 255
224 237 255
224 237 255
224 237 255
224 237 255
224 237 255
224 237 255
224 237 255
224 237 255
224 237 255
224 237 255
224 237 255
224 237 255
224 237 255
224 237 255
224 237 255
224 237 255
224 237 255
224 237 255
224 237 255
224 237 255
224 237 255
224 237 255
224 237 255
224 237 255
224 237 255
224 237 255
224 237 255
224 237 255
224 237 255
224 237 255
224 237 255
224 237 255
224 237 255
224 237 255
224 237 255
224 237 255
224 237 255
224 237 255
224 237 255
224 237 255
224 237 255
224 237 255
224 237 255
224 237 255
224 237 255
224 237 255
224 237 255
224 237 255
224 237 255
224 237 255
224 237 255
224 237 255
224 237 255
224 237 255
224 237 255
224 237 255
224 237 255
224 237 255
224 237 255
224 237 255
224 237 255
224 237 255
224 237 255
224 237 255
224 237 255
224 237 255
224 237 255
224 237 255
224 237 255
224 237 255
224 237 255
224 237 255
224 237 255
224 237 255
224 237 255
225 237 255
224 237 255
225 237 255
225 237 255
214 226 244
225 237 255
214 226 244
165 175 189
203 215 231
178 189 204
191 202 218
150 160 173
133 142 155
60 69 80
115 123 135
59 68 80
92 100 111
61 69 80
61 70 80
60 69 80
61 69 80
63 71 80
64 71 80
62 70 80
62 70 80
60 69 80
62 70 80
62 70 80
60 69 80
61 70 80
60 69 80
63 70 80
61 69 80
60 69 80
62 70 80
60 69 80
61 69 80
61 69 80
60 69 80
60 69 80
61 70 80
59 69 80
62 70 80
62 70 80
62 70 80
60 69 80
62 70 80
61 69 80
61 70 80
62 70 80
60 69 80
60 69 80
61 70 80
60 69 80
61 70 80
62 70 80
61 69 80
61 69 80
63 71 80
59 68 80
60 69 80
61 69 80
60 69 80
63 70 80
62 70 80
63 70 80
61 69 80
62 70 80
62 70 80
62 70 80
64 71 80
61 69 80
61 69 80
62 70 80
61 69 80
61 70 80
62 70 80
62 70 80
60 69 80
61 69 80
62 70 80
61 70 80
62 70 80
60 69 80
62 70 80
61 69 80
61 70 80
62 70 80
46 52 60
44 48 54
49 54 60
52 57 64
43 48 54
46 52 60
48 55 64
48 53 60
43 47 53
43 48 54
51 56 63
38 42 48
40 43 48
45 49 54
48 52 59
39 43 48
56 62 69
39 43 49
36 41 48
46 52 59
46 52 59
56 61 69
44 49 54
57 62 69
51 57 64
44 48 54
47 52 59
39 43 48
49 53 59
44 48 54
52 57 64
43 48 54
53 59 68
38 43 48
49 53 60
39 43 48
48 53 59
60 67 77
49 53 60
54 58 64
43 48 54
39 43 48
28 30 34
49 53 60
52 57 64
40 44 49
53 58 64
53 58 64
63 69 77
55 61 69
34 37 41
48 53 60
43 48 54
48 52 59
39 43 49
32 36 40
49 56 64
38 43 48
52 57 64
56 61 69
26 29 33
41 44 49
53 58 64
35 38 42
59 65 73
50 54 59
47 52 59
45 49 54
27 30 34
42 48 54
51 57 64
37 42 49
48 53 59
34 38 42
43 48 54
49 53 58
39 43 49
44 48 54
47 52 59
48 53 60
48 53 59
52 57 64
50 54 60
43 48 54
43 48 54
46 52 59
48 52 59
53 58 64
37 42 47
51 57 64
45 49 54
44 48 54
25 29 34
52 57 63
49 53 59
28 31 35
53 57 64
59 65 72
58 64 73
41 47 54
44 48 54
47 52 60
44 48 54
50 54 60
59 65 73
43 48 54
52 57 63
43 48 54
53 58 64
33 36 41
45 49 54
48 52 58
47 52 60
42 47 54
44 48 54
53 58 64
40 43 48
55 61 69
47 52 59
56 62 69
44 48 54
43 47 54
47 52 59
47 52 59
48 52 58
56 63 73
62 70 80
62 70 80
62 70 80
63 70 80
61 69 80
61 69 80
61 70 80
59 68 80
62 70 80
60 69 80
60 69 80
62 70 80
62 70 80
61 69 80
63 70 80
61 69 80
61 70 80
60 69 80
61 69 80
61 69 80
61 69 80
62 70 80
60 69 80
61 69 80
61 69 80
61 69 80
62 70 80
59 69 80
61 70 80
59 68 80
62 70 80
61 69 80
63 70 80
61 70 80
63 70 80
61 70 80
62 70 80
61 69 80
59 68 80
62 70 80
62 70 80
61 69 80
61 70 80
60 69 80
62 70 80
61 70 80
61 69 80
62 70 80
61 69 80
61 69 80
62 70 80
61 69 80
61 70 80
62 70 80
62 70 80
61 70 80
62 70 80
62 70 80
61 69 80
62 70 80
61 70 80
60 69 80
61 69 80
62 70 80
61 69 80
62 70 80
61 70 80
60 69 80
61 70 80
63 71 80
61 70 80
63 70 80
93 101 111
133 142 155
178 189 204
114 123 135
149 159 173
150 159 173
191 202 218
178 189 204
203 215 231
191 202 218
225 237 255
214 226 244
225 237 255
225 237 255
225 237 255
225 237 255
224 237 255
224 237 255
224 237 255
224 237 255
224 237 255
224 237 255
224 237 255
224 237 255
224 237 255
224 237 255
224 237 255
224 237 255
224 237 255
224 237 255
224 237 255
224 237 255
224 237 255
224 237 255
224 237 255
224 237 255
224 237 255
224 237 255
224 237 255
224 237 255
224 237 255
224 237 255
224 237 255
224 237 255
224 237 255
224 237 255
224 237 255
224 237 255
224 237 255
224 237 255
224 237 255
224 237 255
224 237 255
224 237 255
224 237 255
224 237 255
224 237 255
224 237 255
224 237 255
224 237 255
224 237 255
224 237 255
224 237 255
224 237 255
224 237 255
224 237 255
224 237 255
224 237 255
224 237 255
224 237 255
224 237 255
224 237 255
224 237 255
224 237 255
224 237 255
224 237 255
224 237 255
224 237 255
224 237 255
224 237 255
224 237 255
224 237 255
224 237 255
224 237 255
224 237 255
224 237 255
224 237 255
224 237 255
224 237 255
224 237 255
224 237 255
224 237 255
224 237 255
224 237 255
224 237 255
224 237 255
224 237 255
224 237 255
224 237 255
224 237 255
225 237 255
225 237 255
225 237 255
225 237 255
225 237 255
225 237 255
214 226 244
214 226 244
214 226 244
165 175 189
164 175 189
178 189 204
150 159 173
150 160 173
165 175 189
91 100 111
62 70 80
114 123 135
62 70 80
61 69 80
62 70 80
62 70 80
60 69 80
61 70 80
61 69 80
61 69 80
61 69 80
61 69 80
62 70 80
62 70 80
61 69 80
61 70 80
60 69 80
60 69 80
61 70 80
60 69 80
61 69 80
62 70 80
62 70 80
61 70 80
60 69 80
61 69 80
61 69 80
60 69 80
62 70 80
62 70 80
63 70 80
61 69 80
61 69 80
61 69 80
61 70 80
62 70 80
62 70 80
61 69 80
61 69 80
60 69 80
61 70 80
61 69 80
62 70 80
63 70 80
61 69 80
60 69 80
62 70 80
61 69 80
62 70 80
62 70 80
61 69 80
63 70 80
63 70 80
62 70 80
61 70 80
61 69 80
61 69 80
63 70 80
62 70 80
63 70 80
62 70 80
60 69 80
61 70 80
62 70 80
61 70 80
61 69 80
62 70 80
61 69 80
62 70 80
61 69 80
62 70 80
62 70 80
60 69 80
62 70 80
62 70 80
60 69 80
61 69 80
63 70 80
60 69 80
62 70 80
61 69 80
61 70 80
61 69 80
63 70 80
62 70 80
63 70 80
59 67 77
44 48 54
45 49 54
19 22 25
46 50 54
52 57 64
43 48 54
49 53 60
54 58 64
34 38 42
47 52 59
57 62 69
42 47 53
50 54 60
57 62 69
43 47 53
34 37 42
50 54 60
30 35 41
55 61 68
51 56 64
60 65 73
39 43 49
57 62 69
49 54 60
57 62 69
52 57 64
40 43 48
51 56 63
34 37 42
43 48 54
44 49 54
50 54 60
49 53 59
39 43 48
49 53 59
48 53 60
51 56 64
57 62 69
44 48 53
59 65 73
44 48 54
44 48 54
43 48 54
45 49 54
50 56 64
40 44 49
48 53 60
48 53 59
32 36 42
34 37 42
47 52 60
52 57 64
49 54 59
53 57 64
44 48 54
40 43 49
47 52 59
48 53 59
57 62 69
43 47 53
48 53 60
40 43 48
56 62 69
39 43 48
47 52 60
34 37 42
48 53 60
47 52 58
45 49 54
33 37 42
54 58 64
43 48 54
48 53 59
52 57 64
57 62 69
48 53 60
44 49 54
57 62 69
40 44 49
47 53 60
55 61 69
56 61 69
49 53 60
43 48 54
57 62 69
52 57 64
40 44 49
47 53 60
52 57 64
52 57 64
43 48 54
43 47 54
55 61 68
34 37 42
53 58 64
38 43 49
48 53 59
48 53 60
57 62 69
62 68 77
39 43 49
44 48 54
49 54 60
43 47 53
27 30 35
52 57 64
48 53 60
60 65 73
47 52 58
47 52 60
54 58 64
39 43 48
44 48 54
32 36 42
19 22 25
50 54 59
43 48 54
34 37 42
54 58 64
52 57 64
51 57 64
51 57 64
37 42 48
50 54 58
52 59 69
61 69 80
62 70 80
60 69 80
61 69 80
60 69 80
62 70 80
61 69 80
61 69 80
59 68 80
61 70 80
60 69 80
61 70 80
60 69 80
63 70 80
61 69 80
62 70 80
62 70 80
61 70 80
62 70 80
61 70 80
61 69 80
60 69 80
61 69 80
62 70 80
61 70 80
63 70 80
62 70 80
62 70 80
61 70 80
62 70 80
63 70 80
61 69 80
62 70 80
59 68 80
62 70 80
61 69 80
61 69 80
61 70 80
60 69 80
61 69 80
60 69 80
62 70 80
61 69 80
62 70 80
62 70 80
63 70 80
61 70 80
60 69 80
61 70 80
60 69 80
61 69 80
61 70 80
63 71 80
61 70 80
62 70 80
61 69 80
62 70 80
60 69 80
62 70 80
61 69 80
62 70 80
61 69 80
61 70 80
61 69 80
62 70 80
62 70 80
61 69 80
60 69 80
61 70 80
60 69 80
62 70 80
62 70 80
64 71 80
62 70 80
61 69 80
62 70 80
62 70 80
62 70 80
63 70 80
60 69 80
61 69 80
62 70 80
61 69 80
61 69 80
91 100 111
61 69 80
114 123 135
114 123 135
92 100 111
165 175 189
164 175 189
203 215 231
203 215 231
203 215 231
203 215 231
225 237 255
214 226 244
225 237 255
225 237 255
225 237 255
225 237 255
224 237 255
224 237 255
224 237 255
224 237 255
224 237 255
224 237 255
224 237 255
224 237 255
224 237 255
224 237 255
224 237 255
224 237 255
224 237 255
224 237 255
224 237 255
224 237 255
224 237 255
224 237 255
224 237 255
224 237 255
224 237 255
224 237 255
224 237 255
224 237 255
224 237 255
224 237 255
224 237 255
224 237 255
224 237 255
224 237 255
224 237 255
224 237 255
224 237 255
224 237 255
224 237 255
224 237 255
224 237 255
224 237 255
224 237 255
224 237 255
224 237 255
224 237 255
224 237 255
224 237 255
224 237 255
224 237 255
224 237 255
224 237 255
224 237 255
224 237 255
224 237 255
224 237 255
224 237 255
224 237 255
224 237 255
224 237 255
224 237 255
225 237 255
224 237 255
225 237 255
225 237 255
225 237 255
225 237 255
225 237 255
225 237 255
214 226 244
214 226 244
214 226 244
178 189 204
133 142 155
179 189 204
165 175 189
164 175 189
114 123 135
113 123 135
114 123 135
60 69 80
60 69 80
60 69 80
60 69 80
61 70 80
61 69 80
60 69 80
62 70 80
63 70 80
62 70 80
59 68 80
61 70 80
61 70 80
60 69 80
63 70 80
61 69 80
63 70 80
61 69 80
60 69 80
60 69 80
61 69 80
62 70 80
62 70 80
60 69 80
62 70 80
62 70 80
62 70 80
61 70 80
62 70 80
59 68 80
62 70 80
59 68 80
61 69 80
61 70 80
62 70 80
62 70 80
61 70 80
59 69 80
61 69 80
62 70 80
61 69 80
60 69 80
62 70 80
60 69 80
62 70 80
63 71 80
61 69 80
61 69 80
61 69 80
60 69 80
62 70 80
62 70 80
61 69 80
61 69 80
61 69 80
60 69 80
62 70 80
62 70 80
62 70 80
62 70 80
61 70 80
62 70 80
62 70 80
61 70 80
62 70 80
61 69 80
62 70 80
60 69 80
61 69 80
63 71 80
61 69 80
60 69 80
60 69 80
62 70 80
62 70 80
62 70 80
62 70 80
63 70 80
60 69 80
62 70 80
60 69 80
63 70 80
62 70 80
60 69 80
63 71 80
61 70 80
62 70 80
60 69 80
61 69 80
62 70 80
61 70 80
62 70 80
63 71 80
63 71 80
61 69 80
62 70 80
62 70 80
59 66 76
48 53 60
49 53 59
48 53 60
37 41 47
33 37 42
47 52 59
34 37 42
42 47 53
42 47 53
53 58 64
47 52 59
45 49 54
52 57 64
48 53 60
57 62 68
44 48 54
57 62 69
56 61 69
48 53 59
49 53 59
52 57 64
33 36 41
57 64 73
48 53 59
47 52 59
52 57 64
48 53 58
45 49 54
53 57 64
44 48 53
44 48 53
37 41 47
56 61 68
54 60 69
46 51 58
26 29 34
58 62 68
51 57 64
33 36 41
43 48 53
47 52 60
43 48 54
47 53 60
39 43 49
54 58 64
46 49 54
40 44 49
54 60 69
39 43 49
48 53 60
59 65 73
49 53 60
48 52 59
38 43 49
53 60 68
52 57 64
44 48 54
48 53 60
51 56 64
48 53 59
51 54 60
53 57 64
42 47 54
43 48 54
37 42 48
49 53 59
43 48 54
48 53 60
60 65 73
34 38 42
44 48 54
42 47 53
38 43 49
44 48 54
51 56 64
49 53 59
48 53 59
38 42 48
39 43 49
46 51 59
48 53 60
53 58 64
45 48 53
45 49 54
45 51 59
35 38 42
45 49 54
34 37 42
40 43 49
47 52 59
40 43 49
49 53 59
40 43 48
50 54 60
48 53 59
51 56 64
48 53 60
43 48 54
45 49 54
51 57 64
54 60 68
47 52 60
56 61 69
48 53 60
53 58 64
53 58 64
43 48 54
42 47 54
28 31 35
55 61 69
37 42 49
42 47 53
34 38 42
44 48 54
38 42 48
54 58 64
45 49 54
32 36 42
43 48 54
38 43 49
33 37 42
44 48 54
40 44 48
50 56 63
57 66 77
61 69 80
62 70 80
62 70 80
62 70 80
60 69 80
61 70 80
64 71 80
61 69 80
61 69 80
62 70 80
63 70 80
63 70 80
60 69 80
61 69 80
60 69 80
61 69 80
62 70 80
60 69 80
62 70 80
62 70 80
61 69 80
60 69 80
60 69 80
62 70 80
61 69 80
61 70 80
61 70 80
62 70 80
61 70 80
62 70 80
63 70 80
61 69 80
61 69 80
60 69 80
62 70 80
60 69 80
60 69 80
61 70 80
61 70 80
62 70 80
60 69 80
61 70 80
61 69 80
60 67 77
62 70 80
62 70 80
61 70 80
61 69 80
60 69 80
61 69 80
61 69 80
60 69 80
62 70 80
63 71 80
63 70 80
60 69 80
62 70 80
61 69 80
60 69 80
60 69 80
61 69 80
61 70 80
61 69 80
62 70 80
62 70 80
60 69 80
63 70 80
61 69 80
60 69 80
60 69 80
62 70 80
61 70 80
62 70 80
62 70 80
61 69 80
62 70 80
61 69 80
61 69 80
62 70 80
62 70 80
61 69 80
62 70 80
62 70 80
63 71 80
63 70 80
61 69 80
61 69 80
61 70 80
62 70 80
61 69 80
62 70 80
61 70 80
61 69 80
61 69 80
62 70 80
61 70 80
61 70 80
92 100 111
115 123 135
115 123 135
164 175 189
191 202 218
164 175 189
178 189 204
203 215 231
214 226 244
191 202 218
225 237 255
225 237 255
225 237 255
225 237 255
225 237 255
225 237 255
225 237 255
225 237 255
224 237 255
224 237 255
224 237 255
224 237 255
224 237 255
224 237 255
224 237 255
224 237 255
224 237 255
224 237 255
224 237 255
224 237 255
224 237 255
224 237 255
224 237 255
224 237 255
224 237 255
224 237 255
224 237 255
224 237 255
224 237 255
224 237 255
224 237 255
224 237 255
224 237 255
224 237 255
224 237 255
224 237 255
224 237 255
224 237 255
225 237 255
225 237 255
225 237 255
225 237 255
225 237 255
225 237 255
225 237 255
225 237 255
225 237 255
203 215 231
214 226 244
214 226 244
165 175 189
164 175 189
150 160 173
164 175 189
191 202 218
114 123 135
92 100 111
63 71 80
93 100 111
62 70 80
61 69 80
63 70 80
62 70 80
63 71 80
60 69 80
63 70 80
60 69 80
61 69 80
60 69 80
62 70 80
62 70 80
64 71 80
62 70 80
61 69 80
60 69 80
62 70 80
61 70 80
60 69 80
61 69 80
61 70 80
60 69 80
62 70 80
62 70 80
61 69 80
60 69 80
61 70 80
61 69 80
63 70 80
60 69 80
60 69 80
61 70 80
62 70 80
62 70 80
62 70 80
61 70 80
62 70 80
62 70 80
63 70 80
60 69 80
61 69 80
61 69 80
61 69 80
62 70 80
62 70 80
63 70 80
61 70 80
61 69 80
61 69 80
60 69 80
60 69 80
61 69 80
61 69 80
62 70 80
60 69 80
62 70 80
61 69 80
61 69 80
61 69 80
62 70 80
61 69 80
61 70 80
60 69 80
62 70 80
62 70 80
61 69 80
60 69 80
61 70 80
62 70 80
61 69 80
60 69 80
60 69 80
60 69 80
60 69 80
62 70 80
63 70 80
64 71 80
60 69 80
61 69 80
60 69 80
61 70 80
61 69 80
62 70 80
63 70 80
61 69 80
63 70 80
62 70 80
62 70 80
61 69 80
64 71 80
62 70 80
61 70 80
60 69 80
62 70 80
62 70 80
61 69 80
61 70 80
60 69 80
62 70 80
63 70 80
61 69 80
61 70 80
60 69 80
59 68 80
62 70 80
61 70 80
63 70 80
60 69 80
61 69 80
49 54 60
46 49 54
44 48 54
57 62 69
47 52 60
54 60 69
40 44 49
48 53 60
41 44 49
45 49 54
56 61 69
44 48 54
44 48 54
57 62 69
59 65 73
53 58 64
40 43 48
53 58 64
45 48 53
44 48 54
39 43 49
33 37 42
47 52 60
35 38 42
47 53 60
53 57 64
52 57 63
48 53 60
46 52 60
34 37 42
43 48 53
44 48 54
51 57 64
40 44 49
41 44 49
42 47 54
34 37 41
43 48 54
51 57 64
44 48 54
52 57 64
53 58 64
51 56 64
47 52 59
48 53 60
54 60 69
43 48 54
43 48 54
33 36 40
56 61 69
44 48 54
53 58 64
35 38 42
39 43 48
50 56 64
47 52 60
42 47 54
48 53 60
43 48 54
57 62 69
32 36 42
44 48 54
59 65 73
40 43 49
50 56 64
44 49 54
54 58 64
56 62 69
53 58 64
46 52 59
44 49 54
38 43 49
56 61 69
49 53 60
39 43 49
53 58 64
49 54 60
48 53 60
41 47 54
48 53 60
38 43 49
43 48 54
52 57 64
33 37 42
49 53 60
39 42 47
45 49 54
50 54 59
44 48 54
34 37 42
49 53 59
49 53 59
40 43 48
53 58 64
44 49 54
56 61 68
59 65 73
53 58 64
51 56 64
47 53 60
52 57 64
48 53 60
50 54 60
52 57 64
45 49 54
49 53 60
49 54 60
49 53 59
31 35 41
51 57 64
51 57 64
48 53 60
45 48 54
51 57 64
44 49 54
45 49 54
52 57 64
48 53 60
46 49 54
43 48 54
49 53 60
51 56 64
39 43 48
41 47 54
61 69 80
60 69 80
62 70 80
61 69 80
61 69 80
61 69 80
59 68 80
61 69 80
60 69 80
62 70 80
63 70 80
60 69 80
59 69 80
61 70 80
61 69 80
60 69 80
61 70 80
62 70 80
61 70 80
60 69 80
61 70 80
62 70 80
62 70 80
62 70 80
62 70 80
61 69 80
61 69 80
61 69 80
61 69 80
60 69 80
61 70 80
61 70 80
63 70 80
62 70 80
61 69 80
61 69 80
62 70 80
61 70 80
62 70 80
60 69 80
61 70 80
63 70 80
61 69 80
62 70 80
62 70 80
61 70 80
63 70 80
61 69 80
62 70 80
61 70 80
62 70 80
61 70 80
62 70 80
60 69 80
61 69 80
63 70 80
62 70 80
61 70 80
61 69 80
60 69 80
61 69 80
61 69 80
61 70 80
60 69 80
63 70 80
63 71 80
60 69 80
61 69 80
62 70 80
62 70 80
61 70 80
62 70 80
61 70 80
62 70 80
61 70 80
60 69 80
59 69 80
61 69 80
61 69 80
63 71 80
62 70 80
61 69 80
62 70 80
61 69 80
61 70 80
61 69 80
60 69 80
63 70 80
61 69 80
60 69 80
59 69 80
63 70 80
61 70 80
60 69 80
61 69 80
61 69 80
60 69 80
62 70 80
60 69 80
62 70 80
60 69 80
62 70 80
60 69 80
62 70 80
62 70 80
61 69 80
61 70 80
60 69 80
62 70 80
92 100 111
60 69 80
133 142 155
133 142 155
115 123 135
203 215 231
114 123 135
134 143 155
203 215 231
191 202 218
225 237 255
225 237 255
225 237 255
225 237 255
225 237 255
225 237 255
225 237 255
225 237 255
225 237 255
224 237 255
224 237 255
224 237 255
224 237 255
224 237 255
224 237 255
224 237 255
224 237 255
224 237 255
224 237 255
225 237 255
225 237 255
225 237 255
225 237 255
225 237 255
214 226 244
214 226 244
225 237 255
165 175 189
203 215 231
165 175 189
151 160 173
150 160 173
133 143 155
61 70 80
133 142 155
61 70 80
60 69 80
60 69 80
61 69 80
60 69 80
61 69 80
60 69 80
62 70 80
62 70 80
61 69 80
62 70 80
60 69 80
60 69 80
61 69 80
60 69 80
61 70 80
61 69 80
61 70 80
60 69 80
61 69 80
61 69 80
61 69 80
61 69 80
63 70 80
61 70 80
60 69 80
61 69 80
60 69 80
62 70 80
62 70 80
61 70 80
61 69 80
62 70 80
60 69 80
60 69 80
60 69 80
59 67 77
62 70 80
62 70 80
61 69 80
61 69 80
62 70 80
61 69 80
62 70 80
62 70 80
61 69 80
61 69 80
62 70 80
62 70 80
60 69 80
63 70 80
61 69 80
61 70 80
62 70 80
61 69 80
62 70 80
61 69 80
58 66 77
62 70 80
61 69 80
62 70 80
62 70 80
61 69 80
61 70 80
61 69 80
63 71 80
61 70 80
61 69 80
60 69 80
60 69 80
62 70 80
62 70 80
61 69 80
61 69 80
62 70 80
61 69 80
60 69 80
63 71 80
60 69 80
61 70 80
60 69 80
62 70 80
63 70 80
60 69 80
60 69 80
61 69 80
62 70 80
61 70 80
62 70 80
62 70 80
60 69 80
63 70 80
61 70 80
58 66 76
62 70 80
59 68 80
59 69 80
63 70 80
61 69 80
61 70 80
61 70 80
61 69 80
61 70 80
61 69 80
63 70 80
62 70 80
63 71 80
61 69 80
62 70 80
63 70 80
62 70 80
62 70 80
63 70 80
62 70 80
57 66 77
62 70 80
61 70 80
62 70 80
61 69 80
63 71 80
61 69 80
63 71 80
47 52 59
45 49 54
38 43 49
49 53 59
49 53 59
54 58 64
33 36 40
48 53 59
49 53 60
49 53 60
49 53 59
52 57 64
50 56 64
48 53 60
43 48 54
43 48 54
33 37 42
47 52 59
43 48 54
38 43 48
45 49 54
42 47 54
53 57 64
50 56 64
47 53 60
43 48 53
44 48 54
52 57 64
44 48 54
56 61 69
47 52 58
49 53 60
53 58 64
43 48 54
38 43 49
55 61 69
53 58 64
54 59 64
31 35 39
53 58 64
45 49 54
47 52 60
56 61 68
44 48 54
38 43 48
48 52 59
55 61 68
47 52 59
26 30 34
56 61 69
48 53 60
42 47 54
32 36 42
50 56 64
53 58 64
33 37 42
44 48 54
46 49 54
48 53 60
39 43 48
43 47 53
48 53 59
52 57 64
57 62 69
45 49 54
44 48 54
34 37 42
39 43 48
44 48 54
50 56 64
47 52 58
49 53 59
41 44 49
51 57 64
33 36 41
52 57 64
48 53 60
54 58 64
48 53 60
36 42 48
49 53 59
48 53 60
52 57 63
57 62 69
53 58 64
49 53 60
59 65 73
34 37 41
27 31 35
41 46 53
48 53 60
38 42 47
52 57 64
48 52 58
56 61 69
36 39 42
43 48 54
48 53 60
47 52 60
39 43 49
44 49 54
52 57 64
39 43 47
49 53 60
44 48 54
48 53 60
18 20 24
48 53 59
54 58 64
52 57 64
53 58 64
43 48 54
42 47 54
49 54 60
53 57 63
42 47 54
52 57 64
53 58 64
50 54 60
53 58 64
39 43 48
48 53 59
53 58 64
46 52 60
62 70 80
61 69 80
62 70 80
62 70 80
62 70 80
62 70 80
62 70 80
60 69 80
61 70 80
61 69 80
61 69 80
61 69 80
62 70 80
59 69 80
62 70 80
62 70 80
62 70 80
61 70 80
61 69 80
62 70 80
61 70 80
60 69 80
62 70 80
62 70 80
61 70 80
59 69 80
59 69 80
62 70 80
59 69 80
59 68 80
61 69 80
60 69 80
59 66 77
63 70 80
61 70 80
62 70 80
62 70 80
62 70 80
61 69 80
63 70 80
61 69 80
62 70 80
61 69 80
62 70 80
62 70 80
62 70 80
61 69 80
61 69 80
60 69 80
61 69 80
62 70 80
61 70 80
63 71 80
60 69 80
62 70 80
61 69 80
61 70 80
60 69 80
61 70 80
62 70 80
62 70 80
61 70 80
61 70 80
62 70 80
61 70 80
59 69 80
62 70 80
63 70 80
60 69 80
63 70 80
63 70 80
62 70 80
61 69 80
62 70 80
61 70 80
63 70 80
63 71 80
62 70 80
60 69 80
61 70 80
60 69 80
63 70 80
61 69 80
63 71 80
62 70 80
60 69 80
61 69 80
62 70 80
62 70 80
61 69 80
61 70 80
61 69 80
62 70 80
60 69 80
61 69 80
62 70 80
63 71 80
62 70 80
62 70 80
63 70 80
61 69 80
61 69 80
63 71 80
61 70 80
62 70 80
62 70 80
61 69 80
62 70 80
61 70 80
62 70 80
63 71 80
61 70 80
60 69 80
60 69 80
61 69 80
62 70 80
61 70 80
61 70 80
60 69 80
62 70 80
62 70 80
60 69 80
115 123 135
61 70 80
150 160 173
179 189 204
114 123 135
165 175 189
178 189 204
191 202 218
214 226 244
214 226 244
214 226 244
225 237 255
225 237 255
225 237 255
225 237 255
225 237 255
150 160 173
92 100 111
114 123 135
150 159 173
93 101 111
60 69 80
61 69 80
61 69 80
62 70 80
61 69 80
61 70 80
61 69 80
61 69 80
62 70 80
60 69 80
61 69 80
60 69 80
62 70 80
62 70 80
62 70 80
61 69 80
61 69 80
61 69 80
60 69 80
60 69 80
61 70 80
60 69 80
62 70 80
63 71 80
61 70 80
62 70 80
62 70 80
60 69 80
57 66 76
63 70 80
62 70 80
62 70 80
60 69 80
61 69 80
62 70 80
61 69 80
59 69 80
62 70 80
61 69 80
59 68 80
62 70 80
62 70 80
61 70 80
61 69 80
61 69 80
61 69 80
61 69 80
60 69 80
59 69 80
59 69 80
61 70 80
62 70 80
60 69 80
61 69 80
61 70 80
62 70 80
62 70 80
59 69 80
61 69 80
60 69 80
63 71 80
61 69 80
61 69 80
61 70 80
62 70 80
61 69 80
59 69 80
60 69 80
61 70 80
63 70 80
60 69 80
58 66 76
63 70 80
61 69 80
61 70 80
61 70 80
61 69 80
63 70 80
61 69 80
63 70 80
59 69 80
62 70 80
60 69 80
61 70 80
62 70 80
61 69 80
58 66 76
62 70 80
60 69 80
61 69 80
61 70 80
61 69 80
61 70 80
62 70 80
63 70 80
61 70 80
63 71 80
64 71 80
61 70 80
60 69 80
57 65 76
60 69 80
62 70 80
60 69 80
61 70 80
61 70 80
62 70 80
60 69 80
61 70 80
63 70 80
62 70 80
62 70 80
62 70 80
60 69 80
63 70 80
61 69 80
61 70 80
60 67 77
62 70 80
60 69 80
62 70 80
62 70 80
62 70 80
62 70 80
62 70 80
62 70 80
62 70 80
57 64 73
61 70 80
62 70 80
62 70 80
63 70 80
61 70 80
59 67 77
34 37 42
34 37 42
51 56 64
39 43 49
42 47 53
49 53 59
49 53 60
53 58 64
48 53 59
38 42 49
45 49 54
35 38 42
44 48 54
56 61 68
52 57 64
43 48 54
37 42 48
59 65 72
40 44 49
48 53 59
52 57 64
61 66 72
37 42 47
40 43 48
38 43 48
45 49 54
44 49 54
37 42 47
35 38 42
49 54 60
48 53 60
52 57 64
52 57 64
54 58 64
53 58 64
51 57 64
38 42 47
39 43 48
43 48 54
55 61 69
43 48 54
39 43 47
43 48 54
43 47 54
43 48 54
49 53 59
34 37 42
48 53 60
47 52 58
42 47 54
44 48 53
43 48 54
48 53 60
51 56 64
43 48 54
51 57 64
47 52 60
43 48 54
44 48 54
41 47 54
44 49 54
38 42 48
50 54 60
51 57 64
57 62 69
54 58 64
49 53 59
44 48 54
61 66 73
38 43 49
39 43 48
59 65 73
50 54 60
53 58 64
47 50 54
46 49 54
52 57 64
43 48 53
43 48 54
33 37 42
49 54 60
44 48 54
37 42 48
44 49 54
54 60 69
51 56 64
39 43 49
51 56 64
48 53 60
34 38 42
43 47 53
38 42 47
48 53 59
43 48 54
59 65 73
59 65 73
45 49 54
43 48 54
50 56 64
38 42 49
31 35 41
52 57 64
28 30 34
55 61 69
47 52 60
46 52 60
44 48 54
45 49 54
44 48 54
48 53 60
35 38 42
59 65 73
48 53 60
44 48 54
48 53 59
39 43 49
49 53 60
53 57 63
50 54 60
48 53 60
35 38 42
41 44 49
64 71 80
61 69 80
60 69 80
61 69 80
62 70 80
60 69 80
61 69 80
61 70 80
62 70 80
62 70 80
62 70 80
62 70 80
62 70 80
62 70 80
62 70 80
60 69 80
62 70 80
61 70 80
61 69 80
62 70 80
61 68 77
59 69 80
61 69 80
60 69 80
62 70 80
61 70 80
62 70 80
61 69 80
60 69 80
58 66 77
60 69 80
61 69 80
63 71 80
58 66 76
62 70 80
61 69 80
62 70 80
61 69 80
62 70 80
63 71 80
60 69 80
61 70 80
61 69 80
61 69 80
63 70 80
62 70 80
61 70 80
60 69 80
63 70 80
61 69 80
61 69 80
62 70 80
63 70 80
62 70 80
60 69 80
62 70 80
61 69 80
60 69 80
59 68 80
61 69 80
62 70 80
61 69 80
61 69 80
61 69 80
61 70 80
60 69 80
60 69 80
62 70 80
61 69 80
61 69 80
62 70 80
62 70 80
62 70 80
62 70 80
60 69 80
61 69 80
62 70 80
62 70 80
62 70 80
62 70 80
60 69 80
62 70 80
61 70 80
62 70 80
61 69 80
63 71 80
60 69 80
62 70 80
60 69 80
61 70 80
61 69 80
61 70 80
62 70 80
63 71 80
62 70 80
60 69 80
60 67 77
64 71 80
61 69 80
60 69 80
62 70 80
62 70 80
61 70 80
62 70 80
62 70 80
62 70 80
61 70 80
60 69 80
60 69 80
60 69 80
60 69 80
63 70 80
61 70 80
61 70 80
62 70 80
60 69 80
60 69 80
61 70 80
62 70 80
60 69 80
62 70 80
61 69 80
61 69 80
62 70 80
60 69 80
61 69 80
64 71 80
63 70 80
62 70 80
62 70 80
62 70 80
61 70 80
62 70 80
62 70 80
92 100 111
92 100 111
114 123 135
91 100 111
165 175 189
62 70 80
61 69 80
59 69 80
60 69 80
61 69 80
63 70 80
62 70 80
60 69 80
60 69 80
63 70 80
60 69 80
61 69 80
61 70 80
60 69 80
62 70 80
61 69 80
60 69 80
62 70 80
60 69 80
61 70 80
60 69 80
59 69 80
61 69 80
62 70 80
62 70 80
59 69 80
63 70 80
61 69 80
63 70 80
62 70 80
60 69 80
60 69 80
60 69 80
61 70 80
62 70 80
62 70 80
61 69 80
62 70 80
61 69 80
61 70 80
63 70 80
60 69 80
60 69 80
62 70 80
62 70 80
62 70 80
62 70 80
61 69 80
61 69 80
62 70 80
63 70 80
62 70 80
62 70 80
61 69 80
60 69 80
62 70 80
62 70 80
62 70 80
61 69 80
60 69 80
61 69 80
60 69 80
62 70 80
62 70 80
61 69 80
62 70 80
61 69 80
61 69 80
61 70 80
60 69 80
62 70 80
63 71 80
61 69 80
61 69 80
62 70 80
60 69 80
61 69 80
61 69 80
60 69 80
61 70 80
62 70 80
60 69 80
61 70 80
63 71 80
60 69 80
60 69 80
60 69 80
61 69 80
62 70 80
63 70 80
62 70 80
62 70 80
61 70 80
61 70 80
60 69 80
62 70 80
63 71 80
61 70 80
60 69 80
63 71 80
61 69 80
61 69 80
63 70 80
62 70 80
60 69 80
60 69 80
61 70 80
61 69 80
60 69 80
62 70 80
61 70 80
64 71 80
60 69 80
60 69 80
60 69 80
61 69 80
62 70 80
62 70 80
58 66 76
63 70 80
61 67 77
58 66 77
62 70 80
61 70 80
61 69 80
60 69 80
62 70 80
62 70 80
62 70 80
62 70 80
61 69 80
62 70 80
63 70 80
62 70 80
63 70 80
60 69 80
64 71 80
62 70 80
61 69 80
51 56 64
42 47 53
34 36 40
32 36 42
39 43 49
61 66 73
54 58 64
38 43 48
47 52 58
49 53 60
18 21 24
49 54 60
48 53 60
47 53 60
51 57 64
49 54 60
37 42 48
38 42 47
48 53 60
49 53 59
38 43 49
33 36 41
33 36 42
39 42 47
50 54 60
46 52 60
59 65 73
37 42 47
48 52 58
39 43 49
45 49 54
46 50 54
40 43 49
34 38 42
47 53 60
33 37 42
41 44 49
53 58 64
39 43 47
40 43 48
38 42 48
34 37 42
34 37 42
50 56 63
48 53 60
37 42 48
35 38 42
43 48 54
39 43 49
48 53 60
57 62 69
48 53 60
49 53 60
48 53 60
38 43 49
38 43 49
40 44 49
49 53 60
43 48 54
49 53 59
51 57 64
49 53 59
58 64 73
48 53 59
53 58 64
58 64 73
43 48 54
47 53 60
39 43 48
49 53 60
53 58 64
48 53 59
39 43 49
42 47 53
34 37 41
34 37 42
42 47 54
54 60 69
48 53 60
51 57 64
37 42 48
56 61 69
57 62 69
38 42 48
43 48 54
52 57 64
34 37 40
38 42 49
38 42 48
44 48 54
40 44 49
56 62 69
53 57 64
40 44 49
52 57 64
53 60 69
45 49 54
47 52 60
56 61 69
26 30 34
50 54 60
44 48 54
51 56 64
60 65 73
28 31 35
38 43 49
52 57 64
50 56 63
43 48 54
53 58 64
45 49 54
43 47 53
48 53 60
49 54 60
58 63 69
44 49 54
49 54 60
40 43 48
39 43 49
52 57 64
47 53 60
48 53 59
60 69 80
61 69 80
63 71 80
61 70 80
61 69 80
62 70 80
60 69 80
61 70 80
61 69 80
60 69 80
61 69 80
61 69 80
61 69 80
62 70 80
60 69 80
61 70 80
61 69 80
62 70 80
59 68 80
62 70 80
60 69 80
63 70 80
60 69 80
58 66 76
61 69 80
60 69 80
61 69 80
61 70 80
62 70 80
60 69 80
60 69 80
62 70 80
63 71 80
63 71 80
59 67 77
61 69 80
62 70 80
63 70 80
62 70 80
62 70 80
60 69 80
62 70 80
61 70 80
61 69 80
62 70 80
60 69 80
62 70 80
59 68 80
62 70 80
63 70 80
60 69 80
62 70 80
60 69 80
61 69 80
61 69 80
61 69 80
61 69 80
63 70 80
61 69 80
61 69 80
60 69 80
60 69 80
59 68 80
62 70 80
60 69 80
62 70 80
61 69 80
60 69 80
61 69 80
62 70 80
62 70 80
61 70 80
62 70 80
62 70 80
62 70 80
61 70 80
62 70 80
61 69 80
62 70 80
62 70 80
60 69 80
62 70 80
62 70 80
61 69 80
61 70 80
63 70 80
60 69 80
59 69 80
61 69 80
61 69 80
60 69 80
60 69 80
62 70 80
62 70 80
62 70 80
61 70 80
62 70 80
62 70 80
59 69 80
62 70 80
62 70 80
62 70 80
62 70 80
61 69 80
60 69 80
62 70 80
60 69 80
63 71 80
63 71 80
61 69 80
60 69 80
61 70 80
62 70 80
61 69 80
62 70 80
63 70 80
61 69 80
62 70 80
62 70 80
61 69 80
61 69 80
64 71 80
61 70 80
62 70 80
62 70 80
61 69 80
62 70 80
62 70 80
61 69 80
62 70 80
60 69 80
60 69 80
61 69 80
61 70 80
62 70 80
60 69 80
60 69 80
63 70 80
60 69 80
60 67 76
63 70 80
62 70 80
62 70 80
62 70 80
61 70 80
61 70 80
62 70 80
62 70 80
61 70 80
61 70 80
61 69 80
61 69 80
63 70 80
60 69 80
60 69 80
62 70 80
61 69 80
63 70 80
61 70 80
60 69 80
63 70 80
61 69 80
61 70 80
61 69 80
62 70 80
63 70 80
61 70 80
62 70 80
61 70 80
59 68 80
61 69 80
60 69 80
60 69 80
63 70 80
60 69 80
61 69 80
61 70 80
61 69 80
62 70 80
61 69 80
63 70 80
61 69 80
63 71 80
62 70 80
63 71 80
62 70 80
59 67 77
61 69 80
60 69 80
60 69 80
61 69 80
60 69 80
60 69 80
61 69 80
61 70 80
61 70 80
62 70 80
59 67 77
62 70 80
60 69 80
60 69 80
62 70 80
62 70 80
61 70 80
62 70 80
64 71 80
61 70 80
61 70 80
63 71 80
61 69 80
62 70 80
60 69 80
61 70 80
61 69 80
62 70 80
59 69 80
60 69 80
61 69 80
61 70 80
63 70 80
58 66 76
62 70 80
62 70 80
60 67 77
60 69 80
61 69 80
60 69 80
62 70 80
60 69 80
61 69 80
61 70 80
60 69 80
61 69 80
63 70 80
60 69 80
61 70 80
61 70 80
62 70 80
63 70 80
63 71 80
60 69 80
61 69 80
62 70 80
60 69 80
61 69 80
61 69 80
61 70 80
62 70 80
62 70 80
63 70 80
61 69 80
61 70 80
61 70 80
62 70 80
61 70 80
60 69 80
62 70 80
61 70 80
60 69 80
61 70 80
60 69 80
60 69 80
62 70 80
61 70 80
62 70 80
61 69 80
61 69 80
61 69 80
61 69 80
61 69 80
60 69 80
61 70 80
59 66 77
57 65 76
59 66 77
62 70 80
61 69 80
62 70 80
60 67 77
45 49 54
47 52 59
35 38 42
44 48 54
37 42 48
53 58 64
33 36 40
52 57 64
38 42 47
53 57 63
48 53 59
53 58 64
43 48 54
33 36 41
44 49 54
59 65 73
46 49 54
48 53 60
46 49 54
48 53 60
45 49 54
46 52 60
60 65 73
59 65 72
56 61 68
17 20 23
39 43 48
44 49 54
48 53 60
45 49 54
52 57 64
37 42 49
53 58 64
48 53 59
48 53 60
49 54 60
46 52 60
43 48 54
54 60 68
31 35 42
48 53 59
39 43 49
47 52 60
49 53 60
56 61 69
28 31 35
49 53 59
52 57 64
40 43 48
50 54 60
35 38 42
50 56 64
48 52 58
45 49 54
50 54 60
39 43 48
32 37 42
44 48 54
51 57 64
47 52 59
27 29 32
43 48 54
33 37 42
45 49 54
39 43 48
43 48 54
43 48 54
48 53 60
47 53 60
51 56 64
52 57 64
45 49 54
39 43 49
45 49 54
40 44 49
54 60 68
49 54 60
39 43 48
38 42 47
40 44 49
43 48 54
47 52 60
54 58 64
39 43 48
46 51 58
43 48 54
56 61 69
39 43 49
57 62 69
58 65 73
49 53 59
44 48 53
56 61 69
52 57 64
50 54 60
43 47 54
45 48 53
52 57 64
53 58 64
38 42 48
48 52 58
60 65 72
53 58 64
44 48 54
37 41 47
48 53 59
44 48 54
59 65 73
39 42 47
48 53 59
50 54 60
44 48 54
47 52 60
45 49 54
49 53 59
35 38 42
37 41 47
33 36 41
33 36 41
49 53 60
54 60 68
62 70 80
64 71 80
61 69 80
59 66 76
62 70 80
60 69 80
62 70 80
62 70 80
61 70 80
61 69 80
59 67 77
62 70 80
61 69 80
60 69 80
61 69 80
64 71 80
62 70 80
62 70 80
60 69 80
61 69 80
62 70 80
62 70 80
59 66 76
57 66 76
63 70 80
62 70 80
63 70 80
59 68 80
62 70 80
62 70 80
63 70 80
60 69 80
61 69 80
62 70 80
61 69 80
62 70 80
61 70 80
61 69 80
61 69 80
60 69 80
60 69 80
59 68 80
63 71 80
62 70 80
63 71 80
63 70 80
60 67 76
63 70 80
61 70 80
60 69 80
61 70 80
60 69 80
61 69 80
58 66 76
63 70 80
61 70 80
61 69 80
60 69 80
60 67 77
62 70 80
60 69 80
60 69 80
64 71 80
61 69 80
62 70 80
60 69 80
63 70 80
61 69 80
63 70 80
61 70 80
61 69 80
61 70 80
64 71 80
61 69 80
61 70 80
62 70 80
62 70 80
61 70 80
63 70 80
62 70 80
61 69 80
61 69 80
62 70 80
61 69 80
60 69 80
63 71 80
62 70 80
61 69 80
62 70 80
62 70 80
61 69 80
62 70 80
61 69 80
62 70 80
62 70 80
60 69 80
63 71 80
61 70 80
62 70 80
61 69 80
61 70 80
62 70 80
61 70 80
61 69 80
61 69 80
61 70 80
63 70 80
61 70 80
61 70 80
62 70 80
63 70 80
61 69 80
61 69 80
60 69 80
60 69 80
61 69 80
60 69 80
60 69 80
60 69 80
63 71 80
59 69 80
60 69 80
62 70 80
63 71 80
61 69 80
63 70 80
62 70 80
62 70 80
62 70 80
61 70 80
62 70 80
63 70 80
62 70 80
61 70 80
61 70 80
61 70 80
61 70 80
62 70 80
60 69 80
61 69 80
61 70 80
61 69 80
62 70 80
62 70 80
61 70 80
60 69 80
61 70 80
62 70 80
60 69 80
63 70 80
60 69 80
61 69 80
61 69 80
62 70 80
61 69 80
62 70 80
59 68 80
63 70 80
60 69 80
61 69 80
62 70 80
62 70 80
61 70 80
63 70 80
61 69 80
62 70 80
61 70 80
62 70 80
61 69 80
60 69 80
60 69 80
62 70 80
61 70 80
64 71 80
61 69 80
60 69 80
62 70 80
61 69 80
61 70 80
60 69 80
62 70 80
62 70 80
61 69 80
61 70 80
61 69 80
60 69 80
61 69 80
60 69 80
60 69 80
61 69 80
62 70 80
63 70 80
61 70 80
61 70 80
61 69 80
59 69 80
60 69 80
62 70 80
63 70 80
60 69 80
61 69 80
60 69 80
61 69 80
61 70 80
60 69 80
61 69 80
61 69 80
60 69 80
60 69 80
62 70 80
61 69 80
62 70 80
60 69 80
62 70 80
61 70 80
61 70 80
60 69 80
62 70 80
61 69 80
62 70 80
63 71 80
61 70 80
61 70 80
61 69 80
63 70 80
60 69 80
62 70 80
62 70 80
58 66 77
61 69 80
62 70 80
62 70 80
62 70 80
62 70 80
60 69 80
62 70 80
63 71 80
63 71 80
58 66 76
62 70 80
62 70 80
62 70 80
61 69 80
61 69 80
61 69 80
63 71 80
61 69 80
62 70 80
62 70 80
61 69 80
61 69 80
58 66 77
60 69 80
61 70 80
60 69 80
62 70 80
62 70 80
62 70 80
62 70 80
63 71 80
61 69 80
62 70 80
62 70 80
61 69 80
61 69 80
62 70 80
60 69 80
61 69 80
61 70 80
60 69 80
63 70 80
64 71 80
62 70 80
62 70 80
62 70 80
60 69 80
62 70 80
58 66 76
61 70 80
42 47 54
57 64 72
33 37 42
51 57 64
47 52 59
46 52 60
34 37 42
40 43 49
52 57 64
47 52 59
48 53 60
26 30 35
31 35 40
25 29 34
52 57 64
47 52 58
43 48 54
51 56 63
48 53 59
45 49 53
35 38 42
39 43 48
42 48 54
39 43 49
47 52 59
35 38 42
47 53 60
40 44 48
48 53 60
52 57 64
44 48 54
42 47 53
49 53 59
48 52 58
44 49 54
27 29 33
44 48 54
52 57 64
48 53 59
44 48 54
60 66 73
40 44 49
44 48 54
51 57 64
32 37 42
33 37 42
49 53 60
53 58 64
55 61 69
52 57 64
53 58 64
40 44 49
49 53 60
45 49 54
56 62 69
50 54 60
48 53 60
48 53 60
53 58 64
51 57 64
53 57 64
54 58 64
48 53 59
44 48 54
39 43 49
48 53 59
49 53 60
44 48 53
48 52 59
51 56 64
48 53 60
39 43 48
43 48 54
39 43 49
34 38 42
35 38 42
43 48 54
52 57 64
44 48 54
51 57 64
47 52 60
43 48 54
44 48 54
56 61 68
48 53 60
33 37 42
44 48 54
45 49 54
51 56 64
51 55 60
48 52 59
43 48 54
45 49 54
51 57 64
56 61 69
44 48 54
54 59 64
59 65 73
48 53 60
45 49 54
48 53 60
56 61 68
58 62 69
49 53 59
25 29 34
46 49 54
52 57 64
42 47 54
35 38 42
43 48 54
43 47 53
45 48 54
44 48 54
44 48 53
50 54 60
48 53 60
43 48 54
44 48 54
53 58 64
49 53 60
58 66 77
60 69 80
60 69 80
59 68 80
62 70 80
61 69 80
61 70 80
60 69 80
62 70 80
62 70 80
61 70 80
61 69 80
61 70 80
57 66 76
61 70 80
61 69 80
62 70 80
59 66 76
56 63 73
61 70 80
61 70 80
61 69 80
60 69 80
61 69 80
60 69 80
61 70 80
62 70 80
61 69 80
62 70 80
60 69 80
58 66 76
59 67 77
61 69 80
62 70 80
61 69 80
63 71 80
60 69 80
60 69 80
61 70 80
61 69 80
61 69 80
62 70 80
60 69 80
61 69 80
61 70 80
62 70 80
62 70 80
60 69 80
62 70 80
62 70 80
60 69 80
61 69 80
60 69 80
62 70 80
62 70 80
62 70 80
62 70 80
62 70 80
61 69 80
63 71 80
62 70 80
62 70 80
62 70 80
62 70 80
61 69 80
62 70 80
62 70 80
61 69 80
61 70 80
58 66 77
61 69 80
61 69 80
62 70 80
62 70 80
61 70 80
62 70 80
60 69 80
63 70 80
60 69 80
62 70 80
60 69 80
59 69 80
61 70 80
62 70 80
62 70 80
60 69 80
62 70 80
61 70 80
61 69 80
59 69 80
61 70 80
60 69 80
60 69 80
62 70 80
62 70 80
62 70 80
62 70 80
59 67 77
61 70 80
61 69 80
61 69 80
61 70 80
62 70 80
60 69 80
62 70 80
61 70 80
61 69 80
60 69 80
61 69 80
59 68 80
63 71 80
61 70 80
61 70 80
60 69 80
62 70 80
61 70 80
62 70 80
60 69 80
62 70 80
62 70 80
61 69 80
61 69 80
62 70 80
63 71 80
62 70 80
61 69 80
61 70 80
62 70 80
61 70 80
63 70 80
61 69 80
61 69 80
61 70 80
62 70 80
61 69 80
60 69 80
61 70 80
62 70 80
60 69 80
62 70 80
62 70 80
61 70 80
60 69 80
61 69 80
61 70 80
62 70 80
62 70 80
61 69 80
60 69 80
61 69 80
63 70 80
61 69 80
62 70 80
61 69 80
60 69 80
62 70 80
60 69 80
60 69 80
61 69 80
61 70 80
61 69 80
63 70 80
61 70 80
61 69 80
61 69 80
61 69 80
60 69 80
63 71 80
63 70 80
60 69 80
60 69 80
60 69 80
62 70 80
62 70 80
62 70 80
61 70 80
61 69 80
62 70 80
62 70 80
63 70 80
61 69 80
61 70 80
61 70 80
59 68 80
63 71 80
61 69 80
60 69 80
62 70 80
61 70 80
61 69 80
61 69 80
63 70 80
60 69 80
62 70 80
61 69 80
62 70 80
60 69 80
62 70 80
61 70 80
62 70 80
62 70 80
62 70 80
60 69 80
61 70 80
61 69 80
61 70 80
61 69 80
61 70 80
60 69 80
64 71 80
61 70 80
61 69 80
61 69 80
60 69 80
62 70 80
60 69 80
62 70 80
62 70 80
62 70 80
59 68 80
62 70 80
60 69 80
61 69 80
61 70 80
61 69 80
61 70 80
63 71 80
61 69 80
60 69 80
61 69 80
61 69 80
62 70 80
61 70 80
60 69 80
59 68 80
61 69 80
60 69 80
62 70 80
62 70 80
62 70 80
63 70 80
62 70 80
60 69 80
62 70 80
61 69 80
60 69 80
61 70 80
62 70 80
58 66 76
62 70 80
61 70 80
59 67 77
64 71 80
58 66 76
62 70 80
61 69 80
61 69 80
61 69 80
56 63 72
62 70 80
62 70 80
60 69 80
59 69 80
61 69 80
61 69 80
62 70 80
60 69 80
63 71 80
62 70 80
60 69 80
59 69 80
64 71 80
61 70 80
58 66 77
60 69 80
59 67 77
60 69 80
61 69 80
62 70 80
61 69 80
42 47 54
38 43 48
48 53 59
28 30 34
51 57 64
49 53 60
42 47 54
41 46 53
43 48 54
33 36 42
44 48 53
58 64 73
46 52 59
59 65 73
44 48 54
34 37 41
44 49 54
49 53 60
42 47 54
49 53 59
38 42 49
49 53 59
38 43 49
45 49 54
52 57 64
28 31 35
50 54 60
44 48 54
40 43 48
53 58 64
37 42 48
50 54 60
33 36 41
39 43 49
54 58 64
28 30 34
48 53 60
34 37 42
50 56 64
49 53 58
48 52 58
41 44 49
38 42 47
52 57 64
43 48 54
52 57 64
51 56 64
48 53 59
49 53 59
54 58 64
45 49 54
45 49 54
48 53 60
32 36 42
33 37 42
51 57 64
52 57 64
49 54 60
40 43 48
52 57 64
48 53 59
51 56 64
44 48 54
40 44 49
43 48 54
27 30 34
27 30 34
56 61 69
38 42 48
45 51 59
57 62 69
43 48 54
40 44 49
34 38 42
40 43 48
41 44 49
42 47 54
39 43 48
52 57 64
50 54 60
53 58 64
28 31 35
40 44 49
42 48 54
49 53 58
38 42 48
40 44 49
55 59 64
48 53 60
47 52 59
53 57 64
44 48 54
52 57 64
45 49 54
53 58 64
38 42 48
42 47 54
44 48 54
50 54 59
42 47 54
52 57 64
48 53 60
54 58 64
43 48 54
50 54 60
39 42 47
52 57 64
39 43 49
48 53 60
33 37 42
53 58 64
45 49 54
39 43 48
54 58 64
48 53 60
53 58 64
53 60 68
34 37 42
53 57 64
47 52 59
58 66 76
62 70 80
60 69 80
59 69 80
61 69 80
63 70 80
60 69 80
62 70 80
59 67 77
60 69 80
62 70 80
61 70 80
61 70 80
61 69 80
60 69 80
61 69 80
62 70 80
60 69 80
61 69 80
60 69 80
63 70 80
60 69 80
62 70 80
59 68 80
62 70 80
61 69 80
62 70 80
61 69 80
61 70 80
61 69 80
61 70 80
60 69 80
61 69 80
60 69 80
61 69 80
63 70 80
62 70 80
59 66 76
62 70 80
61 70 80
58 66 77
57 66 77
62 70 80
61 69 80
62 70 80
62 70 80
62 70 80
62 70 80
61 69 80
62 70 80
61 69 80
60 69 80
62 70 80
61 69 80
60 69 80
61 69 80
60 69 80
60 69 80
60 69 80
61 69 80
58 66 77
61 69 80
62 70 80
60 69 80
61 69 80
62 70 80
62 70 80
62 70 80
63 70 80
62 70 80
64 71 80
63 71 80
62 70 80
61 70 80
62 70 80
61 69 80
63 70 80
62 70 80
61 70 80
62 70 80
62 70 80
62 70 80
62 70 80
62 70 80
61 70 80
61 70 80
60 69 80
61 70 80
61 69 80
61 69 80
61 70 80
63 70 80
63 70 80
61 69 80
58 66 77
61 70 80
64 71 80
62 70 80
61 69 80
63 70 80
63 71 80
61 70 80
60 69 80
62 70 80
62 70 80
60 69 80
61 69 80
62 70 80
60 69 80
61 69 80
61 70 80
62 70 80
61 70 80
63 70 80
62 70 80
61 70 80
62 70 80
61 69 80
60 69 80
60 69 80
61 70 80
60 69 80
60 69 80
61 70 80
61 69 80
61 70 80
61 69 80
61 69 80
61 69 80
62 70 80
59 68 80
62 70 80
62 70 80
61 69 80
62 70 80
59 68 80
61 69 80
61 69 80
61 70 80
62 70 80
61 70 80
62 70 80
60 69 80
62 70 80
61 70 80
60 69 80
61 69 80
59 68 80
62 70 80
63 71 80
61 70 80
61 70 80
62 70 80
61 70 80
62 70 80
60 69 80
61 70 80
60 69 80
62 70 80
63 71 80
62 70 80
59 69 80
62 70 80
61 69 80
60 69 80
61 69 80
61 70 80
61 70 80
62 70 80
62 70 80
62 70 80
61 70 80
61 69 80
61 69 80
61 69 80
62 70 80
61 70 80
62 70 80
61 70 80
61 69 80
62 70 80
62 70 80
62 70 80
61 69 80
61 69 80
61 70 80
61 70 80
64 71 80
62 70 80
61 70 80
62 70 80
60 69 80
60 69 80
61 70 80
61 69 80
61 69 80
61 69 80
59 69 80
61 69 80
62 70 80
61 70 80
61 69 80
64 71 80
62 70 80
60 69 80
60 69 80
61 69 80
62 70 80
63 70 80
60 69 80
64 71 80
62 70 80
63 70 80
61 69 80
61 70 80
63 70 80
62 70 80
62 70 80
63 70 80
60 69 80
60 69 80
60 69 80
57 66 76
60 69 80
61 69 80
61 70 80
61 70 80
62 70 80
62 70 80
61 70 80
61 70 80
60 69 80
61 69 80
63 70 80
61 70 80
61 70 80
60 69 80
60 69 80
63 70 80
58 68 80
64 71 80
61 69 80
62 70 80
62 70 80
61 70 80
60 69 80
62 70 80
52 61 72
62 70 80
61 70 80
62 70 80
57 66 76
61 70 80
62 70 80
62 70 80
61 70 80
62 70 80
62 70 80
58 66 76
59 67 77
64 71 80
63 71 80
62 70 80
62 70 80
61 69 80
61 69 80
62 70 80
61 69 80
61 69 80
61 70 80
61 70 80
63 71 80
55 63 73
59 68 80
61 69 80
61 69 80
60 69 80
61 70 80
63 70 80
61 70 80
63 70 80
38 43 48
26 30 35
44 49 54
44 49 54
34 37 42
35 38 42
49 53 60
45 49 54
44 48 54
43 48 54
47 52 59
40 43 49
49 53 60
44 48 53
33 36 40
40 44 49
50 54 60
52 57 64
49 53 60
38 42 48
39 43 49
44 49 54
39 43 48
54 58 64
40 44 49
37 42 47
51 56 64
55 61 68
50 54 60
40 43 48
39 43 49
38 42 49
45 49 54
49 54 60
49 54 60
44 48 53
48 53 59
40 43 47
45 49 54
38 42 46
41 44 49
50 54 60
32 36 42
52 57 63
44 48 54
50 54 60
44 48 54
54 58 64
39 43 49
61 66 73
47 52 60
48 53 60
50 54 60
44 49 54
52 57 64
50 54 60
35 38 42
41 47 54
50 54 60
44 48 54
51 57 64
35 38 42
48 52 59
48 53 60
54 58 64
45 49 54
55 61 69
39 43 48
49 53 60
42 47 54
52 57 64
49 53 60
40 44 49
39 43 49
44 48 54
45 49 54
43 48 54
25 28 32
53 57 64
44 49 54
44 48 54
50 56 64
38 42 47
51 56 63
44 48 54
26 29 33
43 48 54
41 44 48
27 30 35
28 31 35
45 49 54
52 57 64
37 41 47
53 58 64
44 48 54
38 42 48
33 37 42
44 48 54
34 38 42
53 58 64
40 43 48
45 49 54
50 56 64
34 38 42
40 44 49
33 37 42
38 43 49
45 49 54
45 49 54
28 31 35
49 54 60
39 43 49
38 43 49
34 36 40
40 43 48
56 61 69
52 57 64
33 37 42
61 69 80
61 69 80
61 69 80
62 70 80
62 70 80
64 71 80
60 69 80
60 69 80
60 69 80
60 69 80
62 70 80
61 69 80
60 69 80
61 68 77
61 69 80
61 69 80
62 70 80
59 68 80
61 70 80
61 70 80
62 70 80
57 65 76
59 67 77
63 70 80
60 69 80
60 69 80
60 67 77
58 66 77
55 62 72
60 69 80
61 70 80
62 70 80
62 70 80
60 69 80
60 69 80
60 69 80
58 66 77
61 69 80
61 70 80
60 69 80
60 69 80
61 69 80
63 71 80
62 70 80
61 69 80
61 70 80
62 70 80
61 69 80
61 69 80
62 70 80
61 70 80
61 69 80
61 70 80
60 69 80
61 70 80
60 69 80
61 69 80
61 70 80
62 70 80
62 70 80
61 69 80
62 70 80
61 69 80
62 70 80
59 68 80
61 69 80
61 69 80
60 69 80
64 71 80
61 69 80
60 69 80
62 70 80
60 69 80
63 71 80
60 69 80
61 69 80
64 71 80
62 70 80
63 71 80
62 70 80
60 69 80
62 70 80
62 70 80
61 69 80
60 69 80
61 70 80
61 69 80
60 69 80
62 70 80
61 69 80
62 70 80
62 70 80
64 71 80
62 70 80
63 71 80
61 69 80
63 70 80
63 71 80
62 70 80
61 70 80
61 69 80
60 69 80
61 69 80
60 69 80
61 69 80
60 69 80
61 70 80
61 69 80
61 69 80
61 69 80
62 70 80
61 69 80
62 70 80
63 70 80
62 70 80
62 70 80
62 70 80
61 69 80
62 70 80
62 70 80
61 69 80
60 69 80
61 69 80
62 70 80
63 70 80
61 70 80
62 70 80
61 70 80
61 69 80
61 69 80
62 70 80
61 69 80
57 65 76
62 70 80
61 70 80
62 70 80
63 70 80
61 70 80
62 70 80
62 70 80
61 70 80
61 70 80
61 69 80
63 70 80
59 69 80
59 69 80
60 69 80
62 70 80
63 71 80
62 70 80
61 69 80
62 70 80
61 70 80
61 69 80
63 70 80
59 67 77
60 69 80
62 70 80
60 69 80
61 69 80
61 69 80
61 69 80
61 69 80
62 70 80
61 70 80
60 69 80
60 69 80
61 70 80
62 70 80
61 70 80
61 69 80
61 69 80
62 70 80
61 69 80
60 69 80
61 69 80
61 69 80
61 70 80
60 69 80
61 69 80
61 70 80
61 70 80
62 70 80
61 69 80
61 70 80
62 70 80
61 69 80
60 69 80
62 70 80
61 70 80
63 70 80
64 71 80
61 69 80
61 70 80
61 69 80
60 69 80
61 69 80
63 70 80
61 69 80
61 69 80
61 70 80
60 69 80
62 70 80
61 70 80
62 70 80
62 70 80
61 69 80
62 70 80
60 67 77
60 69 80
62 70 80
61 70 80
61 69 80
63 70 80
62 70 80
59 69 80
61 70 80
62 70 80
62 70 80
62 70 80
64 71 80
61 69 80
61 69 80
62 70 80
61 70 80
61 70 80
64 71 80
59 69 80
61 69 80
63 71 80
61 69 80
60 69 80
61 69 80
62 70 80
61 69 80
61 70 80
61 70 80
60 69 80
61 70 80
62 70 80
61 69 80
61 69 80
63 70 80
61 69 80
61 70 80
59 68 80
62 70 80
59 67 77
62 70 80
62 70 80
62 70 80
62 70 80
62 70 80
58 66 76
60 67 77
63 70 80
61 69 80
60 69 80
60 69 80
61 69 80
62 70 80
62 70 80
61 69 80
63 70 80
60 69 80
63 70 80
63 71 80
60 69 80
61 69 80
60 69 80
55 63 72
60 69 80
60 69 80
60 69 80
61 70 80
61 70 80
61 69 80
62 70 80
61 70 80
63 70 80
61 69 80
59 67 77
52 59 69
44 48 54
45 49 54
43 48 54
44 49 54
54 58 64
37 42 48
44 48 54
44 48 54
38 42 48
45 49 54
56 61 69
45 49 54
45 49 54
52 57 64
44 48 53
40 44 49
44 48 54
32 35 40
45 49 54
57 62 69
51 57 64
33 37 42
37 42 49
53 58 64
45 49 54
49 53 60
41 44 49
44 48 54
43 47 53
44 48 53
45 49 54
27 30 35
44 48 54
59 65 72
57 62 68
54 58 64
49 53 60
48 52 58
51 57 64
49 53 60
52 57 64
57 62 68
43 47 53
35 38 42
44 48 54
43 48 54
42 48 54
52 57 64
43 47 54
38 43 49
44 48 54
48 53 60
49 53 60
44 48 54
39 43 48
43 48 54
40 44 49
38 42 48
59 65 73
40 43 49
56 62 69
44 48 53
44 48 53
43 48 54
39 43 48
42 46 51
47 53 60
32 37 42
46 49 54
44 48 54
32 36 41
43 48 54
39 43 49
49 53 59
49 54 60
45 49 54
38 42 48
32 36 42
49 53 59
43 47 54
41 44 49
44 48 53
43 48 53
44 48 54
39 43 49
43 48 54
33 37 41
38 42 47
51 57 64
45 49 54
44 48 54
40 43 49
33 37 42
50 54 60
40 43 48
44 48 53
53 58 64
42 47 54
53 58 64
37 42 48
56 62 69
55 61 68
44 48 54
40 44 48
40 43 48
48 53 60
49 53 60
61 66 73
39 42 47
44 48 54
44 48 54
44 48 54
48 53 59
40 43 48
48 53 60
52 57 64
57 64 72
62 70 80
60 69 80
59 66 77
61 69 80
58 66 76
61 69 80
59 67 77
58 66 77
62 70 80
61 70 80
58 68 80
62 70 80
62 70 80
57 66 77
63 71 80
53 60 69
62 70 80
61 70 80
62 70 80
63 71 80
61 69 80
62 70 80
61 70 80
60 69 80
61 69 80
63 70 80
62 70 80
62 70 80
60 69 80
61 70 80
61 69 80
58 66 76
63 71 80
62 70 80
63 70 80
61 69 80
62 70 80
62 70 80
60 69 80
60 67 77
60 69 80
62 70 80
62 70 80
61 69 80
62 70 80
61 70 80
61 70 80
58 66 76
62 70 80
60 69 80
61 69 80
62 70 80
61 69 80
62 70 80
61 70 80
59 66 76
61 69 80
63 70 80
59 66 77
62 70 80
61 69 80
63 71 80
61 70 80
60 69 80
62 70 80
61 69 80
62 70 80
60 69 80
62 70 80
60 69 80
63 70 80
61 69 80
63 71 80
63 70 80
61 69 80
59 68 80
60 69 80
60 69 80
61 70 80
60 69 80
63 71 80
60 69 80
62 70 80
60 69 80
60 69 80
62 70 80
62 70 80
60 69 80
62 70 80
62 70 80
60 69 80
59 69 80
60 69 80
62 70 80
62 70 80
62 70 80
60 69 80
64 71 80
59 67 77
59 67 76
61 70 80
60 69 80
60 69 80
62 70 80
62 70 80
61 70 80
62 70 80
61 69 80
60 69 80
60 69 80
61 70 80
59 67 77
62 70 80
62 70 80
61 69 80
62 70 80
60 69 80
62 70 80
60 69 80
62 70 80
61 69 80
59 68 80
63 71 80
61 70 80
61 69 80
60 69 80
61 70 80
61 70 80
61 69 80
61 69 80
62 70 80
62 70 80
61 69 80
62 70 80
62 70 80
62 70 80
60 69 80
61 69 80
61 70 80
62 70 80
61 70 80
62 70 80
59 68 80
61 69 80
61 70 80
61 69 80
62 70 80
63 70 80
61 69 80
60 69 80
62 70 80
62 70 80
60 69 80
61 69 80
60 69 80
62 70 80
61 69 80
60 69 80
62 70 80
61 70 80
60 69 80
61 70 80
60 69 80
61 70 80
61 69 80
61 69 80
62 70 80
59 69 80
61 70 80
61 70 80
61 69 80
61 69 80
62 70 80
62 70 80
60 69 80
61 69 80
59 68 80
61 69 80
61 69 80
61 69 80
61 69 80
60 69 80
60 69 80
62 70 80
61 70 80
63 71 80
61 70 80
61 69 80
63 71 80
62 70 80
61 69 80
61 69 80
62 70 80
62 70 80
59 69 80
61 69 80
60 69 80
60 69 80
62 70 80
63 70 80
62 70 80
61 70 80
61 69 80
61 69 80
61 70 80
62 70 80
60 69 80
63 70 80
63 70 80
62 70 80
62 70 80
61 69 80
59 68 80
61 69 80
63 71 80
60 69 80
62 70 80
62 70 80
60 69 80
61 69 80
61 70 80
61 70 80
62 70 80
58 66 76
61 70 80
63 70 80
61 70 80
59 68 80
60 69 80
61 70 80
61 69 80
59 68 80
61 69 80
59 69 80
60 69 80
61 69 80
63 71 80
61 69 80
62 70 80
61 69 80
62 70 80
62 70 80
62 70 80
51 58 68
61 69 80
58 66 76
62 70 80
61 69 80
60 69 80
63 70 80
62 70 80
63 71 80
60 69 80
60 69 80
62 70 80
62 70 80
61 69 80
61 70 80
61 69 80
61 70 80
61 69 80
57 63 72
59 67 77
59 69 80
61 69 80
58 66 76
59 68 80
62 70 80
61 69 80
61 69 80
61 70 80
61 69 80
57 64 72
60 69 80
61 69 80
57 66 77
63 70 80
61 70 80
58 66 76
58 66 77
58 66 77
59 66 76
57 66 77
18 21 24
48 53 60
33 36 41
52 57 63
49 53 60
53 58 64
44 48 54
43 48 54
41 44 49
54 58 64
38 43 49
35 38 42
52 57 64
45 49 54
39 43 48
38 43 49
45 49 54
38 42 49
48 53 60
48 53 60
49 54 60
49 54 60
43 48 54
48 52 58
40 43 47
50 54 59
51 54 60
48 53 60
52 57 64
52 57 64
45 49 54
44 49 54
38 42 48
29 31 35
49 53 59
52 57 64
45 48 54
48 52 58
40 43 48
49 53 58
40 43 48
33 37 42
34 38 42
41 44 49
33 37 42
43 47 52
40 44 48
50 54 60
49 53 60
50 56 64
33 37 42
52 57 64
49 54 60
43 47 53
49 53 59
44 48 54
41 44 49
38 42 48
44 48 54
48 53 60
60 65 72
40 43 47
57 62 69
48 53 60
35 38 42
34 38 42
45 49 54
54 58 64
55 61 69
32 36 42
53 58 64
43 48 54
33 37 42
48 53 60
52 57 64
44 48 54
40 44 48
49 54 60
54 58 64
47 52 59
48 53 60
51 57 64
44 48 54
52 57 64
49 53 59
49 53 60
35 38 42
33 36 42
52 57 64
49 53 58
37 42 49
39 43 49
39 43 48
55 61 69
43 47 53
39 43 48
50 54 59
48 53 60
43 48 54
48 53 59
49 54 60
47 53 60
48 53 59
48 53 59
43 48 54
54 58 64
52 57 64
34 37 42
44 48 54
46 49 54
48 53 59
45 49 54
47 52 58
60 65 73
44 48 54
38 43 49
55 63 73
62 70 80
60 69 80
62 70 80
63 70 80
62 70 80
62 70 80
59 68 80
59 67 77
61 69 80
60 69 80
57 65 76
62 70 80
61 69 80
62 70 80
61 69 80
62 70 80
58 66 76
62 70 80
62 70 80
57 66 76
59 67 76
60 69 80
62 70 80
61 70 80
62 70 80
60 69 80
62 70 80
62 70 80
62 70 80
60 67 76
61 70 80
62 70 80
61 69 80
62 70 80
62 70 80
62 70 80
61 70 80
61 70 80
60 69 80
58 66 76
61 70 80
58 66 77
61 70 80
59 69 80
60 69 80
61 69 80
61 69 80
60 69 80
61 69 80
62 70 80
61 69 80
62 70 80
62 70 80
62 70 80
62 70 80
61 70 80
61 70 80
62 70 80
61 69 80
62 70 80
62 70 80
61 69 80
63 71 80
61 70 80
61 70 80
62 70 80
61 70 80
58 66 76
61 69 80
62 70 80
61 70 80
62 70 80
60 69 80
62 70 80
59 69 80
61 69 80
60 69 80
62 70 80
63 70 80
61 69 80
60 69 80
60 69 80
61 69 80
61 69 80
59 69 80
60 69 80
60 69 80
60 69 80
60 69 80
61 69 80
61 70 80
62 70 80
63 71 80
61 69 80
59 69 80
61 69 80
62 70 80
61 70 80
61 70 80
61 70 80
63 71 80
61 70 80
62 70 80
60 69 80
62 70 80
64 71 80
63 70 80
63 70 80
61 70 80
62 70 80
61 69 80
61 69 80
62 70 80
62 70 80
62 70 80
60 69 80
61 70 80
58 66 77
61 70 80
62 70 80
64 71 80
60 69 80
57 65 76
62 70 80
61 70 80
61 69 80
60 69 80
61 69 80
62 70 80
61 69 80
61 70 80
63 71 80
61 69 80
62 70 80
60 69 80
63 70 80
61 69 80
61 70 80
62 70 80
62 70 80
62 70 80
62 70 80
62 70 80
62 70 80
63 71 80
62 70 80
60 69 80
61 70 80
62 70 80
61 70 80
63 70 80
62 70 80
61 69 80
62 70 80
61 69 80
61 70 80
61 70 80
62 70 80
60 69 80
61 69 80
62 70 80
61 69 80
62 70 80
60 69 80
62 70 80
62 70 80
63 71 80
62 70 80
61 69 80
61 69 80
60 69 80
61 70 80
60 69 80
61 69 80
61 69 80
60 69 80
63 70 80
60 69 80
62 70 80
61 69 80
61 69 80
62 70 80
64 71 80
62 70 80
60 69 80
61 69 80
58 66 76
62 70 80
63 71 80
62 70 80
57 66 77
61 69 80
61 69 80
61 69 80
61 69 80
61 69 80
60 69 80
61 70 80
61 70 80
62 70 80
61 70 80
61 69 80
61 70 80
61 70 80
61 70 80
61 69 80
59 67 76
61 70 80
60 69 80
62 70 80
63 70 80
60 69 80
60 69 80
63 70 80
63 70 80
62 70 80
60 69 80
61 70 80
63 71 80
61 69 80
63 70 80
61 69 80
61 70 80
60 69 80
63 70 80
63 70 80
62 70 80
61 69 80
60 69 80
63 70 80
63 71 80
62 70 80
61 70 80
63 71 80
60 69 80
60 69 80
59 67 76
62 70 80
61 70 80
60 69 80
62 70 80
62 70 80
60 69 80
61 69 80
61 69 80
60 69 80
62 70 80
61 70 80
63 70 80
59 66 77
61 70 80
61 69 80
61 70 80
58 66 77
61 69 80
62 70 80
60 69 80
58 66 77
60 67 76
61 69 80
57 66 77
60 67 77
61 70 80
62 70 80
62 70 80
61 69 80
62 70 80
61 70 80
61 70 80
59 68 80
61 70 80
62 70 80
58 66 77
61 69 80
57 66 77
62 70 80
61 69 80
60 69 80
60 69 80
60 69 80
62 70 80
61 69 80
59 66 76
43 50 58
48 53 60
34 38 42
34 38 42
34 37 41
40 44 48
52 57 64
48 52 59
45 49 54
45 49 54
45 49 54
39 42 47
52 57 64
44 48 53
49 53 58
53 58 64
39 43 48
41 44 49
54 58 64
44 48 53
40 44 49
50 54 60
26 29 32
40 44 49
49 54 60
56 61 69
33 36 41
50 54 59
44 48 54
44 48 53
53 57 64
39 43 49
33 36 41
49 53 59
49 53 58
52 57 64
52 57 64
38 42 48
40 44 49
45 49 54
48 53 59
52 57 64
40 43 49
36 41 48
51 56 64
36 41 48
48 53 59
39 43 49
43 47 53
34 37 42
33 37 42
46 49 54
34 38 42
48 53 60
48 53 58
43 48 54
47 52 60
43 48 54
33 36 40
39 42 47
49 53 60
49 53 60
57 62 69
34 38 42
53 58 64
44 49 54
56 61 69
48 52 58
40 44 49
57 62 69
48 53 60
34 38 42
43 47 53
49 53 60
55 61 69
47 52 60
44 49 54
47 53 60
37 42 48
39 43 48
35 38 42
44 49 54
45 49 54
39 43 49
48 53 60
40 44 49
46 49 54
42 47 54
48 52 58
44 48 54
32 36 41
48 53 60
53 58 64
45 49 54
38 43 49
39 43 48
44 48 54
43 47 53
34 37 42
49 53 59
45 49 54
46 52 59
50 54 60
49 53 59
38 43 48
50 54 60
43 47 54
51 57 64
55 60 68
47 52 59
40 44 49
34 37 42
49 54 60
38 43 48
45 49 54
55 61 69
61 70 80
57 66 76
63 70 80
59 69 80
61 69 80
62 70 80
58 66 77
62 70 80
62 70 80
60 69 80
59 67 77
55 63 72
60 69 80
56 63 73
59 66 76
61 70 80
60 67 76
62 70 80
61 70 80
61 69 80
60 69 80
60 67 77
60 69 80
61 70 80
61 70 80
61 70 80
61 69 80
59 66 76
61 69 80
58 66 77
62 70 80
61 69 80
61 70 80
61 69 80
61 69 80
59 67 77
62 70 80
61 69 80
60 69 80
63 70 80
60 69 80
64 71 80
61 70 80
61 69 80
59 67 76
58 66 76
61 70 80
60 69 80
61 69 80
60 69 80
62 70 80
63 71 80
57 65 76
62 70 80
60 69 80
61 69 80
60 69 80
59 67 77
61 69 80
62 70 80
61 70 80
62 70 80
62 70 80
61 70 80
62 70 80
63 71 80
63 71 80
61 69 80
61 70 80
59 68 80
62 70 80
61 70 80
61 69 80
62 70 80
60 69 80
60 69 80
61 69 80
61 69 80
64 71 80
62 70 80
61 70 80
63 70 80
61 70 80
60 69 80
61 69 80
61 69 80
61 69 80
60 69 80
61 69 80
63 70 80
61 69 80
61 69 80
59 68 80
63 71 80
61 70 80
61 70 80
62 70 80
62 70 80
60 69 80
63 70 80
62 70 80
60 69 80
62 70 80
60 69 80
62 70 80
62 70 80
62 70 80
62 70 80
62 70 80
62 70 80
59 69 80
61 69 80
61 69 80
61 69 80
62 70 80
62 70 80
60 69 80
63 70 80
62 70 80
62 70 80
62 70 80
61 69 80
61 70 80
61 69 80
59 68 80
61 70 80
62 70 80
61 69 80
62 70 80
62 70 80
62 70 80
60 69 80
62 70 80
62 70 80
63 71 80
60 69 80
62 70 80
61 69 80
61 70 80
62 70 80
62 70 80
60 69 80
64 71 80
61 69 80
61 69 80
62 70 80
61 70 80
63 71 80
61 69 80
60 69 80
63 70 80
61 69 80
60 69 80
63 70 80
63 70 80
61 70 80
60 69 80
61 69 80
62 70 80
62 70 80
62 70 80
60 69 80
61 69 80
61 70 80
61 70 80
61 70 80
60 69 80
61 69 80
62 70 80
62 70 80
61 69 80
61 69 80
61 69 80
60 69 80
62 70 80
61 69 80
62 70 80
61 69 80
61 69 80
63 71 80
60 69 80
61 70 80
63 71 80
59 69 80
60 69 80
59 66 76
61 69 80
63 71 80
62 70 80
60 69 80
61 69 80
60 69 80
60 69 80
60 69 80
62 70 80
61 70 80
61 70 80
62 70 80
60 69 80
63 70 80
61 69 80
61 70 80
61 69 80
62 70 80
61 70 80
63 70 80
62 70 80
61 70 80
61 69 80
62 70 80
59 69 80
61 69 80
60 69 80
58 66 76
61 70 80
60 69 80
59 69 80
62 70 80
63 70 80
61 70 80
61 70 80
61 69 80
62 70 80
61 69 80
61 70 80
62 70 80
59 67 76
60 69 80
62 70 80
62 70 80
62 70 80
61 70 80
62 70 80
60 67 77
61 70 80
61 69 80
61 70 80
61 69 80
61 70 80
61 69 80
61 69 80
59 66 76
62 70 80
63 70 80
57 66 76
61 69 80
61 70 80
60 69 80
59 69 80
63 70 80
61 70 80
58 66 77
59 67 77
60 69 80
62 70 80
58 66 76
62 70 80
61 69 80
62 70 80
61 70 80
61 70 80
60 69 80
63 70 80
61 70 80
60 69 80
60 69 80
59 67 76
61 70 80
58 66 77
60 69 80
61 69 80
61 69 80
60 69 80
59 67 77
56 63 72
61 70 80
58 66 76
61 69 80
61 70 80
61 69 80
61 69 80
61 69 80
55 63 73
62 70 80
55 63 73
26 29 34
49 53 59
28 31 35
45 49 54
38 42 47
39 43 47
44 48 54
44 47 53
32 36 41
44 48 53
33 37 42
44 48 54
44 48 54
44 48 54
37 42 48
35 37 41
35 38 42
45 49 54
40 43 48
48 53 59
45 49 54
41 44 49
48 52 58
38 42 48
33 36 41
48 53 59
49 53 59
34 37 42
47 52 59
55 61 69
27 30 34
48 53 59
44 48 54
33 37 42
39 43 49
46 52 60
19 22 25
48 53 60
43 47 54
48 53 60
44 48 54
45 49 54
46 49 54
51 56 64
49 54 60
53 57 64
41 44 49
33 37 42
39 43 49
42 47 54
44 49 54
52 57 64
52 57 64
51 57 64
49 53 60
52 57 64
51 57 64
59 65 73
48 52 58
56 61 68
52 57 64
44 48 53
47 52 60
39 43 49
45 49 54
34 37 41
49 53 59
45 49 54
39 43 47
45 49 54
45 49 54
39 43 49
43 48 54
27 30 34
62 68 77
49 53 59
53 58 64
34 37 42
32 36 41
40 43 48
34 37 42
38 42 48
53 57 63
43 48 54
45 49 54
48 53 60
49 53 59
45 48 53
39 43 48
47 52 59
47 52 59
38 43 49
45 48 54
45 48 53
34 37 42
43 48 54
49 54 60
56 61 69
44 48 54
40 43 47
33 37 42
48 53 59
41 44 48
34 38 42
45 48 53
52 57 64
50 54 60
34 37 42
34 37 42
52 57 64
38 42 47
49 53 60
39 43 49
49 53 59
59 66 76
61 70 80
60 69 80
58 66 76
62 70 80
61 69 80
58 66 77
59 66 76
58 66 77
58 66 76
62 70 80
62 70 80
60 69 80
62 70 80
62 70 80
57 66 77
62 70 80
59 67 76
60 69 80
61 70 80
62 70 80
59 67 77
62 70 80
61 69 80
62 70 80
61 70 80
60 67 77
62 70 80
62 70 80
63 70 80
57 66 76
62 70 80
62 70 80
62 70 80
62 70 80
63 70 80
60 69 80
63 70 80
59 67 76
63 70 80
59 66 76
60 69 80
61 70 80
62 70 80
62 70 80
62 70 80
62 70 80
62 70 80
58 66 76
61 69 80
62 70 80
63 70 80
62 70 80
61 69 80
62 70 80
60 69 80
60 69 80
60 69 80
61 69 80
62 70 80
61 69 80
61 70 80
60 69 80
61 69 80
62 70 80
59 68 80
61 70 80
62 70 80
60 69 80
61 69 80
61 70 80
64 71 80
61 69 80
59 66 77
62 70 80
61 69 80
62 70 80
61 69 80
61 69 80
58 66 76
62 70 80
61 69 80
60 69 80
58 68 80
61 69 80
62 70 80
60 69 80
61 69 80
62 70 80
60 67 77
61 70 80
62 70 80
63 70 80
62 70 80
60 69 80
61 69 80
60 69 80
61 69 80
61 69 80
60 69 80
60 69 80
62 70 80
60 69 80
61 70 80
61 69 80
61 69 80
61 70 80
62 70 80
63 71 80
62 70 80
62 70 80
61 69 80
60 69 80
62 70 80
62 70 80
60 67 77
62 70 80
62 70 80
60 69 80
61 69 80
64 71 80
61 70 80
60 69 80
61 70 80
62 70 80
60 69 80
62 70 80
60 69 80
62 70 80
62 70 80
62 70 80
60 69 80
62 70 80
60 69 80
62 70 80
62 70 80
58 66 76
60 69 80
64 71 80
62 70 80
62 70 80
61 70 80
61 70 80
62 70 80
61 70 80
61 69 80
62 70 80
63 70 80
60 69 80
62 70 80
61 70 80
61 69 80
61 69 80
61 69 80
60 67 77
61 69 80
62 70 80
61 69 80
61 69 80
61 70 80
61 69 80
61 69 80
57 66 76
62 70 80
61 69 80
61 70 80
63 70 80
62 70 80
61 69 80
60 69 80
62 70 80
62 70 80
60 69 80
63 70 80
62 70 80
60 69 80
62 70 80
61 69 80
61 69 80
62 70 80
63 70 80
62 70 80
61 70 80
62 70 80
63 71 80
61 70 80
60 69 80
62 70 80
62 70 80
60 69 80
63 70 80
62 70 80
61 70 80
60 69 80
60 69 80
62 70 80
62 70 80
61 70 80
62 70 80
61 70 80
61 69 80
61 70 80
63 71 80
61 70 80
61 69 80
61 69 80
59 66 76
59 69 80
61 70 80
60 69 80
61 70 80
60 69 80
62 70 80
62 70 80
62 70 80
61 69 80
62 70 80
62 70 80
62 70 80
62 70 80
61 70 80
61 70 80
61 69 80
61 69 80
61 70 80
59 69 80
61 70 80
57 65 76
60 69 80
63 70 80
61 69 80
60 69 80
61 69 80
61 69 80
60 69 80
61 70 80
61 70 80
59 69 80
61 69 80
62 70 80
60 69 80
60 69 80
62 70 80
58 66 76
63 70 80
58 66 76
60 69 80
63 70 80
62 70 80
61 69 80
54 62 72
57 66 77
59 66 76
59 69 80
61 69 80
54 62 72
60 69 80
59 68 80
57 65 76
57 65 76
60 69 80
61 70 80
58 66 76
62 70 80
61 69 80
60 69 80
62 70 80
62 70 80
59 69 80
62 70 80
60 67 76
59 66 76
60 69 80
60 69 80
61 70 80
57 66 77
60 69 80
61 69 80
59 67 77
62 70 80
59 67 76
61 69 80
59 67 77
61 69 80
60 69 80
60 69 80
55 61 68
39 43 48
45 49 54
44 48 53
47 52 60
39 43 49
39 43 48
49 54 60
39 43 47
43 48 54
43 48 54
39 43 47
39 43 49
38 42 48
45 49 54
52 57 64
35 38 42
39 43 47
56 61 68
34 37 41
33 37 42
37 41 47
44 49 54
50 54 59
39 43 48
38 43 49
57 62 68
45 48 53
49 54 60
49 53 59
43 48 54
27 30 34
47 53 60
33 37 42
46 49 54
44 48 54
44 48 54
40 44 49
43 48 54
52 57 64
48 53 60
46 49 54
49 54 60
50 56 64
39 43 49
39 43 48
50 54 59
44 48 54
53 58 64
37 42 48
43 48 54
33 36 40
44 48 54
54 58 64
44 48 54
47 52 60
44 48 53
45 49 54
49 53 60
51 57 64
55 61 69
52 57 64
47 52 59
28 31 35
51 56 63
49 54 60
41 44 49
47 53 60
45 49 54
42 47 54
33 37 42
48 53 60
53 58 64
38 42 48
42 47 54
34 37 41
28 31 35
28 31 35
51 56 63
39 43 49
33 37 42
34 37 41
43 48 54
41 44 49
43 48 54
45 49 54
49 53 60
39 43 49
49 54 60
38 42 47
48 52 58
38 42 48
41 44 48
34 37 42
45 49 54
33 37 42
40 44 49
52 57 64
27 31 35
51 57 64
48 52 58
53 58 64
45 48 53
34 38 42
40 44 49
44 49 54
40 43 48
43 47 53
47 52 59
40 44 49
19 22 25
32 36 41
34 37 41
44 50 58
55 62 72
60 67 77
61 69 80
59 67 76
62 70 80
55 63 73
62 70 80
58 66 77
62 70 80
61 69 80
57 66 77
60 69 80
62 70 80
61 69 80
62 70 80
61 69 80
59 66 76
61 69 80
60 69 80
62 70 80
61 70 80
59 66 76
60 69 80
63 70 80
63 71 80
61 69 80
61 69 80
63 70 80
60 69 80
61 70 80
61 69 80
62 70 80
62 70 80
61 70 80
60 67 76
61 69 80
61 70 80
62 70 80
57 66 77
62 70 80
61 69 80
62 70 80
60 69 80
60 69 80
63 70 80
61 69 80
57 65 76
58 66 77
62 70 80
62 70 80
60 69 80
61 69 80
59 69 80
62 70 80
61 70 80
59 67 77
62 70 80
61 69 80
62 70 80
62 70 80
59 69 80
58 66 77
60 69 80
58 66 77
62 70 80
61 69 80
63 71 80
62 70 80
62 70 80
60 69 80
62 70 80
60 69 80
62 70 80
58 66 77
61 69 80
61 69 80
62 70 80
61 69 80
61 69 80
61 69 80
62 70 80
61 70 80
62 70 80
61 69 80
60 69 80
59 67 77
61 69 80
58 66 76
62 70 80
61 70 80
61 70 80
61 70 80
61 69 80
61 69 80
63 70 80
60 69 80
61 70 80
57 66 77
60 69 80
60 69 80
63 70 80
61 70 80
61 70 80
62 70 80
61 70 80
61 69 80
60 69 80
59 67 77
62 70 80
61 69 80
59 67 76
62 70 80
59 68 80
61 69 80
62 70 80
62 70 80
61 69 80
62 70 80
61 70 80
63 70 80
61 70 80
60 69 80
62 70 80
60 69 80
62 70 80
62 70 80
62 70 80
61 70 80
61 69 80
60 69 80
61 70 80
61 69 80
60 69 80
60 69 80
63 71 80
62 70 80
65 71 80
62 70 80
61 69 80
60 69 80
60 69 80
61 69 80
63 70 80
62 70 80
62 70 80
61 69 80
61 70 80
61 70 80
62 70 80
62 70 80
57 66 77
61 69 80
62 70 80
63 71 80
63 70 80
62 70 80
62 70 80
61 69 80
61 69 80
60 69 80
62 70 80
60 69 80
62 70 80
59 69 80
59 67 76
61 69 80
60 69 80
62 70 80
61 69 80
61 69 80
61 70 80
62 70 80
61 69 80
61 69 80
62 70 80
60 69 80
61 69 80
61 69 80
59 69 80
62 70 80
58 66 76
60 69 80
60 69 80
60 69 80
61 69 80
60 69 80
61 70 80
61 70 80
60 69 80
63 71 80
61 69 80
61 70 80
60 69 80
61 69 80
60 69 80
61 70 80
61 70 80
62 70 80
62 70 80
63 71 80
60 69 80
62 70 80
61 69 80
62 70 80
63 70 80
61 69 80
62 70 80
64 71 80
61 70 80
58 66 77
62 70 80
60 69 80
60 69 80
64 71 80
62 70 80
61 70 80
60 69 80
63 70 80
59 67 77
61 69 80
61 69 80
61 70 80
61 69 80
62 70 80
63 70 80
61 69 80
62 70 80
58 66 77
62 70 80
61 69 80
50 57 67
57 65 76
61 69 80
62 70 80
60 69 80
58 66 76
62 70 80
60 69 80
62 70 80
62 70 80
58 66 76
62 70 80
62 70 80
61 69 80
61 70 80
61 69 80
60 69 80
58 66 76
58 66 76
62 70 80
61 69 80
60 69 80
61 69 80
57 66 76
60 69 80
62 70 80
62 70 80
63 70 80
63 70 80
62 70 80
62 70 80
58 66 76
61 69 80
59 67 77
57 65 76
59 69 80
61 69 80
61 70 80
61 69 80
57 66 76
60 69 80
56 63 73
61 70 80
55 62 72
53 60 69
60 69 80
61 70 80
62 70 80
61 70 80
62 70 80
55 62 72
61 69 80
61 69 80
62 70 80
62 70 80
61 70 80
57 66 77
43 47 53
45 49 54
45 49 54
48 53 59
44 48 53
40 44 49
43 48 54
48 53 59
38 42 47
40 44 49
48 52 59
48 52 59
44 48 54
39 43 48
39 43 49
39 43 48
40 43 48
40 43 49
52 57 64
50 54 60
46 49 54
26 29 34
39 43 47
33 37 42
48 53 60
39 43 49
34 37 42
43 48 54
46 50 54
47 52 60
58 65 73
61 68 76
45 49 54
49 53 59
44 49 54
50 54 60
48 53 60
40 44 49
38 42 47
59 65 73
55 61 69
53 58 64
55 59 64
42 47 53
48 52 58
44 48 54
33 37 42
33 37 42
38 42 48
40 44 49
44 48 54
45 49 54
38 42 47
33 37 42
39 42 47
37 41 48
50 54 60
44 48 53
51 57 64
43 48 54
45 48 53
41 44 49
45 49 54
52 57 64
45 49 54
44 49 54
33 37 42
39 43 49
56 62 69
48 53 59
18 21 25
43 48 53
49 54 60
45 49 54
53 57 64
40 43 48
44 48 54
38 42 47
43 48 54
37 42 47
53 58 64
40 44 49
49 53 60
52 57 64
52 57 64
48 53 60
33 37 42
38 42 47
43 47 54
47 52 59
43 48 54
49 53 60
43 48 54
46 49 54
32 36 42
53 58 64
48 53 60
39 43 49
34 37 42
42 47 54
45 49 54
26 28 32
54 58 64
39 43 48
27 30 34
43 48 54
40 43 48
49 53 59
49 53 59
39 43 47
27 30 35
37 42 48
60 67 77
61 69 80
63 70 80
59 67 77
56 63 72
61 70 80
62 70 80
63 70 80
61 70 80
59 67 77
62 70 80
60 69 80
54 62 72
61 69 80
61 69 80
58 66 77
57 65 76
57 65 76
62 70 80
59 69 80
60 69 80
62 70 80
60 67 77
60 69 80
61 69 80
61 69 80
62 70 80
54 62 73
60 67 77
60 69 80
60 67 77
62 70 80
61 70 80
60 69 80
61 69 80
63 70 80
61 69 80
61 70 80
60 69 80
58 66 76
63 70 80
61 70 80
63 70 80
61 70 80
59 67 76
60 69 80
62 70 80
61 69 80
62 70 80
61 69 80
62 70 80
61 70 80
62 70 80
58 66 77
62 70 80
57 66 77
62 70 80
63 70 80
61 70 80
61 69 80
62 70 80
64 71 80
60 69 80
61 70 80
61 70 80
61 70 80
60 69 80
58 66 77
61 69 80
62 70 80
62 70 80
62 70 80
58 66 76
62 70 80
57 66 77
63 71 80
61 69 80
62 70 80
62 70 80
61 70 80
60 69 80
62 70 80
60 69 80
61 70 80
61 69 80
59 67 76
62 70 80
61 70 80
62 70 80
60 69 80
62 70 80
61 69 80
62 70 80
59 67 77
62 70 80
62 70 80
60 69 80
62 70 80
59 69 80
63 70 80
61 70 80
61 70 80
60 69 80
61 70 80
61 70 80
62 70 80
62 70 80
61 70 80
63 71 80
61 70 80
59 67 77
61 69 80
63 70 80
63 71 80
61 70 80
62 70 80
61 70 80
60 69 80
61 69 80
61 69 80
62 70 80
61 69 80
60 69 80
60 69 80
63 70 80
63 70 80
60 69 80
62 70 80
61 70 80
63 71 80
63 70 80
61 69 80
61 70 80
61 70 80
62 70 80
61 69 80
64 71 80
62 70 80
61 70 80
61 70 80
63 70 80
58 66 77
60 69 80
62 70 80
62 70 80
61 70 80
61 70 80
60 69 80
62 70 80
62 70 80
62 70 80
62 70 80
60 69 80
59 69 80
62 70 80
58 66 77
62 70 80
60 69 80
60 69 80
60 69 80
61 69 80
62 70 80
61 70 80
61 69 80
62 70 80
61 70 80
60 69 80
63 70 80
61 69 80
61 70 80
62 70 80
62 70 80
62 70 80
61 70 80
61 69 80
61 70 80
60 69 80
61 70 80
62 70 80
63 70 80
58 66 77
60 69 80
57 66 77
62 70 80
61 69 80
60 69 80
61 70 80
60 69 80
60 69 80
61 70 80
60 69 80
61 70 80
61 70 80
61 70 80
60 69 80
60 69 80
61 69 80
61 70 80
61 69 80
60 69 80
62 70 80
60 69 80
64 71 80
61 69 80
60 69 80
61 69 80
62 70 80
62 70 80
62 70 80
60 69 80
60 69 80
60 69 80
61 69 80
60 69 80
62 70 80
60 69 80
62 70 80
61 70 80
60 69 80
63 70 80
61 69 80
58 66 77
62 70 80
62 70 80
62 70 80
60 69 80
61 69 80
60 69 80
60 69 80
61 69 80
58 66 76
62 70 80
58 66 77
60 69 80
57 65 76
59 69 80
61 69 80
62 70 80
61 70 80
58 66 76
62 70 80
60 69 80
63 70 80
58 66 77
60 69 80
60 69 80
61 69 80
62 70 80
61 69 80
60 69 80
61 70 80
61 69 80
58 66 76
61 70 80
59 67 77
57 65 76
59 67 77
61 70 80
62 70 80
61 70 80
62 70 80
61 70 80
62 70 80
62 70 80
56 63 72
61 69 80
62 70 80
57 66 76
59 68 80
61 70 80
52 59 68
59 66 76
62 70 80
58 66 77
59 69 80
56 63 73
61 68 77
57 66 76
54 62 72
59 67 77
61 70 80
55 62 72
57 66 77
58 66 76
59 67 77
61 69 80
58 66 76
60 69 80
49 55 64
35 38 42
32 36 41
33 37 42
47 52 58
53 58 64
33 37 42
43 47 54
46 49 54
34 37 42
19 22 25
54 58 64
44 48 54
38 42 47
49 53 60
56 61 68
40 44 48
41 44 48
56 61 69
40 44 49
61 66 72
40 44 49
42 47 53
44 48 54
50 54 60
50 56 64
52 57 64
44 48 54
48 53 60
44 48 54
47 52 58
46 49 54
57 62 69
46 49 54
43 48 54
49 54 60
53 57 64
43 48 54
43 48 54
48 53 59
43 47 53
46 50 54
53 58 64
33 37 42
45 49 54
23 26 30
50 54 60
44 48 54
53 58 64
48 53 59
39 43 48
38 42 47
46 52 59
52 57 64
44 48 54
40 44 49
49 54 60
27 30 35
39 42 47
45 49 54
41 44 49
43 48 54
47 53 60
47 52 60
38 42 47
49 53 60
33 37 42
45 49 54
40 44 49
16 18 21
39 43 49
32 37 42
44 48 54
41 44 49
41 47 54
39 43 48
38 43 49
46 49 54
48 52 59
44 48 54
52 57 64
46 49 54
33 36 41
44 48 54
43 47 53
25 29 34
52 57 64
44 48 54
45 49 53
51 54 60
47 52 58
46 52 59
33 36 42
37 41 47
32 36 40
36 39 42
39 42 47
35 38 42
33 37 42
51 57 64
38 42 47
40 44 49
43 47 53
41 44 49
43 48 54
52 57 64
43 48 54
38 42 47
40 43 47
32 35 39
45 49 53
56 61 69
59 69 80
58 66 77
58 66 77
60 69 80
58 66 76
57 64 73
55 62 72
57 65 76
54 62 72
59 66 76
61 70 80
57 65 76
61 69 80
61 70 80
58 66 77
56 65 76
61 69 80
62 70 80
60 69 80
58 66 76
59 67 77
58 66 77
60 69 80
61 69 80
61 70 80
57 66 76
60 67 76
62 70 80
59 69 80
62 70 80
53 61 72
61 70 80
62 70 80
61 70 80
57 66 77
59 66 76
63 70 80
62 70 80
59 66 76
61 70 80
61 69 80
60 69 80
58 66 76
61 70 80
62 70 80
62 70 80
61 69 80
60 69 80
64 71 80
62 70 80
64 71 80
61 70 80
61 69 80
61 69 80
61 69 80
61 69 80
59 69 80
61 70 80
53 62 72
63 71 80
62 70 80
61 69 80
61 70 80
61 70 80
62 70 80
63 70 80
62 70 80
61 70 80
62 70 80
62 70 80
61 69 80
59 68 80
63 70 80
61 69 80
58 66 77
61 69 80
57 65 76
62 70 80
57 66 77
60 69 80
61 69 80
61 69 80
58 66 76
62 70 80
62 70 80
60 69 80
61 69 80
60 69 80
57 65 77
63 71 80
62 70 80
61 69 80
61 69 80
61 69 80
60 69 80
63 71 80
62 70 80
60 69 80
61 69 80
62 70 80
57 65 76
62 70 80
61 69 80
62 70 80
63 71 80
61 69 80
62 70 80
61 70 80
61 70 80
61 69 80
62 70 80
62 70 80
63 70 80
62 70 80
62 70 80
62 70 80
63 70 80
61 69 80
62 70 80
62 70 80
61 70 80
59 69 80
63 70 80
60 69 80
63 71 80
61 69 80
63 70 80
59 69 80
64 71 80
60 69 80
62 70 80
61 69 80
62 70 80
61 69 80
61 69 80
62 70 80
61 70 80
62 70 80
62 70 80
61 69 80
61 70 80
62 70 80
61 70 80
60 69 80
61 69 80
61 70 80
62 70 80
62 70 80
62 70 80
60 69 80
61 69 80
59 69 80
60 69 80
61 69 80
61 69 80
63 70 80
61 69 80
60 69 80
62 70 80
62 70 80
62 70 80
60 69 80
61 69 80
62 70 80
62 70 80
63 70 80
60 67 77
58 66 77
60 69 80
60 69 80
62 70 80
62 70 80
63 70 80
61 70 80
62 70 80
62 70 80
60 69 80
60 69 80
61 69 80
61 70 80
60 69 80
62 70 80
61 68 77
61 69 80
62 70 80
62 70 80
61 70 80
60 69 80
61 69 80
62 70 80
64 71 80
60 69 80
62 70 80
61 69 80
62 70 80
60 69 80
62 70 80
64 71 80
60 69 80
57 65 76
60 69 80
61 69 80
61 69 80
61 70 80
62 70 80
60 69 80
59 69 80
61 69 80
62 70 80
62 70 80
63 71 80
61 70 80
62 70 80
62 70 80
60 69 80
61 69 80
60 69 80
63 70 80
61 70 80
62 70 80
60 69 80
60 69 80
62 70 80
61 70 80
59 67 77
63 70 80
61 70 80
62 70 80
60 67 76
61 70 80
62 70 80
62 70 80
62 70 80
62 70 80
61 70 80
61 69 80
61 70 80
61 69 80
60 67 77
63 70 80
63 70 80
63 70 80
62 70 80
61 68 77
61 69 80
57 65 76
60 69 80
61 70 80
61 70 80
61 70 80
57 65 76
60 69 80
58 66 77
60 67 77
60 69 80
60 69 80
63 70 80
62 70 80
56 63 73
63 71 80
61 69 80
61 69 80
60 69 80
58 66 77
62 70 80
60 69 80
58 66 77
57 66 77
58 66 77
62 70 80
60 69 80
60 69 80
57 66 77
60 69 80
63 70 80
58 66 77
61 70 80
58 66 77
58 66 77
60 69 80
60 69 80
59 67 77
62 70 80
61 69 80
60 69 80
59 66 77
58 66 77
55 62 72
61 69 80
51 57 64
52 57 64
37 41 47
44 49 54
38 42 47
34 37 41
14 17 20
57 62 69
38 42 47
26 29 33
38 43 48
44 48 54
25 29 33
34 37 42
27 30 34
48 53 59
44 48 54
33 37 42
40 44 49
40 44 49
57 62 69
28 30 34
51 57 64
45 49 54
39 42 47
45 48 53
49 54 60
51 56 64
47 52 60
25 29 33
38 42 48
26 28 31
52 57 64
45 49 54
34 37 42
57 62 69
43 48 53
40 43 48
53 57 64
41 44 49
32 36 41
48 53 59
28 31 35
51 57 64
43 48 54
40 44 49
32 36 42
44 48 54
49 53 60
49 53 59
43 48 54
54 58 64
45 49 54
47 52 59
49 53 60
43 48 54
41 44 49
45 49 54
33 37 42
50 56 63
44 48 54
44 48 54
43 48 53
39 43 49
45 49 54
38 42 48
43 48 53
42 47 54
44 48 54
37 42 47
36 41 48
35 38 42
48 53 60
52 57 64
59 63 69
38 42 47
45 49 54
50 54 60
49 53 59
49 53 60
44 49 54
47 53 60
44 49 54
40 44 48
39 43 49
38 42 48
39 43 49
52 57 64
48 53 60
43 47 54
38 42 47
40 43 48
40 43 48
49 53 60
49 54 60
39 43 48
29 31 35
34 37 42
26 29 33
33 37 42
17 20 23
49 53 59
40 43 49
38 42 48
39 43 48
35 38 42
49 53 59
39 42 47
27 30 33
44 48 54
60 69 80
62 70 80
58 66 77
56 63 73
58 66 77
56 63 72
62 70 80
58 66 76
56 65 76
55 63 72
58 66 76
58 66 76
54 62 72
60 69 80
61 70 80
60 69 80
59 68 80
59 69 80
61 70 80
57 66 76
57 66 76
62 70 80
54 62 73
56 65 76
60 69 80
58 66 76
62 70 80
60 69 80
55 62 72
61 69 80
61 69 80
62 70 80
59 66 76
59 68 80
61 70 80
62 70 80
62 70 80
62 70 80
61 69 80
62 70 80
61 69 80
59 67 77
60 69 80
60 69 80
62 70 80
61 69 80
63 70 80
61 69 80
61 70 80
61 70 80
58 66 77
62 70 80
62 70 80
60 69 80
61 70 80
63 70 80
59 69 80
60 67 77
59 69 80
62 70 80
60 69 80
57 66 77
59 68 80
60 69 80
62 70 80
57 66 77
60 69 80
57 66 77
60 67 76
60 69 80
62 70 80
60 69 80
59 69 80
58 66 77
61 69 80
60 69 80
60 69 80
57 66 76
62 70 80
60 69 80
62 70 80
59 66 76
59 68 80
60 69 80
62 70 80
62 70 80
61 69 80
61 70 80
62 70 80
60 69 80
62 70 80
60 69 80
60 69 80
61 70 80
61 69 80
60 67 76
62 70 80
62 70 80
62 70 80
64 71 80
62 70 80
61 69 80
62 70 80
61 70 80
63 70 80
62 70 80
61 69 80
59 68 80
60 69 80
61 69 80
63 71 80
61 69 80
62 70 80
62 70 80
62 70 80
61 70 80
61 69 80
60 69 80
62 70 80
60 67 76
63 71 80
61 69 80
61 69 80
62 70 80
61 70 80
61 69 80
63 70 80
62 70 80
60 69 80
61 70 80
61 70 80
60 69 80
58 66 76
61 70 80
64 71 80
62 70 80
61 70 80
62 70 80
60 69 80
60 69 80
61 70 80
63 70 80
61 69 80
60 69 80
63 70 80
61 69 80
61 69 80
64 71 80
62 70 80
61 70 80
63 71 80
62 70 80
61 69 80
63 70 80
63 70 80
60 69 80
62 70 80
64 71 80
61 70 80
63 70 80
62 70 80
63 70 80
63 70 80
60 67 77
62 70 80
63 71 80
62 70 80
61 70 80
61 70 80
61 70 80
62 70 80
63 70 80
60 69 80
60 69 80
61 70 80
61 70 80
62 70 80
63 70 80
61 70 80
59 68 80
60 67 77
62 70 80
59 67 77
60 69 80
62 70 80
62 70 80
59 66 76
62 70 80
62 70 80
61 69 80
61 70 80
62 70 80
62 70 80
62 70 80
60 69 80
62 70 80
61 70 80
60 69 80
62 70 80
62 70 80
62 70 80
62 70 80
59 68 80
61 70 80
57 66 77
60 69 80
58 66 77
63 71 80
59 67 76
62 70 80
60 69 80
61 69 80
63 70 80
60 69 80
61 70 80
61 69 80
60 69 80
61 70 80
61 69 80
57 65 76
63 70 80
59 66 77
62 70 80
60 69 80
60 69 80
59 67 77
61 70 80
60 67 77
60 69 80
61 69 80
60 69 80
57 66 76
62 70 80
61 69 80
61 69 80
62 70 80
61 70 80
60 69 80
61 69 80
60 67 77
61 70 80
61 69 80
61 69 80
63 70 80
61 69 80
63 71 80
61 69 80
59 66 77
61 67 76
62 70 80
63 71 80
60 69 80
58 66 77
60 67 77
56 63 72
59 66 76
58 66 77
62 70 80
59 66 76
56 65 76
61 69 80
55 62 72
62 70 80
60 69 80
58 66 76
57 65 76
61 70 80
63 70 80
60 69 80
61 69 80
61 70 80
55 63 72
58 66 76
63 70 80
56 65 76
57 65 76
61 69 80
61 69 80
59 66 77
60 69 80
61 69 80
54 62 72
57 65 76
57 66 77
63 70 80
60 69 80
59 67 76
57 66 76
60 69 80
59 66 77
58 66 77
39 43 48
44 49 54
49 53 58
44 48 53
45 49 54
28 31 35
55 61 69
49 54 60
44 48 53
33 37 41
34 38 42
48 53 59
49 53 60
61 66 73
35 38 42
27 30 34
28 31 35
41 44 49
38 43 49
52 57 63
44 48 53
44 48 54
44 48 54
33 36 40
48 53 60
40 44 49
43 48 54
49 54 60
53 58 64
52 57 64
48 52 59
45 49 54
49 53 59
34 37 42
53 57 63
39 43 49
44 48 54
46 51 59
53 58 64
49 53 60
49 53 59
43 48 54
53 58 64
59 65 73
44 48 54
44 48 54
39 43 47
40 44 49
33 37 42
44 48 54
43 48 54
43 48 54
40 44 49
55 61 68
26 28 31
40 43 48
48 53 60
39 43 49
27 30 35
26 29 33
33 36 41
34 37 42
27 31 35
33 37 42
40 44 48
41 44 49
39 43 48
38 42 48
32 36 42
36 39 42
47 53 60
58 62 69
28 30 34
44 48 54
45 49 54
50 54 60
48 53 59
48 52 58
38 42 48
57 62 69
44 48 54
34 37 41
44 48 54
46 49 54
39 43 48
34 37 42
34 37 42
50 54 59
48 52 59
35 38 42
43 48 53
44 48 54
48 53 60
41 44 48
49 53 60
26 28 31
39 43 47
27 30 34
38 42 48
46 49 54
49 53 60
39 42 47
27 30 33
35 38 42
40 44 49
49 53 60
28 31 35
38 43 49
55 63 73
55 63 73
58 66 76
61 69 80
55 63 72
57 65 76
58 66 77
58 66 77
60 67 77
59 67 76
62 70 80
58 66 77
59 66 76
58 66 77
60 69 80
61 69 80
60 67 77
61 70 80
62 70 80
61 69 80
63 70 80
55 63 73
60 69 80
62 70 80
51 58 68
61 69 80
61 70 80
58 66 76
63 70 80
57 65 76
63 71 80
58 66 76
59 67 77
57 66 76
60 69 80
60 69 80
60 69 80
59 66 77
62 70 80
59 67 77
59 67 77
63 70 80
59 67 77
58 66 77
60 69 80
58 66 76
60 69 80
58 66 77
60 67 76
61 69 80
61 69 80
57 66 76
58 66 76
61 69 80
60 69 80
60 69 80
62 70 80
61 69 80
59 66 76
62 70 80
58 66 77
60 69 80
60 69 80
60 67 76
59 68 80
61 70 80
57 66 77
61 69 80
63 71 80
61 69 80
54 62 72
60 69 80
63 70 80
62 70 80
61 70 80
61 69 80
60 69 80
60 69 80
60 69 80
61 69 80
61 69 80
62 70 80
57 66 77
61 69 80
61 70 80
59 68 80
64 71 80
62 70 80
61 70 80
57 66 77
62 70 80
62 70 80
61 69 80
59 66 77
61 69 80
61 70 80
62 70 80
63 70 80
61 69 80
62 70 80
61 69 80
62 70 80
60 69 80
61 69 80
61 70 80
62 70 80
63 70 80
63 70 80
62 70 80
60 69 80
61 69 80
62 70 80
61 70 80
61 70 80
63 70 80
62 70 80
63 71 80
59 69 80
61 70 80
62 70 80
60 69 80
62 70 80
60 69 80
62 70 80
61 69 80
62 70 80
62 70 80
62 70 80
63 71 80
63 70 80
62 70 80
60 69 80
61 70 80
61 70 80
60 69 80
63 70 80
60 69 80
61 69 80
61 69 80
62 70 80
58 66 77
62 70 80
60 69 80
62 70 80
60 69 80
63 70 80
60 69 80
61 69 80
62 70 80
62 70 80
63 71 80
60 69 80
62 70 80
61 70 80
62 70 80
61 69 80
60 69 80
57 66 76
62 70 80
62 70 80
62 70 80
61 70 80
61 69 80
62 70 80
60 69 80
61 70 80
61 69 80
61 70 80
63 70 80
63 70 80
58 66 76
61 69 80
61 70 80
59 68 80
61 69 80
62 70 80
61 69 80
62 70 80
62 70 80
60 69 80
63 70 80
62 70 80
62 70 80
59 69 80
61 69 80
62 70 80
62 70 80
60 69 80
62 70 80
60 67 76
58 66 77
63 70 80
60 69 80
61 70 80
62 70 80
62 70 80
62 70 80
62 70 80
62 70 80
61 69 80
62 70 80
60 69 80
61 70 80
61 70 80
61 69 80
63 70 80
62 70 80
60 69 80
57 66 77
60 69 80
60 69 80
60 69 80
63 71 80
62 70 80
61 70 80
63 71 80
59 69 80
61 70 80
62 70 80
62 70 80
59 66 76
60 69 80
57 66 77
64 71 80
62 70 80
61 69 80
60 69 80
61 69 80
60 69 80
62 70 80
61 70 80
55 63 73
60 67 77
61 70 80
59 68 80
62 70 80
58 66 76
60 69 80
58 66 77
61 69 80
58 66 77
60 69 80
62 70 80
58 66 76
56 65 76
61 70 80
58 66 77
59 66 76
61 69 80
60 69 80
58 66 76
61 69 80
59 68 80
61 69 80
63 70 80
62 70 80
55 62 72
63 70 80
57 66 77
62 70 80
59 67 77
56 63 72
57 65 76
61 69 80
61 70 80
59 66 77
58 66 76
60 69 80
60 69 80
62 70 80
63 70 80
57 64 73
62 70 80
56 63 72
60 67 77
58 66 77
61 69 80
58 66 76
61 69 80
61 69 80
60 69 80
62 70 80
62 70 80
57 65 76
58 66 76
62 70 80
57 65 76
61 70 80
62 70 80
58 66 76
57 66 77
61 70 80
54 60 68
45 49 54
26 29 33
56 61 68
17 19 23
34 37 42
28 31 35
18 21 24
32 36 41
45 49 54
44 48 54
49 54 60
40 43 47
50 54 59
40 44 49
45 49 54
48 53 58
51 57 64
52 57 64
41 44 49
33 36 39
28 31 35
54 58 64
46 49 54
34 37 42
49 53 59
49 53 60
32 36 42
40 44 48
27 30 35
35 38 42
49 53 59
44 48 54
44 48 54
34 37 42
35 38 42
48 53 59
44 49 54
40 43 48
41 44 48
49 54 60
47 52 59
39 43 49
34 38 42
34 37 42
49 53 59
49 53 60
34 37 42
35 37 41
60 65 73
40 43 48
43 48 54
28 30 34
44 48 54
45 49 54
51 54 60
51 56 63
52 57 64
53 58 64
39 43 47
44 49 54
48 53 60
48 53 58
48 53 59
49 53 60
33 37 42
33 37 42
51 57 64
42 47 54
44 47 52
28 31 34
31 35 40
39 42 47
40 44 48
34 37 42
53 58 64
40 43 48
49 53 59
46 49 54
57 62 68
39 43 48
40 44 48
34 37 42
49 53 59
43 47 53
33 36 40
40 44 49
40 44 49
50 54 60
44 48 54
48 53 59
43 48 54
45 49 54
39 43 48
45 48 53
17 20 23
48 53 60
49 54 60
34 37 41
34 37 41
34 37 42
37 42 47
39 43 48
39 43 47
38 42 47
31 35 39
19 22 25
49 56 64
59 66 76
62 70 80
63 71 80
59 66 76
61 69 80
56 65 76
58 66 76
58 66 77
61 69 80
52 59 68
58 66 76
55 63 73
62 70 80
58 66 76
58 66 76
60 69 80
58 66 77
60 69 80
58 66 77
54 62 72
57 65 76
60 69 80
61 70 80
55 63 73
61 69 80
63 70 80
62 70 80
56 63 72
61 70 80
63 70 80
53 62 72
62 70 80
57 66 76
60 67 76
58 66 76
58 66 76
61 70 80
58 68 80
57 66 77
61 69 80
60 69 80
60 69 80
61 69 80
59 67 76
57 65 76
61 69 80
62 70 80
61 70 80
58 66 77
61 69 80
58 66 77
62 70 80
61 70 80
60 69 80
62 70 80
62 70 80
60 69 80
61 70 80
59 66 76
61 70 80
61 69 80
62 70 80
59 66 77
63 70 80
60 69 80
61 70 80
61 70 80
60 69 80
62 70 80
61 69 80
60 69 80
62 70 80
62 70 80
63 70 80
61 69 80
60 69 80
58 66 77
60 69 80
61 69 80
63 70 80
60 69 80
62 70 80
60 69 80
63 71 80
61 69 80
61 69 80
60 69 80
61 69 80
59 67 77
60 69 80
60 69 80
61 69 80
61 69 80
60 69 80
57 66 77
61 69 80
62 70 80
61 69 80
61 70 80
62 70 80
61 70 80
60 69 80
61 70 80
61 70 80
61 69 80
61 70 80
60 69 80
62 70 80
62 70 80
61 69 80
61 69 80
62 70 80
62 70 80
60 69 80
60 69 80
62 70 80
62 70 80
62 70 80
60 69 80
62 70 80
62 70 80
60 69 80
61 69 80
63 70 80
60 69 80
61 70 80
60 69 80
62 70 80
60 69 80
61 69 80
60 69 80
61 70 80
61 70 80
62 70 80
61 69 80
60 69 80
62 70 80
63 70 80
61 69 80
62 70 80
61 69 80
63 70 80
63 71 80
61 69 80
61 70 80
60 69 80
60 69 80
62 70 80
62 70 80
61 69 80
61 69 80
61 70 80
62 70 80
62 70 80
61 69 80
62 70 80
60 69 80
61 70 80
61 70 80
61 69 80
61 70 80
61 69 80
61 70 80
62 70 80
61 69 80
62 70 80
63 70 80
61 70 80
60 69 80
62 70 80
61 69 80
62 70 80
61 70 80
61 70 80
62 70 80
61 69 80
62 70 80
63 71 80
58 66 76
60 69 80
61 70 80
62 70 80
62 70 80
63 70 80
63 70 80
61 70 80
61 69 80
66 72 80
62 70 80
61 70 80
60 69 80
61 69 80
62 70 80
61 70 80
61 69 80
59 67 77
61 69 80
62 70 80
61 69 80
60 69 80
61 69 80
62 70 80
58 66 77
61 69 80
60 69 80
61 69 80
62 70 80
62 70 80
63 70 80
59 67 77
60 67 76
60 69 80
61 69 80
61 70 80
61 69 80
60 69 80
61 69 80
60 69 80
60 67 77
62 70 80
61 70 80
63 70 80
61 69 80
61 69 80
63 71 80
61 70 80
61 69 80
62 70 80
62 70 80
61 69 80
61 69 80
61 70 80
61 70 80
63 71 80
61 69 80
61 69 80
59 66 76
54 62 72
60 69 80
62 70 80
62 70 80
62 70 80
61 69 80
62 70 80
58 66 77
61 69 80
61 69 80
63 71 80
64 71 80
60 69 80
62 70 80
57 66 77
61 70 80
60 69 80
59 67 77
61 70 80
61 69 80
63 71 80
64 71 80
61 69 80
62 70 80
61 69 80
57 66 76
58 66 76
62 70 80
60 69 80
61 70 80
61 70 80
55 62 72
62 70 80
54 62 72
59 66 76
59 69 80
61 69 80
62 70 80
56 63 73
58 66 77
61 69 80
55 62 72
60 69 80
58 66 76
55 62 72
61 69 80
62 70 80
60 69 80
57 65 76
62 70 80
58 66 76
57 65 76
56 63 72
60 69 80
56 63 73
55 63 72
56 63 72
19 21 24
44 48 54
32 36 41
48 53 59
33 37 42
33 36 42
45 49 54
41 44 49
33 37 42
34 38 42
38 43 49
40 43 48
35 38 42
43 48 54
43 48 53
40 43 48
47 52 58
53 58 64
44 48 54
44 48 53
35 38 42
41 44 49
39 43 49
44 48 54
47 52 58
40 43 48
43 47 54
14 17 20
37 41 47
45 49 54
49 53 60
39 43 47
49 53 60
32 36 41
45 49 54
50 54 60
45 49 54
53 58 64
57 62 69
41 44 49
48 53 59
54 58 64
40 44 49
53 58 64
35 38 42
40 43 48
34 37 41
45 49 54
53 58 64
42 47 53
39 43 49
49 54 60
44 49 54
26 30 34
43 48 54
39 43 48
45 49 54
31 36 42
43 48 54
46 49 53
45 49 54
27 30 34
52 57 64
50 54 60
34 37 41
32 36 42
39 43 49
39 43 49
41 44 48
35 38 42
39 43 48
38 43 49
39 43 49
34 37 42
39 43 48
40 43 48
46 49 54
44 49 54
39 43 49
27 29 33
52 57 64
47 52 60
52 57 64
33 36 41
19 21 24
43 47 53
44 48 53
52 57 64
54 58 64
40 43 48
44 48 54
39 43 48
34 37 42
43 48 54
27 30 34
45 48 53
45 49 54
46 52 59
49 53 60
45 49 54
40 44 48
45 48 53
53 58 64
37 42 48
48 53 59
54 62 72
57 65 76
61 69 80
59 67 76
61 70 80
51 59 68
58 66 76
61 69 80
60 67 77
60 69 80
58 66 76
59 66 76
62 70 80
52 59 69
59 68 80
59 67 76
60 69 80
62 70 80
59 67 77
60 69 80
54 62 72
62 70 80
62 70 80
54 62 72
60 69 80
59 67 76
54 62 72
58 66 77
61 70 80
53 62 72
59 66 77
56 63 73
58 66 76
62 70 80
56 63 72
63 70 80
58 66 76
59 67 77
61 69 80
51 59 68
62 70 80
55 63 73
54 62 72
63 70 80
60 67 77
58 66 76
60 69 80
51 58 68
62 70 80
62 70 80
61 70 80
60 69 80
57 66 77
61 70 80
58 66 77
54 62 72
61 69 80
64 71 80
61 69 80
60 67 76
60 69 80
60 69 80
61 69 80
62 70 80
62 70 80
59 66 76
61 69 80
60 69 80
63 71 80
64 71 80
62 70 80
58 66 77
59 67 77
62 70 80
61 69 80
59 66 76
62 70 80
62 70 80
61 70 80
61 70 80
61 69 80
59 66 76
63 70 80
61 70 80
62 70 80
61 70 80
59 67 76
61 69 80
60 69 80
58 66 77
59 69 80
63 70 80
61 70 80
61 69 80
64 71 80
62 70 80
62 70 80
58 66 76
60 69 80
60 69 80
62 70 80
59 67 76
64 71 80
60 69 80
61 70 80
61 69 80
62 70 80
62 70 80
63 70 80
61 69 80
60 69 80
63 70 80
61 70 80
61 70 80
61 69 80
62 70 80
62 70 80
60 69 80
61 70 80
61 69 80
62 70 80
63 70 80
61 70 80
63 70 80
61 69 80
61 70 80
57 66 77
61 70 80
61 69 80
63 70 80
62 70 80
62 70 80
60 69 80
63 70 80
61 70 80
60 69 80
61 70 80
61 69 80
61 70 80
62 70 80
63 71 80
61 69 80
61 69 80
60 69 80
61 69 80
62 70 80
63 71 80
60 69 80
62 70 80
61 69 80
60 69 80
61 69 80
62 70 80
61 70 80
62 70 80
62 70 80
60 69 80
63 71 80
61 69 80
61 70 80
60 69 80
61 69 80
62 70 80
62 70 80
62 70 80
61 69 80
61 70 80
61 70 80
61 69 80
58 66 77
61 69 80
61 69 80
62 70 80
62 70 80
63 70 80
62 70 80
59 68 80
62 70 80
63 70 80
61 69 80
61 70 80
61 70 80
62 70 80
61 69 80
60 69 80
62 70 80
62 70 80
62 70 80
59 68 80
61 69 80
61 69 80
63 70 80
62 70 80
59 67 77
61 70 80
60 69 80
61 69 80
62 70 80
59 67 76
62 70 80
56 65 76
60 69 80
63 71 80
59 66 76
62 70 80
62 70 80
61 70 80
61 70 80
63 71 80
61 70 80
58 66 77
60 69 80
63 71 80
61 70 80
62 70 80
62 70 80
61 69 80
60 69 80
61 70 80
61 69 80
61 69 80
61 69 80
60 69 80
62 70 80
61 69 80
62 70 80
57 66 77
63 70 80
62 70 80
63 71 80
61 69 80
59 67 76
59 68 80
61 69 80
62 70 80
61 70 80
60 69 80
58 66 77
62 70 80
58 66 77
58 68 80
55 63 73
61 70 80
58 66 76
64 71 80
61 69 80
60 69 80
61 70 80
57 64 73
61 69 80
62 70 80
64 71 80
60 69 80
61 69 80
58 66 77
61 67 76
57 65 77
60 69 80
56 65 76
58 66 76
63 70 80
57 65 76
61 68 76
57 66 77
59 66 76
59 66 76
61 70 80
59 67 77
57 65 76
58 66 76
59 66 76
59 67 77
61 69 80
63 71 80
59 66 76
60 67 77
50 58 68
58 66 77
59 67 77
58 66 77
60 69 80
58 66 76
57 64 73
58 66 77
60 69 80
62 70 80
63 70 80
49 55 63
62 70 80
59 67 77
56 65 76
60 69 80
61 69 80
54 62 72
55 62 72
38 42 48
33 36 41
25 29 33
49 53 59
43 48 54
39 43 48
50 54 60
34 37 41
27 29 33
38 42 48
42 47 53
45 49 54
40 44 49
40 44 48
42 48 54
40 44 49
34 37 42
40 43 48
32 36 40
55 61 69
53 57 64
44 49 54
41 44 49
32 36 41
39 43 48
53 58 64
48 53 60
44 48 53
39 43 49
34 38 42
48 53 60
37 42 48
50 54 60
47 52 58
35 38 42
44 48 54
26 29 33
43 48 54
49 53 60
50 54 59
40 44 49
45 49 54
45 49 54
39 43 49
44 48 54
51 56 64
39 43 49
54 58 64
53 58 64
35 38 42
45 49 54
39 43 49
45 48 53
38 42 47
33 37 42
42 47 53
34 37 41
43 47 53
39 43 47
46 49 54
40 44 49
38 43 49
42 46 53
46 49 54
39 43 48
48 53 60
45 49 54
47 53 60
27 30 34
44 48 53
26 28 32
39 43 47
39 43 49
32 37 42
44 48 54
39 43 49
43 48 54
45 49 54
46 52 59
39 43 48
49 53 59
38 42 47
57 62 68
41 44 49
50 54 59
49 53 59
51 57 64
40 43 49
45 49 54
45 49 54
39 43 49
53 58 64
48 53 59
26 29 34
35 38 42
32 36 41
40 43 48
34 37 42
52 57 64
45 49 54
28 30 34
32 36 41
18 20 24
40 44 49
49 55 64
55 63 72
61 69 80
54 62 72
60 69 80
60 69 80
61 69 80
58 66 76
61 69 80
60 69 80
57 65 76
61 69 80
57 64 73
60 69 80
57 65 76
52 59 68
58 66 77
63 71 80
61 69 80
57 65 76
59 68 80
60 69 80
61 69 80
62 70 80
60 69 80
54 62 72
57 65 76
62 70 80
61 70 80
62 70 80
59 67 77
59 67 77
61 69 80
53 62 73
61 70 80
61 69 80
63 70 80
60 67 76
62 70 80
62 70 80
58 66 76
59 67 77
60 69 80
59 68 80
57 65 76
61 70 80
61 70 80
59 68 80
62 70 80
60 69 80
57 66 76
61 70 80
61 69 80
61 69 80
60 67 76
62 70 80
61 69 80
60 69 80
64 71 80
61 70 80
58 66 76
57 64 72
59 66 77
59 67 76
60 69 80
60 69 80
61 70 80
61 69 80
61 69 80
58 66 77
61 70 80
63 70 80
62 70 80
63 70 80
59 67 77
62 70 80
59 67 77
62 70 80
54 62 73
62 70 80
63 70 80
61 69 80
63 70 80
58 66 76
61 69 80
61 69 80
62 70 80
61 69 80
60 69 80
61 70 80
63 70 80
61 69 80
60 69 80
61 69 80
61 69 80
63 71 80
62 70 80
62 70 80
57 65 76
61 70 80
62 70 80
58 66 77
61 70 80
53 61 72
62 70 80
62 70 80
60 69 80
57 66 76
61 70 80
60 69 80
61 69 80
60 69 80
61 70 80
61 69 80
60 69 80
61 69 80
64 71 80
59 67 77
62 70 80
59 68 80
62 70 80
61 70 80
62 70 80
61 70 80
63 70 80
62 70 80
62 70 80
62 70 80
61 70 80
63 71 80
61 69 80
57 66 77
58 66 77
58 66 77
61 70 80
61 69 80
62 70 80
62 70 80
59 66 76
62 70 80
63 70 80
63 70 80
60 69 80
62 70 80
60 67 76
61 70 80
63 70 80
61 70 80
60 69 80
61 69 80
62 70 80
61 69 80
60 69 80
60 69 80
60 69 80
62 70 80
60 67 77
60 69 80
61 70 80
60 69 80
60 69 80
62 70 80
62 70 80
60 69 80
62 70 80
62 70 80
63 70 80
61 69 80
60 69 80
62 70 80
61 69 80
62 70 80
61 70 80
61 70 80
64 71 80
62 70 80
61 70 80
63 70 80
62 70 80
62 70 80
59 69 80
60 69 80
63 70 80
61 69 80
61 69 80
61 70 80
61 69 80
62 70 80
61 69 80
61 69 80
60 69 80
62 70 80
61 70 80
63 70 80
60 69 80
61 69 80
61 70 80
62 70 80
59 66 77
63 70 80
62 70 80
61 69 80
60 69 80
59 69 80
62 70 80
61 70 80
62 70 80
62 70 80
61 69 80
62 70 80
61 70 80
58 66 76
61 70 80
63 71 80
62 70 80
62 70 80
59 69 80
62 70 80
57 66 76
59 67 77
62 70 80
61 69 80
61 69 80
58 66 76
60 69 80
60 69 80
59 66 76
59 68 80
60 69 80
62 70 80
59 66 76
61 69 80
61 69 80
59 68 80
63 70 80
62 70 80
60 69 80
58 66 77
62 70 80
60 67 77
63 71 80
60 69 80
63 70 80
60 69 80
55 62 72
59 67 76
61 69 80
61 70 80
60 69 80
60 69 80
58 66 77
59 66 76
63 70 80
62 70 80
61 70 80
58 66 77
62 70 80
62 70 80
59 68 80
57 65 76
56 65 76
60 69 80
59 67 76
57 66 77
58 66 76
58 66 77
60 67 76
60 69 80
62 70 80
57 66 76
58 66 77
62 70 80
61 69 80
63 70 80
59 67 77
58 66 77
57 66 76
58 66 76
52 59 69
60 67 77
59 67 77
61 69 80
56 63 72
59 66 76
59 67 76
62 70 80
59 67 77
61 67 76
59 67 76
55 63 72
61 69 80
54 62 72
61 69 80
59 66 76
63 70 80
57 66 76
61 70 80
44 48 54
44 48 54
39 43 49
49 53 59
28 31 35
39 43 47
39 43 47
40 43 48
45 49 54
35 38 42
41 46 53
45 49 54
44 49 54
42 47 54
33 37 42
39 43 47
27 30 33
39 42 47
49 53 58
44 48 54
48 53 59
38 42 48
33 37 42
40 43 48
40 44 49
50 54 60
49 53 59
41 44 49
43 47 53
27 30 33
18 20 24
33 36 40
50 54 60
45 49 54
39 43 48
49 53 59
53 57 64
53 58 64
33 37 42
49 53 60
42 47 53
40 43 47
48 52 58
40 44 49
46 49 54
44 48 54
38 42 48
59 65 73
40 43 48
37 41 47
35 37 42
33 37 42
44 49 54
40 44 48
40 44 49
43 48 54
39 42 47
39 43 48
37 41 47
33 36 40
56 61 68
19 21 25
44 48 53
28 31 35
39 42 47
38 43 49
32 35 40
43 48 54
48 53 60
49 53 60
60 65 73
44 48 54
44 48 53
17 19 22
34 38 42
45 49 54
34 37 41
45 49 54
46 49 54
28 30 34
44 49 54
47 52 59
44 48 54
34 37 42
52 57 64
43 48 54
57 61 68
33 37 41
26 29 33
39 42 47
33 36 41
45 49 54
40 43 48
44 48 53
43 47 53
45 49 54
48 53 60
48 53 60
47 52 60
35 38 42
39 43 48
49 53 59
56 63 72
59 67 76
52 59 68
61 69 80
47 54 63
55 63 72
60 69 80
57 65 76
50 58 68
59 67 76
63 71 80
48 54 62
51 58 67
55 62 72
60 67 76
56 65 76
50 58 68
60 69 80
60 69 80
58 66 77
61 69 80
62 70 80
62 70 80
65 71 80
58 66 76
60 69 80
58 66 76
57 66 76
55 63 72
62 70 80
57 65 76
56 65 77
62 70 80
60 67 77
58 66 76
56 63 73
61 69 80
57 66 77
57 66 77
59 69 80
51 58 67
60 69 80
57 66 77
61 69 80
60 67 77
54 62 72
58 66 77
61 69 80
59 67 76
61 69 80
62 70 80
60 69 80
62 70 80
57 65 76
55 63 72
60 69 80
61 69 80
62 70 80
58 66 77
60 69 80
59 69 80
61 70 80
58 66 76
61 70 80
59 69 80
62 70 80
59 67 77
59 69 80
59 68 80
57 66 76
61 69 80
60 69 80
64 71 80
61 70 80
62 70 80
60 69 80
63 70 80
61 69 80
61 70 80
62 70 80
61 69 80
61 69 80
62 70 80
61 70 80
61 69 80
61 69 80
62 70 80
61 70 80
61 70 80
62 70 80
62 70 80
58 66 77
62 70 80
63 70 80
58 66 77
58 66 76
60 69 80
59 67 76
59 69 80
61 70 80
62 70 80
60 69 80
61 69 80
62 70 80
60 69 80
61 70 80
61 70 80
63 71 80
60 69 80
61 69 80
63 70 80
61 69 80
64 71 80
61 69 80
58 66 76
63 70 80
60 69 80
61 69 80
60 69 80
60 69 80
60 69 80
58 66 76
61 70 80
61 69 80
62 70 80
61 70 80
62 70 80
61 69 80
63 70 80
61 70 80
61 69 80
62 70 80
62 70 80
62 70 80
63 71 80
62 70 80
60 69 80
60 69 80
62 70 80
61 69 80
62 70 80
61 69 80
61 69 80
61 70 80
61 70 80
60 69 80
62 70 80
60 69 80
62 70 80
61 69 80
63 70 80
59 69 80
61 70 80
61 69 80
62 70 80
61 69 80
63 70 80
59 67 77
61 70 80
62 70 80
60 69 80
61 69 80
61 70 80
62 70 80
61 70 80
62 70 80
62 70 80
63 71 80
62 70 80
61 69 80
62 70 80
61 69 80
61 69 80
61 69 80
63 70 80
61 69 80
61 70 80
62 70 80
60 67 77
61 69 80
58 66 77
60 69 80
62 70 80
62 70 80
59 69 80
62 70 80
60 69 80
61 69 80
61 69 80
62 70 80
60 69 80
60 69 80
62 70 80
59 68 80
58 66 76
58 66 76
61 69 80
61 69 80
62 70 80
59 67 77
61 70 80
61 70 80
61 69 80
61 69 80
61 69 80
61 70 80
62 70 80
63 71 80
62 70 80
59 67 77
60 69 80
62 70 80
63 71 80
63 70 80
61 69 80
58 66 77
60 69 80
62 70 80
61 70 80
63 71 80
61 70 80
62 70 80
58 66 76
57 66 77
61 69 80
55 63 72
58 66 76
52 59 68
61 69 80
61 69 80
61 69 80
64 71 80
58 66 77
62 70 80
53 61 72
61 69 80
62 70 80
58 66 76
61 70 80
61 69 80
58 66 76
59 66 77
61 70 80
62 70 80
62 70 80
61 69 80
60 69 80
61 69 80
59 69 80
64 71 80
60 67 77
60 69 80
57 65 76
59 67 77
61 69 80
61 69 80
59 66 77
56 65 77
62 70 80
57 66 76
61 69 80
60 69 80
61 69 80
61 69 80
58 66 76
59 67 77
61 69 80
56 63 72
57 66 76
61 70 80
61 69 80
62 70 80
62 70 80
58 66 76
55 62 72
60 67 76
61 69 80
58 66 77
59 66 76
56 65 76
55 62 72
52 59 67
55 62 72
51 58 67
58 66 76
58 66 76
61 70 80
59 66 76
52 59 68
55 63 72
61 69 80
59 68 80
57 63 72
56 63 73
55 63 73
62 70 80
56 63 72
51 58 68
53 59 68
38 42 47
49 53 60
39 43 49
49 53 60
45 49 54
43 47 53
34 37 42
34 37 41
49 53 60
39 43 48
40 44 48
33 37 42
33 37 42
26 28 32
18 20 23
40 43 48
44 48 54
35 38 42
60 65 73
35 38 42
40 44 49
27 30 34
48 52 58
46 49 54
34 37 41
35 38 42
49 54 60
43 47 53
53 58 64
38 42 48
43 48 54
45 48 53
31 34 39
39 43 49
40 43 48
48 53 58
28 30 34
49 53 59
44 48 54
42 47 53
39 43 48
48 53 58
43 48 54
44 48 54
33 37 42
44 48 53
48 53 59
50 54 59
39 43 48
52 57 64
43 48 54
35 38 42
33 36 41
28 31 35
39 43 48
28 30 33
47 53 60
28 30 34
40 44 49
44 48 54
49 53 59
51 57 64
28 30 34
43 47 53
44 49 54
51 57 64
57 61 68
45 48 54
46 49 54
43 48 54
45 49 54
38 42 47
64 69 77
38 43 49
49 53 60
38 43 48
49 53 60
33 36 41
38 42 48
33 36 41
40 43 48
37 42 48
49 53 59
33 36 41
37 42 47
33 37 42
28 30 34
27 30 34
35 38 42
48 53 60
39 43 49
46 49 54
54 58 64
27 29 33
33 37 42
35 38 42
38 42 48
48 53 59
33 37 42
44 48 53
42 47 54
55 62 72
59 67 76
60 69 80
59 67 77
60 69 80
61 69 80
57 66 76
60 67 76
58 66 76
59 66 76
59 66 76
58 66 76
60 69 80
61 69 80
57 65 76
61 69 80
59 66 76
55 63 73
59 67 77
51 58 68
56 65 76
54 62 72
57 65 76
61 69 80
62 70 80
63 70 80
59 67 77
60 69 80
59 66 76
58 66 76
55 63 72
58 66 76
58 66 77
57 66 76
61 70 80
60 69 80
54 62 72
60 69 80
57 65 77
57 66 77
52 59 68
55 62 72
60 69 80
62 70 80
61 69 80
59 66 77
59 67 77
60 69 80
63 71 80
58 66 76
61 70 80
62 70 80
62 70 80
58 66 76
58 66 76
56 63 73
56 65 77
61 70 80
62 70 80
58 66 76
56 63 72
60 67 77
62 70 80
59 67 77
60 69 80
60 69 80
60 69 80
61 69 80
61 69 80
58 66 77
61 69 80
61 70 80
62 70 80
58 66 77
61 69 80
61 70 80
61 70 80
62 70 80
61 69 80
56 65 76
61 70 80
61 70 80
60 69 80
62 70 80
60 69 80
60 69 80
61 69 80
60 69 80
61 69 80
63 71 80
60 69 80
58 66 77
61 70 80
62 70 80
61 69 80
60 69 80
62 70 80
58 66 77
58 66 76
63 71 80
62 70 80
61 69 80
60 69 80
61 69 80
62 70 80
61 69 80
59 69 80
59 69 80
59 66 76
63 71 80
60 69 80
61 69 80
61 70 80
57 65 76
61 70 80
62 70 80
61 69 80
61 69 80
62 70 80
62 70 80
62 70 80
60 69 80
62 70 80
60 69 80
61 69 80
61 70 80
61 69 80
59 68 80
63 70 80
58 66 77
63 70 80
61 69 80
61 70 80
62 70 80
60 69 80
62 70 80
63 70 80
62 70 80
59 69 80
62 70 80
62 70 80
59 69 80
62 70 80
61 69 80
58 66 76
62 70 80
62 70 80
62 70 80
62 70 80
62 70 80
61 69 80
60 69 80
62 70 80
61 70 80
61 69 80
60 69 80
61 69 80
62 70 80
61 69 80
61 69 80
61 70 80
61 70 80
61 69 80
61 69 80
63 71 80
60 69 80
61 69 80
60 69 80
59 69 80
62 70 80
61 69 80
61 70 80
61 70 80
63 70 80
61 69 80
61 69 80
58 66 77
61 69 80
62 70 80
62 70 80
61 69 80
63 70 80
57 66 76
61 69 80
62 70 80
60 69 80
60 69 80
62 70 80
61 70 80
61 70 80
60 69 80
60 69 80
58 66 76
62 70 80
61 69 80
60 69 80
61 69 80
60 69 80
60 69 80
60 69 80
62 70 80
60 69 80
60 67 76
63 70 80
62 70 80
57 66 77
59 67 77
59 69 80
62 70 80
62 70 80
57 66 77
63 70 80
60 69 80
61 70 80
60 69 80
61 69 80
61 70 80
62 70 80
56 65 77
60 69 80
54 62 72
61 69 80
62 70 80
58 66 76
60 67 77
64 71 80
63 71 80
59 66 76
60 67 77
58 66 77
61 69 80
61 70 80
62 70 80
61 70 80
56 63 72
54 62 72
61 70 80
61 69 80
58 66 77
61 70 80
62 70 80
61 69 80
59 66 77
61 70 80
61 69 80
58 66 77
56 63 72
60 67 77
61 70 80
59 66 76
58 66 76
56 63 72
60 67 77
58 66 77
62 70 80
62 70 80
60 67 76
60 67 76
56 63 72
58 66 76
63 71 80
58 66 77
62 70 80
57 66 77
52 59 68
58 66 77
63 71 80
57 64 72
62 70 80
61 67 76
56 63 72
58 66 76
58 66 76
58 66 77
57 65 76
60 69 80
62 70 80
61 69 80
60 69 80
60 69 80
56 63 73
55 62 72
52 59 68
59 66 76
58 66 76
54 62 72
60 69 80
58 66 76
59 67 77
55 62 72
56 63 72
58 66 77
60 67 76
57 65 76
55 63 72
56 63 72
42 48 57
41 46 52
60 69 80
57 64 73
48 52 59
41 44 49
40 43 47
25 27 31
43 48 54
26 30 34
44 48 53
39 43 48
34 37 42
43 47 53
40 43 47
44 49 54
44 48 54
39 43 47
24 27 30
32 35 40
41 44 48
33 37 42
39 43 48
33 37 42
40 43 47
45 49 54
49 53 60
44 49 54
38 42 48
53 57 64
33 37 42
39 43 49
53 57 64
44 48 54
45 49 54
27 30 34
38 42 48
52 57 64
34 37 41
34 38 42
33 37 42
39 43 49
45 49 54
44 48 54
40 44 49
32 36 41
39 43 48
45 49 54
33 36 41
38 42 47
34 37 42
39 43 48
40 43 48
53 58 64
40 44 48
33 37 42
33 36 41
38 42 47
44 47 53
40 44 49
39 43 48
56 61 68
26 30 34
45 49 54
39 42 47
39 43 49
39 43 48
49 53 58
35 37 42
53 58 64
40 44 49
44 48 54
40 43 48
26 29 32
43 48 54
44 48 54
39 43 48
45 49 54
34 37 42
34 38 42
38 42 47
40 43 48
39 43 48
38 43 49
38 42 48
43 47 53
39 43 49
39 42 47
49 54 60
34 37 42
33 36 41
39 43 47
28 31 35
47 52 59
43 48 54
34 38 42
27 30 33
48 53 58
38 42 47
52 57 64
53 58 64
33 37 42
42 47 54
55 62 72
58 66 77
48 54 63
58 66 76
56 63 72
60 69 80
61 70 80
59 66 76
54 62 72
60 67 77
58 66 76
58 66 76
56 63 72
57 65 76
58 66 76
56 63 72
55 62 72
56 65 77
58 66 77
55 63 72
57 65 76
57 66 76
54 62 72
62 70 80
62 70 80
56 63 73
60 67 76
61 70 80
62 70 80
59 67 76
58 66 77
61 70 80
51 59 68
60 69 80
60 67 77
59 67 76
61 69 80
63 70 80
55 62 72
62 70 80
54 62 72
62 70 80
61 69 80
62 70 80
61 69 80
58 66 77
62 70 80
60 69 80
60 67 77
62 70 80
62 70 80
61 69 80
60 69 80
61 69 80
61 69 80
62 70 80
59 67 77
58 66 77
61 69 80
58 66 76
61 69 80
52 61 72
60 69 80
62 70 80
57 66 76
57 66 77
61 70 80
61 69 80
62 70 80
57 65 77
64 71 80
61 69 80
61 70 80
60 69 80
59 66 76
54 62 72
62 70 80
61 69 80
61 69 80
62 70 80
60 69 80
61 70 80
62 70 80
63 70 80
62 70 80
60 69 80
61 69 80
62 70 80
57 63 72
59 67 77
60 69 80
59 67 76
61 70 80
58 66 76
63 70 80
60 69 80
60 69 80
57 66 76
60 69 80
61 70 80
62 70 80
59 66 77
62 70 80
60 67 77
60 69 80
62 70 80
62 70 80
61 69 80
60 69 80
61 70 80
62 70 80
62 70 80
61 69 80
62 70 80
61 69 80
61 70 80
62 70 80
62 70 80
64 71 80
60 69 80
61 69 80
62 70 80
61 69 80
62 70 80
61 69 80
62 70 80
60 69 80
61 70 80
61 70 80
61 69 80
62 70 80
61 69 80
61 69 80
61 69 80
61 69 80
63 71 80
62 70 80
62 70 80
61 70 80
62 70 80
61 69 80
61 69 80
60 69 80
62 70 80
62 70 80
61 70 80
64 71 80
62 70 80
60 69 80
60 69 80
62 70 80
61 69 80
60 69 80
61 70 80
61 69 80
62 70 80
61 70 80
61 70 80
61 70 80
61 69 80
61 69 80
59 67 77
59 67 77
62 70 80
62 70 80
62 70 80
59 68 80
63 71 80
62 70 80
62 70 80
62 70 80
62 70 80
63 71 80
62 70 80
61 69 80
62 70 80
63 71 80
61 70 80
62 70 80
61 69 80
62 70 80
59 66 77
62 70 80
60 69 80
62 70 80
61 69 80
61 69 80
61 69 80
63 70 80
61 70 80
57 65 77
56 65 76
62 70 80
62 70 80
63 71 80
62 70 80
62 70 80
61 69 80
59 66 77
61 70 80
61 69 80
61 70 80
61 69 80
60 69 80
61 69 80
62 70 80
60 69 80
60 69 80
61 69 80
62 70 80
60 69 80
62 70 80
61 69 80
60 69 80
61 70 80
58 66 76
60 69 80
58 66 77
60 69 80
62 70 80
62 70 80
60 67 76
61 69 80
58 66 77
61 69 80
58 66 76
60 69 80
63 70 80
58 66 77
58 66 76
63 70 80
61 69 80
62 70 80
61 70 80
57 66 77
58 66 77
61 69 80
58 66 77
59 67 76
57 66 76
62 70 80
61 69 80
61 69 80
59 67 77
61 69 80
58 66 76
60 69 80
61 69 80
58 66 77
57 65 76
60 69 80
61 69 80
58 66 76
63 70 80
56 63 73
61 69 80
54 62 72
57 66 77
57 66 76
58 66 77
61 69 80
61 69 80
56 65 76
55 62 72
61 70 80
54 62 72
54 62 72
57 66 77
62 70 80
51 59 69
60 69 80
60 69 80
59 67 77
59 66 76
59 66 76
59 66 77
60 69 80
57 65 76
58 66 76
55 62 72
63 70 80
54 62 72
58 66 76
54 62 72
56 63 72
54 62 72
51 58 68
54 62 72
58 66 76
62 70 80
53 61 72
49 57 67
53 59 68
49 57 67
51 58 68
46 53 63
56 63 72
55 63 72
49 55 63
52 59 68
57 64 73
38 42 47
14 17 20
43 48 54
33 36 40
34 37 42
33 36 41
34 37 42
41 44 49
27 30 35
36 38 42
18 20 24
44 48 53
40 43 48
34 38 42
34 37 42
44 49 54
38 43 49
17 19 21
39 43 49
27 30 34
48 53 60
40 43 48
33 37 42
44 48 53
20 22 25
45 49 54
44 48 53
47 52 59
32 36 41
45 49 54
33 36 41
34 37 42
49 54 60
53 57 64
40 43 48
40 43 49
38 42 48
41 44 49
45 48 54
45 48 54
35 38 42
38 42 48
38 43 49
39 43 47
51 57 64
26 28 31
49 53 59
25 28 33
47 53 60
43 48 54
44 48 54
45 49 54
50 54 60
50 54 60
44 48 54
45 49 54
32 36 41
42 47 54
44 48 53
39 43 47
32 36 41
34 37 41
54 60 69
33 36 41
45 49 54
34 37 42
38 42 49
34 37 42
49 53 59
54 58 64
40 44 49
43 48 54
40 43 48
34 37 42
38 43 49
39 42 47
52 57 64
39 42 47
24 28 32
44 49 54
39 42 47
39 42 47
25 27 30
25 27 30
32 35 40
35 38 42
33 37 42
27 30 34
26 29 33
34 37 42
17 18 21
33 37 42
38 42 47
44 48 53
44 48 53
33 36 41
33 36 40
47 52 59
54 62 72
55 62 72
55 62 72
55 62 72
51 58 67
54 62 72
55 62 72
52 59 68
53 60 69
53 61 72
63 70 80
57 65 76
58 66 76
55 62 72
55 62 72
59 66 77
63 70 80
44 50 58
52 59 68
59 69 80
56 63 72
59 67 76
54 62 72
52 59 67
55 63 72
57 66 76
62 70 80
56 65 77
57 66 76
54 62 72
58 66 77
54 62 72
57 65 76
64 71 80
62 70 80
62 70 80
56 63 72
57 66 76
56 63 72
62 70 80
60 69 80
58 66 77
58 66 76
61 70 80
60 69 80
62 70 80
61 69 80
60 67 77
60 69 80
59 67 77
56 63 72
62 70 80
59 68 80
61 69 80
62 70 80
62 70 80
61 70 80
57 66 77
62 70 80
61 69 80
61 69 80
60 69 80
62 70 80
50 56 63
61 70 80
64 71 80
62 70 80
63 70 80
61 70 80
61 70 80
59 66 76
60 69 80
61 69 80
61 70 80
60 69 80
61 70 80
62 70 80
62 70 80
60 69 80
61 69 80
64 71 80
63 70 80
58 66 76
61 70 80
58 66 76
61 70 80
61 69 80
61 70 80
51 58 68
62 70 80
58 66 77
61 69 80
60 69 80
62 70 80
62 70 80
61 69 80
56 65 76
62 70 80
61 70 80
60 69 80
62 70 80
59 68 80
61 69 80
62 70 80
61 69 80
62 70 80
61 69 80
61 70 80
58 66 76
63 70 80
61 70 80
60 69 80
61 69 80
60 69 80
63 70 80
60 69 80
62 70 80
61 70 80
61 70 80
61 70 80
59 67 77
60 69 80
61 69 80
54 62 72
63 70 80
62 70 80
60 69 80
62 70 80
58 66 77
60 69 80
62 70 80
61 70 80
57 65 76
62 70 80
58 68 80
61 70 80
60 69 80
61 69 80
61 69 80
63 70 80
62 70 80
61 70 80
63 70 80
62 70 80
60 69 80
62 70 80
62 70 80
60 69 80
63 71 80
60 69 80
62 70 80
61 70 80
57 65 76
61 69 80
62 70 80
60 69 80
61 69 80
61 69 80
63 70 80
62 70 80
61 70 80
62 70 80
61 69 80
62 70 80
61 70 80
62 70 80
57 66 77
61 69 80
60 69 80
62 70 80
60 69 80
60 69 80
62 70 80
61 70 80
58 66 77
60 69 80
60 69 80
61 69 80
60 69 80
61 69 80
61 70 80
61 70 80
62 70 80
61 70 80
61 70 80
61 70 80
61 70 80
59 67 77
62 70 80
61 69 80
61 70 80
57 66 77
63 71 80
62 70 80
61 69 80
62 70 80
58 66 76
62 70 80
60 69 80
62 70 80
60 69 80
57 65 76
62 70 80
62 70 80
60 69 80
57 66 76
61 69 80
62 70 80
61 69 80
54 62 72
58 66 77
58 66 77
59 67 77
60 69 80
62 70 80
62 70 80
61 69 80
61 69 80
58 66 76
62 70 80
61 69 80
61 69 80
61 70 80
62 70 80
61 69 80
58 66 76
60 69 80
59 67 77
62 70 80
63 71 80
59 67 77
60 69 80
60 69 80
61 69 80
62 70 80
60 69 80
58 66 76
62 70 80
60 69 80
58 66 76
59 67 77
61 70 80
61 70 80
60 69 80
61 69 80
63 70 80
62 70 80
58 66 77
61 69 80
60 69 80
60 69 80
62 70 80
54 62 72
59 67 77
64 71 80
58 66 76
59 69 80
62 70 80
59 66 77
60 69 80
60 69 80
58 66 76
58 66 77
61 69 80
61 69 80
61 69 80
61 69 80
59 66 76
62 70 80
52 59 68
58 66 77
59 67 76
58 66 76
56 63 72
61 69 80
58 66 76
56 65 76
58 66 77
55 63 72
59 67 77
52 59 68
54 62 72
59 67 76
60 67 77
55 62 72
57 64 72
62 70 80
60 69 80
59 66 76
52 59 68
63 71 80
57 65 77
61 70 80
55 63 72
58 66 77
53 59 67
54 62 72
56 63 72
57 66 76
54 62 72
52 59 68
57 65 76
54 62 72
41 44 49
34 37 42
44 48 54
33 36 41
33 37 42
27 30 33
39 43 48
46 49 54
38 42 48
34 37 41
39 43 47
45 49 54
33 36 41
40 44 48
39 42 47
38 43 49
49 53 59
32 35 39
44 48 54
49 54 60
44 49 54
39 43 48
51 56 63
35 38 42
39 43 49
49 53 58
40 43 48
43 48 54
49 53 60
46 49 54
33 37 42
44 48 54
38 43 48
46 52 59
40 43 48
32 36 42
40 43 48
26 29 34
39 43 48
43 48 54
40 44 49
38 42 47
39 43 48
39 43 49
44 48 54
52 57 63
43 47 53
38 42 48
32 36 40
43 48 54
39 43 48
18 21 24
18 21 24
34 37 42
39 42 48
17 19 22
40 43 48
28 30 34
38 43 48
38 42 47
28 31 35
50 54 60
40 43 48
26 29 33
42 47 54
56 61 69
45 49 54
47 51 57
26 30 34
49 53 59
40 43 47
40 44 49
44 48 54
47 52 58
40 43 48
45 49 53
32 36 42
37 41 46
43 47 53
46 49 54
38 42 48
43 48 54
52 57 64
43 48 54
31 35 40
47 53 60
38 42 48
45 48 54
39 43 48
39 43 48
49 53 58
38 42 48
48 53 59
51 57 64
26 28 32
42 47 53
55 63 72
58 66 77
51 58 68
60 69 80
54 62 72
58 66 77
50 58 67
54 62 72
59 67 76
58 66 76
57 66 77
63 71 80
52 59 68
55 63 72
53 62 73
54 62 72
52 59 68
58 66 76
60 67 77
57 65 77
61 69 80
54 62 72
62 70 80
63 70 80
56 63 72
60 69 80
62 70 80
61 70 80
58 66 76
57 66 77
60 69 80
58 66 77
55 63 72
59 66 76
48 54 63
63 71 80
59 67 77
59 67 76
59 66 76
61 70 80
58 66 77
61 69 80
60 69 80
58 66 77
59 66 76
54 62 73
63 70 80
62 70 80
55 62 72
61 68 77
58 66 77
62 70 80
59 67 77
61 69 80
52 59 69
57 65 76
61 70 80
57 66 77
60 69 80
60 69 80
56 63 72
62 70 80
57 66 77
57 63 72
61 69 80
62 70 80
62 70 80
60 69 80
64 71 80
61 69 80
62 70 80
61 69 80
61 70 80
61 69 80
61 70 80
63 71 80
61 69 80
62 70 80
62 70 80
58 66 76
62 70 80
60 67 76
62 70 80
61 69 80
61 70 80
62 70 80
61 69 80
58 66 76
62 70 80
61 69 80
62 70 80
62 70 80
60 69 80
61 69 80
61 69 80
59 67 77
63 71 80
61 70 80
61 69 80
58 66 77
61 69 80
62 70 80
57 65 77
61 69 80
62 70 80
61 69 80
59 67 76
61 70 80
63 70 80
63 70 80
63 70 80
59 66 77
62 70 80
62 70 80
60 69 80
61 69 80
58 66 77
62 70 80
60 69 80
62 70 80
62 70 80
63 70 80
60 69 80
61 69 80
62 70 80
60 69 80
61 69 80
62 70 80
60 69 80
62 70 80
63 70 80
58 66 77
62 70 80
62 70 80
61 69 80
61 69 80
58 66 77
61 69 80
61 69 80
58 66 77
62 70 80
64 71 80
63 70 80
60 69 80
62 70 80
61 70 80
62 70 80
62 70 80
60 69 80
63 70 80
56 65 76
61 69 80
61 69 80
63 71 80
63 71 80
63 70 80
61 69 80
61 69 80
62 70 80
62 70 80
61 69 80
61 69 80
62 70 80
61 69 80
60 69 80
62 70 80
61 70 80
62 70 80
61 69 80
63 70 80
59 67 77
60 69 80
62 70 80
62 70 80
59 68 80
61 69 80
61 70 80
60 69 80
60 67 77
62 70 80
61 69 80
60 69 80
61 69 80
62 70 80
61 69 80
60 69 80
62 70 80
61 69 80
62 70 80
62 70 80
59 69 80
62 70 80
61 69 80
61 70 80
58 66 76
63 70 80
63 71 80
58 66 77
61 69 80
59 67 77
61 69 80
60 69 80
58 66 76
56 63 72
62 70 80
60 69 80
60 69 80
63 70 80
61 70 80
62 70 80
60 69 80
59 68 80
58 66 76
61 69 80
59 67 77
60 69 80
64 71 80
59 69 80
62 70 80
61 70 80
59 68 80
61 69 80
60 67 77
61 69 80
62 70 80
61 69 80
59 67 76
63 70 80
58 66 77
61 69 80
61 70 80
58 66 76
62 70 80
61 69 80
59 67 76
57 65 76
57 65 77
62 70 80
62 70 80
56 65 77
61 69 80
61 69 80
57 66 77
60 69 80
61 69 80
61 69 80
61 69 80
60 69 80
59 66 76
61 69 80
61 70 80
61 68 77
61 70 80
59 66 76
57 66 77
59 66 76
60 69 80
58 66 76
60 69 80
58 66 76
58 66 77
59 67 77
58 66 77
60 69 80
58 66 76
58 64 72
60 67 77
55 63 72
56 63 72
61 69 80
56 63 73
60 67 76
58 66 76
55 63 72
53 61 72
59 67 76
56 63 72
55 63 72
58 66 77
59 66 76
55 63 72
59 67 77
59 67 76
51 58 67
60 67 76
59 66 77
61 69 80
53 62 72
55 63 72
61 69 80
50 58 68
48 55 63
52 59 68
56 65 76
62 70 80
58 66 77
49 55 63
54 62 72
60 67 76
52 59 67
48 54 63
51 58 68
54 62 72
59 66 76
56 63 72
44 48 53
38 41 47
49 53 58
44 48 54
35 38 42
19 22 25
40 43 48
40 43 47
38 42 47
44 48 53
40 43 48
38 42 47
26 29 33
39 43 48
36 38 42
47 52 59
45 49 53
44 48 54
56 61 67
26 29 32
37 41 47
34 37 42
40 44 49
48 53 59
32 35 39
35 38 42
49 53 59
44 47 53
44 48 53
50 54 60
33 37 41
45 49 54
45 49 54
50 54 59
33 36 42
28 31 35
45 49 54
34 37 42
46 49 54
44 48 54
37 41 46
41 44 49
52 57 64
41 44 49
46 49 54
49 54 60
35 38 42
32 36 40
31 35 41
31 35 40
45 49 54
33 36 42
50 54 59
53 58 64
40 44 49
34 37 42
45 49 54
52 57 64
49 53 59
33 37 42
34 37 42
43 48 54
48 53 59
39 43 48
45 49 54
34 38 42
48 53 59
39 42 47
27 30 34
50 53 58
33 36 42
41 44 49
44 48 53
33 36 40
34 38 42
38 41 46
60 65 73
44 48 53
26 30 34
39 42 47
38 42 47
46 49 54
34 37 42
44 48 54
18 20 24
49 53 58
40 43 47
32 36 40
39 43 48
26 30 34
24 28 32
19 22 25
43 47 53
44 48 54
56 63 72
48 55 63
61 69 80
59 66 76
58 66 76
48 55 63
53 60 68
61 69 80
59 66 76
57 66 76
60 67 76
54 60 68
55 63 72
54 62 72
58 66 76
58 66 76
52 59 68
49 55 63
57 66 77
61 69 80
52 59 67
61 69 80
62 70 80
61 70 80
59 66 76
59 66 76
59 66 76
63 71 80
55 62 72
57 66 76
60 69 80
60 67 77
52 59 68
57 66 77
58 66 77
62 70 80
58 66 76
59 66 76
57 66 76
59 66 76
61 70 80
59 66 77
62 70 80
62 70 80
61 69 80
59 67 76
51 59 68
61 70 80
62 70 80
58 66 77
58 66 77
62 70 80
63 71 80
62 70 80
59 66 76
59 67 77
57 65 76
57 65 76
62 70 80
60 69 80
62 70 80
59 67 76
58 66 77
63 70 80
58 66 77
62 70 80
61 70 80
58 66 76
62 70 80
59 67 77
59 69 80
62 70 80
59 66 76
61 70 80
60 69 80
62 70 80
58 66 77
63 70 80
57 65 76
59 67 77
61 70 80
61 69 80
64 71 80
60 69 80
60 69 80
58 66 77
61 70 80
61 70 80
61 69 80
61 69 80
62 70 80
58 66 77
58 66 76
62 70 80
62 70 80
61 69 80
60 69 80
62 70 80
62 70 80
62 70 80
61 70 80
61 69 80
62 70 80
62 70 80
60 69 80
62 70 80
60 69 80
61 70 80
60 69 80
61 69 80
61 70 80
61 70 80
61 70 80
63 70 80
63 70 80
58 66 77
63 71 80
59 68 80
62 70 80
62 70 80
62 70 80
59 69 80
60 69 80
61 69 80
63 71 80
57 66 77
61 70 80
62 70 80
64 71 80
61 69 80
60 69 80
60 69 80
61 69 80
58 66 77
62 70 80
60 69 80
63 70 80
62 70 80
60 69 80
61 69 80
61 70 80
62 70 80
61 69 80
62 70 80
61 70 80
61 70 80
62 70 80
61 69 80
63 70 80
61 70 80
60 67 77
61 70 80
62 70 80
62 70 80
61 69 80
63 70 80
62 70 80
60 69 80
61 69 80
60 69 80
61 69 80
62 70 80
61 69 80
62 70 80
62 70 80
59 68 80
63 71 80
62 70 80
59 66 77
60 69 80
62 70 80
62 70 80
61 70 80
61 70 80
61 70 80
61 69 80
58 66 77
61 69 80
61 70 80
61 70 80
61 69 80
61 70 80
61 70 80
62 70 80
61 69 80
61 70 80
60 69 80
60 69 80
57 65 76
58 66 76
60 69 80
62 70 80
64 71 80
63 70 80
62 70 80
63 70 80
61 69 80
60 69 80
62 70 80
61 70 80
59 68 80
61 70 80
60 69 80
61 70 80
61 69 80
61 69 80
60 69 80
61 69 80
63 70 80
60 67 77
59 67 77
59 66 77
61 69 80
62 70 80
61 70 80
59 66 77
60 67 77
61 70 80
62 70 80
57 65 76
58 66 76
61 69 80
62 70 80
61 69 80
62 70 80
59 67 76
58 66 77
61 69 80
60 69 80
61 69 80
62 70 80
61 70 80
62 70 80
60 69 80
59 66 76
58 66 77
59 66 76
59 66 76
61 69 80
53 62 72
61 70 80
61 70 80
62 70 80
58 66 77
60 69 80
61 67 76
61 70 80
60 67 76
55 62 72
61 70 80
62 70 80
56 65 76
60 69 80
54 62 72
61 69 80
57 66 76
53 61 72
61 70 80
58 66 76
62 70 80
59 67 76
58 66 77
62 70 80
59 67 77
61 69 80
58 66 76
58 66 76
58 66 76
62 70 80
55 62 72
62 70 80
61 69 80
59 67 77
54 62 72
62 70 80
56 63 72
59 66 77
63 70 80
56 65 77
61 69 80
58 66 76
65 71 80
52 59 68
54 62 72
61 70 80
55 62 72
54 62 73
55 62 72
54 62 72
60 67 76
62 70 80
57 66 76
60 69 80
55 62 72
53 59 68
51 58 67
52 59 68
47 54 63
45 50 58
56 63 72
53 59 68
44 50 58
54 60 68
52 59 68
59 66 76
55 62 72
47 54 63
43 48 54
16 18 21
27 30 33
39 43 48
45 49 53
33 37 42
36 40 47
39 43 47
52 57 64
48 53 59
39 43 47
33 36 41
45 49 54
44 48 54
39 43 48
33 36 41
49 53 59
46 49 54
40 43 48
18 21 24
49 54 60
34 37 42
43 47 53
35 38 42
32 36 42
28 30 34
34 38 42
38 42 47
34 37 41
44 49 54
35 38 42
45 49 54
42 46 53
38 42 48
44 48 54
48 52 59
26 29 34
49 53 59
19 22 25
49 53 59
32 36 41
32 35 40
45 48 53
49 53 60
27 29 33
46 52 59
25 29 34
19 22 25
49 53 60
34 37 42
48 53 60
44 48 54
43 48 54
51 56 63
40 44 49
44 48 54
47 52 58
37 41 46
45 49 54
50 54 60
39 42 47
56 61 68
44 47 53
44 48 53
26 29 34
40 43 47
44 48 54
40 44 49
33 37 42
39 43 48
33 36 41
49 53 59
39 43 47
43 47 53
48 52 58
45 49 54
45 48 54
38 42 47
49 53 59
49 53 59
34 37 41
46 49 54
40 44 48
32 36 41
33 36 42
14 16 18
48 52 58
25 28 32
38 42 47
38 42 47
33 36 41
26 29 32
45 50 57
59 66 76
47 54 63
52 59 68
51 58 67
59 66 76
59 66 77
53 60 68
52 59 68
51 59 68
51 58 68
57 65 76
57 65 76
51 58 68
59 67 77
59 66 77
51 58 68
54 62 72
48 54 63
61 70 80
54 62 72
60 67 76
60 67 76
56 63 72
60 67 76
63 70 80
56 63 72
55 63 72
60 69 80
56 63 72
59 66 77
51 58 67
54 62 73
52 59 68
55 62 72
62 70 80
62 70 80
57 66 76
58 66 76
56 63 72
61 70 80
59 67 77
60 69 80
58 66 76
57 65 76
62 70 80
61 70 80
60 67 76
62 70 80
62 70 80
54 60 68
59 67 76
57 66 76
51 58 68
58 66 77
61 69 80
61 70 80
61 69 80
61 70 80
57 66 76
58 66 76
61 70 80
59 67 77
61 70 80
62 70 80
59 66 76
59 67 77
61 70 80
61 70 80
60 67 77
59 66 76
61 70 80
57 66 77
60 69 80
62 70 80
62 70 80
63 70 80
62 70 80
59 68 80
57 66 77
56 63 73
62 70 80
61 70 80
60 69 80
61 70 80
56 65 76
61 70 80
62 70 80
62 70 80
61 70 80
59 66 76
62 70 80
61 69 80
61 69 80
61 69 80
61 70 80
61 70 80
61 70 80
61 70 80
60 69 80
63 70 80
58 66 76
61 69 80
63 70 80
63 70 80
62 70 80
63 70 80
61 69 80
61 69 80
61 69 80
61 70 80
61 69 80
61 69 80
61 70 80
60 69 80
62 70 80
60 69 80
60 69 80
60 69 80
61 70 80
60 69 80
61 70 80
62 70 80
63 70 80
58 66 77
61 70 80
62 70 80
58 66 77
62 70 80
59 67 77
61 69 80
61 70 80
61 70 80
58 66 77
63 70 80
60 69 80
61 69 80
61 69 80
61 67 77
58 66 76
62 70 80
61 69 80
61 69 80
60 69 80
61 69 80
61 69 80
62 70 80
57 66 77
62 70 80
62 70 80
61 70 80
61 70 80
62 70 80
58 66 77
61 70 80
62 70 80
61 69 80
61 69 80
61 70 80
60 69 80
63 70 80
63 70 80
62 70 80
61 69 80
60 69 80
61 69 80
63 71 80
62 70 80
64 71 80
61 70 80
61 69 80
62 70 80
61 69 80
60 69 80
62 70 80
61 70 80
61 70 80
58 66 76
61 69 80
60 69 80
61 69 80
61 69 80
55 63 73
60 69 80
59 69 80
63 70 80
59 68 80
58 66 76
61 69 80
58 66 77
60 69 80
60 69 80
62 70 80
62 70 80
63 70 80
63 71 80
58 66 77
61 69 80
60 69 80
60 69 80
62 70 80
61 69 80
61 70 80
60 69 80
62 70 80
63 70 80
61 70 80
60 69 80
61 70 80
61 69 80
61 70 80
61 70 80
57 66 77
62 70 80
60 69 80
61 70 80
61 69 80
62 70 80
58 66 77
55 62 72
56 65 76
58 66 77
62 70 80
56 65 76
62 70 80
61 70 80
58 66 76
63 70 80
62 70 80
59 66 77
61 69 80
59 69 80
60 69 80
62 70 80
61 70 80
60 69 80
60 69 80
60 69 80
60 69 80
56 63 72
56 63 72
59 66 77
57 65 76
59 68 80
59 69 80
61 70 80
58 66 77
54 62 72
63 70 80
47 54 64
63 71 80
60 69 80
59 66 76
57 65 76
62 70 80
61 70 80
63 70 80
60 69 80
62 70 80
57 65 76
60 67 77
61 70 80
61 69 80
57 65 76
61 70 80
60 69 80
61 70 80
60 69 80
52 58 67
56 63 72
53 59 68
51 59 68
58 66 76
61 68 77
58 66 76
58 66 76
52 58 67
61 67 77
60 69 80
58 66 76
58 66 77
55 63 73
52 59 68
57 63 72
47 54 62
60 69 80
59 67 77
57 63 72
57 64 73
59 66 77
57 65 76
53 61 72
54 62 73
48 55 63
48 55 63
53 59 68
57 66 76
56 63 72
56 63 72
53 59 68
62 70 80
54 62 72
55 63 72
52 59 68
48 54 63
52 58 67
51 59 68
55 62 72
47 54 62
40 43 48
39 43 47
39 43 47
40 43 48
27 29 33
40 44 49
45 49 54
26 29 33
33 36 41
40 43 48
49 53 59
32 35 40
33 36 41
34 38 42
34 37 42
37 41 47
40 43 48
45 49 54
44 48 54
42 47 53
34 38 42
56 61 69
35 38 42
42 47 54
43 48 53
26 29 33
39 43 48
40 43 47
40 43 48
39 42 47
25 28 32
51 54 60
45 49 54
44 48 54
26 28 32
24 27 31
53 58 64
44 48 53
45 49 54
39 42 47
40 43 48
27 30 34
44 48 54
34 38 42
45 49 54
38 42 48
37 41 47
39 43 49
44 48 54
40 43 48
43 48 54
49 53 59
41 44 49
49 54 60
41 44 49
40 43 48
39 43 48
28 31 35
34 37 42
45 49 54
40 44 49
34 37 42
38 42 46
46 49 54
36 41 46
47 52 59
44 48 54
47 52 58
49 52 58
45 48 53
39 43 48
46 50 54
45 49 54
38 43 49
34 37 41
49 53 60
49 53 59
37 41 47
46 49 54
38 42 47
28 30 34
27 30 34
40 44 49
51 54 60
33 36 41
27 30 34
38 42 47
33 36 41
38 42 47
46 49 54
51 58 67
56 63 72
58 66 76
57 64 73
52 58 67
48 54 63
54 62 72
56 63 73
55 62 72
55 63 72
56 63 72
60 69 80
61 69 80
51 58 67
57 66 77
48 54 63
47 54 63
59 67 77
62 70 80
54 62 72
51 58 67
58 66 77
58 66 77
61 70 80
58 66 76
53 60 69
54 62 72
60 69 80
60 69 80
61 69 80
63 71 80
58 66 76
59 66 77
51 58 68
60 69 80
59 66 76
61 70 80
60 69 80
60 69 80
61 69 80
57 65 76
61 69 80
61 69 80
61 70 80
62 70 80
57 65 76
59 66 76
58 66 76
61 69 80
56 63 72
57 66 77
55 62 72
58 66 77
59 65 73
50 58 67
59 68 80
58 66 76
56 63 72
57 66 76
62 70 80
61 69 80
54 62 72
62 70 80
58 66 77
61 69 80
58 66 76
59 67 77
61 69 80
60 69 80
61 69 80
61 69 80
64 71 80
61 69 80
61 70 80
57 65 76
63 71 80
61 69 80
59 66 76
58 66 77
61 70 80
62 70 80
62 70 80
61 69 80
61 69 80
61 70 80
60 69 80
61 70 80
60 69 80
61 69 80
59 67 76
58 66 76
62 70 80
58 66 77
63 71 80
59 68 80
62 70 80
59 67 77
56 65 77
60 69 80
64 71 80
59 66 77
61 70 80
61 70 80
58 66 76
62 70 80
62 70 80
58 66 76
62 70 80
58 66 77
62 70 80
62 70 80
59 69 80
61 69 80
58 66 76
61 70 80
62 70 80
59 67 77
61 70 80
59 67 77
62 70 80
61 69 80
62 70 80
61 69 80
60 67 76
62 70 80
62 70 80
60 69 80
62 70 80
61 70 80
60 69 80
62 70 80
60 69 80
61 69 80
60 69 80
62 70 80
62 70 80
62 70 80
61 70 80
61 69 80
63 71 80
60 69 80
59 69 80
59 69 80
60 69 80
61 69 80
64 71 80
62 70 80
61 69 80
62 70 80
61 69 80
60 69 80
62 70 80
61 70 80
58 66 76
61 69 80
61 70 80
60 69 80
61 69 80
59 67 76
60 69 80
61 69 80
60 69 80
63 70 80
61 69 80
62 70 80
62 70 80
57 66 77
62 70 80
59 67 77
60 69 80
61 69 80
62 70 80
61 70 80
62 70 80
61 70 80
62 70 80
63 71 80
61 70 80
61 70 80
61 70 80
63 70 80
58 66 77
59 69 80
61 69 80
60 69 80
61 69 80
60 69 80
58 66 77
62 70 80
60 69 80
55 63 72
58 66 77
61 69 80
59 66 76
60 69 80
58 66 76
61 70 80
60 69 80
61 69 80
61 70 80
62 70 80
58 66 77
61 69 80
63 70 80
61 69 80
61 70 80
61 69 80
61 69 80
63 70 80
62 70 80
62 70 80
63 70 80
61 69 80
62 70 80
62 70 80
59 66 76
62 70 80
61 69 80
61 70 80
55 62 72
61 70 80
61 69 80
62 70 80
63 71 80
58 66 76
61 69 80
57 66 76
61 69 80
59 67 77
60 69 80
57 66 77
63 70 80
62 70 80
60 69 80
60 69 80
62 70 80
61 69 80
60 69 80
58 66 77
62 70 80
62 70 80
58 66 76
63 71 80
60 69 80
58 66 77
59 66 76
61 69 80
61 69 80
62 70 80
61 69 80
58 66 76
62 70 80
61 70 80
57 65 76
60 69 80
61 70 80
62 70 80
56 63 72
61 70 80
60 69 80
61 69 80
58 66 76
55 62 72
56 63 72
56 63 73
59 66 76
61 69 80
56 63 73
58 66 76
55 63 73
58 66 77
58 66 76
57 65 76
61 70 80
58 66 76
56 65 77
56 63 72
53 62 72
55 62 72
60 69 80
61 70 80
55 63 73
59 67 77
52 59 68
51 58 68
56 63 72
52 59 68
58 66 76
59 67 77
54 60 68
55 62 72
46 54 63
56 63 72
51 58 68
55 63 72
51 58 67
55 63 72
58 66 76
59 66 76
51 58 67
52 58 67
52 59 68
52 59 67
55 63 72
52 59 68
50 55 63
39 45 52
44 50 57
52 59 68
56 63 72
44 50 57
38 42 47
39 42 46
27 30 33
26 29 33
29 31 35
34 37 42
39 42 48
31 34 38
39 43 48
26 29 32
34 38 42
42 47 53
45 49 54
40 44 49
27 30 35
32 36 41
24 28 33
33 37 42
45 48 54
38 42 48
44 48 54
43 48 53
34 37 42
33 37 42
48 53 60
40 43 48
47 52 59
28 31 34
43 47 53
34 37 41
35 37 41
39 43 49
44 48 54
39 43 49
30 34 39
40 43 49
35 38 42
39 42 47
31 35 41
43 47 53
43 48 54
36 39 42
39 42 47
17 19 22
38 43 48
41 44 49
43 47 54
16 18 21
33 36 41
39 43 48
24 27 31
26 29 32
44 48 54
33 37 41
34 37 42
39 43 48
46 49 54
34 37 42
43 47 53
40 44 49
38 42 47
17 19 23
27 30 34
34 37 42
34 37 42
44 48 53
45 49 54
27 29 33
39 42 46
19 22 25
35 38 42
44 48 53
28 30 34
39 43 48
32 35 40
37 41 47
33 37 42
32 36 42
39 42 47
38 41 46
34 37 41
38 42 47
40 44 48
28 30 34
32 36 41
26 29 33
34 37 42
38 43 48
47 54 63
44 50 57
58 64 72
56 63 72
55 62 72
54 62 72
40 45 52
51 58 68
55 63 73
56 63 72
49 55 63
51 58 67
48 55 63
48 55 64
58 66 76
55 62 72
55 62 72
59 66 76
52 59 67
54 62 72
58 66 77
62 70 80
55 62 72
61 69 80
57 65 76
48 54 63
58 66 76
55 63 73
57 66 76
58 66 77
62 70 80
56 63 72
50 58 68
54 62 72
54 62 72
61 69 80
55 62 72
62 70 80
59 66 76
57 63 72
57 65 76
60 67 77
57 66 77
60 69 80
57 66 76
58 66 77
60 67 76
61 69 80
58 66 77
57 65 77
57 66 77
54 62 73
61 70 80
62 70 80
61 69 80
57 66 76
56 65 76
54 62 72
58 66 77
61 70 80
60 69 80
60 69 80
50 58 68
59 67 77
59 67 76
57 66 77
59 67 77
57 66 76
60 67 76
57 66 76
61 70 80
61 69 80
63 70 80
62 70 80
60 69 80
59 67 77
59 67 76
59 67 77
61 69 80
59 66 76
57 66 77
60 69 80
62 70 80
60 69 80
58 66 77
61 69 80
63 70 80
60 69 80
62 70 80
63 70 80
61 70 80
62 70 80
61 69 80
63 70 80
58 66 76
63 70 80
59 68 80
55 63 72
61 70 80
61 67 76
61 69 80
62 70 80
61 69 80
62 70 80
59 66 76
60 69 80
58 66 77
59 66 76
60 69 80
59 67 76
57 65 76
60 69 80
61 69 80
60 69 80
60 69 80
62 70 80
62 70 80
62 70 80
61 70 80
58 66 77
60 67 77
62 70 80
63 70 80
62 70 80
63 70 80
58 66 76
59 68 80
61 69 80
60 69 80
64 71 80
62 70 80
60 69 80
61 69 80
62 70 80
61 70 80
57 65 76
61 70 80
61 69 80
64 71 80
63 70 80
62 70 80
60 69 80
60 69 80
64 71 80
61 70 80
60 69 80
62 70 80
60 69 80
62 70 80
60 69 80
62 70 80
60 69 80
59 68 80
61 69 80
60 69 80
62 70 80
62 70 80
60 69 80
60 69 80
61 70 80
60 69 80
60 69 80
61 69 80
62 70 80
60 69 80
61 70 80
63 70 80
60 69 80
63 70 80
60 69 80
58 66 77
61 69 80
61 69 80
61 69 80
61 69 80
60 69 80
61 69 80
60 69 80
62 70 80
61 69 80
60 67 77
61 70 80
58 66 77
61 69 80
60 69 80
60 69 80
61 70 80
58 66 77
58 66 77
63 71 80
60 69 80
61 69 80
60 69 80
61 69 80
58 66 76
60 69 80
62 70 80
61 69 80
61 69 80
58 66 76
59 68 80
60 69 80
61 69 80
61 69 80
61 69 80
62 70 80
58 66 76
62 70 80
60 67 77
62 70 80
60 69 80
60 67 76
62 70 80
62 70 80
58 66 77
62 70 80
61 70 80
61 69 80
59 67 77
59 67 77
62 70 80
60 69 80
60 67 76
57 65 76
61 69 80
61 69 80
61 70 80
56 63 73
60 69 80
62 70 80
57 66 77
58 66 76
59 67 77
61 69 80
57 66 76
58 66 76
61 70 80
63 70 80
62 70 80
62 70 80
60 69 80
57 64 73
59 67 76
60 69 80
53 59 68
59 67 76
61 69 80
61 69 80
61 69 80
56 63 72
55 63 72
55 62 72
57 64 72
61 70 80
62 70 80
62 70 80
62 70 80
52 59 69
57 65 76
55 62 72
60 69 80
60 69 80
61 70 80
58 66 76
58 66 77
52 59 68
62 70 80
55 63 72
55 63 73
61 70 80
57 66 77
57 66 77
47 54 63
55 63 73
58 66 77
61 69 80
61 69 80
51 58 67
58 66 76
60 69 80
52 59 68
60 69 80
55 62 72
61 70 80
59 67 76
54 62 72
54 60 69
53 59 68
55 62 72
55 62 72
62 70 80
51 59 68
48 54 62
61 69 80
54 62 72
58 66 76
55 62 72
47 52 59
50 55 63
58 66 76
62 68 76
55 63 72
55 61 69
56 63 72
51 58 67
55 63 72
57 65 76
51 56 63
52 59 67
56 63 72
56 63 72
38 44 52
51 58 67
31 35 39
32 35 40
44 48 53
40 43 48
54 59 64
37 41 47
45 49 54
34 37 42
34 37 42
42 47 53
45 49 54
45 49 54
44 48 54
44 48 54
25 28 31
34 38 42
35 38 42
39 43 48
50 54 60
48 53 59
53 57 63
53 58 64
56 62 69
45 49 54
39 43 49
50 54 60
44 48 53
48 53 59
57 61 67
38 42 47
27 30 35
41 44 49
37 42 49
27 30 34
50 54 59
45 49 54
34 37 42
49 53 58
39 43 47
40 43 48
39 42 47
45 49 54
43 48 53
46 49 54
32 36 42
38 43 48
31 35 40
32 36 40
34 37 41
34 37 41
26 30 35
38 43 49
40 43 48
53 58 64
49 53 59
35 38 42
38 42 47
33 36 41
55 59 64
49 53 60
40 43 48
34 37 42
44 48 54
32 35 40
39 43 48
43 48 54
34 37 42
31 35 41
27 29 33
28 31 35
42 47 53
26 29 32
35 38 42
40 44 48
35 37 41
39 43 49
45 49 54
33 36 40
44 48 53
25 28 32
40 43 48
34 38 42
44 48 54
33 36 41
38 42 47
38 41 45
47 54 63
51 58 68
50 58 68
51 58 68
53 60 68
57 64 72
56 63 73
52 59 68
51 58 67
48 55 63
51 58 67
39 45 52
59 67 77
51 58 68
51 58 68
48 54 63
52 59 67
54 62 72
54 62 72
54 62 72
51 58 67
60 67 77
61 69 80
56 63 72
54 62 72
60 69 80
54 62 72
52 59 68
60 67 77
61 70 80
53 61 72
57 64 72
57 65 76
52 61 72
49 55 63
61 69 80
51 58 68
55 62 72
50 58 68
61 69 80
59 68 80
52 59 68
60 69 80
55 63 73
60 69 80
62 70 80
54 62 73
62 70 80
57 66 76
61 69 80
60 67 77
62 70 80
51 56 64
58 66 76
59 68 80
61 70 80
61 69 80
61 69 80
60 69 80
55 62 72
60 69 80
60 67 76
61 69 80
56 65 76
57 66 77
59 67 77
60 69 80
61 70 80
57 65 77
62 70 80
57 65 76
57 65 76
62 70 80
56 63 73
58 66 76
61 69 80
60 69 80
58 66 76
56 63 73
60 69 80
61 69 80
59 67 77
61 69 80
62 70 80
60 69 80
62 70 80
61 69 80
58 66 77
60 69 80
63 70 80
59 66 76
61 69 80
61 69 80
59 66 76
61 70 80
62 70 80
60 69 80
61 69 80
62 70 80
61 70 80
62 70 80
59 68 80
61 69 80
62 70 80
61 69 80
58 66 77
60 67 77
61 70 80
61 69 80
58 66 77
61 69 80
62 70 80
60 69 80
61 69 80
61 70 80
58 66 77
61 70 80
60 69 80
64 71 80
60 69 80
60 69 80
63 71 80
59 67 77
59 67 76
60 69 80
58 66 77
59 67 77
63 70 80
61 69 80
60 69 80
60 69 80
62 70 80
60 69 80
61 70 80
62 70 80
63 70 80
61 69 80
60 69 80
61 69 80
62 70 80
62 70 80
60 69 80
61 69 80
63 71 80
55 63 72
59 67 77
60 69 80
60 69 80
59 68 80
62 70 80
59 68 80
60 69 80
63 70 80
59 68 80
62 70 80
62 70 80
61 70 80
62 70 80
61 69 80
63 70 80
63 71 80
61 69 80
61 70 80
61 69 80
61 69 80
60 69 80
62 70 80
61 70 80
61 69 80
63 71 80
59 66 77
61 70 80
59 67 76
61 69 80
60 69 80
60 67 77
62 70 80
61 69 80
59 67 76
61 69 80
60 69 80
62 70 80
58 66 77
58 66 77
61 70 80
61 70 80
61 69 80
62 70 80
61 70 80
61 69 80
59 67 77
62 70 80
60 69 80
60 69 80
60 69 80
63 70 80
60 67 77
62 70 80
62 70 80
61 70 80
55 62 72
61 69 80
60 67 77
61 69 80
57 65 76
59 66 76
58 66 77
62 70 80
62 70 80
63 70 80
61 69 80
61 70 80
60 69 80
61 69 80
61 70 80
59 67 77
59 66 76
60 69 80
56 63 72
63 71 80
59 66 76
62 70 80
60 69 80
63 71 80
62 70 80
61 69 80
58 66 76
62 70 80
55 63 73
62 70 80
63 70 80
63 71 80
58 66 77
61 69 80
60 67 76
62 70 80
58 66 77
60 69 80
61 70 80
61 69 80
57 64 72
61 69 80
62 70 80
61 69 80
58 66 77
63 70 80
54 62 73
61 69 80
61 70 80
55 63 72
61 70 80
60 69 80
60 69 80
51 58 68
58 66 77
59 66 77
55 63 73
57 65 76
58 66 76
58 66 76
58 66 77
62 70 80
52 58 67
62 70 80
59 67 76
58 66 77
53 59 68
60 67 77
60 69 80
61 70 80
61 69 80
60 69 80
54 62 72
57 66 76
51 59 68
51 58 68
62 70 80
58 66 76
53 60 68
49 55 63
62 70 80
58 66 76
58 66 76
55 62 72
54 62 73
62 70 80
52 59 68
51 59 68
55 62 72
53 61 72
60 67 77
52 59 68
54 62 73
60 67 77
53 59 68
54 62 72
47 54 63
57 65 76
59 66 76
52 59 67
55 63 73
56 63 72
45 50 58
51 58 67
45 50 58
56 63 72
51 58 68
49 55 63
44 50 58
44 50 57
58 66 76
48 55 63
54 62 72
48 54 63
49 55 63
32 35 39
17 19 23
33 36 41
34 37 42
48 53 60
33 37 42
26 28 32
28 31 35
44 48 53
49 53 60
48 52 58
44 48 54
35 38 42
44 48 53
48 53 60
25 28 32
48 52 58
34 37 41
60 66 73
46 49 54
40 43 47
43 48 53
39 43 48
34 37 40
34 37 42
26 29 33
40 44 48
33 36 41
18 20 24
34 37 42
45 49 54
56 61 68
39 43 48
39 43 48
40 44 49
44 48 53
48 52 58
52 57 63
40 44 48
48 53 59
52 57 63
45 49 54
58 62 68
48 53 60
44 48 54
49 53 59
48 52 58
49 53 59
33 36 40
39 43 48
40 43 47
34 37 42
38 42 47
38 42 47
26 29 33
27 30 34
43 47 52
40 43 48
28 31 35
35 38 42
35 37 41
33 36 42
26 29 33
40 44 49
19 22 25
45 48 53
38 42 47
26 28 31
33 36 40
37 41 47
34 37 42
34 37 42
17 19 22
45 49 54
32 36 41
32 36 40
39 43 47
34 36 40
26 28 32
34 37 42
40 43 48
27 30 34
38 42 47
45 51 60
36 40 45
52 59 68
48 54 63
46 51 59
40 45 52
53 60 68
45 51 58
48 54 63
42 49 57
56 63 72
51 58 67
53 59 68
48 55 63
51 58 68
42 49 57
54 62 72
52 59 67
52 59 68
59 66 76
62 70 80
61 70 80
62 70 80
55 62 72
57 64 72
60 67 77
58 66 77
51 58 68
56 63 72
62 70 80
59 66 76
58 66 76
61 69 80
57 66 77
58 66 76
45 50 58
54 62 72
53 61 72
59 68 80
60 69 80
58 66 77
61 69 80
59 66 77
63 70 80
55 62 72
59 66 77
59 66 76
53 59 68
56 63 72
62 70 80
63 70 80
56 65 76
63 71 80
60 69 80
54 62 72
60 69 80
62 70 80
57 65 76
60 69 80
59 67 77
61 69 80
63 70 80
57 65 76
61 70 80
62 70 80
62 70 80
63 71 80
61 70 80
63 70 80
62 70 80
60 69 80
59 66 76
58 66 76
59 67 77
62 70 80
57 66 77
59 66 76
59 66 76
62 70 80
58 66 76
61 69 80
61 69 80
57 66 77
62 70 80
60 69 80
58 66 76
59 66 77
59 66 76
60 69 80
63 70 80
62 70 80
59 66 76
61 69 80
61 69 80
58 66 77
58 66 76
60 69 80
60 69 80
55 63 73
61 69 80
60 67 76
61 69 80
62 70 80
61 69 80
60 69 80
57 66 77
60 69 80
63 70 80
60 69 80
58 66 77
60 69 80
62 70 80
61 70 80
62 70 80
60 69 80
60 69 80
59 67 77
61 69 80
60 69 80
61 69 80
61 70 80
62 70 80
62 70 80
61 69 80
61 70 80
59 69 80
61 70 80
61 70 80
59 67 77
63 70 80
60 69 80
62 70 80
63 70 80
60 69 80
62 70 80
58 66 76
62 70 80
60 69 80
60 69 80
60 69 80
63 70 80
59 66 76
60 69 80
62 70 80
61 69 80
61 69 80
61 70 80
62 70 80
62 70 80
60 67 76
57 66 77
61 69 80
58 66 76
61 70 80
62 70 80
61 70 80
61 70 80
62 70 80
62 70 80
61 69 80
61 69 80
59 66 77
60 67 77
62 70 80
62 70 80
61 69 80
61 70 80
61 68 77
61 70 80
62 70 80
60 69 80
63 70 80
61 69 80
61 69 80
61 70 80
62 70 80
63 71 80
58 66 77
61 70 80
61 70 80
58 66 77
62 70 80
63 70 80
56 63 72
59 67 76
61 69 80
63 70 80
57 65 76
61 69 80
59 67 77
62 70 80
63 70 80
61 69 80
62 70 80
62 70 80
55 63 72
63 70 80
60 67 77
58 66 77
61 70 80
61 69 80
61 70 80
61 70 80
58 66 76
59 67 76
61 70 80
60 69 80
60 69 80
61 70 80
61 69 80
62 70 80
63 70 80
60 69 80
61 70 80
62 70 80
60 69 80
62 70 80
59 67 77
57 66 77
62 70 80
61 69 80
60 69 80
61 69 80
62 70 80
61 69 80
56 65 76
58 66 77
60 69 80
61 69 80
62 70 80
63 70 80
58 66 77
57 66 76
56 65 76
61 70 80
61 69 80
55 62 72
59 67 77
55 63 72
61 70 80
61 70 80
59 67 77
61 70 80
61 70 80
58 66 76
59 67 77
62 70 80
55 63 73
61 70 80
60 69 80
58 66 76
59 66 76
57 66 76
58 66 77
61 70 80
61 69 80
57 65 76
61 69 80
63 70 80
60 67 76
58 66 76
59 67 77
51 59 68
56 63 72
55 63 72
58 66 77
58 66 77
63 70 80
53 61 72
60 67 77
62 70 80
58 66 77
60 69 80
62 70 80
62 70 80
59 67 77
55 62 72
55 63 72
58 66 76
53 59 68
60 67 77
53 60 68
47 51 57
61 69 80
62 70 80
58 66 77
60 69 80
58 66 76
50 58 68
55 62 72
54 62 72
53 62 72
57 66 77
51 58 67
56 63 72
57 64 73
49 55 63
60 69 80
57 64 72
53 59 68
61 69 80
59 67 77
59 67 76
33 38 45
54 62 72
44 50 57
48 54 63
55 63 73
48 54 63
52 59 67
49 57 67
40 45 52
39 44 52
49 55 62
33 38 44
49 55 63
50 55 63
52 58 67
45 51 59
33 35 39
34 37 42
26 29 32
40 43 48
45 49 54
34 37 42
34 36 40
34 37 42
26 29 33
39 43 47
42 47 54
34 37 42
42 47 53
41 44 48
44 48 54
44 48 53
39 43 48
44 48 53
38 42 48
34 37 42
43 48 53
44 48 53
39 43 47
39 43 48
49 53 60
27 30 34
26 29 33
49 53 58
43 48 54
45 49 54
26 28 31
48 52 59
44 48 54
27 30 33
54 58 64
45 49 54
26 29 33
44 48 54
45 49 54
49 53 60
34 37 41
53 57 63
39 42 47
19 22 25
33 37 42
28 30 34
34 37 42
33 37 41
26 30 34
28 31 35
28 31 35
45 49 54
39 43 48
43 47 53
32 36 41
44 48 53
39 42 47
27 29 33
34 38 42
17 20 22
26 30 34
39 43 48
44 48 53
39 43 48
39 43 48
28 30 34
49 53 58
43 48 54
39 43 48
43 48 53
31 35 41
17 20 23
33 37 42
41 44 48
43 48 53
26 29 33
50 54 60
46 51 58
39 43 48
38 42 47
43 47 53
40 45 51
38 44 51
54 62 72
52 59 68
48 54 62
49 55 63
44 50 58
52 58 67
45 50 57
51 58 68
50 58 67
52 59 67
56 63 72
53 59 67
50 58 67
55 63 72
48 54 62
52 59 68
53 59 68
56 63 72
58 66 76
56 63 72
49 55 63
58 66 77
43 49 57
56 63 72
59 66 77
58 66 76
47 54 62
59 67 76
63 70 80
60 69 80
59 66 76
54 62 72
54 62 72
50 57 67
60 67 77
56 65 77
52 59 67
50 58 67
50 58 68
61 69 80
52 59 68
60 67 77
55 62 72
50 58 67
61 69 80
61 69 80
57 66 77
54 62 72
60 69 80
61 70 80
60 67 76
58 66 77
60 69 80
61 70 80
57 64 73
56 63 72
62 70 80
60 69 80
52 59 68
60 67 76
58 66 77
56 65 77
58 66 77
57 65 76
59 66 76
57 65 76
61 70 80
60 69 80
64 71 80
60 69 80
55 62 72
61 69 80
61 69 80
62 70 80
60 69 80
60 69 80
55 63 72
63 71 80
62 70 80
58 66 77
58 66 77
61 69 80
60 69 80
59 66 76
58 66 77
61 69 80
59 68 80
63 71 80
59 67 76
62 70 80
58 66 77
60 69 80
62 70 80
61 69 80
61 70 80
57 66 76
62 70 80
62 70 80
62 70 80
61 69 80
59 67 77
58 66 76
62 70 80
61 70 80
61 69 80
57 66 77
63 70 80
62 70 80
60 69 80
61 70 80
61 69 80
59 66 76
60 69 80
62 70 80
59 69 80
61 69 80
62 70 80
62 70 80
51 58 68
60 69 80
60 67 77
64 71 80
61 69 80
61 69 80
62 70 80
61 70 80
60 69 80
63 70 80
62 70 80
57 64 73
62 70 80
61 70 80
60 69 80
59 69 80
60 69 80
59 68 80
62 70 80
61 69 80
60 69 80
63 70 80
63 70 80
62 70 80
59 66 76
59 67 77
61 69 80
58 66 77
60 69 80
58 66 77
60 69 80
58 66 77
63 70 80
60 69 80
61 69 80
61 69 80
57 66 77
62 70 80
60 69 80
60 69 80
61 69 80
61 69 80
59 67 77
62 70 80
61 69 80
62 70 80
59 67 77
61 69 80
62 70 80
62 70 80
62 70 80
61 69 80
61 69 80
58 66 76
63 71 80
62 70 80
61 69 80
61 69 80
61 70 80
62 70 80
62 70 80
60 69 80
61 70 80
60 67 77
62 70 80
61 70 80
62 70 80
61 69 80
61 69 80
61 70 80
61 69 80
63 70 80
62 70 80
60 69 80
61 70 80
57 66 77
62 70 80
61 70 80
62 70 80
60 69 80
61 69 80
57 66 76
59 68 80
62 70 80
61 70 80
60 69 80
61 70 80
60 69 80
62 70 80
61 69 80
61 70 80
60 69 80
60 69 80
61 69 80
61 70 80
60 69 80
61 69 80
62 70 80
59 67 77
62 70 80
56 63 72
58 66 77
61 69 80
57 66 76
60 69 80
62 70 80
58 66 77
61 70 80
61 69 80
58 66 76
57 65 76
54 62 72
62 70 80
57 66 77
61 69 80
62 70 80
58 66 77
61 69 80
63 70 80
61 69 80
57 65 76
61 69 80
57 66 76
59 66 76
58 66 76
58 66 76
58 66 76
62 70 80
51 59 69
58 66 76
62 70 80
58 66 76
54 62 72
61 69 80
61 70 80
60 69 80
61 69 80
59 66 76
53 60 68
58 66 76
57 66 76
60 67 77
61 69 80
61 69 80
60 69 80
52 59 68
56 65 77
59 66 77
57 66 76
56 63 72
57 66 76
56 63 73
56 63 73
57 64 73
62 70 80
58 66 77
55 62 72
55 62 72
55 63 72
57 65 76
55 63 72
62 70 80
55 62 72
53 60 68
51 58 68
55 62 72
53 60 68
51 58 67
48 55 63
47 54 62
55 62 72
58 66 77
55 63 72
50 55 62
60 67 77
60 67 77
55 63 73
64 71 80
57 66 76
48 55 63
49 55 63
51 58 68
49 55 62
56 65 76
54 62 72
59 66 76
33 38 44
54 62 72
51 56 64
22 24 27
44 50 58
34 39 45
57 63 72
56 63 72
43 49 57
49 55 63
53 59 67
48 54 62
45 50 57
45 51 58
33 36 42
36 38 42
38 42 47
28 31 35
50 54 60
27 30 34
40 43 48
33 36 39
49 54 60
34 37 41
34 36 40
38 42 47
57 62 69
43 47 52
38 42 47
38 42 47
26 29 33
49 53 58
33 36 40
32 36 40
33 37 41
45 49 54
40 43 47
28 31 35
26 28 31
26 29 33
27 30 33
49 54 60
27 29 33
48 53 59
33 36 41
40 44 49
40 43 48
27 29 33
43 48 54
26 28 32
53 58 64
26 29 33
52 57 63
24 27 31
45 49 54
38 42 47
34 37 42
45 48 53
28 31 34
17 19 23
53 58 64
34 37 42
33 36 41
35 38 42
33 35 39
40 43 48
27 30 34
26 29 33
45 49 54
28 31 35
53 58 64
34 37 42
40 44 49
28 31 35
39 42 47
33 37 41
39 42 47
27 30 34
16 18 21
40 43 47
25 28 33
25 28 31
40 43 47
34 37 41
34 37 41
13 15 18
40 43 48
34 37 42
39 43 47
26 28 31
15 17 20
41 46 51
53 59 67
53 59 67
53 59 68
42 47 53
51 58 67
35 39 46
44 50 58
43 49 57
49 55 63
48 54 62
48 54 63
44 50 57
59 66 77
44 50 57
59 66 76
43 49 58
52 59 68
57 65 76
54 62 72
55 62 72
42 49 57
53 61 72
54 62 72
52 59 68
52 59 68
50 58 68
57 64 72
53 59 68
54 62 72
59 66 76
57 66 76
51 59 68
52 59 68
56 63 72
44 50 58
58 66 77
59 66 76
61 70 80
58 66 76
58 66 77
60 69 80
55 63 73
58 66 76
58 66 77
61 70 80
59 66 76
59 67 77
55 62 72
63 71 80
55 63 72
55 63 72
58 66 76
61 69 80
56 63 72
61 69 80
55 62 72
51 58 68
56 63 72
62 70 80
55 63 72
62 70 80
62 70 80
54 62 72
62 70 80
61 70 80
63 71 80
60 69 80
60 69 80
60 69 80
57 66 76
61 70 80
59 67 77
57 65 76
59 66 76
60 69 80
56 65 76
58 66 76
56 65 76
61 69 80
58 66 76
62 70 80
61 69 80
58 66 76
63 70 80
60 69 80
61 69 80
52 59 68
57 65 76
61 69 80
61 69 80
61 69 80
61 70 80
60 69 80
62 70 80
59 66 77
60 69 80
63 71 80
61 69 80
60 69 80
61 70 80
58 66 76
62 70 80
61 70 80
62 70 80
58 66 76
62 70 80
59 66 76
60 69 80
61 69 80
61 69 80
61 70 80
59 66 77
60 69 80
61 70 80
60 67 77
63 71 80
57 66 76
61 69 80
61 70 80
62 70 80
61 70 80
61 69 80
60 69 80
60 69 80
61 69 80
62 70 80
55 63 73
59 67 77
61 69 80
61 70 80
60 69 80
62 70 80
61 69 80
61 70 80
61 70 80
61 69 80
62 70 80
63 70 80
62 70 80
61 69 80
60 69 80
61 69 80
59 68 80
62 70 80
61 70 80
60 69 80
61 69 80
63 70 80
57 66 77
61 70 80
61 69 80
61 69 80
62 70 80
59 68 80
62 70 80
61 70 80
61 70 80
61 70 80
61 69 80
63 70 80
62 70 80
58 66 77
61 69 80
62 70 80
61 69 80
61 70 80
55 63 72
63 70 80
60 69 80
61 70 80
63 71 80
61 70 80
60 69 80
60 69 80
62 70 80
61 70 80
58 66 77
62 70 80
61 70 80
61 69 80
61 69 80
61 69 80
61 70 80
55 63 73
60 69 80
55 63 72
61 69 80
62 70 80
62 70 80
61 70 80
61 69 80
62 70 80
63 70 80
61 70 80
62 70 80
59 69 80
62 70 80
61 70 80
59 68 80
62 70 80
63 70 80
61 70 80
58 66 77
61 70 80
61 69 80
63 70 80
57 66 77
58 66 77
56 65 77
62 70 80
61 69 80
60 67 77
55 62 72
58 66 76
61 70 80
61 69 80
61 69 80
61 69 80
61 69 80
62 70 80
59 68 80
63 70 80
59 68 80
59 67 77
63 70 80
61 70 80
60 69 80
60 69 80
61 68 76
61 70 80
62 70 80
61 70 80
58 66 76
57 65 76
59 67 77
59 67 77
58 66 76
61 70 80
62 70 80
54 62 72
62 70 80
61 69 80
61 69 80
64 71 80
62 70 80
57 66 77
61 69 80
59 66 76
58 66 77
58 66 76
60 69 80
62 70 80
59 67 77
55 63 73
57 63 72
58 66 77
61 69 80
55 62 72
56 63 72
62 70 80
55 62 72
58 66 77
62 70 80
54 62 73
55 62 72
60 69 80
57 66 76
55 63 72
56 63 73
61 69 80
59 67 76
56 63 72
58 66 76
60 69 80
51 58 68
57 65 76
57 65 76
57 65 76
60 67 76
50 58 68
56 63 73
60 67 76
51 59 68
54 62 72
60 67 76
61 70 80
53 61 72
54 62 72
56 63 73
60 67 76
45 51 58
39 45 53
56 63 72
58 66 77
59 67 76
43 49 57
51 58 67
48 54 62
47 54 62
57 66 76
58 66 76
56 63 72
45 50 57
56 63 72
48 54 63
45 50 58
40 45 52
51 58 67
53 59 68
54 62 72
55 62 72
51 59 68
49 55 63
44 50 57
46 53 63
44 50 57
45 50 57
44 50 57
52 59 67
27 31 36
54 60 67
44 50 57
41 46 52
32 35 40
39 42 46
45 48 53
25 28 32
41 44 49
27 30 34
17 19 22
26 30 34
33 36 39
25 27 30
44 48 53
40 44 48
38 42 47
27 30 33
39 43 47
40 43 47
38 42 47
14 17 20
44 48 54
34 37 42
26 29 33
32 35 39
48 52 59
32 36 41
34 36 40
32 36 41
24 27 31
40 43 48
26 29 33
44 48 53
34 37 41
28 30 34
25 28 32
45 49 54
45 49 54
33 37 42
28 30 34
40 43 47
40 43 48
33 36 40
34 37 42
39 43 49
54 58 64
34 37 42
39 43 48
39 42 46
33 36 41
34 37 42
44 48 54
38 41 46
32 36 40
32 36 42
35 38 42
38 42 47
39 43 48
27 30 34
25 28 32
40 44 48
30 34 39
34 36 40
38 43 49
39 43 48
44 48 54
42 47 53
49 53 60
17 19 22
44 48 53
33 36 40
33 35 38
37 41 47
43 47 53
33 36 40
13 15 18
25 28 31
28 30 34
53 57 63
44 50 57
48 54 62
35 40 46
43 49 57
45 50 57
48 54 62
40 45 51
42 47 53
50 55 62
45 51 58
48 55 63
45 50 57
50 55 62
35 40 46
47 54 63
49 55 62
50 58 67
40 45 52
51 58 67
50 56 63
58 66 77
49 55 63
59 66 77
60 67 76
51 58 67
45 51 59
49 55 62
42 49 57
56 63 72
57 65 77
55 63 72
60 67 76
46 51 59
52 59 68
51 58 67
60 69 80
52 59 67
51 59 68
63 70 80
53 61 72
42 48 57
57 65 76
56 63 72
57 65 76
58 66 77
53 61 72
62 70 80
58 66 76
55 63 72
58 66 76
56 63 73
54 62 72
51 58 68
54 60 68
62 70 80
62 70 80
54 62 72
62 70 80
58 66 76
56 63 73
56 63 73
60 69 80
57 65 77
59 67 77
56 63 72
60 69 80
45 51 59
55 62 72
60 69 80
60 69 80
61 70 80
58 66 76
59 67 77
60 67 77
58 66 77
58 66 76
53 61 72
62 70 80
61 69 80
61 69 80
63 70 80
58 66 76
58 66 76
60 69 80
59 67 76
63 70 80
61 69 80
59 68 80
58 66 77
62 70 80
61 70 80
60 69 80
63 71 80
54 62 73
63 70 80
62 70 80
61 69 80
59 66 76
61 69 80
59 67 77
61 70 80
61 69 80
59 69 80
60 69 80
61 70 80
63 70 80
58 66 76
58 66 77
59 66 76
61 69 80
61 69 80
63 71 80
59 67 76
58 66 77
58 66 77
59 66 76
62 70 80
62 70 80
59 69 80
61 69 80
61 70 80
60 69 80
60 69 80
62 70 80
63 70 80
63 70 80
61 69 80
56 65 76
58 66 76
62 70 80
62 70 80
62 70 80
60 69 80
60 69 80
55 63 73
58 66 77
58 66 76
60 69 80
61 70 80
61 70 80
62 70 80
57 65 77
57 66 77
61 70 80
59 69 80
63 71 80
61 70 80
61 69 80
59 68 80
60 69 80
59 69 80
58 66 77
62 70 80
62 70 80
61 69 80
62 70 80
61 69 80
61 70 80
61 69 80
59 67 77
64 71 80
62 70 80
60 69 80
61 69 80
62 70 80
62 70 80
59 67 77
62 70 80
62 70 80
60 69 80
60 69 80
63 70 80
62 70 80
61 69 80
61 69 80
60 69 80
59 67 77
60 69 80
59 66 76
60 69 80
62 70 80
62 70 80
58 66 77
61 69 80
57 65 76
62 70 80
63 71 80
62 70 80
61 69 80
62 70 80
60 67 77
62 70 80
62 70 80
59 69 80
59 68 80
62 70 80
60 69 80
61 69 80
60 69 80
61 69 80
60 69 80
63 70 80
59 67 77
61 70 80
59 67 77
60 69 80
61 69 80
61 70 80
60 69 80
62 70 80
55 62 72
60 69 80
61 70 80
61 70 80
58 66 77
61 69 80
60 69 80
62 70 80
62 70 80
57 66 77
55 62 72
58 66 77
60 69 80
62 70 80
61 69 80
61 69 80
61 69 80
61 69 80
61 69 80
62 70 80
57 63 72
52 58 67
62 70 80
61 69 80
60 67 77
61 69 80
62 70 80
57 65 76
59 67 76
57 65 76
61 69 80
60 67 77
62 70 80
60 67 76
57 65 76
61 69 80
62 70 80
63 70 80
58 66 77
62 70 80
63 70 80
55 62 72
62 70 80
60 69 80
55 63 72
61 70 80
61 69 80
56 63 72
61 70 80
60 69 80
56 63 72
58 66 76
56 63 72
59 67 76
57 63 72
61 70 80
56 65 76
62 70 80
52 59 68
58 66 76
61 69 80
62 70 80
59 67 77
47 54 63
58 66 76
63 71 80
53 60 68
58 66 76
59 67 77
61 69 80
60 69 80
60 67 77
56 63 72
55 62 72
56 65 76
61 68 76
54 62 72
56 63 72
51 58 68
54 62 72
49 55 63
56 63 72
58 66 76
56 63 72
54 62 72
53 59 68
50 58 68
44 50 58
45 50 58
49 55 63
48 54 63
45 51 58
51 58 68
61 70 80
44 50 57
54 62 72
49 55 64
51 57 64
59 67 76
51 58 67
48 54 63
58 66 76
60 67 77
48 54 62
52 58 67
54 62 72
44 50 57
51 58 68
55 62 72
40 45 51
39 44 51
45 51 58
45 50 57
41 46 53
39 44 51
47 52 58
24 26 30
34 37 41
31 35 39
39 41 46
25 29 33
32 35 39
44 48 54
25 27 30
27 30 34
33 36 41
25 28 31
32 36 42
26 28 31
25 29 33
28 31 35
16 18 21
40 43 48
32 36 40
34 37 42
47 52 58
34 37 42
32 35 40
44 48 53
27 29 33
34 37 42
38 42 47
34 37 41
43 47 53
32 35 39
24 27 31
28 30 34
40 43 48
33 37 42
52 57 63
38 42 48
45 49 54
38 41 46
34 37 41
17 19 22
50 54 60
25 28 31
38 42 47
34 37 41
48 53 60
39 43 48
39 43 48
26 29 34
32 36 40
38 42 47
34 37 41
27 29 33
25 28 32
26 30 34
48 52 58
34 37 42
18 21 24
39 43 47
44 48 53
44 48 53
45 49 54
40 44 49
49 53 58
34 37 41
18 21 24
26 29 33
33 36 39
33 36 41
33 36 40
38 41 46
26 29 32
39 43 49
33 36 40
51 56 62
51 56 63
34 39 46
39 44 51
45 50 58
57 64 72
34 39 46
44 50 58
45 51 57
46 53 62
55 62 72
51 56 63
41 46 53
48 54 62
52 59 68
41 45 51
47 54 63
48 54 62
50 56 63
48 54 63
57 66 76
50 58 68
52 59 67
58 66 77
58 66 76
44 50 57
48 55 63
55 62 72
53 61 72
57 64 73
44 50 58
62 70 80
55 62 72
52 59 67
59 67 77
58 66 77
45 51 58
53 61 72
52 59 68
51 58 67
58 66 76
54 62 72
57 66 76
50 58 68
56 63 72
58 66 76
56 63 72
55 62 72
61 69 80
56 63 72
56 63 72
58 66 76
49 55 63
58 66 76
58 66 77
54 62 72
58 66 77
58 66 77
62 70 80
56 63 72
62 70 80
58 66 76
56 63 72
60 69 80
51 58 68
60 67 77
58 66 76
64 71 80
55 62 72
57 66 77
60 67 76
52 59 68
59 66 76
59 67 77
58 66 77
56 63 72
59 67 76
62 70 80
61 70 80
58 66 76
62 70 80
57 65 76
60 67 76
63 70 80
57 66 76
59 69 80
61 69 80
55 62 72
62 70 80
62 70 80
57 66 77
54 62 72
62 70 80
62 70 80
59 67 77
62 70 80
61 69 80
53 62 72
60 69 80
61 70 80
62 70 80
59 67 76
62 70 80
56 63 72
60 69 80
61 69 80
62 70 80
59 67 76
57 63 72
60 69 80
60 69 80
62 70 80
58 66 76
62 70 80
60 69 80
63 70 80
57 66 77
59 67 76
59 67 77
60 69 80
60 69 80
62 70 80
61 69 80
61 70 80
62 70 80
61 69 80
60 69 80
60 69 80
61 69 80
60 69 80
59 66 77
61 69 80
60 69 80
60 69 80
58 66 77
60 69 80
60 69 80
60 69 80
61 69 80
60 69 80
59 66 76
58 66 76
58 66 77
57 66 77
60 69 80
58 66 77
61 70 80
61 69 80
62 70 80
58 66 77
61 70 80
62 70 80
61 69 80
61 70 80
61 69 80
61 70 80
60 69 80
57 66 76
62 70 80
62 70 80
61 69 80
64 71 80
62 70 80
54 62 73
58 66 77
62 70 80
61 70 80
59 68 80
58 66 76
60 69 80
61 70 80
60 69 80
60 67 77
53 62 72
59 67 77
60 69 80
62 70 80
61 69 80
62 70 80
61 69 80
60 69 80
58 66 77
61 69 80
61 69 80
61 70 80
61 69 80
59 69 80
63 70 80
59 68 80
58 66 77
61 69 80
61 69 80
60 69 80
56 65 76
60 69 80
62 70 80
61 69 80
61 70 80
60 69 80
59 68 80
60 69 80
59 68 80
62 70 80
60 69 80
62 70 80
61 70 80
61 69 80
62 70 80
63 71 80
63 71 80
57 66 77
61 69 80
62 70 80
57 65 76
62 70 80
62 70 80
60 69 80
61 70 80
57 64 73
61 69 80
57 66 76
62 70 80
62 70 80
62 70 80
61 70 80
59 66 77
61 69 80
61 69 80
58 66 77
58 66 76
58 66 77
61 70 80
62 70 80
59 69 80
61 70 80
61 69 80
55 62 72
59 66 77
59 68 80
61 70 80
54 62 72
58 66 76
56 65 77
61 69 80
58 66 77
59 66 76
58 66 77
55 62 72
61 69 80
59 67 77
60 69 80
60 69 80
59 69 80
61 69 80
62 70 80
57 66 77
59 66 76
61 69 80
59 67 76
60 69 80
63 70 80
57 63 72
55 63 72
60 69 80
60 69 80
52 59 68
55 63 72
52 59 68
61 69 80
60 67 76
54 62 72
61 69 80
59 67 77
60 69 80
58 66 77
60 69 80
52 59 68
51 58 68
54 62 72
57 66 76
50 58 67
57 66 76
59 66 76
56 65 77
49 57 67
51 58 68
59 67 76
59 66 76
60 67 76
54 62 72
59 67 77
46 51 59
51 59 68
59 67 77
51 58 67
51 58 68
57 65 76
54 62 72
51 58 68
54 62 72
58 66 77
52 59 68
44 50 58
47 54 62
49 55 63
49 54 62
50 55 63
40 45 51
56 63 73
57 65 76
55 61 68
51 56 63
40 45 51
45 50 57
56 63 72
49 55 63
52 59 68
45 51 58
56 63 72
39 45 51
59 66 76
46 51 57
40 44 51
38 44 51
55 62 72
41 46 52
45 50 57
49 55 62
53 59 67
30 34 39
45 48 54
26 29 32
33 36 41
26 28 32
49 53 58
32 35 39
23 25 29
14 16 18
39 43 47
33 35 39
31 35 40
50 54 60
40 43 47
32 36 40
34 37 42
32 36 42
43 47 52
44 48 53
34 37 42
40 44 49
33 36 39
18 21 24
38 42 47
44 48 54
15 17 20
33 36 41
33 37 41
33 36 41
27 30 33
28 31 35
43 47 53
34 37 42
39 42 47
15 17 19
33 36 40
39 43 48
24 26 30
33 36 40
38 42 47
34 37 42
27 30 33
40 43 48
44 48 54
27 29 32
33 36 40
27 29 33
26 28 31
32 35 39
38 41 47
39 43 48
36 38 42
25 28 31
39 43 48
34 37 41
28 31 34
33 37 42
39 43 48
26 28 32
40 43 48
33 37 41
27 29 33
26 29 32
26 29 32
27 30 34
27 30 35
39 43 48
32 36 41
25 27 30
31 34 38
40 45 51
38 44 51
36 40 45
40 45 51
36 40 45
45 50 57
59 67 76
41 46 51
45 50 57
49 55 63
48 54 62
42 49 57
34 39 46
45 51 58
43 49 57
46 51 57
49 57 67
52 59 68
48 54 62
50 55 62
50 56 64
53 59 68
39 44 51
44 50 57
52 59 68
51 58 68
46 52 59
51 58 68
47 54 64
58 66 77
49 57 67
59 66 76
52 59 68
52 59 67
39 45 53
58 66 76
55 62 72
56 63 72
48 55 63
44 50 58
59 69 80
47 54 63
58 66 76
54 62 73
55 62 72
53 59 68
60 69 80
58 66 76
63 70 80
55 62 72
57 66 76
62 70 80
56 63 72
62 70 80
58 66 77
57 65 76
59 69 80
61 69 80
63 70 80
53 62 72
57 65 76
61 69 80
58 66 76
52 59 68
61 70 80
60 69 80
59 66 76
57 66 76
61 70 80
60 69 80
56 65 76
60 69 80
59 67 77
58 66 76
63 71 80
58 66 77
61 69 80
57 66 76
62 70 80
58 66 77
62 70 80
58 66 77
58 66 77
61 70 80
58 66 77
61 70 80
61 69 80
56 63 72
58 66 76
62 70 80
60 69 80
55 62 72
62 70 80
54 62 72
59 67 77
61 69 80
54 62 72
58 66 77
61 69 80
58 66 77
59 66 77
54 62 72
61 70 80
61 70 80
60 69 80
61 69 80
60 67 76
61 70 80
61 69 80
58 66 77
61 69 80
58 66 76
60 69 80
59 67 77
60 69 80
64 71 80
61 69 80
61 69 80
62 70 80
62 70 80
58 66 76
56 65 76
61 70 80
61 70 80
60 67 76
61 69 80
59 69 80
61 69 80
60 69 80
63 70 80
62 70 80
63 70 80
62 70 80
61 69 80
61 69 80
61 69 80
61 70 80
60 69 80
62 70 80
58 66 76
61 69 80
62 70 80
54 62 72
62 70 80
61 70 80
58 66 76
61 70 80
63 70 80
63 70 80
61 70 80
60 69 80
59 67 77
62 70 80
58 66 76
61 69 80
62 70 80
61 70 80
58 66 77
59 69 80
60 69 80
58 66 76
61 70 80
60 67 76
59 68 80
61 69 80
64 71 80
63 71 80
62 70 80
61 70 80
62 70 80
60 69 80
62 70 80
62 70 80
61 69 80
61 70 80
55 62 72
57 66 76
57 65 77
61 69 80
62 70 80
62 70 80
60 69 80
61 70 80
60 67 77
62 70 80
61 69 80
61 70 80
56 65 76
61 69 80
61 69 80
63 70 80
59 67 76
61 69 80
62 70 80
60 69 80
61 70 80
61 69 80
60 69 80
59 67 77
59 68 80
59 67 77
61 69 80
60 67 77
62 70 80
61 69 80
61 69 80
61 69 80
62 70 80
60 69 80
57 65 76
58 66 76
58 66 76
61 70 80
60 69 80
62 70 80
63 70 80
60 69 80
57 65 76
58 66 77
58 66 77
60 69 80
62 70 80
57 66 76
62 70 80
61 70 80
61 69 80
62 70 80
62 70 80
59 67 77
59 68 80
56 63 72
58 66 77
58 66 76
58 66 76
60 69 80
59 66 76
60 69 80
55 63 72
62 70 80
58 66 76
63 71 80
63 70 80
59 69 80
60 67 77
62 70 80
60 69 80
57 65 76
58 66 76
63 71 80
56 63 72
53 62 72
62 70 80
63 70 80
57 66 76
59 68 80
58 66 76
54 62 72
58 66 76
56 63 73
62 70 80
58 66 77
54 62 72
59 66 76
61 69 80
60 69 80
61 69 80
51 58 68
57 65 76
53 59 68
52 59 68
57 66 77
57 65 76
56 65 76
60 67 76
60 69 80
62 70 80
60 69 80
51 58 68
49 55 63
64 71 80
53 61 72
60 67 77
52 59 68
58 66 77
60 67 76
57 65 76
59 67 77
56 63 72
55 63 72
55 62 72
47 54 63
55 63 72
57 64 73
51 58 68
57 63 72
56 63 72
52 59 68
52 59 68
52 59 68
50 58 67
52 59 68
54 62 72
52 59 69
52 59 68
59 66 76
56 63 72
46 53 62
52 59 68
55 62 72
44 50 58
56 63 72
49 55 62
52 59 68
44 50 57
48 54 62
40 46 53
35 40 46
52 59 68
48 54 63
39 44 51
47 54 62
46 52 59
41 46 52
40 45 51
40 45 52
35 39 45
38 44 51
49 55 63
49 55 62
36 39 44
36 39 45
39 44 51
37 41 46
34 36 40
26 29 33
39 42 47
26 29 32
40 43 48
18 20 24
34 37 41
40 43 47
33 36 40
25 27 30
34 36 40
33 36 41
44 48 54
24 27 30
32 35 39
39 43 47
39 42 47
32 36 42
25 27 30
27 29 33
35 38 42
44 48 53
26 29 34
34 37 42
51 56 63
18 21 24
23 27 31
33 37 41
33 37 42
40 43 47
33 37 42
27 30 33
40 43 48
25 28 32
26 29 32
32 36 42
45 49 54
39 43 48
39 43 47
58 62 68
26 29 33
17 20 23
39 42 47
33 36 41
24 26 30
34 37 42
47 52 58
27 29 32
28 30 34
45 49 54
40 44 48
26 29 32
27 30 34
33 36 41
39 42 47
43 48 54
27 29 33
33 36 40
33 37 41
40 44 48
18 20 24
27 29 33
45 48 53
38 42 47
33 36 41
40 45 51
54 60 67
49 55 63
44 49 57
42 46 51
27 31 37
43 49 57
36 40 45
39 44 51
48 55 63
50 56 63
44 50 57
52 59 67
41 46 52
43 49 57
48 55 63
39 44 52
47 54 63
43 50 58
44 50 57
56 63 72
43 49 58
52 59 67
52 59 68
49 55 63
56 63 72
43 49 57
51 58 67
45 50 58
49 55 63
59 67 76
48 54 62
50 55 63
49 57 68
56 63 72
40 45 52
56 63 72
54 62 72
58 66 77
48 54 63
59 66 76
53 59 67
57 64 72
58 66 77
56 63 72
63 71 80
52 59 68
56 63 73
58 64 72
56 63 73
59 67 77
55 63 72
54 62 72
47 54 63
55 62 72
59 66 76
61 70 80
57 66 77
55 62 72
57 64 72
49 55 63
59 67 76
57 66 77
58 66 76
60 69 80
62 70 80
47 54 63
60 67 76
57 66 76
60 69 80
58 66 76
59 66 76
58 66 76
58 66 76
54 62 72
61 69 80
55 63 73
53 59 67
58 66 76
60 69 80
61 70 80
58 66 76
57 65 76
60 69 80
62 70 80
62 70 80
60 69 80
60 69 80
61 70 80
60 69 80
63 70 80
58 66 77
59 66 76
61 70 80
58 66 77
55 63 72
58 66 76
58 66 77
60 69 80
57 66 77
61 69 80
60 69 80
61 69 80
61 69 80
60 69 80
62 70 80
61 70 80
60 69 80
62 70 80
58 66 77
60 69 80
61 69 80
59 66 76
62 70 80
63 70 80
58 66 76
58 66 77
61 69 80
61 70 80
60 69 80
60 69 80
57 66 77
59 66 76
61 70 80
62 70 80
61 70 80
61 69 80
59 67 76
61 69 80
55 63 73
61 70 80
62 70 80
59 67 77
63 70 80
61 70 80
56 63 73
62 70 80
61 69 80
60 69 80
59 66 77
52 59 68
60 67 76
58 66 77
60 69 80
58 66 76
63 70 80
60 69 80
62 70 80
60 69 80
61 69 80
62 70 80
60 69 80
61 69 80
61 69 80
60 69 80
61 69 80
62 70 80
60 67 76
60 69 80
60 69 80
62 70 80
61 69 80
60 69 80
60 69 80
61 69 80
62 70 80
61 69 80
60 69 80
61 70 80
61 69 80
61 70 80
62 70 80
58 66 77
61 70 80
62 70 80
61 69 80
58 66 76
60 69 80
61 69 80
62 70 80
58 66 77
61 70 80
58 68 80
61 70 80
59 67 77
61 70 80
57 65 76
60 69 80
61 69 80
62 70 80
61 70 80
59 66 77
61 70 80
57 66 77
59 67 77
59 67 76
56 63 72
61 70 80
62 70 80
61 68 77
61 70 80
61 70 80
62 70 80
61 70 80
61 70 80
54 62 72
62 70 80
62 70 80
60 69 80
62 70 80
61 69 80
62 70 80
61 69 80
57 65 77
59 67 77
57 66 76
62 70 80
63 70 80
62 70 80
55 63 72
58 66 77
61 69 80
59 67 77
54 62 72
62 70 80
60 69 80
58 66 76
56 65 77
60 69 80
60 69 80
59 67 77
58 66 76
62 70 80
62 70 80
62 70 80
55 62 72
62 70 80
58 66 77
62 70 80
57 65 76
57 65 76
61 69 80
57 65 76
61 70 80
62 70 80
61 69 80
52 59 68
61 69 80
57 66 77
62 70 80
60 67 76
62 70 80
62 70 80
60 69 80
58 66 76
60 67 76
58 66 77
61 69 80
58 66 76
57 65 76
56 63 72
58 64 72
59 67 77
61 70 80
58 66 76
58 66 76
61 69 80
54 62 72
62 70 80
62 70 80
61 69 80
61 70 80
61 69 80
58 66 77
61 70 80
56 63 72
56 63 72
61 69 80
61 70 80
58 66 77
57 65 76
55 62 72
53 62 72
50 58 67
61 68 77
50 57 67
59 69 80
52 59 68
61 70 80
56 64 73
58 66 77
52 59 67
60 67 77
49 55 63
53 59 67
57 63 72
58 66 76
51 59 68
58 66 76
61 67 77
56 63 73
55 62 72
52 58 67
63 70 80
54 60 68
53 59 68
51 58 68
54 60 68
58 66 76
51 58 67
53 60 69
42 49 57
52 59 68
53 59 67
52 59 68
39 45 53
49 55 62
52 58 67
43 49 57
44 50 57
40 45 52
30 33 37
35 39 45
44 50 57
41 45 51
44 50 57
49 55 63
44 50 57
28 32 37
48 55 63
46 51 57
20 23 26
29 32 37
42 46 52
28 31 36
38 42 47
32 35 39
14 17 19
33 35 38
41 44 49
17 19 22
24 27 30
16 18 21
16 18 21
35 38 42
38 42 47
27 30 34
39 42 47
43 47 52
40 43 48
39 42 47
33 36 39
17 20 22
44 48 54
45 49 54
25 28 32
17 19 22
53 58 64
35 38 42
39 43 48
46 49 54
27 30 34
39 43 47
15 17 20
44 48 54
44 48 54
25 27 31
41 44 48
44 48 54
33 36 40
38 41 47
49 53 59
38 41 45
34 37 41
32 36 40
15 17 20
40 43 47
40 43 47
38 41 45
33 36 40
43 47 53
49 53 58
26 29 33
40 43 47
27 29 33
33 36 41
32 35 40
40 43 48
44 48 53
28 31 35
34 37 42
25 27 31
33 36 40
33 36 40
26 29 32
34 38 42
26 29 32
44 48 53
35 39 45
50 55 62
39 44 51
28 32 37
40 45 52
45 50 57
39 44 51
44 50 57
45 50 57
38 44 51
38 44 51
48 54 63
45 50 57
29 32 37
48 54 62
59 67 76
41 46 52
48 54 62
42 49 57
44 49 57
55 63 72
34 39 45
39 44 51
53 59 68
52 59 67
49 55 63
46 54 63
53 59 67
48 54 62
52 59 67
57 63 72
47 54 62
49 55 63
57 63 72
50 58 67
59 66 76
51 58 67
55 63 72
50 55 63
43 49 57
38 44 52
49 55 64
60 67 77
51 58 68
51 58 68
45 50 58
49 55 63
52 59 68
55 63 72
57 66 77
54 60 68
55 62 72
53 59 67
55 62 72
52 59 68
51 58 67
54 62 72
54 62 72
58 66 77
62 70 80
61 69 80
57 66 76
53 62 72
57 64 73
56 63 72
52 59 68
58 66 77
62 70 80
62 70 80
62 70 80
51 58 67
54 62 72
58 66 77
58 66 77
61 69 80
58 66 76
61 70 80
61 69 80
63 71 80
54 62 72
59 67 77
60 69 80
58 66 77
58 66 76
63 70 80
58 66 76
62 70 80
56 63 73
60 67 77
58 66 77
62 70 80
55 62 72
62 70 80
59 69 80
56 65 76
61 70 80
58 66 76
56 65 76
62 70 80
60 69 80
52 59 69
64 71 80
61 70 80
57 66 76
59 67 76
58 66 77
58 66 76
61 69 80
56 63 73
59 67 76
62 70 80
61 69 80
57 66 76
61 70 80
61 69 80
61 69 80
61 69 80
54 62 72
58 66 76
58 66 77
56 65 76
60 69 80
63 70 80
58 66 77
60 69 80
61 69 80
62 70 80
56 65 77
62 70 80
62 70 80
60 69 80
59 66 76
60 69 80
61 69 80
57 65 76
61 69 80
62 70 80
58 66 77
63 70 80
58 66 76
59 69 80
61 70 80
61 70 80
61 69 80
62 70 80
61 69 80
60 69 80
61 69 80
62 70 80
60 69 80
61 69 80
62 70 80
64 71 80
62 70 80
61 69 80
61 70 80
59 66 76
62 70 80
58 66 77
59 68 80
61 69 80
61 69 80
61 70 80
62 70 80
60 69 80
59 69 80
61 69 80
58 66 76
62 70 80
62 70 80
62 70 80
57 65 76
60 69 80
59 66 76
55 63 72
59 66 77
58 66 77
63 71 80
62 70 80
61 70 80
61 70 80
61 69 80
62 70 80
60 69 80
60 69 80
59 66 76
55 62 72
61 70 80
60 67 76
59 68 80
57 65 76
62 70 80
60 69 80
60 69 80
61 69 80
61 69 80
62 70 80
60 69 80
58 66 77
61 69 80
58 66 76
62 70 80
61 67 77
57 65 76
62 70 80
63 71 80
58 66 77
62 70 80
59 67 77
56 65 77
62 70 80
58 66 77
60 69 80
61 69 80
58 66 77
58 66 77
58 66 77
63 70 80
62 70 80
59 68 80
61 69 80
58 66 76
62 70 80
61 70 80
60 69 80
62 70 80
60 69 80
61 69 80
60 69 80
61 70 80
58 66 77
60 69 80
55 62 72
60 69 80
57 66 77
59 66 76
57 65 77
61 69 80
62 70 80
59 66 76
60 69 80
61 70 80
57 66 76
62 70 80
56 65 76
58 66 76
58 66 77
59 67 76
59 67 77
60 69 80
60 69 80
56 63 72
57 65 77
50 58 68
53 59 67
58 66 76
60 69 80
57 65 76
59 67 77
54 62 72
62 70 80
58 66 77
56 63 72
60 67 77
59 67 77
55 63 72
49 55 62
56 63 72
55 63 73
63 71 80
60 69 80
58 66 76
59 66 76
58 66 76
55 62 72
53 59 67
55 62 72
54 62 72
64 71 80
54 62 72
53 61 72
50 58 68
61 69 80
57 64 73
54 62 72
61 70 80
59 66 76
61 69 80
57 63 72
52 59 68
58 66 76
61 70 80
55 62 72
56 63 72
54 62 72
49 55 62
52 59 68
58 66 77
55 63 72
58 66 76
54 62 73
52 59 67
48 54 62
58 66 77
62 70 80
46 51 58
45 51 59
55 63 72
49 55 63
50 58 67
53 59 68
55 62 72
43 49 57
56 63 72
51 58 68
59 67 76
44 50 58
57 63 72
48 55 63
47 54 62
45 50 57
53 59 68
46 51 57
40 45 51
49 55 63
47 54 62
41 45 52
33 38 44
44 50 57
45 50 57
34 38 45
34 38 44
40 45 51
34 38 44
40 45 51
41 45 51
29 32 37
30 33 37
46 50 57
8 10 11
38 42 46
15 17 19
44 48 53
39 42 46
33 36 40
25 28 31
27 30 33
26 29 33
25 27 31
34 37 41
34 37 41
28 31 35
40 43 48
33 36 41
26 29 33
26 28 31
27 30 33
26 29 32
25 28 31
33 36 41
40 43 47
27 30 33
44 48 53
39 42 47
28 30 34
38 42 47
33 36 41
34 37 41
40 43 47
34 37 41
28 30 34
32 36 41
34 37 41
35 38 42
16 18 21
34 37 42
46 49 54
26 29 33
28 30 34
44 48 54
27 29 33
38 42 47
14 17 19
26 29 34
34 37 42
40 43 48
15 17 20
32 34 38
27 30 33
40 43 49
41 44 49
33 35 39
35 38 42
33 36 39
14 15 18
26 28 31
25 28 31
31 35 39
48 52 58
28 32 36
29 32 37
40 45 51
36 40 44
45 50 57
39 44 51
36 40 45
40 45 51
39 44 51
41 46 52
45 50 57
40 45 51
36 39 44
10 11 12
44 50 57
56 63 72
41 46 52
52 58 67
43 49 57
45 50 57
48 55 63
60 67 76
52 58 67
48 54 62
46 51 57
60 67 76
52 59 68
43 49 58
52 59 68
63 71 80
49 54 62
55 62 72
57 66 76
52 58 67
50 58 68
48 55 63
61 69 80
57 63 72
53 59 68
62 70 80
54 60 68
53 59 68
52 59 68
57 66 77
58 66 76
52 59 67
46 53 63
50 58 67
53 59 68
53 59 67
57 65 76
54 62 72
57 66 76
53 60 69
51 58 68
44 50 58
55 62 72
56 63 72
54 62 72
60 67 77
63 70 80
58 66 76
55 62 72
61 69 80
60 69 80
59 66 76
60 69 80
61 69 80
55 62 72
55 63 73
58 66 77
59 67 76
54 62 72
47 54 63
61 70 80
58 66 77
50 58 68
63 70 80
63 71 80
63 70 80
60 69 80
59 69 80
61 69 80
64 71 80
55 63 72
55 63 72
58 66 77
58 66 76
50 58 68
63 70 80
58 66 76
60 69 80
54 62 72
56 63 73
54 62 72
62 70 80
61 69 80
63 70 80
60 69 80
56 63 72
56 65 76
57 66 77
57 65 76
57 66 77
60 67 77
59 66 76
57 66 76
59 66 77
62 70 80
59 66 76
61 70 80
62 70 80
61 70 80
61 69 80
58 66 77
63 70 80
62 70 80
59 67 77
59 67 77
54 62 72
62 70 80
60 69 80
64 71 80
60 69 80
61 69 80
57 65 76
59 67 77
58 66 77
61 70 80
60 69 80
58 66 77
58 66 77
58 68 80
60 69 80
61 70 80
57 65 77
61 70 80
63 70 80
61 69 80
62 70 80
62 70 80
63 70 80
61 69 80
56 65 76
61 69 80
61 69 80
58 66 77
58 66 77
60 67 77
60 69 80
62 70 80
62 70 80
61 69 80
61 69 80
60 69 80
60 69 80
62 70 80
58 66 77
61 69 80
61 69 80
63 71 80
61 69 80
61 70 80
62 70 80
62 70 80
61 69 80
60 69 80
57 66 76
60 69 80
58 66 77
60 69 80
60 69 80
63 70 80
60 69 80
63 70 80
61 69 80
57 66 77
60 69 80
60 69 80
61 69 80
55 62 72
63 70 80
60 69 80
60 69 80
58 66 76
62 70 80
62 70 80
62 70 80
58 66 76
59 67 77
63 71 80
57 66 77
62 70 80
60 69 80
61 69 80
61 69 80
59 66 77
60 69 80
55 62 72
60 69 80
58 66 77
61 69 80
58 66 77
62 70 80
60 69 80
61 69 80
61 69 80
60 69 80
60 69 80
62 70 80
62 70 80
62 70 80
59 67 77
59 66 77
59 66 77
63 70 80
61 70 80
62 70 80
59 67 76
61 70 80
60 67 76
56 63 72
61 69 80
61 70 80
61 69 80
61 70 80
55 63 72
63 70 80
60 69 80
58 66 76
60 67 77
60 67 77
60 67 76
60 67 76
61 70 80
62 70 80
58 66 76
59 67 77
58 66 77
55 62 72
59 66 76
61 70 80
61 70 80
60 69 80
56 65 76
60 69 80
61 70 80
57 65 77
57 66 76
54 62 72
59 67 77
59 66 76
57 64 72
52 59 68
55 62 72
57 66 77
54 62 72
58 66 76
50 58 69
59 67 77
61 69 80
60 67 77
60 69 80
60 67 76
60 67 76
55 63 72
51 58 68
59 66 76
58 66 76
58 66 77
61 70 80
57 66 76
59 67 77
55 62 72
50 55 63
55 62 72
58 66 77
56 65 76
60 69 80
57 65 76
53 60 68
61 70 80
51 58 68
54 62 72
52 59 68
57 64 72
58 66 76
57 64 73
60 69 80
58 66 76
47 54 63
48 55 64
48 54 62
58 66 77
55 63 73
47 54 63
49 55 64
55 62 72
54 62 72
57 63 72
56 63 72
52 59 68
45 50 58
60 67 76
51 58 67
57 66 77
44 50 59
45 50 57
57 63 72
56 63 72
51 58 68
45 50 57
55 62 72
31 34 39
50 56 64
44 50 57
52 59 68
37 40 46
41 46 52
55 63 72
46 51 57
53 59 68
47 54 63
35 40 46
45 50 57
45 51 59
43 47 53
40 45 51
39 44 51
44 50 57
43 49 57
48 55 63
50 55 62
35 39 45
44 49 57
46 50 57
49 55 63
34 38 44
20 23 27
39 44 51
40 45 51
47 51 57
37 41 45
32 35 39
50 54 58
32 36 40
14 15 18
53 57 64
13 15 18
33 36 40
25 27 30
33 36 40
32 36 40
33 36 40
27 30 33
27 30 34
33 36 40
38 42 48
17 19 22
12 14 16
33 35 39
33 37 41
33 35 38
38 41 46
39 42 47
27 29 33
43 47 53
25 28 32
33 36 40
38 42 46
26 28 32
34 37 41
25 28 32
26 28 31
32 35 39
43 47 53
38 41 46
19 21 24
39 43 47
34 36 40
39 43 47
40 43 48
45 48 53
28 30 34
24 26 29
25 28 31
33 36 41
44 47 52
32 34 38
40 43 48
38 43 48
27 30 33
44 47 52
46 49 54
40 43 47
43 46 51
33 35 39
21 23 25
45 50 57
36 40 45
36 40 45
30 33 38
19 22 25
29 32 37
45 50 57
35 39 45
29 33 38
29 33 37
37 40 45
44 50 57
50 56 63
43 49 58
56 63 72
45 50 57
40 45 52
45 50 57
40 45 52
59 67 76
50 58 67
51 56 63
41 45 51
55 62 72
43 49 57
44 49 57
48 54 63
35 39 44
52 59 68
53 59 67
49 55 62
46 52 59
43 49 57
58 66 76
55 63 72
45 51 58
50 55 63
50 58 68
60 67 77
59 66 77
52 59 68
57 63 72
49 55 63
51 58 67
48 54 63
58 66 77
58 66 76
56 63 72
61 70 80
58 66 76
55 62 72
58 66 76
54 62 72
54 62 72
57 64 72
49 55 63
53 59 68
48 54 62
60 67 77
51 58 68
58 66 76
52 59 68
48 54 63
58 66 76
52 59 68
62 70 80
62 70 80
47 54 63
61 70 80
61 69 80
59 67 76
52 59 68
57 66 77
55 63 72
49 55 63
60 69 80
59 67 77
62 70 80
57 65 76
57 63 72
48 54 63
63 71 80
54 62 72
58 66 76
61 69 80
55 63 72
63 70 80
62 70 80
58 66 76
57 63 72
61 69 80
48 54 63
58 66 76
62 70 80
55 62 72
55 62 72
56 63 72
63 71 80
61 70 80
57 65 76
56 63 72
61 69 80
60 69 80
54 62 73
60 67 77
59 66 76
62 70 80
62 70 80
61 69 80
54 62 72
57 66 77
52 59 68
62 70 80
60 69 80
61 70 80
58 66 76
60 67 76
61 69 80
59 69 80
58 66 76
58 66 76
61 70 80
60 69 80
58 66 77
62 70 80
62 70 80
62 70 80
61 69 80
61 69 80
60 69 80
61 69 80
55 63 72
59 66 77
58 66 77
61 69 80
58 66 77
58 66 77
62 70 80
63 70 80
58 66 77
61 69 80
60 69 80
61 70 80
60 69 80
61 70 80
60 69 80
63 70 80
60 69 80
61 70 80
58 66 77
62 70 80
61 69 80
61 70 80
63 70 80
59 69 80
61 69 80
52 59 68
62 70 80
61 69 80
63 71 80
62 70 80
61 69 80
62 70 80
62 70 80
62 70 80
62 70 80
61 69 80
62 70 80
61 69 80
61 69 80
61 69 80
60 69 80
58 66 77
61 70 80
61 70 80
57 66 77
61 69 80
63 71 80
60 67 76
63 70 80
62 70 80
62 70 80
61 69 80
59 67 76
60 69 80
60 69 80
62 70 80
60 69 80
60 69 80
59 69 80
61 70 80
60 69 80
62 70 80
59 66 76
63 71 80
62 70 80
60 67 77
62 70 80
57 66 77
52 59 69
57 66 77
61 69 80
62 70 80
56 63 73
60 69 80
62 70 80
59 66 77
60 69 80
60 69 80
61 69 80
61 69 80
58 66 77
59 67 77
57 66 77
49 55 63
60 69 80
61 69 80
58 66 77
60 67 77
62 70 80
58 66 76
59 67 77
61 69 80
61 70 80
61 70 80
62 70 80
62 70 80
60 69 80
59 69 80
60 69 80
61 69 80
60 69 80
61 69 80
61 68 77
61 69 80
59 66 76
61 69 80
56 63 73
57 65 76
60 67 77
59 66 76
62 70 80
63 70 80
58 66 77
60 69 80
57 64 73
63 71 80
54 62 73
62 70 80
60 69 80
57 66 77
58 66 77
63 70 80
58 66 76
62 70 80
48 55 63
60 69 80
54 62 72
61 69 80
58 66 76
58 66 77
51 59 68
59 67 76
58 66 76
61 69 80
62 70 80
62 70 80
53 61 72
56 63 72
59 67 76
57 66 77
55 63 72
58 66 76
57 64 72
58 66 76
58 66 76
58 66 76
60 67 77
56 63 72
60 67 76
56 65 76
55 62 72
61 69 80
55 63 72
56 63 72
54 62 72
60 69 80
48 55 63
55 62 72
49 55 62
49 55 63
57 64 73
59 66 76
51 56 63
59 69 80
51 58 67
48 55 64
47 54 63
54 62 72
52 59 68
52 59 68
59 66 76
56 63 72
56 63 72
43 49 57
52 59 67
40 45 52
59 67 77
48 55 63
52 59 67
39 44 51
50 58 68
54 60 68
47 54 63
59 67 76
51 58 67
45 50 57
42 47 53
44 50 58
48 55 63
54 59 67
49 54 62
36 40 45
45 51 58
43 50 58
47 52 58
45 51 57
40 45 51
37 41 46
48 55 63
51 58 67
44 49 57
41 46 52
35 39 44
49 55 62
48 54 62
35 39 45
23 25 29
30 33 37
41 46 52
39 44 51
20 23 26
30 33 37
29 32 36
21 23 25
35 39 45
21 23 26
25 27 30
27 29 33
26 29 32
34 36 40
34 37 42
25 28 31
16 18 21
15 18 21
49 53 58
27 29 33
17 19 23
26 29 32
16 18 21
24 27 30
27 30 34
35 38 42
26 29 33
33 36 40
41 44 48
27 30 33
34 37 41
27 29 33
33 36 41
16 18 21
38 42 47
57 62 68
16 18 21
27 30 34
33 35 39
40 43 47
27 29 33
35 37 42
24 26 30
38 42 46
45 48 53
34 37 42
39 43 48
26 28 31
38 41 46
33 35 39
25 27 30
43 47 53
33 37 41
32 35 40
33 36 40
33 37 41
38 42 47
25 28 31
33 36 40
31 35 39
24 26 30
36 40 45
41 45 51
41 46 51
46 51 57
29 32 36
30 33 37
45 50 57
58 64 72
41 46 52
45 50 57
39 44 51
41 46 52
56 63 72
42 46 52
44 50 58
32 37 44
49 55 62
35 39 45
35 39 44
59 66 76
49 55 62
59 67 76
44 50 57
44 50 57
41 45 51
43 49 57
48 54 63
43 49 57
40 45 51
47 54 63
55 63 72
56 63 72
46 51 58
58 66 76
49 55 63
59 66 77
45 50 58
40 45 52
47 54 63
48 55 63
46 53 62
52 57 63
57 65 76
51 58 67
55 62 72
52 59 68
50 55 63
54 60 68
48 54 63
55 63 73
42 49 57
54 62 72
56 63 72
42 49 58
48 54 63
53 59 68
61 69 80
57 65 76
51 59 68
56 63 73
60 69 80
61 69 80
53 59 68
58 66 77
46 53 62
59 67 76
51 58 67
62 70 80
54 62 72
57 66 76
61 69 80
54 62 72
55 63 73
55 62 72
56 63 72
51 58 67
59 66 76
54 62 72
59 66 76
57 66 77
63 71 80
57 66 76
59 67 77
58 66 77
59 66 76
58 66 76
58 66 76
55 63 72
61 70 80
53 62 72
54 62 72
60 69 80
57 65 76
59 66 76
55 63 72
59 66 76
58 66 76
61 69 80
55 62 72
47 54 63
62 70 80
60 69 80
60 67 77
61 69 80
59 66 77
58 66 76
57 66 76
55 63 72
61 70 80
62 70 80
57 65 76
58 66 77
56 65 76
61 70 80
53 62 72
62 70 80
61 68 77
52 59 68
62 70 80
60 69 80
61 69 80
59 67 77
59 68 80
61 69 80
62 70 80
59 68 80
61 67 76
58 66 77
53 62 72
61 69 80
58 66 76
60 69 80
58 66 76
61 70 80
60 69 80
58 66 76
60 69 80
59 66 77
62 70 80
58 66 76
62 70 80
61 69 80
58 66 77
55 62 72
59 69 80
61 69 80
59 67 76
62 70 80
61 69 80
59 67 77
60 69 80
51 58 68
61 69 80
61 69 80
62 70 80
61 69 80
62 70 80
61 69 80
63 70 80
61 70 80
62 70 80
61 69 80
61 70 80
61 70 80
62 70 80
60 69 80
62 70 80
59 67 77
63 71 80
61 70 80
62 70 80
61 70 80
58 66 77
62 70 80
60 69 80
63 70 80
57 65 76
59 67 77
62 70 80
63 70 80
60 69 80
58 66 77
62 70 80
59 66 76
58 66 76
58 66 77
62 70 80
60 67 77
60 69 80
58 66 77
61 69 80
63 71 80
62 70 80
63 70 80
62 70 80
61 69 80
60 69 80
58 66 77
60 69 80
61 69 80
62 70 80
62 70 80
57 65 76
52 59 68
62 70 80
63 70 80
59 66 76
62 70 80
62 70 80
63 70 80
61 69 80
60 69 80
62 70 80
60 69 80
56 65 76
60 67 76
59 69 80
50 58 68
55 62 72
62 70 80
59 67 77
61 69 80
61 69 80
61 70 80
60 69 80
61 70 80
57 66 77
58 66 77
62 70 80
60 67 76
61 69 80
57 65 76
61 70 80
62 70 80
58 66 77
59 67 76
58 66 77
60 69 80
59 67 77
57 65 76
56 63 72
60 69 80
59 67 77
60 69 80
60 69 80
54 62 72
55 62 72
62 70 80
58 66 76
61 69 80
60 69 80
59 66 77
61 69 80
61 69 80
60 69 80
57 66 76
60 69 80
62 70 80
58 66 76
62 70 80
58 66 76
56 63 73
60 67 77
58 66 76
62 70 80
57 65 76
60 67 77
60 67 76
59 66 76
61 70 80
54 62 72
57 64 72
54 62 72
55 63 73
61 69 80
56 63 73
62 70 80
57 66 76
59 67 77
51 58 68
49 55 63
54 62 72
60 69 80
61 69 80
57 66 77
62 70 80
53 61 72
52 59 68
49 57 67
50 57 67
58 66 77
52 59 68
52 59 68
50 58 67
47 54 62
51 58 67
51 58 67
51 58 67
51 59 69
51 58 67
56 63 72
51 58 68
59 67 76
56 63 72
57 65 76
52 59 68
56 63 72
56 63 72
61 70 80
44 50 57
47 54 62
55 63 72
58 66 76
52 59 68
52 59 68
44 50 57
45 50 57
35 39 45
44 50 57
58 66 76
40 45 52
48 55 63
40 45 51
54 62 72
40 46 53
49 55 63
40 45 52
52 59 67
38 44 51
39 44 51
40 45 52
45 51 58
33 38 44
35 39 45
44 50 57
35 39 45
45 50 57
45 51 57
41 46 53
33 38 44
42 46 51
20 23 26
35 39 44
46 50 57
28 31 36
35 39 44
33 38 44
20 22 25
29 32 36
41 45 51
36 39 44
31 34 38
24 27 30
33 36 41
44 48 54
24 27 30
33 35 38
38 41 46
27 29 33
26 28 31
39 43 48
26 28 31
33 36 40
25 28 32
32 36 41
31 34 39
33 37 41
26 29 32
15 17 19
25 28 32
39 42 47
34 38 42
34 36 40
16 18 21
38 41 45
15 17 20
45 49 54
14 15 18
39 43 48
33 36 40
32 35 39
33 37 41
32 36 40
36 38 42
35 37 42
34 37 42
40 43 49
24 27 31
25 28 32
26 28 32
32 35 39
45 49 54
31 35 40
25 27 31
15 17 19
17 19 22
37 41 46
35 39 45
41 45 51
34 38 44
46 51 57
41 45 51
28 32 36
28 31 36
29 32 36
20 22 25
40 45 51
20 23 26
40 44 51
40 45 51
30 33 38
45 50 57
45 50 57
41 45 51
29 32 36
49 55 63
44 50 57
36 40 45
40 45 51
59 66 76
29 33 37
51 59 68
40 44 51
45 50 57
54 60 68
53 59 67
47 53 62
52 59 67
46 51 58
55 62 72
53 59 68
54 60 68
49 55 63
56 63 72
55 63 72
47 54 63
52 59 68
48 55 63
54 62 72
48 54 63
54 62 72
57 63 72
58 66 76
47 54 62
55 62 72
55 62 72
51 58 68
50 58 68
51 58 67
58 66 76
53 62 72
55 62 72
51 58 68
48 54 63
55 63 72
59 67 77
60 69 80
55 62 72
61 69 80
59 67 77
52 59 68
54 62 72
57 65 77
58 66 76
58 66 77
57 65 76
52 59 68
63 70 80
61 70 80
55 63 72
58 66 76
61 70 80
56 63 72
56 63 72
57 66 77
57 65 76
56 63 72
62 70 80
59 67 77
58 66 76
52 59 69
58 66 76
56 63 72
60 69 80
58 66 77
63 70 80
55 62 72
58 66 77
61 69 80
58 66 76
59 66 77
52 59 67
53 62 72
62 70 80
58 66 77
54 62 73
49 55 63
58 66 77
55 63 72
52 61 72
59 67 77
58 66 77
55 62 72
58 66 76
59 66 77
58 66 76
56 63 72
60 69 80
59 67 76
54 62 72
61 70 80
58 66 76
61 69 80
59 66 76
63 70 80
58 66 77
62 70 80
61 70 80
62 70 80
58 66 76
55 63 72
59 67 76
61 70 80
61 69 80
62 70 80
62 70 80
62 70 80
62 70 80
58 66 76
59 67 76
62 70 80
61 69 80
62 70 80
61 69 80
60 67 77
61 69 80
61 69 80
62 70 80
59 68 80
60 69 80
62 70 80
63 70 80
57 65 76
60 69 80
60 69 80
61 69 80
61 69 80
60 69 80
62 70 80
60 69 80
63 70 80
56 65 76
61 69 80
63 71 80
62 70 80
62 70 80
62 70 80
61 70 80
60 69 80
61 70 80
62 70 80
57 65 76
62 70 80
62 70 80
61 69 80
61 69 80
61 69 80
61 69 80
58 66 76
56 63 72
61 69 80
61 70 80
62 70 80
62 70 80
62 70 80
61 69 80
62 70 80
61 70 80
62 70 80
61 69 80
61 70 80
60 69 80
60 69 80
63 70 80
57 66 76
58 66 76
61 69 80
59 67 77
57 65 76
62 70 80
60 69 80
59 69 80
61 69 80
63 70 80
61 70 80
64 71 80
60 69 80
63 70 80
62 70 80
58 66 76
60 67 76
58 66 77
58 66 77
58 66 77
58 66 77
61 70 80
63 70 80
59 68 80
60 69 80
56 63 73
61 69 80
59 66 77
59 67 77
58 66 76
60 69 80
62 70 80
59 67 76
57 66 77
57 65 76
62 70 80
55 62 72
59 66 76
58 66 77
62 70 80
55 62 72
62 70 80
55 63 72
56 63 72
61 70 80
56 63 72
62 70 80
54 62 72
58 66 77
58 66 77
59 67 77
62 70 80
58 66 76
62 70 80
53 61 72
58 66 77
59 67 76
62 70 80
61 70 80
57 65 76
55 62 72
58 66 76
61 67 76
56 63 72
60 69 80
57 66 76
60 69 80
57 66 77
60 69 80
59 67 76
61 69 80
61 69 80
59 67 77
49 55 63
57 65 76
63 71 80
60 69 80
61 69 80
59 66 77
61 69 80
56 63 72
55 62 72
56 63 72
62 70 80
57 66 77
59 69 80
59 66 76
52 59 68
60 67 76
58 68 80
57 66 76
54 60 68
53 61 72
55 63 72
57 66 76
56 63 73
62 70 80
59 67 77
58 66 76
56 63 72
58 66 77
58 66 76
56 65 76
52 59 68
55 60 68
59 66 77
57 66 76
50 58 67
55 63 72
57 65 76
51 59 68
52 59 68
54 62 72
49 55 63
46 53 62
57 65 76
51 58 67
55 62 72
47 54 63
52 59 68
56 63 72
40 45 51
56 63 72
49 55 64
62 70 80
63 70 80
56 63 72
51 58 68
55 62 72
44 50 57
44 50 58
49 55 63
44 50 57
60 67 76
48 55 63
52 58 67
45 51 57
40 45 51
46 51 58
29 33 38
56 63 72
35 39 44
50 58 67
49 55 63
50 55 63
46 51 58
52 59 68
40 45 52
49 55 63
45 50 57
40 45 52
41 45 52
40 44 51
35 39 45
35 39 44
30 33 37
28 32 36
29 32 36
45 50 57
36 40 45
35 39 44
35 39 44
49 55 62
21 23 25
21 23 26
20 22 26
19 22 25
28 32 36
49 55 62
35 39 44
37 40 45
33 35 38
13 14 16
26 28 32
17 19 22
26 29 32
34 37 42
39 42 47
9 10 12
16 18 21
18 20 23
38 42 47
41 44 48
31 35 39
24 27 30
16 18 21
39 43 47
27 29 33
33 36 40
17 20 22
34 37 42
23 25 28
25 28 32
33 36 39
27 30 34
33 36 40
33 36 40
16 18 21
15 17 19
34 37 41
34 36 39
28 31 35
45 48 53
32 34 38
24 27 30
36 40 45
33 36 40
13 15 18
37 41 46
37 41 45
27 31 36
7 8 9
35 39 44
29 32 37
21 23 25
36 39 44
49 55 62
36 40 45
36 40 45
21 23 26
42 46 52
29 32 37
34 39 45
40 45 51
44 50 57
49 55 63
36 40 45
50 55 62
35 39 45
35 39 44
39 44 51
49 55 62
27 31 36
47 52 58
48 54 62
52 59 67
53 59 67
35 39 46
50 58 67
53 59 68
46 53 62
40 45 51
44 50 58
39 44 52
53 59 67
43 49 57
50 56 64
50 55 63
51 58 67
48 54 63
45 50 57
46 51 57
40 45 52
56 63 72
57 66 77
58 66 76
53 59 67
59 67 77
61 70 80
53 59 68
47 54 63
58 66 77
51 58 67
59 66 76
51 58 67
52 59 67
51 58 68
56 63 72
62 70 80
62 70 80
58 66 76
58 66 76
55 62 72
53 59 68
61 69 80
53 59 68
49 55 63
52 59 68
56 63 72
59 67 77
55 62 72
49 55 62
55 63 72
59 68 80
53 59 68
57 65 76
59 67 77
57 66 77
47 54 63
59 66 76
61 70 80
62 70 80
61 69 80
58 66 76
62 70 80
58 66 77
56 63 72
54 62 72
57 65 77
55 62 72
58 66 77
51 58 67
53 59 68
61 69 80
62 70 80
61 69 80
51 58 68
56 65 76
55 63 72
57 65 76
57 66 76
61 69 80
58 66 76
60 69 80
53 60 69
59 66 76
62 70 80
60 67 77
58 66 76
60 69 80
59 66 76
51 58 68
53 61 72
54 62 72
61 69 80
61 67 76
57 63 72
54 62 72
50 58 68
59 67 77
59 66 77
59 69 80
61 69 80
62 70 80
61 70 80
57 66 77
60 69 80
60 67 77
59 66 76
54 62 72
62 70 80
61 69 80
62 70 80
56 65 76
63 70 80
61 69 80
58 66 76
62 70 80
60 67 76
57 66 76
60 69 80
62 70 80
56 63 72
61 69 80
62 70 80
60 69 80
58 66 77
62 70 80
60 69 80
61 69 80
54 62 72
58 66 77
61 70 80
62 70 80
61 70 80
54 62 72
57 66 77
58 66 76
61 69 80
61 70 80
62 70 80
61 70 80
63 71 80
58 66 77
61 69 80
58 66 77
58 66 76
62 70 80
58 68 80
61 69 80
61 70 80
62 70 80
62 70 80
60 69 80
61 69 80
54 62 72
62 70 80
61 69 80
59 67 77
61 70 80
62 70 80
58 66 77
60 69 80
60 67 77
60 69 80
56 63 72
57 66 76
60 67 77
61 70 80
62 70 80
57 66 76
62 70 80
60 69 80
63 71 80
62 70 80
63 70 80
61 69 80
63 71 80
58 66 77
57 66 76
63 70 80
60 69 80
62 70 80
62 70 80
62 70 80
61 69 80
61 70 80
56 63 72
59 67 77
61 69 80
58 66 77
60 69 80
61 69 80
61 69 80
59 68 80
62 70 80
62 70 80
63 70 80
61 70 80
58 66 77
62 70 80
61 69 80
62 70 80
56 63 72
60 67 77
58 66 77
59 66 77
61 69 80
60 69 80
57 66 76
61 69 80
62 70 80
62 70 80
62 70 80
62 70 80
62 70 80
58 66 77
62 70 80
61 69 80
62 70 80
61 69 80
61 69 80
61 69 80
58 66 77
62 70 80
56 63 72
61 69 80
59 67 76
60 69 80
54 62 72
58 66 77
56 65 76
60 67 77
54 62 72
61 69 80
58 66 76
58 66 76
58 66 76
62 70 80
61 69 80
59 67 77
60 69 80
56 63 72
58 66 76
58 66 77
49 55 63
62 70 80
58 66 76
54 62 72
62 70 80
57 66 76
58 66 76
56 63 73
62 70 80
57 65 77
58 66 77
52 59 68
56 65 76
53 60 68
55 63 73
56 63 72
60 69 80
61 70 80
58 66 77
60 69 80
60 67 76
57 65 76
57 66 76
52 59 68
52 58 67
53 59 68
53 61 72
52 59 67
55 62 72
61 69 80
59 66 77
59 67 77
59 66 76
48 55 63
50 58 68
47 54 63
63 70 80
61 69 80
57 65 76
56 63 72
57 63 72
60 69 80
52 59 67
52 59 67
49 55 63
53 59 68
46 51 58
51 58 67
52 59 68
39 44 51
58 66 77
56 63 72
30 34 39
39 45 52
48 54 62
49 55 62
55 62 72
42 49 57
45 50 58
38 44 51
52 59 68
52 59 68
48 54 63
35 40 46
41 46 52
41 46 52
28 31 36
53 60 68
48 54 62
50 55 62
36 40 46
48 55 63
39 44 51
42 46 51
45 50 57
45 50 57
39 44 51
40 45 51
36 40 45
27 31 36
35 39 45
35 39 45
42 46 51
29 32 37
41 45 51
28 31 36
35 39 45
29 32 36
36 39 44
22 23 25
36 40 46
30 33 37
36 40 44
20 22 25
35 39 45
0 0 0
35 39 44
28 32 36
3 4 4
25 27 31
24 27 30
45 49 54
14 16 18
31 33 37
24 26 29
27 30 33
12 14 16
27 29 32
44 48 53
24 26 29
44 47 52
34 36 40
25 28 32
26 28 32
32 35 38
44 48 53
26 29 32
14 15 18
15 17 20
25 27 31
28 30 34
13 15 18
34 37 41
26 28 31
25 28 32
17 20 22
27 29 33
25 27 30
22 25 28
25 27 31
25 27 30
20 22 25
21 23 25
31 33 37
37 40 45
30 33 37
35 39 44
41 45 51
3 3 4
34 38 44
36 39 44
57 63 72
35 39 44
35 39 44
40 45 51
8 9 10
41 46 52
21 24 27
45 50 57
40 45 52
44 50 57
35 39 44
44 50 57
43 47 53
12 13 14
46 51 58
40 45 51
47 54 62
45 50 57
36 40 45
55 62 72
53 60 68
45 50 57
48 55 63
34 39 45
57 63 72
46 51 58
54 62 72
44 50 57
47 54 62
51 58 67
50 56 63
51 58 67
47 54 63
51 58 68
49 55 63
57 65 76
39 44 51
52 59 67
41 45 52
53 59 67
44 50 57
57 66 76
51 58 68
55 63 72
54 62 72
55 63 72
56 63 72
54 62 72
56 63 72
59 67 77
49 56 64
56 63 73
57 65 76
50 58 68
36 41 47
51 58 67
54 62 72
56 65 77
57 66 77
58 66 76
60 67 77
53 61 72
57 66 76
53 59 67
55 62 72
55 63 73
55 63 73
60 67 76
53 59 68
54 62 72
56 63 72
57 63 72
62 70 80
56 63 72
61 70 80
57 65 76
55 62 72
58 66 76
59 66 76
52 59 68
56 65 76
58 66 77
55 63 72
61 70 80
62 70 80
52 59 69
60 69 80
61 69 80
58 64 73
60 69 80
62 70 80
60 69 80
64 71 80
62 70 80
59 69 80
55 63 73
57 65 76
59 67 77
62 70 80
59 67 77
59 66 76
59 67 77
54 62 72
56 63 73
59 66 77
58 66 77
59 66 77
56 65 77
59 66 76
61 70 80
54 62 72
62 70 80
63 70 80
59 66 76
60 69 80
58 66 76
59 67 77
63 70 80
61 70 80
61 69 80
60 69 80
61 70 80
60 69 80
62 70 80
56 65 77
55 63 72
63 71 80
60 69 80
61 70 80
60 69 80
61 69 80
62 70 80
63 71 80
60 69 80
62 70 80
59 67 76
58 66 77
61 69 80
62 70 80
58 66 76
58 66 77
62 70 80
61 69 80
62 70 80
61 69 80
62 70 80
62 70 80
59 67 77
61 69 80
58 66 76
62 70 80
62 70 80
62 70 80
61 70 80
61 70 80
57 66 76
60 69 80
63 70 80
55 63 72
61 69 80
59 67 77
60 69 80
63 71 80
59 67 76
62 70 80
57 66 76
62 70 80
61 69 80
60 69 80
61 70 80
60 69 80
61 70 80
60 69 80
60 69 80
61 70 80
60 69 80
61 69 80
60 69 80
63 71 80
61 69 80
61 70 80
62 70 80
63 71 80
60 67 76
61 70 80
61 69 80
61 70 80
54 62 72
61 70 80
61 70 80
61 69 80
57 65 77
59 66 76
59 66 77
60 69 80
60 69 80
64 71 80
59 68 80
61 70 80
61 70 80
60 69 80
60 69 80
62 70 80
60 69 80
62 70 80
61 69 80
60 67 77
58 66 76
59 66 77
58 66 77
58 66 76
55 63 73
62 70 80
62 70 80
60 69 80
62 70 80
61 70 80
58 66 76
59 67 77
61 69 80
63 71 80
61 70 80
57 66 76
61 70 80
57 64 72
61 70 80
58 66 76
61 69 80
61 69 80
61 70 80
59 67 76
61 69 80
58 66 76
61 69 80
62 70 80
56 63 72
62 70 80
62 70 80
62 70 80
63 70 80
57 66 76
59 66 76
57 65 77
61 70 80
58 66 77
61 70 80
61 70 80
61 67 76
63 70 80
59 67 77
59 66 76
52 59 68
61 69 80
62 70 80
58 66 77
61 70 80
57 65 76
62 70 80
60 67 77
59 66 76
53 59 68
58 66 76
60 67 77
51 58 68
57 65 76
55 62 72
61 69 80
61 69 80
60 67 77
57 64 73
58 66 76
52 59 68
56 63 73
55 62 72
56 63 72
58 66 76
57 66 76
59 66 76
57 66 76
51 58 67
58 66 76
58 66 76
56 63 73
56 63 72
59 67 76
61 69 80
51 58 67
59 66 77
57 65 77
58 64 72
45 51 58
55 63 72
53 59 67
55 62 72
58 66 77
50 58 67
53 59 68
62 70 80
50 58 67
53 60 68
55 63 72
56 63 72
55 63 72
56 63 73
45 51 58
48 54 62
47 54 63
53 59 67
51 58 68
60 69 80
51 58 67
50 55 63
57 63 72
52 59 68
47 54 62
46 51 58
56 63 72
39 44 52
46 51 57
49 55 63
49 55 63
49 55 62
49 55 62
43 49 57
48 55 63
40 45 51
44 50 57
45 50 57
35 40 46
40 45 52
45 51 57
50 55 62
34 39 44
29 33 38
44 49 57
51 56 62
35 40 45
33 38 44
42 46 52
28 31 36
36 40 45
40 44 51
39 44 51
31 34 37
34 38 44
39 44 51
34 38 44
40 45 51
34 39 44
20 22 25
28 31 36
35 39 44
35 39 44
29 32 36
30 33 37
21 23 25
23 25 28
21 23 25
23 24 27
21 23 25
30 33 37
30 33 37
23 25 28
8 10 11
32 35 39
31 34 38
15 17 19
25 27 30
39 42 47
33 36 39
26 28 31
25 27 30
33 35 39
43 47 53
25 28 31
24 26 29
24 25 28
25 28 31
34 37 42
30 33 38
32 35 38
24 26 30
39 42 46
9 10 12
36 40 45
32 35 39
31 34 38
21 23 27
20 22 25
22 23 25
22 24 27
29 32 36
35 39 44
29 32 36
20 23 25
37 40 44
22 24 27
40 44 51
36 40 45
22 24 27
21 23 25
43 49 57
49 55 63
34 39 44
36 40 45
29 32 36
30 33 38
40 45 51
28 31 36
35 39 44
31 34 39
45 50 57
48 54 62
37 41 45
50 55 63
41 46 52
53 59 67
35 39 45
40 45 51
52 59 67
53 59 67
50 56 63
39 44 51
52 58 67
44 50 57
54 62 72
45 50 58
43 49 57
41 45 51
53 59 67
53 60 68
40 45 52
41 46 52
50 56 63
55 62 72
53 59 68
52 58 67
53 59 68
57 65 76
41 45 52
42 49 58
48 55 64
53 59 67
52 58 67
48 54 62
47 54 63
58 66 76
51 58 67
62 70 80
58 66 76
58 66 77
48 54 63
55 62 72
56 63 72
60 67 76
53 61 72
59 66 76
57 66 76
56 63 72
60 67 76
56 63 72
53 59 68
47 54 63
52 59 68
53 59 68
62 70 80
59 67 77
62 70 80
58 66 77
57 66 77
48 54 63
61 69 80
59 69 80
60 69 80
57 66 77
56 63 73
61 70 80
56 63 72
58 66 76
52 59 67
63 70 80
56 65 76
58 66 76
64 71 80
59 67 77
56 63 73
58 66 76
62 70 80
55 62 72
60 67 77
55 63 72
61 69 80
53 61 72
61 70 80
55 63 72
53 61 72
57 66 76
60 69 80
55 63 72
62 70 80
60 67 77
61 69 80
58 66 76
54 62 72
58 66 77
55 62 72
61 70 80
58 66 76
61 70 80
53 61 72
61 70 80
53 61 72
58 66 76
56 65 77
60 69 80
62 70 80
62 70 80
59 69 80
60 69 80
61 69 80
59 66 76
57 66 77
61 69 80
54 62 72
61 70 80
58 66 76
58 66 77
61 70 80
58 66 76
63 70 80
56 65 77
58 66 76
61 70 80
62 70 80
62 70 80
58 66 77
63 71 80
61 69 80
61 69 80
59 67 77
62 70 80
61 70 80
55 63 72
60 69 80
61 69 80
62 70 80
61 69 80
61 70 80
61 69 80
60 67 76
62 70 80
64 71 80
61 69 80
63 70 80
65 71 80
61 70 80
54 62 73
60 69 80
63 70 80
63 71 80
62 70 80
57 66 77
62 70 80
62 70 80
55 62 72
61 69 80
61 69 80
62 70 80
60 69 80
60 69 80
61 69 80
62 70 80
62 70 80
61 69 80
59 67 76
61 69 80
59 69 80
62 70 80
61 69 80
62 70 80
60 69 80
61 69 80
62 70 80
59 66 76
61 70 80
61 67 76
56 63 72
62 70 80
62 70 80
59 68 80
62 70 80
59 67 77
60 69 80
58 66 77
63 70 80
61 69 80
58 66 77
60 67 77
61 69 80
61 70 80
60 69 80
58 66 76
61 70 80
62 70 80
63 71 80
61 69 80
60 69 80
62 70 80
59 67 77
60 69 80
61 69 80
61 70 80
60 67 77
62 70 80
61 69 80
62 70 80
61 69 80
62 70 80
61 70 80
56 65 76
63 70 80
60 69 80
57 66 76
60 67 76
59 66 76
61 70 80
57 65 77
62 70 80
61 70 80
61 69 80
59 66 77
61 69 80
54 62 72
61 70 80
57 65 76
60 69 80
59 66 77
58 66 76
61 69 80
57 66 76
54 62 72
56 65 77
56 63 72
58 66 77
57 65 76
61 69 80
58 66 77
54 62 72
56 65 77
57 66 77
61 69 80
49 55 63
56 63 73
59 69 80
61 69 80
59 66 76
61 69 80
62 70 80
55 63 72
59 66 76
58 66 76
54 62 72
57 66 76
59 68 80
55 63 72
59 67 77
62 70 80
64 71 80
57 66 77
61 70 80
58 66 76
54 62 72
58 66 77
51 58 67
58 66 76
52 59 68
56 63 73
58 66 76
61 67 76
62 70 80
48 55 63
61 70 80
57 66 76
60 69 80
56 63 72
62 70 80
58 66 76
52 59 68
51 58 68
46 51 59
58 66 76
52 59 68
59 67 77
57 65 76
54 60 67
54 62 72
49 55 63
48 54 63
58 66 76
59 66 76
43 49 57
44 51 59
56 63 72
58 66 76
49 55 62
58 66 77
55 62 72
53 59 67
51 58 67
48 54 62
51 58 67
45 51 59
45 50 57
52 58 67
44 50 57
43 49 57
44 50 58
51 58 67
40 45 51
47 54 62
41 46 53
57 63 72
53 61 72
53 59 67
43 49 57
52 58 67
50 56 63
44 50 58
50 55 62
48 55 64
34 39 45
45 50 57
41 45 51
40 44 51
40 45 52
41 45 51
35 39 45
35 40 46
41 46 51
35 39 44
27 31 36
41 45 51
40 45 51
20 23 26
28 32 36
41 45 51
30 33 37
30 32 36
21 23 26
30 33 37
40 45 51
19 22 25
10 11 12
36 39 44
30 33 37
28 31 36
37 40 45
31 33 37
35 39 44
0 0 0
21 23 25
20 23 25
21 23 25
21 23 26
2 2 2
29 32 36
36 39 44
37 40 45
21 23 26
22 25 28
30 33 36
30 32 36
9 10 11
9 10 11
11 12 14
22 24 26
22 24 26
8 10 11
8 10 11
10 10 11
9 10 12
21 22 25
0 0 0
35 39 44
21 24 26
3 3 4
20 22 25
42 46 51
7 8 8
7 8 9
35 39 44
35 39 44
22 24 27
29 33 37
9 10 11
34 39 44
41 45 51
50 55 63
35 39 44
41 46 52
30 33 37
42 46 52
36 39 44
22 24 28
39 44 51
29 32 36
20 23 26
27 32 37
36 39 44
49 55 63
28 31 36
41 46 52
31 34 39
50 55 62
46 51 57
28 32 38
40 45 51
45 50 57
42 48 57
41 46 52
44 49 57
38 44 51
48 54 62
44 49 57
49 55 62
41 46 51
53 59 67
40 45 52
41 45 52
43 50 57
28 32 37
39 44 51
62 70 80
39 44 51
44 49 57
54 62 72
62 70 80
50 58 67
50 55 63
56 63 72
55 63 72
52 59 67
39 45 52
50 58 67
47 54 62
61 69 80
49 55 63
60 69 80
54 62 72
53 62 72
55 63 72
61 70 80
51 59 68
62 70 80
57 64 72
51 58 68
55 62 72
60 67 76
58 66 76
59 66 76
54 62 72
55 63 72
54 60 67
52 59 68
58 66 76
55 62 72
57 64 72
53 59 68
52 59 68
59 66 76
51 58 68
55 62 72
57 65 77
51 58 68
54 62 72
64 71 80
58 66 77
58 66 76
54 62 72
59 66 76
57 65 76
57 66 77
58 66 76
55 62 72
56 63 72
59 67 77
59 68 80
56 65 76
57 65 76
60 69 80
61 70 80
61 69 80
46 53 63
62 70 80
62 70 80
58 66 76
53 59 68
63 71 80
58 66 76
58 66 77
62 70 80
62 70 80
63 71 80
56 63 73
59 68 80
58 66 76
62 70 80
61 69 80
55 63 72
61 69 80
53 62 73
64 71 80
56 63 73
59 66 77
52 59 68
54 62 72
62 70 80
60 69 80
57 66 77
61 70 80
57 64 73
58 66 76
59 68 80
60 69 80
63 71 80
57 66 77
57 66 77
61 69 80
57 64 73
60 69 80
61 70 80
55 63 73
60 67 77
61 70 80
57 65 76
58 66 77
61 69 80
63 70 80
57 65 77
59 66 77
61 70 80
59 69 80
61 70 80
59 67 76
60 67 76
61 69 80
61 69 80
62 70 80
62 70 80
58 66 77
58 66 76
62 70 80
62 70 80
60 69 80
59 67 77
62 70 80
62 70 80
54 62 73
61 69 80
63 71 80
61 69 80
57 66 77
60 69 80
61 69 80
61 69 80
55 63 72
59 69 80
62 70 80
58 66 77
56 65 76
59 67 77
58 66 77
61 69 80
62 70 80
61 70 80
62 70 80
60 69 80
61 69 80
62 70 80
61 70 80
61 70 80
57 66 77
61 70 80
62 70 80
60 69 80
59 68 80
62 70 80
60 69 80
52 59 68
62 70 80
61 70 80
61 69 80
60 69 80
61 69 80
61 70 80
63 71 80
60 69 80
60 69 80
57 66 76
58 66 77
61 69 80
55 62 72
63 70 80
63 70 80
60 69 80
61 69 80
57 66 77
58 66 76
62 70 80
61 69 80
61 70 80
60 69 80
58 66 76
61 69 80
62 70 80
63 70 80
63 70 80
61 70 80
58 66 77
61 69 80
60 69 80
60 69 80
55 65 76
60 69 80
57 66 77
59 66 77
61 69 80
57 63 72
55 63 72
60 69 80
58 66 77
60 67 76
58 66 76
62 70 80
60 69 80
62 70 80
58 66 76
52 59 69
58 66 77
61 69 80
54 62 72
61 69 80
63 70 80
55 63 73
59 66 76
57 66 77
59 67 77
53 61 72
62 70 80
54 62 72
61 70 80
62 70 80
52 59 68
61 70 80
60 69 80
55 62 72
56 63 72
61 70 80
53 61 72
55 63 72
61 70 80
59 66 77
62 70 80
60 69 80
58 66 77
61 69 80
56 63 72
57 65 76
58 66 76
57 65 76
55 63 72
58 66 76
54 62 72
50 58 68
57 66 76
51 59 68
52 59 68
51 58 68
57 66 76
54 62 72
60 67 76
61 69 80
59 67 76
59 66 76
54 60 68
57 63 72
57 66 76
58 66 76
55 63 72
55 62 72
48 55 64
52 59 68
52 59 68
49 55 64
56 63 73
48 54 62
54 62 72
49 55 63
53 59 68
58 66 77
50 57 67
51 58 68
49 55 63
45 50 58
40 45 52
59 66 76
58 66 77
56 63 72
59 66 77
44 50 57
41 46 52
55 62 72
49 55 63
47 52 59
44 50 58
35 40 46
59 67 76
48 54 62
44 49 57
45 50 57
43 49 57
56 63 72
48 55 63
54 60 68
40 45 51
48 55 63
49 55 63
41 45 51
41 45 52
34 39 44
41 45 51
39 44 51
43 49 57
36 40 45
36 40 45
37 40 45
49 55 63
41 45 51
46 51 57
40 45 51
29 33 38
30 33 37
43 49 57
47 51 57
31 34 39
36 40 45
21 23 27
41 45 51
34 39 44
42 46 51
41 45 51
20 23 25
44 50 57
21 23 25
29 32 36
30 32 36
40 45 51
22 24 27
2 3 3
29 32 36
35 39 44
36 40 45
30 33 37
28 31 36
29 32 36
20 22 25
3 3 4
37 40 45
2 2 2
29 32 36
0 0 0
21 23 25
31 34 37
7 7 8
31 34 37
21 23 25
3 4 4
8 8 9
7 8 8
2 2 2
37 40 44
30 33 36
7 8 9
22 24 27
3 3 3
30 33 36
36 40 45
21 23 27
2 3 3
21 23 25
21 23 25
28 32 36
29 32 36
29 32 36
28 31 36
29 32 36
21 23 25
40 45 51
20 23 27
41 45 51
41 45 51
28 31 36
28 31 36
36 39 44
40 44 51
41 45 51
22 24 28
19 22 26
41 45 52
22 25 28
46 51 57
41 45 51
28 32 36
40 45 51
46 51 57
34 39 44
49 54 62
28 32 36
56 63 72
29 33 37
38 44 51
39 44 51
48 54 62
43 49 57
50 55 63
46 53 62
51 58 68
57 63 72
42 47 52
56 63 72
40 45 52
41 46 53
58 64 72
46 51 57
48 54 62
52 59 67
50 56 63
53 59 68
42 49 57
57 63 72
41 47 53
58 66 76
55 62 72
57 64 72
53 59 68
47 54 63
50 58 68
56 63 72
56 63 72
52 59 68
58 66 76
58 66 76
52 59 67
57 65 76
54 62 72
60 67 76
57 63 72
60 69 80
51 58 67
56 65 77
56 63 72
59 66 76
59 67 77
58 66 76
62 70 80
57 66 76
55 62 72
55 63 72
55 63 72
57 66 77
47 54 64
57 66 76
60 67 76
56 63 72
54 62 72
56 65 76
52 59 68
58 66 76
55 62 72
56 63 72
59 66 76
62 70 80
59 66 76
56 63 72
57 66 76
57 65 76
52 59 68
59 66 76
61 69 80
52 59 68
63 70 80
59 67 77
61 69 80
63 70 80
59 66 76
62 70 80
57 65 76
58 66 76
60 69 80
62 70 80
61 69 80
58 66 76
58 66 77
55 62 72
58 66 76
60 69 80
61 70 80
63 70 80
61 70 80
63 70 80
56 65 76
58 66 76
60 69 80
57 66 76
61 70 80
56 63 72
58 66 76
61 69 80
62 70 80
62 70 80
58 66 77
62 70 80
57 65 76
60 69 80
59 66 76
63 70 80
59 67 77
58 64 73
57 66 77
61 69 80
61 69 80
58 66 76
61 70 80
58 66 77
58 66 77
61 69 80
60 69 80
59 66 76
60 69 80
62 70 80
59 66 76
63 70 80
61 69 80
61 70 80
62 70 80
60 69 80
60 67 77
61 70 80
58 66 76
61 69 80
59 69 80
58 66 76
59 67 77
60 69 80
61 70 80
62 70 80
57 66 76
61 70 80
59 69 80
57 63 72
60 69 80
61 69 80
62 70 80
57 65 76
62 70 80
62 70 80
62 70 80
60 67 76
58 66 76
59 67 77
58 66 76
61 69 80
63 70 80
60 69 80
62 70 80
62 70 80
62 70 80
61 70 80
63 71 80
61 70 80
57 65 76
61 70 80
60 69 80
60 69 80
56 65 76
57 66 76
61 70 80
61 69 80
61 69 80
63 70 80
58 66 77
58 66 76
60 69 80
58 66 77
56 65 76
61 70 80
58 66 76
61 69 80
60 69 80
59 66 76
60 69 80
57 64 73
58 66 77
62 70 80
60 69 80
60 69 80
57 65 76
60 69 80
62 70 80
58 66 76
63 70 80
59 67 77
60 69 80
59 66 76
59 67 76
62 70 80
61 69 80
61 70 80
58 66 76
55 62 72
58 66 76
61 70 80
57 66 76
58 66 76
58 66 77
61 69 80
58 66 76
61 70 80
58 66 76
62 70 80
56 63 72
57 65 77
61 69 80
61 69 80
60 69 80
56 63 73
58 66 77
62 70 80
55 62 72
44 51 60
59 69 80
61 69 80
52 59 68
60 67 77
51 58 68
58 66 76
60 69 80
56 63 72
58 66 77
60 69 80
59 67 77
57 66 77
57 64 73
56 63 72
62 70 80
52 59 68
58 66 76
53 59 67
64 71 80
59 67 76
57 65 76
61 69 80
59 66 77
47 54 63
58 66 76
57 65 76
52 59 68
58 66 76
58 66 77
56 63 72
62 70 80
58 64 72
59 67 76
57 64 72
62 70 80
54 62 72
54 62 72
61 69 80
59 67 76
60 67 76
55 62 72
61 69 80
58 66 76
55 62 72
60 67 77
56 63 72
56 63 72
55 62 72
57 64 73
61 69 80
59 66 77
60 67 76
51 58 67
57 64 72
61 70 80
54 62 72
58 64 72
43 50 58
51 58 67
58 66 76
38 44 51
55 62 72
53 61 72
44 50 58
58 66 76
36 41 46
40 45 51
51 58 67
46 51 58
51 58 68
43 49 57
26 31 36
55 62 72
53 62 72
48 54 63
57 63 72
44 50 57
33 38 44
56 63 72
41 46 52
59 67 76
45 51 58
45 50 58
48 54 62
52 58 67
40 45 51
40 45 52
47 52 58
45 50 58
53 59 67
39 44 51
51 56 63
34 38 44
41 45 51
40 45 51
28 31 36
40 45 51
36 39 45
44 50 57
40 45 51
42 46 52
29 32 37
36 40 45
40 44 51
49 55 62
34 38 44
45 50 57
40 44 51
29 32 37
41 45 51
42 46 52
28 32 36
40 44 51
28 31 36
36 39 44
35 39 44
29 32 37
31 33 37
20 22 25
8 8 9
50 55 62
2 2 2
20 22 25
36 40 45
3 3 4
42 45 51
28 31 36
30 33 36
7 8 8
21 23 25
21 23 25
28 32 36
30 32 36
22 24 27
30 33 37
21 24 26
22 24 26
21 23 26
21 23 25
7 7 8
22 24 26
20 22 25
29 32 36
22 24 27
36 39 44
30 33 37
7 8 9
46 51 57
35 39 44
41 46 51
20 23 26
30 32 36
46 51 57
36 40 45
46 51 57
42 46 52
40 45 51
41 45 51
35 39 45
35 39 45
30 33 36
35 39 45
35 39 45
28 31 36
31 34 38
30 33 36
49 55 62
30 33 38
44 49 57
41 46 51
35 39 44
35 40 46
40 45 52
51 56 63
42 46 51
53 59 67
49 55 63
36 40 46
47 54 62
52 59 68
40 45 51
44 49 57
43 49 57
57 63 72
28 32 37
37 41 46
29 32 37
53 60 68
42 47 54
45 51 58
48 54 63
51 58 67
44 50 58
54 62 72
41 48 57
57 66 76
51 58 68
57 66 76
52 59 68
47 54 63
52 59 67
43 49 57
60 67 76
59 66 76
51 58 67
59 66 76
47 54 63
53 61 72
55 63 72
48 54 63
51 58 67
52 59 68
48 54 63
52 59 68
45 51 58
56 63 72
54 62 72
60 67 77
55 63 72
61 70 80
58 66 76
51 59 68
58 66 76
49 55 62
58 66 76
58 66 76
54 62 72
57 66 76
58 66 77
49 57 68
54 62 72
61 70 80
40 45 52
62 70 80
56 63 73
58 66 76
54 62 72
54 62 72
57 66 76
58 66 76
59 67 76
62 70 80
54 62 72
58 66 76
54 62 72
61 69 80
59 66 76
59 66 77
53 59 68
53 59 68
52 59 68
58 66 77
51 58 68
60 69 80
59 66 76
58 66 76
61 69 80
58 66 76
58 66 76
60 69 80
54 62 72
60 69 80
52 59 68
60 67 77
54 62 72
53 61 72
62 70 80
61 70 80
58 66 76
50 58 67
54 62 72
59 68 80
62 70 80
57 66 77
60 69 80
60 69 80
61 70 80
51 59 69
58 66 77
60 69 80
59 67 76
61 69 80
60 69 80
57 66 77
55 63 72
61 70 80
60 69 80
62 70 80
57 63 72
58 66 76
58 66 76
58 66 76
62 70 80
57 66 76
62 70 80
54 62 72
61 69 80
62 70 80
61 70 80
62 70 80
59 67 77
62 70 80
61 69 80
59 66 76
57 65 76
61 69 80
60 69 80
62 70 80
56 65 76
58 66 76
59 66 77
61 69 80
58 66 77
62 70 80
63 70 80
61 70 80
63 70 80
61 69 80
61 69 80
60 69 80
60 69 80
61 69 80
60 69 80
57 66 77
61 69 80
60 69 80
59 67 77
60 69 80
62 70 80
60 69 80
62 70 80
59 68 80
63 70 80
61 70 80
55 62 72
62 70 80
64 71 80
56 63 72
59 67 77
63 71 80
62 70 80
60 69 80
61 69 80
62 70 80
58 66 76
62 70 80
62 70 80
61 70 80
61 69 80
58 66 76
61 69 80
59 66 77
62 70 80
63 70 80
61 69 80
60 69 80
62 70 80
57 66 76
61 70 80
61 69 80
62 70 80
57 65 76
61 69 80
60 69 80
59 69 80
61 69 80
56 65 76
57 65 77
62 70 80
57 63 72
63 71 80
62 70 80
62 70 80
61 69 80
60 69 80
60 69 80
57 66 77
62 70 80
62 70 80
63 71 80
59 66 77
58 66 76
60 69 80
62 70 80
58 66 76
61 69 80
58 66 77
62 70 80
57 65 76
62 70 80
58 66 76
55 62 72
63 70 80
60 67 77
63 71 80
58 66 77
55 62 72
61 69 80
59 66 76
56 65 76
62 70 80
55 62 72
60 69 80
56 65 77
59 67 76
57 66 76
58 66 77
62 70 80
60 67 77
46 53 63
58 66 76
62 70 80
58 66 76
58 66 76
49 57 67
58 66 77
61 70 80
55 62 72
60 69 80
56 63 72
60 69 80
58 66 76
59 66 76
51 59 68
54 62 72
52 59 68
54 62 72
59 67 77
57 65 76
56 63 72
61 70 80
59 66 77
59 67 77
58 66 76
61 69 80
59 66 76
57 66 76
54 62 72
58 64 72
59 67 77
55 63 72
46 53 62
59 65 72
56 65 76
63 70 80
56 63 72
59 66 76
57 66 77
55 63 72
43 49 57
53 59 68
62 70 80
57 66 77
54 62 72
51 58 67
55 62 72
53 59 68
53 59 68
53 59 68
52 58 67
55 62 72
47 54 62
57 64 72
43 50 58
50 58 68
59 67 76
48 54 62
62 70 80
48 54 63
46 53 62
57 64 72
44 50 57
55 62 72
51 58 67
52 59 68
45 50 57
49 55 63
48 54 63
43 49 57
47 54 62
44 50 57
50 55 62
44 50 58
47 53 62
46 51 58
44 50 57
43 49 57
51 58 67
34 39 45
57 64 72
45 50 57
48 55 63
49 55 62
44 50 57
39 44 51
52 58 67
49 56 64
46 51 57
41 46 52
34 38 45
40 44 51
40 45 51
53 59 67
40 45 51
42 46 51
41 46 52
40 45 51
21 23 25
30 33 37
35 39 44
27 31 36
22 23 25
21 23 25
29 32 37
40 45 51
31 33 37
29 32 36
29 32 36
20 22 25
29 32 36
23 24 27
8 8 9
29 32 36
37 40 44
20 22 25
28 31 36
29 32 36
20 22 25
7 8 8
36 39 44
29 32 36
4 5 5
29 32 36
20 22 25
30 33 37
36 39 44
20 22 25
29 32 36
21 22 25
2 2 2
22 24 26
46 50 57
40 45 51
30 33 38
36 39 44
30 33 37
28 32 36
30 33 37
28 31 36
35 39 44
30 33 37
29 32 36
35 39 44
28 31 36
35 39 45
29 32 36
40 45 51
34 39 44
42 46 51
41 45 51
29 32 36
41 46 52
21 23 27
28 32 36
30 33 38
36 40 45
36 40 46
46 51 58
36 40 45
30 32 36
21 23 27
35 39 44
49 55 62
42 46 52
34 38 44
46 51 58
46 50 57
34 38 44
39 44 51
40 45 52
45 51 57
45 51 58
41 46 52
44 50 57
46 51 58
34 39 46
39 45 52
49 55 63
50 55 63
34 39 46
35 39 44
44 49 57
48 54 62
55 62 72
55 63 72
57 63 72
56 63 72
43 49 57
53 59 67
48 55 63
52 59 68
49 55 63
58 66 77
51 58 68
58 66 76
57 65 76
58 66 76
58 66 76
56 63 72
52 59 68
57 66 76
43 49 57
58 66 77
53 61 72
59 66 76
54 60 68
55 63 72
54 62 72
54 62 72
60 67 76
52 59 69
52 59 68
55 62 72
59 66 77
61 69 80
59 66 76
60 69 80
49 55 63
55 62 72
59 66 77
58 66 77
55 63 72
53 59 67
58 66 76
59 66 76
56 63 72
57 65 77
61 67 76
55 63 72
62 70 80
57 66 77
55 63 72
54 62 72
48 55 63
52 59 69
58 66 76
56 63 73
53 62 73
59 66 76
59 67 77
55 62 72
58 66 76
59 66 77
58 66 77
62 70 80
54 62 72
62 70 80
51 58 68
59 67 77
62 70 80
57 63 72
56 63 72
58 66 76
61 69 80
61 69 80
61 69 80
50 58 68
62 70 80
51 59 68
57 66 76
61 69 80
62 70 80
58 66 77
60 69 80
60 69 80
60 67 76
62 70 80
58 66 77
60 69 80
58 66 77
51 59 69
62 70 80
57 66 76
62 70 80
61 70 80
58 66 77
61 70 80
61 70 80
56 63 73
56 63 73
46 54 63
58 66 77
62 70 80
58 66 77
61 69 80
61 70 80
58 66 77
63 70 80
61 69 80
63 70 80
60 69 80
61 70 80
64 71 80
62 70 80
63 70 80
62 70 80
55 62 72
59 67 77
61 70 80
61 69 80
60 69 80
62 70 80
55 62 72
61 69 80
61 69 80
61 69 80
62 70 80
60 69 80
57 66 76
57 66 76
61 69 80
60 69 80
58 66 76
58 66 76
62 70 80
57 65 76
60 69 80
61 69 80
58 66 76
61 69 80
60 69 80
62 70 80
62 70 80
61 69 80
62 70 80
62 70 80
61 69 80
61 70 80
60 69 80
62 70 80
59 67 77
62 70 80
58 64 73
60 69 80
60 69 80
59 66 76
60 67 77
63 71 80
59 66 77
63 71 80
60 69 80
57 65 76
62 70 80
59 69 80
61 69 80
60 69 80
58 66 76
61 70 80
64 71 80
57 65 76
59 66 76
61 70 80
50 57 67
59 67 77
57 66 77
61 69 80
61 69 80
58 66 76
58 66 77
63 70 80
61 69 80
58 66 76
61 70 80
60 69 80
61 70 80
62 70 80
64 71 80
58 66 76
59 64 72
58 66 76
56 65 76
61 67 76
55 63 72
60 69 80
60 69 80
60 67 77
61 70 80
58 66 77
58 66 77
61 70 80
61 69 80
62 70 80
62 70 80
60 69 80
60 67 77
60 67 77
61 69 80
49 55 63
61 69 80
61 69 80
56 65 77
62 70 80
62 70 80
56 63 73
56 65 76
58 66 77
58 66 77
58 66 77
61 69 80
59 67 77
58 66 77
57 66 77
61 69 80
58 66 76
54 62 73
56 63 72
60 67 77
62 70 80
58 66 77
61 70 80
58 66 76
61 70 80
61 69 80
62 70 80
55 63 72
55 63 72
60 69 80
57 66 77
54 62 72
58 66 77
58 66 77
54 62 72
63 71 80
55 62 72
59 66 76
62 70 80
52 59 68
55 63 72
60 69 80
46 53 63
56 63 72
50 58 67
53 59 68
51 58 67
56 63 72
54 62 72
56 63 72
55 63 72
53 61 72
61 69 80
54 60 68
56 63 72
57 66 76
58 66 76
48 54 63
55 62 72
55 62 72
55 62 72
50 58 68
56 63 73
43 49 57
55 63 73
48 54 63
52 58 67
55 62 72
50 55 63
40 45 52
59 66 76
52 59 68
51 58 67
39 45 52
55 62 72
49 55 63
44 50 58
55 62 72
54 62 72
44 50 57
44 50 58
54 60 68
43 49 57
38 43 51
48 54 62
41 46 53
45 51 58
50 58 67
50 55 62
49 55 63
40 46 53
38 41 45
40 45 51
34 39 45
35 39 45
41 45 51
44 50 57
33 38 45
46 51 57
44 50 57
29 33 37
39 44 51
34 38 44
35 39 44
44 50 57
40 45 51
39 44 51
34 38 44
30 33 37
47 51 57
28 31 36
35 39 45
45 50 57
21 23 26
22 25 28
40 45 51
22 24 26
46 50 57
37 40 44
36 40 45
21 23 26
36 40 45
20 22 25
29 32 36
20 22 25
30 33 37
37 40 45
20 22 26
45 50 57
20 22 25
21 24 26
22 24 26
35 39 44
3 3 4
21 23 26
20 22 25
41 46 51
3 4 4
20 22 25
21 23 25
29 32 36
30 33 37
7 8 9
21 23 25
29 32 37
30 33 37
21 23 27
29 32 36
29 32 36
30 33 37
29 32 36
36 39 44
30 33 37
50 56 63
23 24 26
45 50 57
36 40 44
36 39 44
41 45 51
36 40 45
23 25 28
22 24 27
41 45 51
24 25 28
34 39 45
29 32 36
36 40 45
20 22 26
29 32 37
30 34 39
35 39 45
50 56 63
52 58 67
51 56 63
41 45 51
35 40 45
43 49 57
45 50 57
38 44 51
47 52 57
45 51 58
50 55 63
53 59 67
48 54 62
47 54 62
53 60 68
44 50 58
49 55 63
54 60 67
48 54 62
55 62 72
43 49 57
40 45 51
54 62 72
55 62 72
45 50 57
48 54 63
53 59 68
58 66 76
46 51 59
34 39 45
39 44 51
59 66 76
49 55 63
42 46 52
53 59 67
56 63 72
52 59 68
51 58 67
51 58 67
47 54 63
56 63 73
49 55 62
54 62 72
57 65 76
54 62 72
55 62 72
58 66 76
57 63 72
53 60 68
54 62 72
54 62 72
54 62 72
45 50 58
46 52 60
52 59 68
59 67 76
62 70 80
56 63 73
52 59 68
56 63 73
55 63 72
62 70 80
54 62 72
52 59 68
57 65 76
52 59 68
60 69 80
57 66 76
61 69 80
58 66 76
53 59 68
60 69 80
59 66 76
53 59 68
48 54 62
55 62 72
57 66 77
58 64 72
62 70 80
62 70 80
62 70 80
54 62 72
60 69 80
58 66 77
51 59 68
57 66 77
59 66 76
59 67 77
57 66 76
59 67 76
63 70 80
56 63 72
55 62 72
58 66 76
59 67 77
54 60 68
58 66 76
51 58 68
61 69 80
58 66 77
57 66 77
59 68 80
59 66 76
58 66 77
61 70 80
61 69 80
62 70 80
62 70 80
50 58 68
59 69 80
59 67 77
55 62 72
57 65 76
61 70 80
51 58 68
61 70 80
62 70 80
61 69 80
62 70 80
56 63 72
59 67 77
59 66 77
62 70 80
62 70 80
61 69 80
60 67 76
57 64 73
60 67 76
61 69 80
61 70 80
59 69 80
55 62 72
61 69 80
63 70 80
61 69 80
62 70 80
59 66 77
59 66 76
62 70 80
54 62 72
54 62 73
63 70 80
62 70 80
55 63 72
61 69 80
63 71 80
59 66 77
61 70 80
58 66 76
58 66 76
56 65 77
58 66 76
58 66 77
58 66 76
60 69 80
58 66 76
57 66 77
63 70 80
52 59 68
62 70 80
60 69 80
62 70 80
59 66 76
60 69 80
60 69 80
59 66 76
60 69 80
63 71 80
62 70 80
61 70 80
58 66 77
57 66 77
63 70 80
61 70 80
62 70 80
57 65 76
61 70 80
62 70 80
60 69 80
61 69 80
62 70 80
58 66 77
61 70 80
57 66 76
60 69 80
63 71 80
62 70 80
57 66 76
63 70 80
57 63 72
61 70 80
62 70 80
52 59 67
61 69 80
58 66 76
61 70 80
62 70 80
62 70 80
60 67 77
59 66 76
62 70 80
61 70 80
57 66 76
61 70 80
61 70 80
60 69 80
61 70 80
61 70 80
59 67 77
58 66 77
60 69 80
59 69 80
58 66 77
61 69 80
62 70 80
62 70 80
59 66 77
60 69 80
63 71 80
60 67 77
62 70 80
58 66 77
59 67 77
56 63 73
61 69 80
59 67 77
53 59 68
61 70 80
61 70 80
61 69 80
56 63 72
60 69 80
61 70 80
58 66 77
51 58 68
58 64 72
59 67 77
61 69 80
61 69 80
58 66 77
56 63 72
62 70 80
52 59 68
59 67 76
62 70 80
54 62 72
58 66 77
59 66 76
53 62 72
57 65 76
61 69 80
61 69 80
60 69 80
58 66 76
61 70 80
47 54 62
52 59 68
54 62 72
58 66 76
55 63 72
56 63 72
58 66 76
58 66 77
52 59 68
56 63 72
50 56 63
58 66 76
53 59 68
54 62 72
38 44 52
54 62 72
58 66 76
59 66 76
60 67 77
61 70 80
56 63 72
53 59 68
57 65 76
56 63 72
51 59 68
56 63 72
52 59 68
59 66 77
49 55 63
48 54 63
54 62 72
54 62 72
51 59 68
56 65 77
52 59 68
51 58 67
51 58 68
52 59 67
56 63 72
57 64 72
60 67 76
58 66 77
49 55 63
51 59 68
47 53 62
49 57 67
27 32 38
57 63 72
44 50 58
43 50 58
51 58 67
53 59 67
41 45 52
44 50 57
49 55 63
51 58 68
30 34 39
44 50 57
45 50 57
47 54 62
44 50 58
38 44 51
44 50 57
31 33 37
39 44 51
37 41 46
54 60 67
53 59 67
44 50 57
52 59 67
45 50 57
22 24 28
45 51 57
35 39 44
52 59 67
36 40 45
45 50 57
50 55 62
56 63 72
53 59 67
36 39 44
49 55 62
29 32 36
20 22 25
31 34 38
30 33 36
19 22 26
36 40 45
44 50 57
41 45 51
50 55 62
29 32 36
29 32 36
7 7 8
34 38 44
28 31 36
36 39 45
21 23 25
34 38 44
31 33 37
20 22 25
29 32 36
29 32 36
22 24 27
36 40 45
20 22 25
22 24 27
3 3 4
35 39 44
23 24 27
31 33 36
35 39 44
37 40 45
21 23 26
21 23 25
7 8 8
22 24 28
21 23 25
28 31 36
46 51 57
30 33 37
35 39 44
19 22 25
21 23 26
35 39 44
28 31 36
46 51 57
45 50 57
22 24 26
36 39 44
28 32 36
21 23 27
29 32 37
42 46 52
29 32 36
8 8 9
20 22 25
30 33 37
35 39 45
45 50 57
35 39 45
36 40 45
42 46 52
45 50 57
40 45 51
41 45 52
39 44 51
28 32 36
34 38 44
35 39 45
34 38 44
21 24 28
44 50 57
49 55 63
40 44 51
46 51 57
35 39 44
31 34 38
40 45 52
45 50 57
48 54 63
45 50 58
41 45 51
52 59 67
42 47 53
28 32 38
48 54 62
52 59 68
45 51 58
52 59 67
40 45 51
55 60 67
49 55 63
45 51 58
40 45 52
51 58 67
54 62 72
49 54 62
50 58 68
46 51 58
58 64 72
57 64 72
49 55 62
51 58 68
46 51 58
48 55 63
50 58 67
48 54 63
58 66 76
49 55 63
50 58 67
53 59 68
59 67 77
55 62 72
53 62 72
44 48 53
56 63 72
58 66 77
59 66 76
55 62 72
52 59 67
57 65 76
64 71 80
55 63 72
62 70 80
51 59 68
55 63 72
57 65 77
49 55 62
60 67 77
44 50 58
59 66 76
60 67 76
61 70 80
60 69 80
59 66 77
61 69 80
60 67 77
55 63 72
55 63 72
52 59 68
59 66 76
55 62 72
56 64 73
61 69 80
55 63 72
61 70 80
56 63 72
60 67 77
60 69 80
61 69 80
56 63 72
54 62 72
57 65 76
59 67 77
54 62 72
60 69 80
62 70 80
59 67 76
56 63 72
55 62 72
52 58 67
57 65 76
60 69 80
58 66 77
59 69 80
58 66 77
63 71 80
55 63 73
54 62 72
58 66 76
60 69 80
64 71 80
60 69 80
61 69 80
59 67 76
59 67 77
58 66 76
55 63 73
59 67 77
62 70 80
56 65 77
61 70 80
60 67 76
60 69 80
59 67 77
61 69 80
57 65 76
62 70 80
60 67 77
61 69 80
54 62 72
60 69 80
58 66 77
60 67 77
62 70 80
62 70 80
61 69 80
60 69 80
60 69 80
60 69 80
61 69 80
61 70 80
59 67 77
62 70 80
59 66 76
61 70 80
61 69 80
61 70 80
61 70 80
61 70 80
62 70 80
58 66 76
57 65 76
58 66 76
61 69 80
63 71 80
62 70 80
60 69 80
60 69 80
58 66 77
62 70 80
56 65 76
58 66 76
57 64 73
61 69 80
61 70 80
54 62 72
61 69 80
62 70 80
60 69 80
59 67 77
60 69 80
59 67 77
62 70 80
60 69 80
62 70 80
59 66 76
63 71 80
57 66 77
58 66 76
58 66 77
61 70 80
57 66 76
61 70 80
61 70 80
62 70 80
60 69 80
62 70 80
63 70 80
59 66 77
60 67 77
58 66 77
61 69 80
59 66 76
55 62 72
62 70 80
54 62 72
62 70 80
51 58 68
58 66 77
56 63 72
60 69 80
54 62 72
59 66 77
61 69 80
58 66 76
61 70 80
62 70 80
55 63 73
56 63 72
62 70 80
54 62 72
59 67 76
62 70 80
59 69 80
61 70 80
57 65 76
59 67 76
53 61 72
62 70 80
58 66 76
61 70 80
61 69 80
62 70 80
61 69 80
62 70 80
63 70 80
54 62 72
59 67 77
61 70 80
60 69 80
60 69 80
60 69 80
55 62 72
55 62 72
58 66 77
59 67 77
50 58 68
55 62 72
58 66 76
60 67 76
54 62 72
61 70 80
57 66 76
56 65 76
53 59 68
59 67 76
58 66 77
54 62 72
60 67 76
60 69 80
60 69 80
61 69 80
54 62 72
61 70 80
60 69 80
52 59 67
61 69 80
55 63 73
55 62 72
57 66 76
51 58 67
58 64 72
59 66 76
58 66 76
51 58 67
61 68 77
60 69 80
62 70 80
57 65 76
54 62 72
53 62 72
63 70 80
57 66 76
54 62 72
54 60 68
58 66 77
57 65 76
60 69 80
63 70 80
49 55 63
50 56 63
53 62 72
50 58 68
55 62 72
52 59 68
51 59 68
47 53 62
52 59 67
47 54 63
51 59 68
54 60 68
50 56 63
49 55 63
57 64 72
50 58 67
48 54 63
55 63 72
54 62 72
48 54 63
52 59 68
60 67 76
41 46 52
44 50 58
50 58 67
62 70 80
58 66 76
53 59 68
48 54 62
52 59 68
44 49 57
52 59 67
56 63 72
60 67 76
34 38 44
51 56 62
49 55 62
53 60 68
48 54 62
44 50 57
55 63 72
48 54 62
37 40 45
41 45 52
46 51 57
47 54 62
48 55 63
46 51 57
44 50 57
45 50 57
44 50 57
36 40 44
29 32 37
45 50 57
35 39 45
29 32 37
36 39 44
41 46 52
40 44 51
28 32 37
46 51 57
39 45 52
34 38 44
34 38 44
39 44 51
35 39 44
40 45 51
29 32 37
22 24 27
21 23 26
36 39 44
35 39 44
40 44 51
40 45 51
35 39 44
36 39 44
31 33 37
29 32 36
28 32 36
30 33 36
20 22 25
30 33 36
30 33 38
35 39 44
30 34 38
29 32 36
35 39 45
41 45 51
35 39 44
29 32 36
30 33 37
20 23 25
42 46 51
29 32 36
21 24 26
21 23 25
21 24 27
42 46 51
46 50 57
35 39 45
37 40 45
36 40 44
3 3 4
19 22 25
29 32 36
34 38 44
23 25 28
41 45 51
52 58 67
36 40 45
36 39 44
34 38 44
30 33 37
36 40 45
20 23 26
39 44 51
45 51 58
40 45 52
30 33 37
34 39 44
41 45 52
58 64 72
30 34 38
47 52 58
35 39 44
34 39 45
46 51 57
34 38 44
36 40 45
34 39 44
40 45 52
34 39 45
54 60 68
54 60 68
44 50 57
37 40 45
35 39 44
49 55 63
44 50 57
40 45 52
36 39 44
51 57 64
57 64 73
44 49 57
47 54 63
55 62 72
48 54 62
38 44 52
53 59 68
51 58 68
51 58 67
62 70 80
45 50 57
49 55 63
44 50 57
51 58 67
46 51 58
48 54 62
55 63 72
45 51 58
47 54 63
48 54 62
45 50 57
56 63 72
49 55 62
45 50 57
52 59 68
43 49 57
53 59 68
53 59 68
55 63 72
43 49 57
55 62 72
62 70 80
58 66 76
51 58 67
63 71 80
56 63 72
51 58 68
48 54 63
60 67 77
58 66 77
54 62 72
60 67 77
58 66 76
48 55 63
57 66 76
55 63 72
63 70 80
58 66 76
58 66 77
62 70 80
57 66 76
53 61 72
48 55 64
62 70 80
58 66 77
58 66 77
45 50 58
57 65 76
51 58 67
59 66 76
57 65 76
56 63 72
55 63 73
58 66 76
59 66 76
54 60 67
59 66 76
60 69 80
61 69 80
56 63 72
60 67 76
54 62 72
62 70 80
52 59 68
58 66 76
60 67 76
57 66 76
59 67 77
59 66 76
58 66 77
57 66 76
60 67 77
58 66 76
57 66 77
58 66 77
58 64 73
60 69 80
55 63 72
50 56 64
62 70 80
59 66 77
59 67 77
61 70 80
54 62 72
61 70 80
61 69 80
58 66 76
59 66 76
60 69 80
60 69 80
58 66 77
61 70 80
61 70 80
61 69 80
57 64 73
61 69 80
53 61 72
59 66 76
61 69 80
59 67 76
60 69 80
62 70 80
59 66 77
58 66 77
61 69 80
58 66 76
55 63 73
61 70 80
59 67 76
62 70 80
58 66 76
59 67 76
59 66 76
62 70 80
61 69 80
62 70 80
59 67 77
61 69 80
61 69 80
63 71 80
61 69 80
62 70 80
59 66 77
60 69 80
58 66 76
62 70 80
59 67 76
62 70 80
62 70 80
62 70 80
57 66 76
62 70 80
56 65 76
61 69 80
62 70 80
59 67 77
62 70 80
62 70 80
61 70 80
61 69 80
61 70 80
62 70 80
61 69 80
59 68 80
61 70 80
59 66 76
60 69 80
58 66 77
61 70 80
59 67 76
60 69 80
61 69 80
61 69 80
62 70 80
61 70 80
58 66 76
62 70 80
60 69 80
59 66 76
61 69 80
60 69 80
58 66 76
61 69 80
55 63 72
56 65 77
60 69 80
61 69 80
56 63 72
61 69 80
62 70 80
62 70 80
57 66 76
60 69 80
61 69 80
58 66 77
61 69 80
58 66 76
60 69 80
61 70 80
62 70 80
60 69 80
62 70 80
58 66 76
58 66 76
55 63 72
61 70 80
59 67 76
58 66 77
61 69 80
60 67 77
60 67 77
60 67 76
59 66 77
62 70 80
58 66 77
60 69 80
59 68 80
53 62 72
62 70 80
57 66 77
63 70 80
57 66 76
60 69 80
57 66 76
58 66 77
56 63 72
62 70 80
61 69 80
60 69 80
59 67 77
60 69 80
56 65 76
54 62 72
57 65 77
56 63 72
57 66 76
61 70 80
58 64 72
60 69 80
59 68 80
48 55 63
56 63 72
52 59 69
53 61 72
53 59 68
59 67 77
58 66 76
61 69 80
58 66 76
56 65 76
53 62 72
55 63 72
59 66 76
61 69 80
60 67 77
58 66 76
61 70 80
58 64 73
53 61 72
53 62 72
54 62 73
61 69 80
59 67 77
58 66 76
58 66 77
52 59 68
58 66 76
59 66 76
58 66 76
59 67 77
59 67 77
60 69 80
54 62 72
52 59 67
56 63 72
53 61 72
56 65 76
51 58 68
54 62 72
54 62 72
48 54 63
52 59 67
52 59 67
63 71 80
48 55 63
48 54 62
57 66 76
62 70 80
45 50 57
48 54 63
47 54 63
51 56 63
56 63 72
40 45 52
57 63 72
45 51 58
51 58 67
44 50 58
45 50 57
44 49 57
52 59 67
46 51 59
49 55 62
48 54 62
47 54 62
48 54 62
49 55 63
23 25 29
55 63 72
35 40 45
41 46 52
44 50 57
57 63 72
41 46 52
48 54 62
46 51 57
52 58 67
44 50 57
33 38 44
28 31 36
39 45 52
47 54 62
41 46 52
45 50 57
20 23 27
48 54 62
41 46 52
30 33 38
38 44 51
44 49 57
40 45 52
30 33 37
40 45 52
8 8 9
30 33 38
34 39 45
40 45 51
34 38 44
40 45 51
35 39 44
22 24 27
35 40 45
29 32 37
29 32 36
29 33 37
41 45 51
35 39 44
35 39 45
28 31 36
49 55 62
36 40 45
29 32 36
35 39 44
29 33 37
22 23 25
21 23 26
34 38 44
21 23 26
30 33 37
29 32 36
2 2 2
42 46 51
22 24 27
21 23 26
20 22 26
41 45 51
40 44 51
21 23 26
35 39 44
30 33 37
36 39 44
41 45 51
46 51 57
54 60 67
46 51 57
35 39 44
20 23 27
30 34 38
50 56 63
31 34 38
35 39 45
49 55 62
36 39 44
22 24 27
29 32 36
36 40 45
36 40 46
28 31 36
42 46 52
46 51 57
40 44 51
45 50 57
48 54 63
59 66 76
44 49 57
45 50 57
42 46 52
52 59 67
41 46 52
49 55 63
39 45 51
45 50 57
46 51 58
35 39 45
51 58 68
56 63 72
44 49 57
39 44 51
49 55 62
53 59 67
49 55 63
54 60 68
51 58 68
56 63 72
44 50 58
52 59 68
56 63 72
44 50 57
49 55 63
41 45 52
58 64 72
49 55 63
52 59 67
56 63 72
62 70 80
51 58 68
49 55 63
51 59 68
57 65 76
58 66 76
59 66 76
48 54 62
44 50 58
59 66 77
45 50 57
51 58 68
49 56 64
55 62 72
58 66 76
53 59 67
58 66 77
49 55 63
57 64 73
51 58 67
47 54 63
63 71 80
58 66 76
47 54 62
51 58 68
57 66 77
55 63 73
55 63 72
58 66 76
59 67 77
52 59 68
49 55 64
44 49 57
43 49 58
60 69 80
48 54 62
49 55 63
57 66 77
52 59 68
54 62 72
58 66 76
57 65 76
56 63 72
54 62 72
60 69 80
64 71 80
55 63 72
58 66 76
54 62 72
61 69 80
57 65 76
57 65 76
54 62 72
59 67 77
58 66 76
52 59 68
57 66 77
61 69 80
51 58 68
61 69 80
58 66 77
55 62 72
59 69 80
58 66 76
56 65 76
60 69 80
61 70 80
62 70 80
52 59 68
61 69 80
60 69 80
58 66 76
50 58 68
60 69 80
56 65 76
59 67 76
61 70 80
60 69 80
58 66 77
63 70 80
59 67 77
58 66 77
61 69 80
60 69 80
58 66 77
60 69 80
58 66 77
64 71 80
58 66 76
53 61 72
55 62 72
57 65 77
60 67 76
58 66 77
62 70 80
58 66 77
61 69 80
62 70 80
61 70 80
58 66 77
59 67 77
55 63 72
61 69 80
60 69 80
59 66 77
57 66 77
60 67 76
57 65 76
60 69 80
56 63 73
49 56 64
60 69 80
58 66 77
61 70 80
57 65 76
56 63 72
62 70 80
58 66 76
61 69 80
59 67 77
57 66 76
57 65 76
60 69 80
62 70 80
59 67 77
54 62 72
62 70 80
62 70 80
62 70 80
60 69 80
62 70 80
63 70 80
57 66 77
60 69 80
60 69 80
58 66 77
60 69 80
61 69 80
60 69 80
59 66 76
61 70 80
62 70 80
58 66 77
58 66 76
62 70 80
58 66 77
61 69 80
62 70 80
58 66 76
58 66 76
60 69 80
51 58 67
53 59 68
59 66 76
61 69 80
61 70 80
57 66 76
58 66 77
61 70 80
62 70 80
61 69 80
60 69 80
59 67 77
59 66 76
57 65 76
62 70 80
58 66 76
61 69 80
62 70 80
59 67 77
62 70 80
59 67 77
61 69 80
61 70 80
63 70 80
61 70 80
61 70 80
62 70 80
58 66 76
62 70 80
62 70 80
59 66 77
61 70 80
57 66 77
58 66 76
59 67 77
62 70 80
61 70 80
60 69 80
63 71 80
59 66 76
61 69 80
54 62 72
60 67 77
56 63 72
61 69 80
62 70 80
61 69 80
61 69 80
57 65 76
56 65 76
60 67 76
56 63 72
57 65 76
58 66 76
61 69 80
59 67 77
56 63 72
59 66 77
54 62 72
55 63 72
61 70 80
47 54 63
62 70 80
61 69 80
60 69 80
61 69 80
54 62 72
57 63 72
54 62 72
62 70 80
54 62 72
59 66 76
53 59 68
61 69 80
59 67 77
54 62 72
52 59 68
53 61 72
51 59 68
61 69 80
59 66 76
58 66 76
52 59 68
57 64 72
56 63 72
59 66 76
47 54 63
54 62 72
63 70 80
44 50 57
50 55 63
53 59 68
60 67 76
55 62 72
49 55 63
51 58 68
56 63 72
55 62 72
49 55 63
46 54 63
57 64 73
58 66 77
48 55 63
53 59 68
54 62 72
59 66 76
47 54 62
54 62 72
52 59 68
53 59 67
52 59 68
52 59 68
34 39 45
51 58 67
61 69 80
49 55 63
47 54 62
58 66 76
54 62 72
59 66 76
51 58 67
44 50 58
47 54 63
56 63 72
54 62 72
50 55 63
39 45 51
33 38 44
53 59 68
43 50 58
44 50 57
40 45 52
40 45 52
48 54 62
57 64 72
48 54 62
30 33 37
41 45 52
51 56 63
57 63 72
50 55 62
36 40 46
50 55 62
30 33 37
37 40 45
34 39 44
43 49 57
42 46 52
34 39 45
45 50 57
42 46 52
45 50 57
7 8 8
28 31 36
35 39 45
36 40 45
41 45 51
46 51 58
37 41 46
35 40 45
40 45 51
36 39 44
36 40 45
44 50 57
41 46 52
28 32 37
36 40 45
45 50 57
23 25 27
7 7 8
36 39 44
30 33 37
35 39 45
41 45 51
34 38 44
35 39 45
42 46 51
43 47 52
28 31 36
28 32 37
29 32 36
30 33 37
28 31 36
2 3 3
20 22 25
29 32 36
22 24 27
46 51 57
29 33 37
35 39 44
35 39 44
34 38 44
21 23 26
35 39 45
28 32 36
35 39 44
22 23 25
44 49 57
21 23 25
30 33 38
34 38 44
41 45 51
31 34 38
30 32 36
45 50 57
42 46 51
49 55 62
34 39 44
34 38 44
40 45 52
49 55 62
41 45 51
49 55 62
31 34 38
49 55 62
45 50 57
41 46 51
29 33 37
49 55 63
29 33 38
54 60 68
44 50 57
58 66 76
28 32 37
35 39 45
29 33 39
44 50 57
29 33 38
57 63 72
28 32 37
43 49 58
61 68 77
38 44 51
49 55 62
35 39 45
54 60 67
45 50 57
43 47 52
52 59 67
53 60 69
44 50 57
48 54 63
56 63 72
45 50 57
55 62 72
47 54 62
46 51 58
52 59 67
39 44 51
52 59 67
47 52 59
55 62 72
52 59 67
38 44 51
57 64 72
55 63 72
43 49 57
35 40 46
52 59 67
52 59 68
48 55 63
55 62 72
47 54 63
57 66 76
44 50 58
54 62 72
45 50 57
56 63 72
51 59 68
58 66 77
56 63 72
53 59 68
63 70 80
52 59 68
58 66 77
59 67 77
47 54 62
57 66 77
57 66 76
58 66 77
62 70 80
49 55 63
50 58 68
59 67 76
58 66 77
49 55 64
55 63 72
49 55 63
45 50 57
54 62 72
60 69 80
62 70 80
62 70 80
50 58 68
56 63 73
52 59 69
48 54 63
48 55 63
52 59 68
52 59 68
55 60 68
53 59 68
58 66 76
62 70 80
56 63 72
52 59 68
62 70 80
58 66 77
54 62 73
58 66 76
62 70 80
60 69 80
61 69 80
59 67 76
58 66 76
57 65 76
58 64 72
59 67 76
54 60 68
57 66 76
60 67 77
61 69 80
56 63 72
62 70 80
61 70 80
60 67 76
51 58 68
56 63 72
61 70 80
58 66 76
61 69 80
58 66 77
60 67 77
57 65 76
61 70 80
59 67 76
58 66 76
58 66 76
61 69 80
57 66 76
56 63 72
61 69 80
60 69 80
58 66 76
61 70 80
51 58 67
58 66 76
60 69 80
61 69 80
59 67 77
54 62 72
61 69 80
58 66 76
62 70 80
60 69 80
59 66 77
54 62 72
62 70 80
61 69 80
58 66 76
60 67 76
58 66 77
56 63 72
58 66 77
61 69 80
61 70 80
61 70 80
58 66 77
61 70 80
59 67 77
60 69 80
61 69 80
61 69 80
58 66 76
60 69 80
61 69 80
57 65 76
57 66 76
58 66 77
57 66 77
62 70 80
61 70 80
62 70 80
61 70 80
52 61 72
60 69 80
59 67 77
60 69 80
61 69 80
61 70 80
56 65 77
61 69 80
60 67 77
62 70 80
58 66 76
61 69 80
57 65 76
62 70 80
62 70 80
62 70 80
58 66 77
60 67 76
56 65 77
58 66 76
63 71 80
56 65 76
61 70 80
58 66 76
61 69 80
62 70 80
55 62 72
58 66 77
60 69 80
59 66 77
61 70 80
57 66 77
59 67 77
53 62 73
60 67 77
61 69 80
59 67 76
54 62 72
58 66 76
62 70 80
59 67 77
61 70 80
63 70 80
59 66 77
62 70 80
61 70 80
57 66 76
58 66 77
61 70 80
56 65 76
61 69 80
59 67 77
56 63 73
53 61 72
60 69 80
61 70 80
62 70 80
61 69 80
57 65 76
57 66 76
62 70 80
59 66 76
56 65 77
57 65 76
60 69 80
58 66 77
59 67 77
59 68 80
56 63 73
58 66 77
59 66 76
58 66 76
62 70 80
61 69 80
62 70 80
51 58 68
59 66 76
58 66 76
54 62 72
58 66 76
58 66 76
53 62 72
50 58 67
56 63 72
52 59 68
55 63 72
58 66 76
53 59 68
56 65 76
48 54 62
51 58 68
60 67 76
54 62 72
58 66 76
55 62 72
52 59 68
58 66 76
58 66 77
57 64 72
42 49 58
54 62 72
55 63 73
60 67 76
59 67 76
62 70 80
51 59 69
55 62 72
61 70 80
57 65 76
48 54 63
52 59 68
51 59 68
54 62 72
46 53 63
55 63 73
55 63 72
59 67 77
58 66 76
52 58 67
57 63 72
62 70 80
58 66 76
48 54 62
51 58 68
55 62 72
46 52 58
52 59 68
51 58 68
60 67 76
59 67 76
39 45 52
50 58 67
49 55 62
43 49 57
47 53 62
47 53 62
56 63 72
59 66 76
50 58 67
57 64 72
41 46 52
48 54 62
59 66 76
39 45 52
40 46 52
52 58 67
56 63 72
49 55 62
49 55 63
45 50 57
39 44 52
49 55 63
36 40 46
48 54 62
46 53 62
49 55 64
35 39 45
34 39 45
45 50 57
47 54 62
44 49 57
46 50 57
35 40 45
46 50 57
35 39 45
46 51 57
36 40 46
35 39 44
39 44 51
28 31 36
51 58 67
40 45 52
41 46 52
46 51 57
40 45 51
41 45 51
39 44 51
54 60 67
19 22 26
35 39 44
36 40 45
35 39 44
41 45 51
22 25 28
34 39 44
34 39 44
45 50 57
39 44 51
22 24 27
27 31 36
45 50 57
36 40 45
36 40 44
36 40 46
33 38 44
40 45 51
23 24 27
28 32 36
47 51 57
40 45 51
35 39 45
29 32 36
4 5 5
35 39 45
28 32 37
36 39 44
29 33 38
23 24 27
29 32 37
34 38 44
54 60 68
7 7 8
33 38 44
40 45 52
40 45 51
35 39 44
35 39 44
30 33 37
35 39 45
35 39 44
35 39 45
34 39 44
40 45 51
34 38 44
39 44 51
44 50 57
45 50 57
35 39 45
33 38 44
35 39 44
41 46 51
40 44 51
43 49 57
47 51 57
44 50 57
29 32 37
45 50 57
40 45 51
52 59 67
40 45 51
46 53 62
48 54 62
44 50 57
53 59 67
41 45 51
36 41 47
45 50 57
55 62 72
45 50 57
53 60 68
40 45 52
35 39 45
43 49 57
33 38 44
47 54 63
48 54 63
54 62 72
58 66 76
40 45 51
46 51 58
53 59 68
41 48 57
47 54 63
53 59 67
55 62 72
55 63 72
44 50 58
52 59 68
39 44 52
58 66 76
49 55 63
51 58 67
52 59 67
56 63 72
39 44 52
55 62 72
44 49 57
55 63 73
44 50 58
54 62 72
35 40 46
59 67 77
47 54 63
50 58 68
57 66 76
54 62 72
58 66 77
56 63 72
53 61 72
48 54 63
53 60 68
51 58 67
55 62 72
55 65 76
56 65 76
61 70 80
48 54 63
59 66 76
61 69 80
51 59 68
60 69 80
57 64 72
53 60 68
62 70 80
58 66 77
61 69 80
55 63 72
52 59 68
48 55 64
58 64 73
55 63 72
59 67 76
55 63 72
59 67 76
58 66 76
64 71 80
63 70 80
56 65 77
55 62 72
53 60 69
52 61 72
55 63 72
55 62 72
54 62 72
63 71 80
57 66 76
58 66 77
62 70 80
61 70 80
61 69 80
52 58 67
59 67 76
61 69 80
58 66 76
61 70 80
52 59 68
61 69 80
56 65 76
61 69 80
57 65 76
62 70 80
57 66 76
61 70 80
63 70 80
57 66 76
55 62 72
60 69 80
62 70 80
60 69 80
51 58 68
62 70 80
58 66 77
59 68 80
57 65 76
61 70 80
57 66 76
60 69 80
61 69 80
58 66 76
60 69 80
58 66 77
62 70 80
63 70 80
57 65 76
58 66 76
62 70 80
61 70 80
61 69 80
62 70 80
62 70 80
62 70 80
56 65 76
61 69 80
59 67 77
60 69 80
61 70 80
58 66 76
63 71 80
58 66 77
63 70 80
61 69 80
56 65 76
59 67 77
60 69 80
59 68 80
58 66 76
58 66 76
56 63 72
61 70 80
61 69 80
61 69 80
60 69 80
57 66 76
60 69 80
61 70 80
59 67 77
61 69 80
61 69 80
60 67 77
60 69 80
61 70 80
56 63 72
58 66 76
58 66 77
61 69 80
60 69 80
58 66 76
58 66 77
61 69 80
61 69 80
61 69 80
63 70 80
62 70 80
58 66 77
55 62 72
61 70 80
58 66 76
54 62 72
61 69 80
61 69 80
62 70 80
60 69 80
61 70 80
59 67 77
57 66 76
61 69 80
61 69 80
60 67 77
59 66 76
61 69 80
63 70 80
60 69 80
59 67 77
54 62 72
59 66 76
60 69 80
59 67 77
58 66 76
63 70 80
60 69 80
60 69 80
62 70 80
60 69 80
54 62 72
59 67 77
59 68 80
60 67 76
63 71 80
60 69 80
63 71 80
62 70 80
57 66 77
54 62 72
60 69 80
61 69 80
60 67 77
57 66 76
53 59 68
60 69 80
60 67 77
59 66 76
55 62 72
60 69 80
60 69 80
55 62 72
57 66 76
61 69 80
58 66 77
59 67 76
55 62 72
61 69 80
48 54 63
58 66 76
57 65 76
57 66 76
56 63 72
56 63 72
57 65 76
57 63 72
54 62 72
61 69 80
58 66 77
52 59 68
52 58 67
55 62 72
55 62 72
57 65 76
58 66 77
57 65 76
61 70 80
58 66 77
57 66 77
60 69 80
62 70 80
59 66 76
61 69 80
58 66 76
60 69 80
62 70 80
62 70 80
52 59 67
54 62 72
58 66 77
51 58 68
52 59 68
45 51 59
57 66 77
60 69 80
57 63 72
47 54 63
52 59 68
57 66 76
56 63 72
51 58 68
48 54 62
60 67 76
54 62 72
54 62 72
52 59 67
62 70 80
51 58 67
55 62 72
54 62 72
47 54 63
52 59 68
53 60 68
56 63 72
48 55 64
53 59 68
58 66 76
48 54 63
52 59 68
57 65 76
51 58 68
43 49 57
48 54 62
53 59 68
46 53 62
52 59 68
53 59 67
44 50 58
59 66 76
55 63 72
45 50 57
63 71 80
43 49 57
45 51 58
29 32 37
41 46 52
36 41 46
52 59 67
29 33 38
48 54 62
40 46 53
40 45 51
35 39 45
47 54 62
41 46 52
42 46 53
39 44 51
45 50 57
28 31 36
46 51 58
49 55 63
49 55 62
36 40 46
44 50 57
41 45 52
49 55 63
42 46 52
29 33 37
43 50 57
43 50 57
34 38 44
47 51 57
45 50 57
28 31 36
36 40 45
30 32 36
22 24 27
35 39 45
39 45 51
19 22 26
28 32 36
41 45 51
42 47 52
40 45 51
36 40 46
49 55 62
23 25 28
46 51 57
40 45 51
29 32 36
28 31 36
29 32 37
28 32 36
28 31 36
45 51 57
41 46 52
41 45 51
4 4 5
47 51 57
36 40 45
42 47 52
39 44 51
29 32 36
34 38 44
19 22 25
42 46 51
45 50 57
36 39 44
28 31 36
29 32 37
21 23 25
29 32 36
40 45 51
35 39 44
28 32 36
40 45 51
40 45 51
35 39 44
53 59 68
34 39 44
46 51 57
29 32 37
49 55 62
40 45 51
36 39 44
27 31 36
54 62 72
35 40 45
48 55 63
29 32 37
41 45 51
45 50 57
39 44 51
49 55 63
45 50 57
45 50 57
42 46 52
39 44 51
43 50 58
40 45 52
42 49 57
51 58 67
47 54 62
56 63 72
39 44 51
40 45 52
30 34 39
56 63 72
54 60 68
54 60 68
45 50 57
51 58 67
46 51 58
54 60 68
40 45 52
56 63 73
44 50 57
50 58 68
42 49 57
35 39 45
51 58 67
61 70 80
47 54 63
56 63 72
48 54 63
52 59 68
52 59 67
53 60 68
64 71 80
40 45 52
57 66 76
52 59 68
49 55 63
51 58 67
50 58 67
48 55 63
53 59 68
54 60 68
60 67 77
55 62 72
50 55 63
54 62 72
59 67 76
54 62 72
58 66 77
55 62 72
57 63 72
51 58 68
59 66 76
57 66 76
44 51 58
56 65 76
60 69 80
54 62 72
56 63 73
56 63 72
56 65 76
58 66 76
56 63 72
57 65 76
44 51 59
57 65 76
59 67 76
57 65 76
50 56 64
55 63 72
57 65 76
44 50 58
59 66 76
60 69 80
51 57 64
58 66 76
57 63 72
60 69 80
59 66 76
54 62 73
63 70 80
61 70 80
58 66 76
58 66 76
58 66 76
58 66 76
56 63 72
43 49 58
57 66 77
54 62 72
62 70 80
56 63 73
61 70 80
59 66 76
60 69 80
55 62 72
60 69 80
62 70 80
58 66 77
56 65 76
57 63 72
58 66 77
61 69 80
54 62 72
61 69 80
61 70 80
60 69 80
56 63 72
61 69 80
63 71 80
62 70 80
61 69 80
59 66 77
60 69 80
58 66 77
60 67 77
61 69 80
62 70 80
61 69 80
57 66 76
51 59 68
59 67 77
62 70 80
58 66 77
58 66 76
58 66 76
61 70 80
63 71 80
59 67 77
57 65 76
61 69 80
61 70 80
60 69 80
54 62 72
63 70 80
61 70 80
59 66 76
60 69 80
60 67 77
62 70 80
62 70 80
61 69 80
61 70 80
61 69 80
61 70 80
61 70 80
62 70 80
58 66 76
51 58 68
62 70 80
60 69 80
62 70 80
61 70 80
60 69 80
59 66 76
61 70 80
62 70 80
62 70 80
61 69 80
58 66 76
61 69 80
60 69 80
60 69 80
59 67 77
61 70 80
63 71 80
62 70 80
58 66 77
58 66 76
60 69 80
55 63 72
58 66 76
62 70 80
60 69 80
62 70 80
58 66 76
55 63 72
61 69 80
59 69 80
57 66 77
61 69 80
58 66 76
62 70 80
58 66 77
60 69 80
60 69 80
61 69 80
58 66 76
58 66 77
58 66 77
61 69 80
57 66 76
63 71 80
57 63 72
62 70 80
63 70 80
60 69 80
61 70 80
59 66 77
61 69 80
58 66 76
58 66 76
59 67 76
54 62 72
60 69 80
58 66 76
62 70 80
59 67 77
62 70 80
58 66 77
56 63 72
60 69 80
59 67 77
59 66 76
61 70 80
61 70 80
57 65 76
62 70 80
63 70 80
57 66 76
61 69 80
62 70 80
60 69 80
56 65 76
61 69 80
56 65 76
61 69 80
59 67 76
61 69 80
59 67 76
54 62 72
60 69 80
55 63 73
57 65 76
56 63 72
58 66 77
57 65 76
63 70 80
59 68 80
54 60 68
56 63 72
56 63 72
58 66 76
56 63 73
54 62 72
59 67 77
60 69 80
61 69 80
61 69 80
57 66 76
58 66 76
55 62 72
55 63 72
59 67 77
54 62 72
57 63 72
59 67 77
53 60 68
56 63 72
44 50 58
52 59 67
56 63 72
53 62 72
44 50 58
59 66 77
62 70 80
49 55 63
58 66 76
59 67 76
56 63 72
49 55 63
61 69 80
42 47 53
60 67 76
48 54 62
55 62 72
58 64 73
56 63 72
53 59 68
55 62 72
51 59 68
51 59 68
51 58 68
48 55 63
52 59 68
52 59 68
51 59 68
54 62 72
48 54 63
55 63 72
53 59 67
52 59 67
49 55 63
52 59 68
51 58 68
55 62 72
49 55 62
60 67 77
49 55 63
44 50 58
54 62 72
40 45 52
43 49 57
53 59 68
55 63 72
40 45 52
49 55 63
48 55 63
53 59 67
54 62 72
48 55 63
49 55 63
50 55 62
28 32 38
48 54 63
22 25 28
50 55 62
43 49 57
56 63 72
35 39 45
48 54 62
47 52 59
45 50 57
41 45 51
28 32 37
40 45 51
37 41 46
33 38 44
22 24 27
40 44 51
45 50 57
49 55 63
30 33 37
40 44 51
49 55 62
37 40 45
36 40 45
49 55 62
30 33 37
27 31 36
40 45 51
46 51 58
36 39 44
31 33 37
41 45 51
29 32 36
35 40 45
44 50 57
40 45 52
42 46 51
7 8 9
41 45 52
29 32 36
22 24 27
34 38 44
34 39 44
42 46 52
30 33 37
28 32 37
42 46 51
36 39 44
35 39 44
37 41 46
36 40 45
36 39 44
41 46 52
33 38 44
40 45 51
35 39 44
37 41 45
46 51 57
37 41 46
42 46 51
22 24 27
34 38 44
45 50 57
35 39 45
29 32 37
45 50 57
36 39 44
40 45 51
41 46 51
41 45 52
29 32 36
30 34 39
35 39 45
34 39 45
44 50 57
46 51 57
20 23 27
49 55 62
45 50 57
53 59 67
53 59 67
39 44 51
40 45 52
43 50 57
35 39 44
48 54 62
41 46 52
42 46 51
26 31 36
41 45 51
36 40 45
59 66 76
38 44 51
50 55 63
21 24 28
52 59 67
48 54 63
53 60 68
55 63 72
47 52 58
48 55 63
53 61 72
55 63 72
56 63 72
44 50 57
46 50 57
35 39 45
44 50 57
57 64 72
47 54 63
47 54 63
52 59 68
56 63 72
43 49 57
39 45 52
40 45 52
53 59 68
53 59 68
59 66 76
52 59 68
50 56 63
56 63 72
59 66 76
45 51 57
56 63 72
57 65 76
56 63 72
58 66 77
50 58 67
59 67 76
56 63 72
37 43 51
52 59 67
54 60 68
57 66 76
59 67 76
61 70 80
53 61 72
53 59 67
55 63 72
56 63 72
51 58 67
52 59 68
58 66 76
54 62 73
59 66 76
55 62 72
52 59 68
43 49 57
49 55 64
56 63 73
52 59 67
57 63 72
56 63 72
58 66 76
50 58 68
55 62 72
51 59 68
49 58 68
56 63 72
57 65 76
49 56 64
51 58 68
58 66 77
57 66 76
63 70 80
57 63 72
55 63 72
53 60 68
57 66 76
55 62 72
56 63 72
58 66 76
53 61 72
61 69 80
58 66 76
60 69 80
63 71 80
61 69 80
54 62 72
61 69 80
61 69 80
56 63 73
50 58 68
58 66 76
61 69 80
62 70 80
60 69 80
47 54 63
58 66 76
58 66 76
59 68 80
57 65 76
60 69 80
59 66 76
61 69 80
62 70 80
58 66 76
56 63 72
61 70 80
58 66 77
57 65 76
61 70 80
52 59 68
60 67 76
61 70 80
58 66 77
59 66 77
59 67 77
56 63 72
62 70 80
54 62 72
59 66 76
61 69 80
60 69 80
59 67 76
61 69 80
61 69 80
55 62 72
57 66 76
60 69 80
55 62 72
61 69 80
62 70 80
60 69 80
62 70 80
56 63 72
60 69 80
62 70 80
58 66 77
62 70 80
58 66 77
60 69 80
61 69 80
57 66 76
60 69 80
60 69 80
59 67 77
61 69 80
61 70 80
57 66 76
62 70 80
57 66 77
62 70 80
61 69 80
62 70 80
61 70 80
60 69 80
62 70 80
61 69 80
56 65 77
62 70 80
62 70 80
57 65 76
57 65 76
58 66 76
56 63 72
62 70 80
58 66 77
61 69 80
62 70 80
62 70 80
51 59 68
58 66 76
59 67 77
63 70 80
53 62 72
57 65 76
62 70 80
62 70 80
60 69 80
61 69 80
60 69 80
59 66 76
61 70 80
59 67 76
55 63 73
55 63 72
61 69 80
59 66 77
62 70 80
62 70 80
59 66 76
61 69 80
63 71 80
61 70 80
62 70 80
61 70 80
60 69 80
58 66 76
58 66 76
59 67 77
58 66 77
60 69 80
63 70 80
53 61 72
56 63 72
62 70 80
58 66 77
55 62 72
58 66 77
61 70 80
61 70 80
57 65 76
60 67 77
58 66 77
62 70 80
62 70 80
57 65 77
56 63 72
61 69 80
61 70 80
61 70 80
63 70 80
61 69 80
57 66 77
58 66 76
57 66 77
60 69 80
49 55 63
56 63 73
54 62 72
59 67 77
57 65 76
51 58 68
58 66 76
56 65 76
51 58 68
54 62 72
51 59 68
58 66 77
52 59 67
58 66 76
55 63 72
46 53 63
55 62 72
56 63 73
57 66 77
55 63 72
57 65 76
58 66 77
51 58 67
48 55 64
56 63 73
53 62 72
56 63 72
55 62 72
55 63 72
52 58 67
60 67 76
49 55 63
55 62 72
54 62 72
54 62 72
47 54 63
54 62 72
50 57 67
54 62 72
59 66 77
57 65 76
57 66 76
50 58 67
51 58 67
44 50 57
55 63 72
55 62 72
57 65 76
54 62 72
54 62 72
56 63 72
53 59 68
52 59 68
58 66 76
55 62 72
56 63 72
56 63 72
51 58 68
48 54 62
35 39 45
39 44 51
39 44 51
44 50 57
47 54 63
51 58 67
56 63 73
40 45 52
35 39 46
54 62 72
42 48 57
60 67 76
44 50 58
45 50 57
49 54 62
28 32 37
48 54 62
44 49 57
46 51 58
58 66 76
46 51 57
42 45 51
35 39 45
43 50 58
30 33 37
44 50 57
47 54 63
35 39 44
47 51 57
43 49 57
36 39 45
53 60 68
44 50 58
41 46 52
36 40 46
57 64 72
55 62 72
40 45 52
40 45 51
35 39 45
27 31 36
44 50 57
35 39 44
34 39 45
30 33 38
45 50 57
39 44 52
36 39 44
40 45 51
40 45 51
40 45 51
46 51 57
30 33 37
35 40 46
40 45 52
36 40 45
37 41 46
28 32 37
43 46 51
40 45 51
21 23 26
48 55 63
35 39 45
10 10 12
35 39 44
21 23 26
40 45 51
49 55 63
40 45 52
34 38 44
46 51 57
34 38 44
49 54 62
29 33 37
30 33 38
30 33 38
41 45 51
30 33 38
45 50 57
6 7 8
30 33 38
40 45 51
35 39 44
40 45 51
34 39 44
36 39 44
40 45 51
36 40 45
28 32 37
37 41 46
45 50 57
54 60 67
45 51 57
56 63 72
37 40 45
43 49 57
37 41 45
27 31 36
52 56 63
44 50 58
48 54 62
48 54 62
33 38 44
44 50 57
40 45 51
53 59 67
43 49 57
39 45 51
36 40 46
50 55 63
59 66 76
53 59 67
40 45 51
48 54 62
53 59 67
49 55 62
46 51 57
47 54 62
49 55 63
53 59 67
53 59 67
56 63 72
48 54 63
48 54 62
44 50 57
47 54 62
44 50 57
53 59 68
20 23 27
48 54 62
41 45 51
48 54 62
43 49 57
52 59 68
40 45 52
55 62 72
49 55 63
51 58 67
50 58 68
49 55 63
58 66 76
55 62 72
48 54 63
54 62 72
49 55 63
56 63 72
44 50 58
57 65 76
51 58 68
52 59 68
56 63 72
55 62 72
56 63 72
46 51 58
50 58 68
62 70 80
54 62 72
59 66 76
54 62 72
57 63 72
51 58 68
56 63 72
57 66 76
49 55 63
62 70 80
59 67 77
51 58 68
55 62 72
55 63 72
54 62 72
57 66 76
52 59 68
55 62 72
54 62 72
58 66 77
57 66 76
60 67 76
61 69 80
62 70 80
57 66 76
56 63 72
54 62 72
54 62 72
58 66 76
60 69 80
55 63 72
54 62 72
58 66 76
58 66 77
58 66 76
59 67 77
60 69 80
59 66 76
54 62 72
49 55 64
54 62 72
57 65 76
61 69 80
51 58 68
59 66 76
55 62 72
56 63 72
57 66 77
62 70 80
62 70 80
61 69 80
61 69 80
57 66 76
58 66 76
62 70 80
52 58 67
55 62 72
53 62 72
60 67 76
55 62 72
61 70 80
58 66 77
54 62 72
50 57 67
61 69 80
51 58 67
58 66 77
62 70 80
53 60 68
61 68 77
59 66 76
46 52 60
61 69 80
63 71 80
61 70 80
58 66 76
60 69 80
61 69 80
61 69 80
63 70 80
62 70 80
62 70 80
61 69 80
61 69 80
60 67 76
58 66 77
58 66 77
52 59 68
59 67 76
62 70 80
61 69 80
60 69 80
58 66 76
61 69 80
60 69 80
60 67 77
58 66 76
58 66 76
60 67 77
62 70 80
62 70 80
62 70 80
58 66 77
56 65 76
55 63 72
62 70 80
52 59 68
60 69 80
58 66 76
63 70 80
62 70 80
59 68 80
60 69 80
61 69 80
60 67 76
63 70 80
61 69 80
61 70 80
61 70 80
60 69 80
61 69 80
62 70 80
58 66 76
55 63 72
61 70 80
61 69 80
60 69 80
56 65 76
60 69 80
57 66 76
60 69 80
61 69 80
61 70 80
57 65 76
60 69 80
55 63 73
58 66 77
62 70 80
60 67 77
60 69 80
61 69 80
61 69 80
59 69 80
63 70 80
61 69 80
59 67 77
58 66 77
61 69 80
59 66 77
61 70 80
58 66 76
59 66 77
61 68 77
61 70 80
61 69 80
61 70 80
61 69 80
62 70 80
61 69 80
55 63 72
58 66 76
61 69 80
55 62 72
55 63 72
58 66 76
61 70 80
61 70 80
61 69 80
59 69 80
56 63 72
59 66 76
51 58 68
59 66 77
58 66 76
59 67 76
52 61 72
61 70 80
51 59 68
58 66 76
58 66 76
57 66 76
60 69 80
58 66 76
55 62 72
58 66 76
54 62 72
56 63 73
53 62 72
58 66 77
57 66 76
61 69 80
58 66 76
51 58 68
57 66 77
49 55 63
62 70 80
57 63 72
56 63 72
59 66 76
58 66 76
51 59 68
58 66 76
62 70 80
55 62 72
57 65 76
59 68 80
57 63 72
62 70 80
49 55 63
55 62 72
55 62 72
60 69 80
51 58 68
54 62 72
58 66 76
58 66 76
47 54 62
57 65 77
54 62 72
62 70 80
52 59 67
59 66 76
58 66 76
52 59 68
48 54 62
57 64 72
52 59 68
57 66 77
57 66 76
60 69 80
58 66 76
54 62 72
48 54 63
48 54 62
49 55 62
55 62 72
55 62 72
59 66 76
58 66 77
47 54 62
34 39 45
53 59 67
49 55 63
53 59 68
48 55 63
48 55 63
53 59 67
40 45 53
52 59 68
47 54 63
49 55 63
45 50 57
50 55 63
53 59 68
54 60 67
35 40 46
39 44 51
38 43 51
44 50 58
41 45 52
44 50 57
55 63 72
52 58 67
41 45 52
34 39 44
49 55 62
43 50 57
52 59 68
44 49 57
44 50 57
53 59 68
41 46 52
41 46 52
52 59 67
39 44 52
41 45 51
44 50 57
48 54 63
46 51 58
29 32 36
49 55 63
47 51 58
22 25 28
34 38 44
43 49 57
35 39 44
28 32 38
29 32 36
34 38 44
45 50 58
33 38 44
34 38 44
45 50 57
35 39 44
41 46 52
49 55 62
21 23 27
35 39 44
29 32 37
22 25 28
24 26 29
36 40 45
50 55 62
40 45 52
28 31 36
40 45 51
34 39 44
23 26 29
34 38 44
40 45 51
37 40 44
41 45 51
50 56 63
53 59 68
35 39 44
49 55 62
34 39 44
45 50 57
44 50 57
36 39 44
51 56 63
45 50 57
40 45 52
40 44 51
30 32 36
30 33 37
41 45 51
29 32 36
40 45 52
30 33 37
46 51 57
44 50 57
41 45 51
28 32 37
36 39 44
46 51 58
57 63 72
45 50 57
39 44 51
34 38 44
50 55 63
52 58 67
36 40 46
44 50 57
42 49 57
46 51 57
40 45 51
41 45 51
45 50 57
36 39 44
51 58 67
53 59 67
49 55 63
39 44 51
40 45 52
49 55 63
48 54 63
49 55 62
39 44 51
43 49 57
61 70 80
49 55 63
49 55 62
49 55 64
39 45 52
55 62 72
37 41 46
41 48 57
40 45 51
43 49 57
57 63 72
48 54 63
47 54 62
57 64 72
44 50 57
58 64 72
46 51 58
48 54 63
48 55 63
54 62 72
43 49 57
54 62 73
50 56 63
60 69 80
54 62 72
53 61 72
56 63 72
52 59 67
56 63 72
54 62 72
39 45 52
49 55 63
47 54 63
55 62 72
59 66 76
55 62 72
51 58 67
60 67 76
48 54 63
53 61 72
58 66 77
52 59 68
51 58 67
57 66 76
48 55 63
50 58 68
53 59 68
56 63 72
53 59 67
54 62 73
58 66 77
55 65 76
45 51 59
50 58 68
55 63 73
60 69 80
57 64 72
52 59 68
58 66 76
57 66 77
56 63 72
61 68 77
57 64 73
59 66 76
59 67 76
52 59 68
60 69 80
54 62 73
53 59 67
56 63 72
58 66 76
60 69 80
52 59 68
58 66 76
59 66 76
52 61 72
56 63 72
56 65 76
55 63 72
48 55 63
61 70 80
55 63 73
54 62 72
62 70 80
62 70 80
63 70 80
53 62 73
61 69 80
57 66 77
62 70 80
59 67 76
58 66 76
62 70 80
61 68 77
62 70 80
60 67 77
61 69 80
61 70 80
56 63 72
58 66 77
49 55 63
58 66 76
52 58 67
59 66 76
62 70 80
61 69 80
59 67 76
62 70 80
56 63 72
54 62 72
59 66 77
61 69 80
59 66 77
56 65 76
56 65 77
60 69 80
61 69 80
55 63 72
55 62 72
62 70 80
62 70 80
58 66 76
60 69 80
63 71 80
61 68 77
60 69 80
61 70 80
56 65 77
61 70 80
59 67 77
60 69 80
61 69 80
64 71 80
61 69 80
62 70 80
57 66 76
55 63 72
56 65 77
57 66 77
62 70 80
53 60 69
61 70 80
61 70 80
61 70 80
61 70 80
59 68 80
60 67 77
61 69 80
62 70 80
62 70 80
57 65 76
59 69 80
61 69 80
60 69 80
56 65 76
62 70 80
62 70 80
61 69 80
62 70 80
60 69 80
60 69 80
58 66 76
61 69 80
61 69 80
61 69 80
61 70 80
61 69 80
60 69 80
62 70 80
61 70 80
57 66 76
62 70 80
58 66 76
58 66 77
60 69 80
57 65 76
58 66 76
57 66 76
59 69 80
60 69 80
62 70 80
58 66 77
51 58 68
58 66 76
62 70 80
63 70 80
61 70 80
59 67 77
60 69 80
59 67 76
59 67 77
59 67 77
61 69 80
59 67 77
57 66 77
58 66 76
55 63 73
61 70 80
62 70 80
47 54 63
60 69 80
57 65 76
61 69 80
57 64 73
60 69 80
57 66 76
59 66 76
59 68 80
63 70 80
58 66 76
62 70 80
58 66 77
59 66 77
61 70 80
51 58 68
58 66 76
56 63 72
56 63 72
60 67 76
62 70 80
58 66 76
56 63 72
58 66 77
57 65 76
59 67 77
60 67 77
60 69 80
57 65 77
53 60 68
62 70 80
58 66 76
56 63 73
57 65 76
55 62 72
57 66 77
56 63 72
54 62 72
62 70 80
51 58 68
57 66 77
59 66 76
58 66 76
54 62 73
56 63 72
56 63 72
56 63 72
51 58 68
62 70 80
61 68 76
58 66 76
58 66 76
56 63 72
57 65 76
58 66 76
59 66 76
56 63 73
62 70 80
48 55 63
62 70 80
55 63 73
58 66 77
50 58 67
60 69 80
49 55 63
52 59 68
47 54 63
56 63 72
58 66 76
55 62 72
49 55 63
58 66 76
58 66 76
54 62 73
43 49 57
60 69 80
46 51 57
50 58 68
58 66 76
49 55 63
54 62 72
58 66 76
47 54 62
61 70 80
59 67 77
50 58 67
52 59 68
54 62 72
59 66 76
49 55 63
46 51 58
48 55 63
53 59 68
48 54 63
44 50 58
44 50 57
52 59 68
37 41 46
38 44 51
53 59 68
41 46 51
38 44 51
46 51 58
34 39 45
51 58 68
39 44 52
52 59 67
47 54 63
51 58 68
47 51 57
53 59 67
45 50 57
41 46 53
28 32 37
39 44 51
53 59 68
48 55 63
39 44 51
40 45 52
52 59 68
45 50 57
40 45 52
44 50 57
44 49 57
40 45 51
53 59 67
42 46 51
45 50 58
49 55 62
41 45 52
44 50 57
30 33 37
36 39 44
44 49 57
44 49 57
22 24 28
40 45 52
46 51 57
35 39 44
30 33 37
36 39 45
48 54 62
44 50 57
20 23 25
35 39 45
36 40 46
34 38 44
34 38 44
29 33 38
41 45 51
53 59 68
27 31 36
29 32 37
45 50 57
29 32 37
35 39 44
51 56 63
41 46 52
20 23 27
45 51 58
36 40 44
40 45 52
35 39 44
42 46 51
36 40 45
37 41 46
42 46 51
36 40 46
40 45 52
36 40 46
47 51 57
42 46 51
30 33 38
28 32 37
45 51 57
34 39 44
35 39 45
29 33 38
44 50 57
28 32 36
50 55 62
45 50 57
39 44 51
21 24 28
44 49 57
45 50 57
39 44 51
35 39 44
35 39 44
22 25 28
47 54 63
48 54 62
29 33 37
34 39 44
53 59 67
48 54 62
42 46 52
42 46 52
52 58 67
50 56 63
47 51 57
49 55 63
47 52 57
41 46 52
55 62 72
49 55 62
59 66 76
42 47 52
47 54 63
48 54 63
48 54 62
44 50 58
44 50 57
40 45 52
58 66 76
59 67 77
47 54 63
48 55 63
49 55 63
55 63 73
51 59 68
52 58 67
48 54 62
58 66 76
60 67 76
46 51 57
59 67 76
51 58 67
52 58 67
55 62 72
57 64 72
58 66 76
53 59 67
56 63 72
58 66 76
53 59 68
48 54 62
47 54 63
56 63 72
52 59 68
55 63 72
58 66 77
46 51 58
62 70 80
52 59 68
59 67 77
59 66 77
59 67 77
55 63 72
54 62 72
55 63 72
55 63 73
50 58 68
52 59 68
59 68 80
51 58 68
55 62 72
51 59 68
53 59 68
53 60 68
58 66 76
58 66 76
54 62 72
56 63 72
54 62 72
57 66 77
51 58 67
58 66 76
54 62 72
54 62 72
58 66 76
56 65 76
54 62 72
54 62 72
51 58 68
54 62 72
59 66 76
58 66 76
57 66 76
57 65 76
55 63 72
57 63 72
61 69 80
59 67 76
59 67 77
61 69 80
55 62 72
59 66 76
62 70 80
60 69 80
62 70 80
61 69 80
57 65 76
57 65 76
61 69 80
61 70 80
57 66 76
56 63 72
61 69 80
63 71 80
62 70 80
63 70 80
57 65 76
61 70 80
57 65 76
57 66 76
60 69 80
59 67 77
59 66 76
58 66 76
61 70 80
59 66 76
61 69 80
61 69 80
57 63 72
60 69 80
61 69 80
60 69 80
58 66 76
60 67 76
52 59 68
59 68 80
58 66 76
57 65 76
53 59 68
62 70 80
58 66 77
60 69 80
60 69 80
59 68 80
55 62 72
59 67 77
61 69 80
61 69 80
57 65 77
55 63 72
62 70 80
61 69 80
62 70 80
57 66 77
60 69 80
57 66 77
62 70 80
63 70 80
62 70 80
51 58 68
61 70 80
60 69 80
53 61 72
61 69 80
58 66 77
61 69 80
62 70 80
61 69 80
61 69 80
57 65 77
61 69 80
57 66 77
62 70 80
60 69 80
58 66 76
62 70 80
59 67 77
63 71 80
55 62 72
57 65 76
62 70 80
59 67 76
61 70 80
61 69 80
61 70 80
57 66 77
59 67 77
62 70 80
62 70 80
62 70 80
60 69 80
56 65 76
57 65 76
60 69 80
57 66 76
54 62 72
60 69 80
62 70 80
57 66 76
61 70 80
60 69 80
58 66 77
62 70 80
55 63 72
59 66 76
61 70 80
60 69 80
54 62 72
57 65 76
58 66 76
59 67 77
59 69 80
60 69 80
57 65 76
56 65 76
61 69 80
61 69 80
62 70 80
57 66 77
59 67 77
59 66 77
60 69 80
59 69 80
62 70 80
56 63 72
58 66 77
57 65 76
62 70 80
60 67 76
56 63 72
59 67 77
58 66 76
56 63 72
58 66 76
58 66 77
58 66 77
53 62 72
59 68 80
61 70 80
60 69 80
58 66 77
58 66 76
48 55 63
54 62 72
62 70 80
61 69 80
56 63 73
54 62 72
60 69 80
59 66 76
58 66 77
56 63 72
58 66 76
54 62 72
62 70 80
58 66 76
56 63 72
52 59 68
54 62 72
55 62 72
62 68 76
51 58 68
58 66 76
57 66 76
50 58 67
61 69 80
51 58 67
50 58 68
60 67 76
53 62 72
60 67 77
56 63 72
54 62 72
52 59 69
55 63 72
44 50 57
43 50 59
63 70 80
61 70 80
53 59 67
47 54 63
49 55 63
54 62 73
55 62 72
49 55 63
51 58 68
50 58 67
58 66 76
50 58 67
40 45 52
53 59 68
56 63 72
51 58 67
42 49 57
57 65 76
53 60 68
57 63 72
62 70 80
56 63 72
54 60 67
48 55 63
57 64 72
44 50 58
50 58 67
35 39 46
48 54 62
59 66 76
49 55 62
45 50 57
54 60 68
48 54 62
48 54 62
49 56 64
45 50 57
56 63 73
46 53 63
30 33 37
44 50 57
44 49 57
51 58 67
52 59 68
22 24 27
44 50 58
58 66 76
45 50 57
39 45 52
49 55 63
48 55 63
56 63 72
47 54 62
52 57 64
44 50 58
49 55 63
43 49 57
41 45 51
33 38 44
40 45 51
48 55 63
39 44 51
52 59 67
41 45 51
49 55 62
35 39 44
44 50 57
44 50 57
52 58 67
29 33 37
22 24 27
39 44 51
34 39 45
39 44 51
29 33 38
39 44 51
40 45 51
40 46 53
54 60 68
39 44 51
45 51 57
45 50 57
40 45 52
44 49 57
41 46 51
45 51 57
36 40 45
43 49 57
41 45 51
36 40 45
41 45 51
35 39 45
29 33 38
30 32 36
29 32 36
35 39 45
21 24 28
44 50 57
51 56 63
39 44 52
41 46 52
37 41 45
43 49 57
29 32 36
35 40 45
43 49 57
37 41 46
20 23 27
35 39 44
35 39 44
53 59 68
35 39 45
40 45 51
50 56 64
42 46 51
34 39 45
36 40 45
48 54 63
35 39 45
54 60 67
45 50 57
39 44 51
56 63 72
50 55 63
34 38 44
38 44 52
34 39 45
39 45 52
41 46 52
45 50 57
45 50 57
44 49 57
52 59 67
44 50 58
46 51 57
54 60 68
39 44 51
47 53 62
34 39 44
46 51 58
52 58 67
46 53 62
45 50 57
48 55 63
44 50 57
38 44 51
36 40 45
44 50 57
39 45 52
50 56 63
49 55 63
52 59 68
50 58 67
49 55 62
49 54 62
53 61 72
49 55 63
57 65 76
35 39 46
48 55 63
60 67 76
48 54 63
54 60 68
48 55 63
49 55 62
48 54 63
49 55 63
57 65 76
51 58 68
56 63 73
52 59 68
53 61 72
59 66 76
54 62 72
54 62 72
54 62 72
45 51 58
53 59 67
51 58 67
55 63 72
57 63 72
61 69 80
57 65 76
44 50 57
50 57 67
51 58 67
52 59 68
59 69 80
58 66 77
52 59 67
55 63 72
59 67 76
57 64 73
59 66 77
52 59 68
57 66 76
56 65 76
64 71 80
54 60 68
55 63 72
48 54 63
59 67 76
59 67 76
44 50 58
46 51 57
57 64 72
54 62 72
61 69 80
59 67 76
55 62 72
56 63 72
59 67 77
61 69 80
58 66 76
59 67 77
58 66 77
59 67 77
59 66 76
54 62 72
52 59 69
61 70 80
54 62 72
58 66 76
62 70 80
62 70 80
62 70 80
58 66 76
61 70 80
57 66 77
60 69 80
59 66 77
57 66 77
54 62 72
55 63 72
58 66 77
56 65 76
54 62 73
53 62 72
52 59 68
61 70 80
60 69 80
54 62 72
61 69 80
58 66 76
52 59 68
61 70 80
63 71 80
60 69 80
58 66 76
62 70 80
60 69 80
61 69 80
58 66 77
56 65 77
60 69 80
59 69 80
62 70 80
60 69 80
57 65 76
62 70 80
61 69 80
61 69 80
61 70 80
57 66 77
57 66 77
60 69 80
58 66 77
59 67 77
54 62 72
61 69 80
59 66 76
61 69 80
60 69 80
56 65 76
61 70 80
62 70 80
61 70 80
60 69 80
58 66 77
57 66 77
62 70 80
59 67 77
62 70 80
51 59 68
58 66 77
57 66 76
62 70 80
60 69 80
60 69 80
62 70 80
59 66 77
61 69 80
60 69 80
59 69 80
61 70 80
62 70 80
62 70 80
59 67 77
59 69 80
61 69 80
63 70 80
63 70 80
61 70 80
61 70 80
59 69 80
58 66 77
61 70 80
57 66 76
62 70 80
58 66 76
58 66 76
63 70 80
59 66 76
61 69 80
56 63 72
62 70 80
62 70 80
60 69 80
62 70 80
54 62 72
48 54 63
56 65 77
60 69 80
59 67 77
62 70 80
58 66 76
57 66 76
57 66 76
60 67 76
58 66 77
60 69 80
57 65 76
59 66 77
63 70 80
59 67 76
60 67 77
61 70 80
59 67 76
61 69 80
58 66 76
59 66 76
57 66 77
56 65 76
61 69 80
59 67 77
59 66 76
59 68 80
60 69 80
52 59 68
57 65 76
62 70 80
57 66 77
59 68 80
58 66 76
60 67 77
52 59 69
59 67 77
58 66 76
59 66 76
51 59 68
55 62 72
59 68 80
58 66 76
57 66 76
55 62 72
60 67 77
55 63 72
56 65 76
58 66 76
54 62 72
56 63 73
57 66 76
52 59 68
59 68 80
59 69 80
54 62 72
52 59 68
60 69 80
58 66 77
52 59 68
55 62 72
54 62 72
59 66 76
54 62 72
62 70 80
59 66 77
55 63 72
53 59 68
54 62 72
45 51 59
58 66 76
60 67 77
56 65 76
60 67 77
55 62 72
55 63 72
54 62 72
44 50 58
50 55 62
58 66 76
51 58 67
56 63 73
58 66 76
50 58 67
55 63 72
63 70 80
44 50 59
52 59 68
48 54 62
55 63 72
53 59 68
59 66 77
52 59 68
52 59 68
55 62 72
53 59 67
49 55 63
21 24 28
41 46 53
52 59 68
52 59 67
54 59 67
54 62 72
44 50 58
39 45 52
54 62 72
51 58 67
53 59 68
53 59 67
51 59 68
35 40 46
49 55 63
44 50 58
44 50 57
59 66 76
51 58 67
36 40 46
42 46 53
51 58 67
37 41 47
45 50 57
55 62 72
35 39 45
52 59 67
53 59 68
48 54 62
49 55 63
59 67 77
42 46 53
47 54 62
43 49 57
46 51 57
49 55 62
57 63 72
30 33 38
44 50 57
42 46 52
43 50 57
55 62 72
43 49 57
33 38 44
40 45 51
35 39 45
57 63 72
52 59 67
34 39 46
42 46 53
59 66 76
47 54 62
50 55 63
38 44 51
29 32 37
43 49 57
45 50 57
36 40 45
40 45 52
36 40 45
29 33 38
34 39 45
43 49 57
33 38 44
34 39 45
49 55 63
39 44 51
45 50 57
40 45 52
44 50 57
29 32 37
34 39 44
45 50 57
28 31 36
47 52 58
36 39 44
36 40 45
34 39 44
40 45 52
50 56 63
40 45 51
54 60 68
50 56 63
29 32 37
53 59 68
50 55 63
41 45 51
48 54 62
36 40 45
36 40 45
34 38 44
35 40 46
46 50 57
42 46 52
29 32 37
45 50 57
26 31 36
48 54 62
28 32 37
43 49 57
44 49 57
39 44 51
49 55 63
49 55 62
49 55 62
50 55 63
41 45 51
44 50 58
40 45 52
40 45 51
45 50 57
37 40 45
55 62 72
41 46 52
33 38 44
37 41 47
51 58 68
33 38 44
54 60 68
40 45 51
54 60 67
44 49 57
41 46 53
52 59 68
54 62 72
43 49 57
49 55 62
48 54 63
44 49 57
36 40 46
39 44 51
38 44 52
49 55 63
54 62 72
56 63 72
37 40 46
48 54 63
52 59 68
55 63 72
47 54 62
46 53 62
54 60 67
47 54 62
41 46 52
49 55 62
52 59 68
56 63 73
52 59 68
43 50 59
52 58 67
56 63 72
52 59 68
44 50 58
42 47 53
55 62 72
49 55 63
50 58 68
44 50 57
58 66 76
52 59 68
55 63 73
47 54 63
62 70 80
63 70 80
54 62 73
50 58 67
52 59 68
58 66 77
45 51 59
55 62 72
54 62 72
58 66 76
55 62 72
50 57 67
57 65 76
56 63 72
52 59 68
56 65 77
62 70 80
48 54 63
58 66 76
56 63 72
54 62 72
48 54 63
59 66 77
54 62 72
57 65 76
59 67 77
46 53 63
50 58 68
59 66 77
55 63 72
55 62 72
57 65 77
52 59 68
44 50 58
60 67 77
57 66 76
58 66 77
59 67 77
59 66 77
58 66 76
61 69 80
57 66 76
54 62 72
63 70 80
55 63 72
60 69 80
59 66 77
61 70 80
56 63 72
58 66 76
55 62 72
59 68 80
58 66 76
60 69 80
58 66 77
49 55 63
58 66 76
60 67 76
59 67 76
58 66 76
55 62 72
58 66 76
50 57 67
56 63 72
62 70 80
56 63 73
58 66 77
61 69 80
60 69 80
61 69 80
58 66 77
60 69 80
61 69 80
61 69 80
60 69 80
61 69 80
57 65 76
56 63 72
61 70 80
61 69 80
55 62 72
61 69 80
54 62 72
58 66 76
61 69 80
62 70 80
55 62 72
60 69 80
61 69 80
63 70 80
54 62 73
60 69 80
59 69 80
61 70 80
58 66 76
56 63 73
58 66 76
57 66 76
60 69 80
62 70 80
58 66 76
62 70 80
62 70 80
61 70 80
58 66 76
61 69 80
62 70 80
61 69 80
60 67 77
62 70 80
57 65 76
62 70 80
61 69 80
62 70 80
61 69 80
57 66 76
58 66 76
61 70 80
62 70 80
56 65 77
57 65 76
58 66 76
58 66 77
62 70 80
60 67 77
62 70 80
60 69 80
53 61 72
61 69 80
61 69 80
60 69 80
60 69 80
60 69 80
60 69 80
62 70 80
63 71 80
63 70 80
59 67 77
59 67 77
62 70 80
61 69 80
61 69 80
61 69 80
61 69 80
58 66 76
56 63 72
54 62 72
63 70 80
61 69 80
61 69 80
52 59 67
60 67 76
58 66 76
62 70 80
54 62 72
58 66 77
62 70 80
54 62 72
58 66 77
62 70 80
58 66 76
63 70 80
57 65 76
58 66 76
57 66 77
54 62 72
51 58 68
60 67 76
64 71 80
58 66 77
57 63 72
59 68 80
55 62 72
62 70 80
54 62 72
63 70 80
57 65 76
54 62 72
59 67 77
61 69 80
51 58 67
54 62 72
55 63 72
60 69 80
59 66 76
57 65 76
55 63 72
54 62 72
51 59 68
52 59 68
55 63 72
62 70 80
60 69 80
59 68 80
54 62 72
55 62 72
61 69 80
57 65 76
61 69 80
59 67 77
53 61 72
62 70 80
51 58 68
54 62 72
58 66 77
61 70 80
58 66 76
48 54 63
52 61 72
61 69 80
50 58 68
57 66 76
54 62 72
54 62 72
50 58 68
61 69 80
50 58 68
61 69 80
53 61 72
58 66 77
48 54 62
51 58 68
51 58 67
59 67 77
52 59 68
55 62 72
56 63 72
49 56 64
56 63 72
53 61 72
55 62 72
58 66 77
54 62 72
57 63 72
58 66 76
56 63 72
49 55 63
53 61 72
59 67 76
58 66 77
50 58 67
60 67 76
56 63 72
44 50 57
55 62 72
47 54 63
54 60 68
57 64 73
56 63 72
49 55 63
48 54 63
52 59 68
44 50 57
56 63 72
47 54 63
48 54 62
45 50 58
48 54 62
52 59 68
48 54 63
46 51 57
51 58 68
48 55 63
44 50 57
34 39 45
51 58 67
48 54 63
44 50 57
42 46 51
43 50 57
41 46 53
53 59 68
40 45 51
48 54 62
50 55 62
32 34 38
46 51 57
48 55 63
28 32 36
41 46 52
36 40 45
40 45 52
53 59 67
48 54 62
40 45 52
48 55 63
44 50 58
39 45 52
49 55 62
40 45 51
38 44 52
48 54 62
40 45 51
39 44 51
41 45 51
59 66 76
50 55 63
35 39 44
30 33 37
44 50 57
35 39 44
44 50 57
36 40 46
41 46 52
44 50 57
40 45 51
37 40 45
35 39 45
35 39 44
40 45 51
35 39 45
23 25 28
34 39 44
40 45 51
46 51 57
46 51 58
39 45 51
28 31 36
29 32 36
50 55 62
46 51 57
36 40 45
50 56 63
46 51 57
49 55 63
46 50 57
49 55 63
49 55 62
33 38 44
45 51 58
36 40 45
44 50 57
34 39 45
34 39 45
34 38 44
36 40 45
38 44 51
45 50 57
49 55 63
21 24 28
35 39 45
39 45 51
40 45 52
28 31 36
44 49 57
52 59 67
47 52 59
43 49 57
59 67 77
29 33 38
38 41 46
44 50 58
49 55 62
40 45 52
48 54 63
51 58 67
49 56 64
49 55 62
48 54 63
44 50 57
48 54 62
45 50 57
56 63 72
48 54 62
45 51 58
40 45 52
43 49 57
34 39 44
53 59 68
34 39 45
55 62 72
51 58 68
55 62 72
48 55 63
54 62 72
44 50 58
51 58 67
50 56 63
56 63 72
54 62 72
58 64 72
48 54 63
43 49 57
39 45 52
53 59 68
62 70 80
48 55 63
56 63 72
59 66 76
55 62 72
56 63 72
55 62 72
35 39 45
55 62 72
49 55 63
43 49 57
58 66 76
54 62 72
54 62 72
48 55 63
55 63 72
56 63 72
55 63 72
58 66 76
54 62 72
60 69 80
57 66 76
55 63 72
58 66 77
57 64 72
56 63 72
54 62 72
52 59 68
61 68 77
55 63 72
52 59 68
56 63 72
57 66 77
54 62 72
57 65 76
55 62 72
55 62 72
59 66 77
54 62 72
59 67 77
61 67 76
61 69 80
58 66 76
58 66 76
51 58 67
59 67 77
50 58 68
53 61 72
57 66 77
55 62 72
62 70 80
60 69 80
59 66 76
61 69 80
53 59 68
58 66 77
57 66 77
60 67 76
56 63 72
58 66 76
50 58 68
54 62 72
58 66 76
60 67 76
50 58 68
54 62 72
58 66 76
58 66 77
61 69 80
59 67 77
54 60 68
62 70 80
57 65 76
58 66 76
58 66 76
58 66 77
51 58 67
58 66 76
60 67 76
60 69 80
61 70 80
61 69 80
58 66 76
58 66 76
61 70 80
62 70 80
62 70 80
60 67 77
59 66 76
54 62 72
57 66 77
58 66 76
62 70 80
59 67 76
63 70 80
62 70 80
61 69 80
58 66 77
61 69 80
61 70 80
59 66 76
58 66 76
61 69 80
62 70 80
59 66 77
58 66 77
59 67 77
63 70 80
60 69 80
58 66 77
59 67 77
50 58 68
60 69 80
63 71 80
60 69 80
61 69 80
61 69 80
58 66 77
61 69 80
59 67 77
61 69 80
61 70 80
63 71 80
57 66 77
62 70 80
62 70 80
59 67 77
63 70 80
61 69 80
61 69 80
57 66 77
53 62 72
56 63 73
59 69 80
60 69 80
60 69 80
59 68 80
60 67 77
62 70 80
60 69 80
59 67 77
60 69 80
58 66 76
60 69 80
57 66 76
60 69 80
59 67 77
53 62 72
61 69 80
58 66 77
58 66 76
57 66 76
57 63 72
59 67 77
62 70 80
59 67 77
58 66 77
63 70 80
60 67 76
54 62 72
61 70 80
61 69 80
59 67 77
59 67 76
61 69 80
55 63 72
57 66 77
57 64 72
52 58 67
59 67 77
55 62 72
62 70 80
59 67 77
60 69 80
57 66 76
62 70 80
57 66 77
59 66 76
61 69 80
52 59 68
58 66 77
55 63 72
59 67 76
55 63 72
57 65 76
58 66 77
61 69 80
55 63 73
61 69 80
54 62 72
57 65 76
61 70 80
55 63 73
59 67 76
54 62 72
58 66 76
61 69 80
61 70 80
62 70 80
60 67 77
59 66 76
56 63 72
55 63 72
60 69 80
57 66 77
47 54 63
58 66 76
54 62 72
60 69 80
58 66 76
61 69 80
54 62 72
56 63 73
57 66 77
60 69 80
62 70 80
54 62 72
56 63 72
60 67 76
57 64 73
56 63 72
54 62 72
56 63 72
59 66 76
49 55 63
52 59 68
56 63 72
57 65 76
56 63 72
52 59 68
55 63 72
53 61 72
52 59 68
47 54 62
42 46 52
48 54 62
43 50 57
59 66 76
52 59 68
51 58 67
53 59 68
56 63 72
51 58 67
49 55 63
50 58 68
58 66 76
59 67 77
52 59 68
55 63 72
52 58 67
51 58 68
58 66 77
45 50 58
53 59 67
49 55 62
44 50 58
57 63 72
55 63 72
52 59 68
47 54 62
57 64 72
44 50 58
42 46 53
56 63 73
48 54 63
48 55 63
51 58 67
52 59 68
52 59 67
51 58 68
36 40 45
49 55 63
46 51 57
53 59 68
30 33 37
53 59 67
35 39 45
45 51 58
48 55 63
45 50 58
57 63 72
51 58 67
48 54 62
50 55 63
41 46 52
46 51 57
59 67 76
49 55 62
48 54 63
44 50 57
43 49 57
49 55 63
43 50 58
41 45 52
41 46 52
34 38 44
40 45 52
49 55 62
35 39 44
34 38 44
42 49 57
45 50 57
27 31 37
41 46 53
52 59 68
43 49 57
43 49 57
34 39 44
42 45 51
34 39 45
34 38 44
49 55 62
46 51 57
46 51 57
45 50 57
40 45 52
49 55 63
48 54 63
39 45 52
45 51 58
35 39 45
49 55 63
49 55 63
45 50 57
27 32 37
30 32 36
43 49 57
40 45 51
36 40 45
41 45 52
41 46 52
41 46 52
33 38 45
49 55 63
40 45 51
49 55 62
54 60 67
35 39 45
53 59 68
53 59 68
45 50 58
35 39 45
41 45 51
43 47 53
44 50 57
53 59 67
53 59 68
39 44 51
46 50 57
29 32 37
28 32 37
39 44 51
22 24 27
57 63 72
44 50 57
53 59 67
46 51 57
19 22 26
40 45 51
40 45 51
51 56 62
50 56 64
28 32 38
40 45 52
40 45 51
45 50 57
30 33 38
49 55 62
35 40 45
37 41 46
48 54 63
40 45 52
37 41 46
34 39 46
54 59 67
52 59 68
56 63 72
43 47 52
46 51 57
53 62 72
53 59 68
45 51 58
40 45 51
52 59 67
43 49 57
54 62 72
51 58 67
49 55 62
60 69 80
43 49 57
49 55 63
47 54 62
47 54 62
53 61 72
38 45 53
50 58 67
52 59 68
47 54 62
56 63 72
45 50 57
55 63 72
54 62 72
59 67 77
55 63 72
56 63 72
49 55 63
52 59 68
39 44 51
42 48 57
51 58 67
34 39 45
53 61 72
47 54 63
62 70 80
55 63 73
58 66 76
49 55 63
48 54 62
62 70 80
47 54 63
49 55 62
55 62 72
54 62 72
55 62 72
57 65 76
48 55 64
56 63 73
61 67 76
60 67 77
60 67 77
55 63 72
55 63 72
51 58 68
48 55 63
62 70 80
57 64 73
57 65 76
55 63 72
45 50 57
51 58 68
58 66 76
46 51 58
51 58 68
60 69 80
61 70 80
59 68 80
54 62 72
55 62 72
59 66 76
57 63 72
57 64 73
53 59 68
61 70 80
57 65 76
62 70 80
61 69 80
55 63 73
62 70 80
58 66 76
50 58 68
60 69 80
54 62 72
60 69 80
62 70 80
59 68 80
59 67 76
57 65 76
53 60 68
60 67 77
59 66 76
54 62 72
60 67 77
57 63 72
59 67 77
58 66 77
57 66 77
60 67 77
54 62 72
49 55 63
61 69 80
62 70 80
58 66 77
60 69 80
61 70 80
58 66 76
56 65 76
59 67 76
59 67 77
60 69 80
62 70 80
59 66 77
58 66 77
58 66 77
61 70 80
59 66 76
63 70 80
59 67 77
58 66 77
57 65 76
61 69 80
59 66 76
52 61 72
60 69 80
62 68 77
57 66 77
58 66 76
59 66 76
58 66 77
62 70 80
60 69 80
58 66 77
62 70 80
60 69 80
58 66 77
58 66 76
61 70 80
58 66 77
62 70 80
62 70 80
61 69 80
60 69 80
58 66 76
62 70 80
62 70 80
60 69 80
57 66 77
54 62 72
61 69 80
60 67 77
62 70 80
58 66 76
59 67 77
62 70 80
62 70 80
60 69 80
58 66 76
60 69 80
61 70 80
57 66 76
61 69 80
62 70 80
61 70 80
55 63 72
56 63 72
62 70 80
61 70 80
57 66 77
62 70 80
61 70 80
51 58 68
60 67 77
58 66 77
58 66 77
57 66 77
63 70 80
60 69 80
63 70 80
60 69 80
57 66 76
58 66 76
63 70 80
57 65 76
54 62 72
58 66 76
61 70 80
60 69 80
52 59 68
58 66 77
62 70 80
56 63 73
59 66 77
61 69 80
57 66 77
60 69 80
57 65 76
58 66 76
59 66 76
60 67 76
62 70 80
59 67 77
55 62 72
59 67 76
59 66 76
62 70 80
55 62 72
56 65 76
59 66 77
57 63 72
60 69 80
55 62 72
56 65 76
47 54 63
51 59 68
48 55 64
60 69 80
54 62 72
46 51 58
59 66 76
54 62 72
56 63 72
57 66 76
55 62 72
57 65 76
59 66 76
61 69 80
64 71 80
59 67 76
60 69 80
52 59 69
53 61 72
59 68 80
51 58 68
56 63 72
58 66 76
59 66 76
54 62 72
52 59 68
48 55 63
61 69 80
57 66 76
45 51 58
59 67 76
54 62 72
52 59 68
54 62 72
59 67 77
56 63 72
62 70 80
52 59 68
62 70 80
54 60 68
55 62 72
62 70 80
56 65 76
48 55 63
55 62 72
55 62 72
47 54 63
53 60 68
58 66 76
49 55 62
52 59 68
53 60 68
50 56 64
52 59 67
55 63 72
55 63 72
55 63 72
62 70 80
50 57 67
61 68 77
40 45 52
59 67 76
49 55 63
45 53 62
44 51 59
59 67 76
52 59 67
52 59 68
39 44 51
48 54 62
52 59 68
55 62 72
53 61 72
51 58 67
48 55 63
56 63 72
51 58 67
51 58 67
48 54 63
49 55 63
51 59 68
55 61 68
47 54 63
56 63 72
45 50 57
44 49 57
52 59 67
53 60 68
50 55 63
48 55 63
35 39 45
40 45 52
42 46 52
41 45 51
47 52 58
44 50 58
45 51 57
44 50 57
43 49 57
49 55 62
44 49 57
40 45 51
51 58 67
45 50 57
43 49 57
47 54 63
53 59 68
53 59 67
35 39 44
48 55 63
41 45 51
47 54 62
44 49 57
34 39 45
50 55 63
33 38 44
40 45 51
35 40 46
35 39 45
45 50 57
30 33 38
45 50 57
39 44 51
34 39 45
53 59 67
39 44 51
30 33 37
8 8 9
34 39 44
54 60 68
23 25 27
40 45 51
45 50 57
41 45 51
57 63 72
44 50 57
39 44 51
47 54 62
40 44 51
29 33 37
40 45 52
45 50 57
45 50 57
54 60 68
40 45 52
35 39 45
39 44 51
47 54 62
46 51 57
41 46 52
35 39 44
34 38 44
41 46 52
49 55 63
12 13 14
40 45 52
49 55 62
43 49 57
28 32 36
33 38 45
34 38 44
28 32 37
53 59 67
55 62 72
29 33 38
39 45 52
54 60 67
58 66 76
46 51 58
28 32 37
36 40 46
42 46 52
33 38 44
52 59 67
36 40 45
42 47 53
57 63 72
40 45 51
44 50 57
49 55 63
60 67 77
56 63 72
41 46 52
41 46 53
56 63 72
49 55 63
51 58 67
53 59 68
52 59 67
38 44 52
40 45 51
48 54 63
53 59 68
46 51 58
57 64 72
52 58 67
44 50 58
58 66 76
52 59 68
48 54 62
44 50 57
53 59 67
43 49 57
55 63 72
43 49 57
48 55 63
57 64 73
42 46 51
44 50 58
48 54 63
49 55 62
56 63 72
59 66 76
49 55 63
48 54 63
52 59 68
55 62 72
53 59 68
56 63 73
54 62 72
43 50 58
59 66 76
38 44 52
61 70 80
59 66 76
56 65 76
52 59 68
58 64 72
44 50 57
55 62 72
51 58 68
51 58 67
52 59 68
52 58 67
52 58 67
51 58 68
50 58 67
61 69 80
57 66 76
60 69 80
58 66 76
51 58 68
54 62 72
57 66 77
59 67 76
51 59 69
56 63 72
62 70 80
53 62 72
55 62 72
61 70 80
45 51 58
53 59 67
55 63 73
38 44 52
50 57 67
58 66 76
54 62 72
58 66 77
58 66 77
61 70 80
62 70 80
54 62 72
57 66 77
58 66 76
55 63 72
50 58 67
52 59 68
59 66 76
55 62 72
57 65 76
59 66 76
59 67 77
55 62 72
54 62 73
62 70 80
62 70 80
56 65 76
54 62 72
62 70 80
63 70 80
57 66 77
58 66 77
59 67 77
60 69 80
59 66 77
58 66 77
61 69 80
61 70 80
54 62 73
58 66 76
61 70 80
61 70 80
61 69 80
54 62 72
58 66 77
62 70 80
59 67 77
58 66 77
60 67 77
59 66 76
59 66 76
61 70 80
59 66 76
59 69 80
61 70 80
61 70 80
54 62 72
59 69 80
60 67 76
57 66 76
61 70 80
61 69 80
61 69 80
52 59 69
51 58 67
55 62 72
58 66 76
57 63 72
62 70 80
60 69 80
59 67 77
61 69 80
57 63 72
62 70 80
61 69 80
54 62 72
58 66 76
61 70 80
55 63 72
62 70 80
61 69 80
61 69 80
61 70 80
62 70 80
61 70 80
62 70 80
52 58 67
58 66 77
59 68 80
57 66 76
61 69 80
62 70 80
61 70 80
61 69 80
58 66 77
60 67 76
58 66 77
59 66 77
61 69 80
61 69 80
62 70 80
60 69 80
62 70 80
53 62 72
63 71 80
56 65 76
61 69 80
62 70 80
58 66 76
63 71 80
60 69 80
58 66 76
60 69 80
58 66 76
56 65 77
58 66 76
63 71 80
54 62 72
61 69 80
62 70 80
58 66 76
61 70 80
61 69 80
60 69 80
58 66 76
59 66 76
62 70 80
60 69 80
58 66 77
58 66 77
61 69 80
61 69 80
57 66 76
63 71 80
59 67 77
56 63 73
58 66 77
51 59 68
56 63 72
52 59 67
55 63 73
59 67 77
60 69 80
50 58 68
58 66 77
57 66 76
61 69 80
57 65 76
58 66 76
59 67 77
60 69 80
55 63 72
58 66 77
57 64 72
53 59 68
62 70 80
58 66 77
54 62 72
56 65 77
54 62 72
58 66 76
48 54 63
59 67 76
54 62 72
55 63 72
58 64 72
54 62 72
56 63 72
58 66 76
62 70 80
48 54 63
54 62 72
55 62 72
60 69 80
49 55 63
57 66 76
55 62 72
61 69 80
54 62 72
54 62 72
51 58 68
59 66 76
60 67 77
59 66 76
58 64 72
61 69 80
62 70 80
55 62 72
55 63 72
56 63 72
60 69 80
58 66 76
54 62 72
51 59 68
56 63 73
40 45 52
55 63 72
42 46 52
61 70 80
50 56 63
54 62 72
47 54 62
56 63 72
58 66 76
62 70 80
61 69 80
52 59 68
59 66 76
48 55 63
50 56 63
56 63 72
58 66 77
43 49 57
48 54 62
59 67 76
46 51 57
52 59 68
47 54 63
56 63 72
47 54 63
58 66 77
50 58 67
47 54 63
43 49 57
42 49 57
43 49 57
48 55 63
58 66 76
44 50 57
53 59 68
56 63 72
48 55 63
48 55 63
54 62 72
48 54 63
45 50 58
44 50 57
39 44 51
55 62 72
43 49 57
56 63 72
35 39 44
45 50 58
48 54 62
44 50 57
51 58 68
43 49 57
35 40 45
53 59 68
38 44 51
45 51 58
41 46 53
44 50 57
49 54 62
52 58 67
34 39 46
36 40 46
40 45 51
35 40 46
51 59 68
44 50 57
34 39 45
22 24 27
39 44 51
50 55 63
61 67 77
45 51 57
39 45 52
36 39 45
44 50 57
46 51 57
53 59 67
44 50 57
49 55 63
33 38 44
35 39 45
41 46 53
39 44 51
28 32 37
45 50 57
40 45 51
40 44 51
43 49 57
39 44 51
45 50 57
52 59 68
45 50 57
52 58 67
35 39 44
38 44 51
36 40 45
44 50 57
54 60 68
50 56 63
43 50 58
57 64 72
51 58 67
55 63 72
48 54 63
41 46 52
48 54 62
40 45 51
53 59 67
36 40 46
41 45 51
42 46 52
52 59 68
44 50 57
52 58 67
40 45 52
40 45 51
39 44 51
44 50 58
48 54 62
34 39 44
40 45 52
37 40 45
43 49 57
43 49 57
50 55 63
45 50 57
56 63 72
49 55 62
40 45 51
39 44 51
45 50 58
45 50 58
36 40 45
40 45 51
41 46 52
51 58 67
57 63 72
53 59 67
49 55 62
46 51 57
48 54 62
49 55 63
49 55 63
35 39 45
52 58 67
48 55 63
60 67 76
51 58 67
29 32 37
54 60 69
41 46 53
41 45 52
49 55 62
40 45 53
55 62 72
46 51 59
41 46 52
57 66 76
49 55 63
45 50 58
57 64 73
56 63 72
44 49 57
56 63 72
47 54 62
51 58 68
45 50 57
58 66 76
54 60 68
51 58 68
59 67 77
50 58 67
55 63 73
53 59 68
54 62 72
57 63 72
52 59 68
58 66 77
57 66 76
55 62 72
52 59 68
53 59 68
45 51 58
51 58 68
53 62 72
49 54 62
54 60 68
40 46 53
60 67 76
45 51 58
58 66 76
58 66 76
49 55 63
51 59 68
63 70 80
60 69 80
57 64 72
55 62 72
43 49 57
52 59 67
60 69 80
59 67 76
55 62 72
44 49 57
63 70 80
59 67 77
57 66 76
62 70 80
52 59 68
59 66 76
59 67 77
55 62 72
59 67 76
53 61 72
55 63 72
56 65 76
53 61 72
52 59 68
58 66 76
52 59 68
58 66 77
62 70 80
60 69 80
62 70 80
58 66 77
59 66 76
61 69 80
54 62 72
58 66 76
54 60 68
61 69 80
55 62 72
53 59 68
62 70 80
64 71 80
54 62 72
55 63 73
60 67 76
51 59 68
62 70 80
55 62 72
61 70 80
58 66 76
56 63 72
55 62 72
59 67 77
56 63 72
61 68 77
57 66 77
58 66 77
58 66 77
61 69 80
60 69 80
58 66 77
60 67 76
58 66 76
60 69 80
61 69 80
58 66 77
61 69 80
60 69 80
57 65 76
55 65 76
60 69 80
61 69 80
62 70 80
58 66 76
60 69 80
62 70 80
58 66 77
56 63 72
61 70 80
58 66 77
61 70 80
53 59 68
62 70 80
57 66 77
59 66 76
59 66 76
58 66 76
59 67 77
60 67 77
57 65 76
58 66 76
62 70 80
59 67 77
61 69 80
54 62 72
60 69 80
62 70 80
60 69 80
63 70 80
61 70 80
58 68 80
61 70 80
61 70 80
59 67 77
61 69 80
61 69 80
57 65 76
56 63 72
58 66 76
58 66 76
59 67 77
58 66 77
59 66 76
61 69 80
52 59 68
51 58 67
62 70 80
64 71 80
58 66 77
61 67 76
60 69 80
58 66 76
60 69 80
58 66 76
58 66 77
62 70 80
51 58 67
62 70 80
55 62 72
61 69 80
60 69 80
57 65 76
55 62 72
60 67 76
61 69 80
57 65 77
51 58 68
52 59 68
54 62 72
60 67 77
54 62 72
60 69 80
62 70 80
59 67 77
62 70 80
58 66 77
61 69 80
53 59 68
53 59 68
59 67 77
62 70 80
55 63 72
59 66 76
60 69 80
62 70 80
56 63 72
58 66 76
60 67 77
61 69 80
59 67 76
57 63 72
58 66 76
60 67 77
54 62 72
61 69 80
58 66 77
61 70 80
48 55 63
62 70 80
58 66 77
59 67 76
58 66 77
61 69 80
61 70 80
61 69 80
58 64 72
52 59 68
53 62 73
58 66 77
52 57 64
55 62 72
60 67 76
56 63 73
55 63 72
58 66 76
55 62 72
54 62 72
59 66 76
55 62 72
47 54 63
52 59 68
58 66 76
54 62 72
59 66 76
49 55 63
57 65 77
44 50 58
52 59 68
50 58 68
55 62 72
53 60 68
48 55 63
47 54 63
63 71 80
50 56 63
59 67 77
52 59 67
48 54 63
58 66 76
54 62 72
59 67 77
48 55 63
43 49 57
49 55 62
56 63 73
48 55 64
56 63 72
55 63 72
58 66 77
47 54 62
57 63 72
50 58 67
60 67 77
45 50 57
54 62 72
50 58 67
48 54 62
51 58 67
54 60 69
45 51 59
53 61 72
39 45 52
47 54 63
50 55 63
55 63 72
52 59 67
49 55 63
49 55 63
45 51 58
49 55 63
47 53 62
52 59 67
45 50 57
34 38 44
55 62 72
56 63 72
58 66 77
40 45 51
47 54 63
52 59 67
44 49 57
44 49 57
53 59 68
53 59 67
47 54 62
49 55 63
41 45 52
49 55 62
44 50 58
37 41 46
48 55 63
43 50 58
57 64 72
56 63 72
45 50 57
44 50 58
48 54 62
52 59 68
51 58 67
38 44 51
40 44 51
47 51 57
52 59 67
47 54 62
51 56 63
44 50 57
48 54 62
39 44 51
51 58 67
44 50 57
44 49 57
45 51 57
35 39 45
36 39 44
41 46 53
50 56 63
39 45 52
51 58 67
33 38 44
54 60 68
35 40 46
33 38 44
36 40 46
52 58 67
34 38 44
36 40 45
44 50 57
39 44 51
28 32 37
40 44 51
40 45 52
53 59 67
38 44 51
35 39 45
41 46 52
45 51 58
51 58 67
52 59 68
49 54 62
46 50 57
31 33 37
49 55 63
40 45 51
48 54 62
40 45 52
53 59 68
56 63 72
49 55 62
46 51 57
39 44 51
44 50 57
48 54 63
43 49 57
40 45 51
38 44 51
49 55 62
28 32 38
31 33 37
10 11 12
34 39 45
52 59 67
49 55 63
38 44 52
45 50 57
53 60 68
36 40 45
48 54 62
40 45 52
53 59 68
48 54 62
44 50 57
48 54 62
46 53 62
59 67 76
51 59 68
58 66 77
48 55 63
56 63 72
52 59 68
51 58 67
52 59 67
56 63 72
48 54 62
51 58 67
49 55 63
60 69 80
40 45 52
56 63 72
57 66 76
49 55 62
55 63 72
52 59 68
56 63 72
41 46 52
46 53 63
49 55 63
55 62 72
54 62 72
49 55 63
56 63 72
54 60 68
60 67 76
53 59 68
50 58 68
54 62 72
51 58 67
51 58 67
52 59 68
61 69 80
57 66 76
55 60 68
50 55 63
57 63 72
50 58 68
57 64 72
54 62 73
52 58 67
61 70 80
55 62 72
52 59 68
51 58 67
47 54 62
58 66 76
54 62 72
52 59 68
49 55 63
44 50 58
59 67 77
50 58 68
52 59 68
57 66 76
50 58 68
57 63 72
62 70 80
59 67 77
58 64 72
58 66 76
48 55 63
51 58 68
56 63 73
56 63 72
59 67 77
59 66 76
64 71 80
58 66 76
55 62 72
63 71 80
48 54 63
52 59 68
59 67 77
55 63 73
57 65 76
53 61 72
61 70 80
54 62 72
57 65 76
59 67 77
55 62 73
52 59 68
58 66 76
58 66 76
59 67 76
62 70 80
57 65 76
63 71 80
52 59 68
58 66 76
52 59 68
56 63 72
61 70 80
60 69 80
59 67 77
60 69 80
57 66 77
55 63 72
59 67 76
55 62 72
63 71 80
59 67 77
58 66 76
53 60 68
61 70 80
58 66 76
56 63 72
61 69 80
60 69 80
56 63 72
54 62 72
59 67 76
59 67 76
56 65 76
61 69 80
58 66 76
51 58 67
60 69 80
55 62 72
58 66 77
59 67 76
56 63 72
57 65 77
61 70 80
57 66 76
57 66 76
61 70 80
64 71 80
61 70 80
58 66 77
55 63 73
57 66 77
53 59 68
58 66 77
57 66 76
61 69 80
62 70 80
57 64 73
61 69 80
62 70 80
62 70 80
61 70 80
52 59 68
56 63 72
58 66 76
57 66 77
62 70 80
60 69 80
58 66 77
61 69 80
58 66 77
55 62 72
58 66 76
62 70 80
59 67 76
58 66 77
61 69 80
56 63 72
62 70 80
61 70 80
61 69 80
61 69 80
60 69 80
62 70 80
60 67 76
58 66 77
61 69 80
58 66 76
57 66 77
60 67 77
62 70 80
60 67 77
61 70 80
55 62 72
55 62 72
61 70 80
60 69 80
60 67 77
54 62 73
58 66 77
59 66 76
62 70 80
62 70 80
61 69 80
62 70 80
62 70 80
58 66 76
58 66 77
55 62 72
53 60 69
58 66 76
53 61 72
57 66 76
62 70 80
62 70 80
57 66 77
55 63 72
58 66 76
58 66 77
59 67 76
60 69 80
61 70 80
57 64 72
62 70 80
62 70 80
60 69 80
60 69 80
60 69 80
61 70 80
61 69 80
58 66 77
60 69 80
60 69 80
55 62 72
58 66 76
61 69 80
57 66 77
51 58 68
62 70 80
55 62 72
59 66 76
60 69 80
58 68 80
58 66 76
51 58 68
61 69 80
52 59 68
58 66 76
54 62 72
53 59 68
62 70 80
60 67 77
57 64 72
56 63 72
60 69 80
44 50 58
57 65 76
54 62 72
60 69 80
58 66 76
56 63 72
60 69 80
43 49 57
49 55 63
54 62 73
55 63 73
47 54 63
57 66 76
46 53 62
59 67 76
53 60 68
62 70 80
60 67 76
55 62 72
52 59 68
58 66 77
55 62 72
51 58 67
53 59 67
50 55 62
55 63 72
47 54 63
52 59 68
54 62 72
46 51 58
51 58 68
49 55 63
55 63 72
56 63 72
47 54 62
56 63 72
48 54 63
51 59 68
48 55 63
61 69 80
60 67 77
61 70 80
58 65 73
50 57 67
51 59 68
59 66 76
48 55 63
55 63 72
50 58 67
48 55 63
53 59 68
60 67 76
56 63 72
50 55 62
54 62 72
50 55 63
34 38 44
52 59 67
49 55 63
54 62 72
48 55 63
46 52 59
52 59 68
52 59 67
53 59 67
50 56 63
53 59 68
53 60 68
52 59 68
51 58 67
49 55 62
36 40 46
40 45 52
48 55 63
47 51 57
30 33 38
52 59 68
39 44 51
50 57 67
42 46 53
40 45 51
48 54 62
35 39 45
48 54 62
49 55 63
48 55 63
36 40 45
45 50 58
54 60 67
45 50 58
51 58 68
45 51 58
44 50 57
35 39 45
35 39 44
48 55 64
49 55 62
35 40 46
37 43 51
36 40 45
45 50 57
55 63 72
31 34 38
35 39 46
44 50 57
52 59 68
44 49 57
53 59 67
53 59 67
51 58 67
36 40 45
49 55 62
42 46 53
56 63 72
35 39 45
33 38 44
45 51 57
23 25 28
43 49 57
42 46 52
39 45 51
37 41 46
44 50 57
39 44 51
45 50 58
56 63 72
40 44 51
54 60 67
39 44 52
42 46 51
44 50 58
47 52 59
58 64 72
41 45 51
44 50 57
40 45 52
53 59 67
28 32 36
49 55 63
44 50 57
45 50 57
44 50 57
54 60 68
49 55 62
36 40 45
34 38 44
45 50 57
44 50 57
51 58 67
44 49 57
39 44 51
43 49 57
41 45 52
39 45 52
48 54 62
59 66 76
48 55 63
55 61 68
45 51 58
51 59 68
44 50 57
50 55 62
51 58 68
40 45 51
31 34 39
40 45 52
40 45 51
50 55 62
53 59 67
53 59 67
52 59 67
35 40 46
44 50 57
52 59 67
44 50 57
44 50 57
44 50 58
47 53 62
56 63 72
48 54 63
49 55 63
56 63 72
55 62 72
43 49 57
55 63 72
55 62 72
47 53 62
59 67 76
59 67 76
52 59 67
57 63 72
46 51 58
59 67 76
58 66 76
50 58 68
54 62 72
55 62 72
48 54 62
53 59 68
56 63 72
49 55 63
57 65 76
51 59 68
47 54 62
54 62 72
54 60 68
59 68 80
53 62 72
49 56 64
52 59 68
51 58 68
60 67 76
50 58 68
59 66 76
58 66 77
50 58 67
53 59 67
53 59 68
58 66 76
53 61 72
58 66 76
58 66 76
57 64 72
58 66 76
55 62 72
60 69 80
50 58 68
54 62 72
62 70 80
62 70 80
58 66 76
53 59 68
54 62 72
58 66 77
59 66 76
62 70 80
55 62 72
60 69 80
50 57 67
58 66 76
55 63 72
48 55 63
58 66 77
60 69 80
58 66 76
55 63 72
55 62 72
52 59 68
60 67 77
60 69 80
57 65 76
61 68 76
59 67 77
57 65 76
60 69 80
48 55 64
58 66 77
55 63 73
58 66 76
61 69 80
49 55 63
56 65 77
62 70 80
62 70 80
59 67 77
61 70 80
53 62 72
57 65 77
53 61 72
62 70 80
57 63 72
57 65 76
59 67 77
58 66 76
55 63 72
57 65 76
55 63 72
59 67 77
58 66 77
57 65 77
56 63 73
57 66 77
62 70 80
56 63 73
59 68 80
57 65 76
61 69 80
62 70 80
59 67 77
57 66 76
62 70 80
59 66 76
59 67 77
54 62 72
61 70 80
62 70 80
54 62 72
63 71 80
59 67 77
56 63 73
55 63 72
53 62 72
61 69 80
59 67 77
59 67 76
61 69 80
61 70 80
61 70 80
58 66 76
58 66 76
58 66 77
61 70 80
62 70 80
61 70 80
61 70 80
61 70 80
60 67 77
61 69 80
53 62 72
53 62 72
60 69 80
60 69 80
59 67 76
64 71 80
58 66 77
56 63 72
63 70 80
61 69 80
59 69 80
62 70 80
62 70 80
61 69 80
54 62 72
62 70 80
63 71 80
59 66 76
62 70 80
59 67 77
57 65 76
60 69 80
63 70 80
58 66 76
59 66 77
59 67 76
61 69 80
59 66 76
63 71 80
56 65 76
58 66 77
58 66 76
55 63 72
59 66 77
60 67 77
61 70 80
57 64 72
59 66 76
63 71 80
60 69 80
59 67 77
54 62 72
59 67 77
58 66 76
62 70 80
59 67 76
63 70 80
57 63 72
57 65 76
61 69 80
59 69 80
58 66 76
57 64 73
59 67 77
61 69 80
59 67 77
62 70 80
61 70 80
61 70 80
61 70 80
58 66 77
54 62 72
60 67 77
61 69 80
53 59 67
58 66 77
59 66 76
57 65 76
52 59 68
52 59 67
61 69 80
54 62 72
57 66 76
56 63 72
59 66 76
58 64 72
44 50 57
55 63 72
53 62 72
62 70 80
55 62 72
59 66 76
59 67 77
55 62 72
52 59 68
57 66 77
56 64 73
58 66 76
52 59 68
50 58 68
58 66 77
58 66 76
60 67 77
57 66 76
61 69 80
56 63 72
61 70 80
56 63 72
49 55 63
62 70 80
55 63 72
51 58 67
54 62 72
52 58 67
61 69 80
58 66 76
59 66 76
53 61 72
52 59 69
52 59 68
55 63 72
58 66 76
62 70 80
54 62 72
53 59 68
56 63 73
47 52 58
41 46 52
58 66 76
53 60 68
56 63 72
45 51 58
41 45 51
44 50 57
58 66 76
60 69 80
56 63 72
52 59 68
46 53 62
51 58 68
50 58 68
52 59 68
37 41 46
44 50 58
47 53 62
49 55 63
42 49 57
59 67 77
55 63 72
52 59 68
54 60 68
55 63 72
59 66 76
47 54 63
40 45 52
50 55 63
56 63 72
52 58 67
45 51 58
48 55 63
45 51 58
48 54 62
45 50 57
48 54 63
30 33 38
42 49 57
55 63 72
45 50 57
39 45 52
38 44 52
35 40 45
50 55 62
44 50 57
45 50 57
49 55 63
48 55 63
39 45 52
52 59 68
28 32 37
40 45 51
50 55 63
46 51 58
30 33 37
53 59 68
44 49 57
50 55 63
48 54 62
28 31 36
45 51 58
45 50 57
39 44 51
55 62 72
34 38 44
42 49 57
40 45 52
48 54 62
40 44 51
34 39 45
34 38 44
39 44 52
38 44 51
48 54 62
41 45 52
34 39 44
49 55 63
40 44 51
41 45 51
36 40 45
39 45 52
44 50 57
44 50 57
42 46 52
48 54 63
49 55 63
48 54 62
40 45 51
44 50 57
45 50 57
43 49 57
41 45 51
43 49 57
51 58 67
41 45 51
41 46 52
44 50 57
35 40 45
40 45 52
46 51 57
51 59 68
40 45 52
47 51 57
62 70 80
45 50 57
49 55 62
29 32 37
44 49 57
35 39 45
49 55 62
49 55 63
52 59 68
59 67 76
52 59 68
41 46 52
47 54 62
42 46 52
36 40 45
43 49 57
52 59 68
22 25 29
36 40 46
40 45 51
59 66 76
34 39 46
50 55 63
39 44 51
52 59 68
38 43 51
58 64 72
38 44 51
45 50 57
55 62 72
41 46 53
34 38 44
56 63 72
46 51 57
47 54 62
49 55 63
30 33 37
48 55 63
44 50 58
45 51 58
49 55 63
57 66 76
37 41 46
38 44 51
50 55 63
55 63 72
49 55 63
58 66 76
45 50 57
48 55 64
58 66 77
53 59 68
54 62 72
57 64 72
49 57 67
48 55 63
44 50 57
59 66 76
52 59 68
40 45 52
51 58 67
54 60 68
44 50 57
58 66 77
45 50 58
47 54 63
47 54 63
47 54 62
61 69 80
55 63 72
58 66 76
52 59 68
52 59 68
49 55 63
58 66 77
50 58 68
50 58 68
58 66 76
57 65 76
52 59 68
55 62 72
55 63 73
53 60 68
61 67 76
55 63 73
63 70 80
54 62 72
58 66 76
47 54 63
56 65 76
62 70 80
57 66 76
60 69 80
52 59 68
51 59 68
55 62 72
58 66 76
55 62 72
54 62 72
57 65 76
58 66 76
54 62 72
58 66 76
59 67 77
60 69 80
58 66 76
61 69 80
53 59 68
62 70 80
61 69 80
58 64 72
60 67 77
56 65 76
62 70 80
62 70 80
60 69 80
59 66 76
60 69 80
57 64 73
58 66 76
62 70 80
59 66 77
56 63 72
60 69 80
62 70 80
55 62 72
52 59 68
60 69 80
57 63 72
57 66 77
54 62 72
58 66 77
60 67 76
56 63 73
61 69 80
58 66 76
55 62 72
50 58 68
61 67 76
58 66 77
54 62 72
63 70 80
60 69 80
62 70 80
61 70 80
55 63 72
60 69 80
63 70 80
59 66 76
60 69 80
57 66 77
60 67 77
57 66 76
61 70 80
59 67 77
57 66 77
64 71 80
62 70 80
58 66 76
57 65 76
60 67 77
62 70 80
59 66 76
59 66 76
60 69 80
57 65 77
54 62 72
57 66 76
60 69 80
63 70 80
59 67 77
60 69 80
57 66 77
61 67 76
63 70 80
57 66 76
60 69 80
62 70 80
63 70 80
61 70 80
56 65 76
61 69 80
58 66 76
60 67 77
58 66 76
60 69 80
61 69 80
58 66 77
57 66 77
62 70 80
61 69 80
61 70 80
60 67 77
61 70 80
50 58 67
58 66 76
57 66 77
54 60 68
62 70 80
62 70 80
58 66 76
60 67 76
54 62 72
54 62 72
62 70 80
57 65 76
61 69 80
57 66 76
61 70 80
58 66 76
62 70 80
57 66 76
56 63 72
59 67 76
60 69 80
55 63 73
54 62 72
61 70 80
62 70 80
58 66 77
62 70 80
62 70 80
58 66 76
63 70 80
52 59 68
60 69 80
57 65 76
59 67 76
54 62 72
61 69 80
55 63 73
53 59 68
55 62 72
58 66 76
58 66 77
54 62 72
60 69 80
60 69 80
54 62 72
62 70 80
56 63 73
57 63 72
57 65 76
63 70 80
59 66 76
57 63 72
57 65 76
63 70 80
56 63 72
63 71 80
54 62 73
52 59 68
61 69 80
56 63 72
57 66 77
48 55 64
59 66 76
58 66 77
56 63 72
57 66 77
62 70 80
62 70 80
57 66 76
54 62 72
59 66 76
55 63 72
51 58 68
61 69 80
57 66 77
54 62 73
39 45 53
57 66 77
57 64 72
58 66 77
57 66 76
59 66 76
59 66 77
56 63 72
56 63 72
56 65 76
58 66 76
53 59 68
52 59 68
52 58 67
48 55 63
40 45 52
41 46 52
48 54 63
50 58 67
46 53 63
60 67 77
49 55 62
60 67 76
47 54 63
51 58 67
52 59 68
50 58 67
54 62 72
57 64 73
54 60 68
51 58 68
53 60 68
53 59 68
44 50 57
52 59 67
43 49 58
42 49 57
58 66 76
49 55 63
55 63 72
48 54 62
50 58 67
40 45 52
47 54 62
53 59 68
36 40 46
45 50 57
56 63 72
59 67 76
43 49 57
51 58 67
47 54 62
48 55 64
39 45 52
56 65 76
51 58 67
40 45 52
51 58 68
49 55 63
58 66 77
44 50 58
56 63 72
57 66 76
48 54 63
53 59 68
45 50 57
45 51 58
40 45 51
52 59 68
44 50 57
47 54 62
47 54 62
44 50 58
50 55 63
52 59 67
45 50 57
48 55 63
57 63 72
34 39 45
52 59 68
34 39 46
50 55 63
54 60 68
44 50 57
48 54 62
39 44 52
47 54 62
40 45 52
44 50 57
46 53 63
48 55 63
43 46 52
53 59 68
38 44 52
40 45 52
42 46 52
31 34 38
44 50 57
52 58 67
28 31 36
53 59 67
53 59 67
52 59 67
27 31 37
40 45 52
39 44 52
35 39 45
36 40 46
51 58 67
42 46 52
40 45 51
34 39 45
41 46 52
48 54 62
39 45 52
46 53 62
44 50 57
45 50 57
34 39 46
45 50 57
37 40 46
44 50 57
40 45 52
53 59 67
39 45 51
41 45 51
56 63 72
52 59 67
50 56 63
53 59 67
50 58 67
47 54 63
52 59 68
48 54 62
51 58 67
45 50 57
44 50 57
41 45 52
35 39 46
35 39 46
49 55 63
34 39 46
48 54 62
44 50 57
52 59 68
34 38 44
44 50 57
41 46 52
55 62 72
51 58 68
48 54 62
49 55 63
52 59 68
49 55 63
50 56 63
47 53 62
61 69 80
53 60 68
48 55 63
49 55 63
53 60 69
51 56 63
44 50 57
54 62 72
50 55 63
51 58 67
58 66 76
55 63 72
50 55 63
48 55 63
43 49 57
52 59 68
52 58 67
45 50 58
58 66 76
43 49 57
59 67 76
48 55 63
51 58 67
59 66 76
52 59 68
55 62 72
51 58 68
51 59 68
59 67 77
57 64 72
57 63 72
58 66 76
53 59 68
49 55 63
50 58 67
42 49 57
55 62 72
46 51 58
52 59 68
45 50 57
52 59 68
48 54 63
51 59 68
48 55 63
53 59 67
60 67 77
53 62 72
53 60 68
54 62 72
56 63 72
58 66 76
51 58 68
55 62 72
49 55 63
57 66 76
47 54 62
61 69 80
54 62 72
52 59 68
54 62 72
51 58 67
57 64 73
56 63 72
58 66 76
57 66 76
58 66 77
62 70 80
55 63 72
57 63 72
47 54 63
48 54 63
63 70 80
55 63 72
58 66 76
59 66 76
59 66 76
63 70 80
58 66 77
58 66 76
59 67 77
51 59 69
61 69 80
55 62 72
56 63 72
58 66 76
62 70 80
58 66 77
51 58 68
58 66 76
59 66 76
55 62 72
55 63 72
62 70 80
60 67 77
62 70 80
53 59 68
61 69 80
57 66 76
53 62 72
56 63 73
54 62 72
60 69 80
62 70 80
62 70 80
60 67 76
61 70 80
61 69 80
59 67 76
60 69 80
57 65 76
60 69 80
58 66 76
55 62 72
61 70 80
56 63 72
58 66 77
53 61 72
60 69 80
55 63 72
62 70 80
57 63 72
57 66 76
57 65 76
62 70 80
57 64 73
51 58 67
62 70 80
56 63 72
62 70 80
51 59 69
54 62 72
55 62 72
61 69 80
57 66 76
63 71 80
58 66 76
60 67 76
60 69 80
61 69 80
61 70 80
56 63 72
53 62 72
58 66 77
59 67 76
60 67 77
61 70 80
57 66 76
62 70 80
60 69 80
60 69 80
61 70 80
62 70 80
61 70 80
60 67 77
58 66 76
59 67 77
60 69 80
56 65 77
58 66 76
63 70 80
55 63 73
60 69 80
53 61 72
54 62 72
54 62 72
54 62 72
61 70 80
58 66 76
61 69 80
58 66 76
63 70 80
62 70 80
58 66 76
61 69 80
63 70 80
62 70 80
62 70 80
58 66 77
62 70 80
60 69 80
56 63 72
53 59 68
62 70 80
55 62 72
55 63 72
60 67 77
55 62 72
55 62 72
61 70 80
63 70 80
59 66 76
53 60 69
59 66 76
63 70 80
60 69 80
58 66 76
59 67 77
59 67 77
61 69 80
60 69 80
47 54 63
58 66 77
59 66 76
55 62 72
59 67 77
61 69 80
59 66 76
58 66 76
54 62 73
60 67 76
58 66 76
61 70 80
58 66 77
62 70 80
55 63 72
48 54 63
60 69 80
62 70 80
54 62 72
53 61 72
51 58 67
58 66 77
59 66 76
61 69 80
63 71 80
55 62 72
58 66 76
55 63 73
52 59 67
58 66 77
56 65 76
61 69 80
57 66 76
60 69 80
55 63 72
53 62 73
55 63 72
49 55 63
57 65 76
57 66 76
46 54 63
58 66 77
58 66 77
48 55 63
63 71 80
56 63 72
57 64 72
58 66 76
58 66 77
60 67 76
59 69 80
58 66 76
55 63 72
51 58 68
55 62 72
54 62 72
51 56 63
53 59 67
52 59 67
59 66 76
57 65 76
45 51 59
60 67 77
56 63 72
49 55 63
49 55 62
58 66 77
58 66 76
56 63 72
44 50 57
53 59 68
40 45 52
53 59 68
56 63 72
54 62 72
54 62 72
48 55 63
54 62 72
58 66 76
51 58 67
53 59 67
58 66 76
43 50 57
50 56 63
50 58 67
48 55 63
53 59 68
48 55 64
51 58 67
59 67 77
52 59 67
42 49 57
55 63 72
55 63 72
52 59 68
47 54 62
53 60 68
45 50 58
47 53 62
52 59 68
45 50 58
52 59 68
55 62 72
43 49 57
53 59 68
39 45 52
41 46 52
54 60 68
56 63 72
40 45 51
48 55 63
45 50 57
50 58 68
49 55 63
53 59 67
50 56 63
47 54 63
40 45 51
45 51 58
35 39 46
57 64 72
47 51 58
52 59 67
52 59 67
58 64 72
38 44 51
46 51 57
48 54 62
45 50 58
48 55 63
43 49 57
40 45 51
45 50 57
55 61 69
33 38 44
56 63 72
45 50 57
45 50 57
41 46 51
42 46 52
42 46 52
50 55 63
44 50 58
47 52 57
44 50 57
44 50 57
41 46 52
45 51 59
52 59 68
53 59 68
44 49 57
48 54 63
48 55 63
43 49 57
36 40 45
41 45 52
39 44 51
49 55 63
39 44 51
28 32 36
35 39 44
43 49 57
45 50 58
53 59 67
34 39 45
29 32 36
52 59 68
45 50 57
55 63 72
49 55 62
53 60 68
49 55 63
45 50 57
29 33 38
40 45 51
50 56 63
36 40 45
47 54 63
49 54 62
48 54 62
41 45 52
39 44 51
45 51 58
43 50 58
41 45 51
44 50 57
48 55 63
45 50 57
49 55 62
40 45 52
52 59 67
43 49 57
44 49 57
55 60 67
44 50 58
47 54 63
53 59 68
50 56 63
53 59 67
53 59 68
49 55 63
44 50 57
39 44 52
60 67 76
47 54 63
50 56 63
50 55 62
49 55 63
61 70 80
51 58 67
49 55 63
54 60 67
52 59 68
54 62 72
51 58 67
43 49 57
56 63 72
44 50 58
59 66 76
55 63 72
44 50 58
56 63 72
57 64 72
56 63 73
53 59 68
48 55 63
45 51 58
52 58 67
51 58 68
52 59 67
59 66 76
55 62 72
54 62 72
49 55 64
56 63 72
56 63 72
38 44 51
54 60 68
48 55 64
54 62 72
56 63 73
55 62 72
52 59 68
56 63 72
54 62 72
58 66 76
55 62 72
58 66 76
43 49 58
59 68 80
52 59 69
59 66 77
58 66 76
57 64 73
55 62 72
52 59 68
47 54 63
61 70 80
51 58 68
55 62 72
60 67 76
51 58 68
50 57 67
62 70 80
54 62 72
56 65 76
55 63 72
59 66 76
55 63 73
53 60 68
58 66 76
57 63 72
54 62 72
59 67 77
58 66 76
57 66 77
51 59 68
57 66 77
54 62 72
60 69 80
56 63 72
62 70 80
52 59 68
59 69 80
51 58 68
55 63 72
58 66 76
59 66 77
55 62 72
61 69 80
63 70 80
60 67 77
63 70 80
58 66 76
56 63 73
58 66 77
59 66 76
55 62 72
52 59 69
59 69 80
55 62 72
62 70 80
61 70 80
62 70 80
62 70 80
56 63 72
57 65 76
55 62 72
58 66 76
61 69 80
58 66 76
57 66 76
62 70 80
58 66 77
58 66 76
61 69 80
58 66 76
54 62 72
59 67 77
58 66 76
59 67 76
58 66 77
55 63 73
61 69 80
58 66 77
55 63 73
59 69 80
50 58 67
59 68 80
54 62 72
59 67 76
62 70 80
58 66 76
63 70 80
58 66 76
57 66 77
59 67 77
61 69 80
63 70 80
59 66 76
57 66 77
60 69 80
55 63 73
61 69 80
61 70 80
61 69 80
57 65 77
61 70 80
58 66 77
61 70 80
60 67 77
62 70 80
58 66 77
56 65 76
59 67 77
57 65 76
60 69 80
60 69 80
60 67 76
62 70 80
54 62 72
61 70 80
58 66 76
57 66 76
61 70 80
59 66 76
58 66 77
58 66 76
61 70 80
62 70 80
60 67 76
62 70 80
62 70 80
58 66 76
56 63 72
60 69 80
55 62 72
61 69 80
58 66 77
59 67 77
55 62 72
55 63 72
54 62 72
62 70 80
60 69 80
56 63 73
58 66 77
52 59 68
63 70 80
61 70 80
60 67 77
58 66 77
60 69 80
61 70 80
61 69 80
64 71 80
58 66 77
61 70 80
59 67 77
59 66 76
52 59 68
50 58 68
55 63 72
61 69 80
58 66 76
56 63 72
58 66 76
58 66 77
63 70 80
61 69 80
61 70 80
57 65 76
49 55 64
61 68 77
53 61 72
58 66 76
47 54 63
54 62 72
56 63 73
59 66 76
58 66 76
62 70 80
58 66 76
60 67 77
57 66 76
62 70 80
58 66 76
55 62 72
55 63 72
54 62 72
58 66 76
55 63 72
54 62 72
58 66 76
58 66 77
62 70 80
53 59 67
62 70 80
52 59 68
53 59 67
58 66 77
59 66 76
48 55 63
62 70 80
49 55 63
56 63 72
49 55 63
56 63 72
54 62 73
52 59 69
52 59 67
60 67 76
58 66 76
53 59 68
50 58 68
54 62 72
56 63 72
60 69 80
50 58 67
54 62 73
54 62 72
52 59 68
58 66 77
60 67 77
55 62 72
52 59 68
56 63 72
56 63 73
59 67 77
59 66 76
59 67 77
43 49 57
57 66 77
56 63 72
54 60 67
55 62 72
43 50 58
55 63 72
48 55 63
58 66 76
47 52 59
44 50 57
47 54 63
48 54 63
51 58 68
56 63 72
47 52 59
49 55 63
49 55 63
45 53 63
48 55 63
56 63 72
56 63 72
49 55 63
40 46 53
59 66 76
52 59 68
57 63 72
53 59 68
57 66 76
40 45 51
55 63 72
54 62 72
56 63 72
41 45 52
60 67 76
54 60 68
47 54 62
51 58 67
51 58 67
53 59 67
45 51 57
46 51 58
52 59 68
49 55 63
41 46 52
43 50 57
44 50 57
54 60 68
49 55 62
49 55 62
43 49 57
56 63 72
55 63 72
56 63 72
53 59 68
40 45 51
38 44 51
56 63 72
50 55 62
46 51 58
44 50 57
50 55 62
46 51 57
38 44 52
45 50 57
52 59 67
43 46 51
43 49 57
35 39 44
48 55 63
43 49 58
45 50 58
49 55 63
42 46 52
49 55 63
52 59 67
44 50 57
47 54 62
46 51 58
36 39 44
34 38 44
42 47 52
52 59 67
33 38 45
49 55 63
49 55 63
45 50 57
49 55 63
52 59 68
45 50 57
53 59 67
44 50 57
45 50 57
52 59 68
50 55 62
58 64 72
44 49 57
49 55 62
46 53 62
49 55 62
51 58 67
48 54 62
48 54 63
55 60 68
52 59 67
45 51 58
44 49 57
52 58 67
45 51 57
48 54 63
53 59 67
41 46 52
44 50 57
44 50 57
42 49 57
41 46 51
40 44 51
57 65 76
36 40 45
53 59 67
42 46 52
42 49 57
49 55 62
53 59 68
48 54 62
48 55 63
50 56 63
53 59 68
49 55 63
55 62 72
47 54 62
47 54 63
49 55 62
52 59 68
55 63 72
52 59 68
51 58 67
52 59 68
48 54 63
44 50 57
50 56 63
40 45 51
55 63 72
59 66 76
56 63 72
48 55 63
52 59 68
49 55 62
42 49 57
51 58 67
50 58 68
52 59 68
51 58 68
55 63 72
49 55 63
52 59 68
44 50 57
58 66 77
61 70 80
59 66 76
51 58 67
46 52 59
52 59 68
43 49 57
59 67 77
53 60 68
56 63 72
50 58 67
47 54 63
51 59 68
55 62 72
56 63 72
59 67 76
53 59 68
43 50 58
49 55 63
48 54 62
54 62 72
51 58 67
59 66 76
60 67 76
56 63 72
55 60 68
56 63 72
49 55 63
58 66 76
53 59 67
46 51 58
58 66 76
55 63 72
56 64 73
58 66 76
54 62 72
52 59 68
56 63 73
56 63 72
56 63 72
59 68 80
47 54 63
63 70 80
53 59 68
59 66 76
59 66 76
60 67 77
53 62 72
58 66 76
51 58 67
55 62 72
50 58 67
52 59 68
54 62 73
57 66 77
51 58 67
55 63 72
58 66 76
61 69 80
53 61 72
56 63 73
51 58 67
52 59 68
59 67 77
54 62 72
62 70 80
61 70 80
52 59 68
53 62 72
59 69 80
55 62 72
54 62 72
59 67 77
59 67 77
61 69 80
60 69 80
51 58 68
57 66 76
58 66 77
57 66 77
61 69 80
63 70 80
59 67 77
57 65 76
59 69 80
58 66 77
59 67 77
60 67 77
55 63 72
57 65 76
60 69 80
51 58 67
59 67 77
60 69 80
60 69 80
62 70 80
57 66 76
60 69 80
55 63 73
62 70 80
61 70 80
60 69 80
57 66 77
61 70 80
62 70 80
63 70 80
55 62 72
58 66 76
58 66 76
61 70 80
55 62 72
60 69 80
60 69 80
54 62 72
60 69 80
56 65 76
55 62 72
62 70 80
60 69 80
60 69 80
51 59 69
57 66 76
62 70 80
58 66 77
60 69 80
58 66 76
53 62 72
60 69 80
59 66 76
58 66 76
62 70 80
55 62 72
59 69 80
61 69 80
58 66 77
57 65 76
54 62 72
58 66 76
55 63 72
60 69 80
61 70 80
63 70 80
55 62 72
62 70 80
62 70 80
63 71 80
60 69 80
55 62 72
60 69 80
54 62 72
59 67 77
53 59 68
54 62 72
61 70 80
47 54 63
56 63 73
55 62 72
61 70 80
58 66 77
60 69 80
56 65 77
61 70 80
60 69 80
62 70 80
61 69 80
56 63 72
58 66 77
59 67 77
58 66 76
61 69 80
62 70 80
55 62 73
54 62 72
58 66 76
59 67 76
57 65 76
55 60 67
56 63 73
58 66 76
60 69 80
57 65 76
57 66 77
63 70 80
53 60 68
60 67 77
51 58 68
56 63 72
53 62 72
58 66 76
55 63 72
63 70 80
57 66 76
59 67 76
58 66 76
56 63 73
61 69 80
63 70 80
57 66 76
58 66 76
58 66 76
56 63 72
57 65 76
39 45 53
55 62 72
60 69 80
62 70 80
53 59 68
56 63 72
59 67 77
52 59 67
57 63 72
58 66 76
59 66 76
58 66 77
59 66 76
52 59 68
55 63 72
54 60 68
50 58 68
59 67 76
55 62 72
58 66 76
58 66 77
44 50 59
57 66 76
55 62 72
56 65 76
59 67 76
53 59 67
43 50 58
53 59 68
52 58 67
61 67 77
58 66 76
52 59 68
47 54 63
52 59 68
55 62 72
51 58 68
51 56 63
48 55 63
47 54 62
60 69 80
50 56 64
58 66 76
42 49 57
49 55 63
51 58 67
52 59 67
51 58 67
57 66 77
48 54 63
55 62 72
55 63 72
56 63 72
48 55 63
44 50 58
54 62 72
45 50 58
48 54 63
56 63 72
53 59 68
56 63 72
59 66 76
48 54 63
40 45 52
48 54 63
53 59 68
53 59 68
52 59 67
53 60 68
44 49 57
48 54 63
39 45 52
47 54 62
49 55 63
48 54 62
54 62 72
51 58 68
46 51 57
51 58 67
44 50 57
44 50 58
48 55 63
51 59 68
57 66 76
44 50 58
44 50 57
53 59 68
48 54 63
28 32 38
58 64 72
48 54 62
49 55 63
41 45 51
53 59 67
45 50 57
44 50 57
36 40 45
44 50 57
43 49 57
39 45 52
47 54 63
49 55 63
48 54 62
35 39 45
49 55 62
44 50 57
53 59 67
41 46 52
57 66 77
38 44 51
56 63 72
47 52 58
51 58 67
48 54 62
41 46 52
40 45 52
48 54 62
48 54 62
59 66 76
50 56 63
44 50 57
57 64 72
48 54 63
45 50 57
39 45 52
45 51 58
44 50 57
48 54 63
52 58 67
39 44 51
44 50 57
35 39 45
48 54 62
45 50 57
45 51 58
34 39 44
43 49 57
35 39 45
49 55 62
44 49 57
58 66 77
36 40 46
42 46 52
40 45 51
44 50 57
52 58 67
49 55 63
35 39 45
52 59 67
48 54 62
46 50 57
34 39 45
49 55 63
49 55 62
45 51 57
53 59 68
44 50 58
49 55 63
54 59 67
50 55 62
49 55 62
40 45 51
39 44 51
48 55 63
48 54 62
43 49 58
47 54 62
45 50 57
48 54 63
45 51 59
50 56 64
52 59 67
41 46 53
13 15 16
51 58 67
49 55 62
55 62 72
56 63 72
53 61 72
36 39 44
36 40 46
49 55 62
46 53 62
53 59 68
48 54 62
39 44 52
48 54 63
55 63 72
56 63 73
51 58 67
58 66 77
49 55 63
51 58 67
44 50 58
58 66 76
63 71 80
45 50 57
58 66 76
46 53 63
59 67 77
58 66 76
60 67 77
50 58 68
49 55 63
41 46 52
54 62 72
52 59 68
51 59 68
44 50 57
58 64 73
45 50 57
51 58 68
45 51 59
60 69 80
55 63 73
45 50 58
51 58 68
55 63 72
61 69 80
58 66 76
55 62 72
52 59 68
48 55 63
54 62 72
59 66 76
50 58 68
44 50 58
53 61 72
55 63 73
58 66 77
54 62 72
61 69 80
54 62 72
54 62 72
61 69 80
55 63 72
53 62 72
51 58 68
49 55 63
53 60 69
58 66 77
59 67 77
62 70 80
59 67 77
58 66 77
61 70 80
57 65 76
55 62 72
48 55 63
61 70 80
60 69 80
54 60 68
55 63 73
61 69 80
54 62 72
56 63 72
64 71 80
58 66 76
50 58 68
50 58 67
55 63 72
50 58 67
62 70 80
60 67 76
57 65 77
60 69 80
60 69 80
62 70 80
61 69 80
58 66 76
60 69 80
61 69 80
55 63 72
60 67 76
60 67 77
62 70 80
61 69 80
51 59 69
61 70 80
60 69 80
59 67 77
62 70 80
57 65 76
60 69 80
61 69 80
53 61 72
57 66 77
61 69 80
60 67 76
61 69 80
58 66 77
55 63 73
56 63 72
60 69 80
58 66 76
61 69 80
56 63 72
58 66 76
60 69 80
54 62 72
63 70 80
62 70 80
62 70 80
60 69 80
58 66 76
59 66 76
54 62 72
54 62 72
59 66 77
61 69 80
60 69 80
59 67 77
56 65 76
58 66 77
60 69 80
59 66 76
58 66 76
63 70 80
59 68 80
59 66 76
57 66 76
61 70 80
62 70 80
61 69 80
59 66 76
63 70 80
58 66 77
54 62 72
61 69 80
61 70 80
58 66 76
63 71 80
56 65 77
60 67 76
62 70 80
61 70 80
62 70 80
60 67 76
61 68 77
60 67 76
62 70 80
61 70 80
57 66 76
60 69 80
61 70 80
59 67 76
60 69 80
55 62 72
63 71 80
59 66 76
61 70 80
57 66 76
62 70 80
58 66 77
57 66 77
56 63 72
55 63 72
52 59 68
57 66 76
58 66 76
60 69 80
58 66 76
61 69 80
58 66 76
62 70 80
59 66 76
61 70 80
56 65 76
56 63 72
62 70 80
56 63 72
57 64 73
61 70 80
56 65 76
56 63 72
59 67 77
62 70 80
54 62 72
60 69 80
61 69 80
62 70 80
58 66 77
51 59 68
62 70 80
59 66 76
60 69 80
47 54 63
48 54 63
60 69 80
53 61 72
52 59 69
58 66 76
58 66 76
61 70 80
57 66 77
50 56 63
56 65 76
59 66 76
55 63 73
60 69 80
51 58 68
62 70 80
55 62 72
64 71 80
53 60 69
63 70 80
52 58 67
60 69 80
48 55 63
62 70 80
45 53 62
54 62 72
44 50 57
57 66 76
51 58 68
55 63 72
51 58 68
52 59 68
51 59 68
58 66 77
56 63 72
55 62 72
56 63 72
57 66 77
57 63 72
59 66 77
51 58 67
51 58 68
45 51 58
60 67 77
51 59 68
58 66 76
57 66 77
50 58 68
52 59 68
49 57 68
51 58 67
52 59 67
48 55 63
56 63 72
61 68 76
53 59 68
51 58 67
62 70 80
54 62 72
53 59 68
48 54 62
57 64 73
43 49 58
55 63 72
64 71 80
44 50 58
51 58 68
53 59 67
54 62 72
50 58 68
57 64 72
48 54 62
53 59 68
54 62 72
59 67 76
51 58 67
39 44 52
37 41 46
51 58 68
43 49 57
52 59 68
48 55 64
54 62 72
48 54 63
44 50 57
51 58 67
47 52 58
52 58 67
47 54 62
51 59 68
41 45 52
52 59 68
40 45 51
46 53 62
56 63 72
48 54 62
35 39 44
53 59 67
50 55 63
48 54 63
49 55 63
52 59 68
48 55 63
43 49 57
52 59 68
41 46 52
43 49 57
43 49 57
53 59 67
38 44 51
40 45 52
53 60 68
46 51 58
57 64 72
42 49 57
56 63 72
39 44 51
50 55 63
45 51 58
45 51 58
43 49 57
39 44 51
45 50 57
51 57 64
30 33 38
48 55 63
43 49 57
49 55 62
45 50 57
45 50 57
48 54 63
38 44 51
44 50 57
48 55 63
34 38 44
31 35 39
40 45 51
45 50 57
45 51 58
38 44 52
50 55 63
42 49 57
45 50 57
52 59 67
46 51 57
30 33 38
33 38 44
49 55 63
30 34 38
52 59 67
42 46 52
52 59 67
51 56 63
44 49 57
48 54 63
47 53 62
40 45 52
49 55 63
40 45 51
27 32 37
33 38 44
36 40 45
55 62 72
45 51 58
50 58 67
53 59 67
44 50 57
42 46 52
55 63 72
53 59 68
43 49 57
39 44 51
59 66 76
39 45 52
39 44 51
41 46 52
49 55 63
52 59 68
45 50 57
45 50 57
56 63 72
32 34 38
43 49 57
52 59 67
41 46 53
50 55 63
47 54 63
52 59 68
57 65 76
48 54 62
48 55 63
52 59 68
58 66 77
43 49 57
40 45 52
60 67 76
55 63 73
53 61 72
47 54 62
56 63 72
51 58 67
54 62 72
49 55 63
47 54 62
47 53 62
52 58 67
49 55 63
46 51 57
49 55 62
44 50 58
51 59 68
50 56 63
46 54 63
50 55 63
42 49 57
48 54 63
56 63 73
47 52 58
52 58 67
47 54 63
55 62 72
54 62 72
50 55 63
49 55 63
48 54 62
51 58 68
42 47 52
48 55 63
47 54 62
56 63 72
53 60 68
54 60 68
57 66 77
47 54 63
63 70 80
48 55 64
52 59 69
59 66 76
43 50 58
54 62 72
58 66 76
58 64 72
51 58 67
49 55 62
52 59 67
59 67 77
59 67 76
50 58 67
52 59 68
61 69 80
56 63 72
59 67 77
50 58 68
62 70 80
58 66 76
58 66 76
60 69 80
57 65 76
57 65 76
58 66 76
43 49 57
54 62 72
58 66 76
63 71 80
59 67 77
53 60 69
55 62 72
61 69 80
50 58 68
57 65 77
61 70 80
60 69 80
50 58 67
60 67 76
57 66 76
61 70 80
59 66 76
55 62 72
55 63 72
56 65 76
58 66 76
55 63 72
51 59 69
55 62 72
55 63 72
57 64 72
59 66 76
52 59 68
63 70 80
54 62 72
60 67 76
58 66 76
56 63 72
56 63 72
54 62 72
59 66 77
57 65 76
55 63 73
61 69 80
59 66 77
60 69 80
62 70 80
60 69 80
58 66 76
57 66 76
61 69 80
60 69 80
55 63 73
61 70 80
61 70 80
57 66 76
55 62 72
55 63 73
53 62 72
63 70 80
61 69 80
61 69 80
56 65 76
59 67 76
57 66 77
58 66 76
59 67 76
62 70 80
54 62 72
61 70 80
64 71 80
59 66 77
55 62 72
57 66 77
59 67 77
61 70 80
52 59 68
62 70 80
54 62 72
58 66 76
55 63 73
53 62 72
61 69 80
61 70 80
51 58 67
61 69 80
62 70 80
60 69 80
59 67 77
60 69 80
62 70 80
58 66 76
57 66 77
57 66 76
54 62 72
57 66 77
61 69 80
60 67 77
58 66 76
56 63 72
56 65 76
59 66 77
57 65 76
62 70 80
56 63 72
61 69 80
62 70 80
61 69 80
60 67 77
52 59 67
58 66 76
62 70 80
57 66 77
58 66 77
63 70 80
56 65 77
58 66 76
59 66 76
63 70 80
58 66 77
59 66 76
59 67 77
60 69 80
62 70 80
57 66 77
59 67 77
57 66 76
60 69 80
52 59 69
60 69 80
60 69 80
61 70 80
52 59 69
58 66 76
54 62 72
59 67 76
58 66 77
51 58 67
58 66 76
58 66 76
60 67 77
55 62 72
59 67 76
60 69 80
59 66 76
62 70 80
55 62 72
61 69 80
59 67 76
60 67 77
60 67 77
55 63 73
55 62 72
58 66 76
57 63 72
50 57 67
62 70 80
56 63 72
57 66 77
56 63 72
61 68 77
54 62 72
56 63 72
54 62 73
51 58 68
58 66 77
58 66 76
58 66 76
50 58 68
52 59 68
54 62 72
52 59 68
52 59 68
55 62 72
52 59 68
59 66 77
58 66 76
60 67 77
55 62 72
41 45 52
59 66 76
55 63 73
52 59 68
58 66 76
55 62 72
51 58 67
59 67 77
62 70 80
57 66 76
56 63 72
51 58 68
51 58 68
56 63 72
41 49 58
55 62 72
50 56 63
50 56 63
47 54 63
50 58 67
60 67 76
57 63 72
39 45 53
49 57 67
52 59 67
51 58 68
48 55 63
48 54 63
56 63 72
53 59 68
51 58 67
59 66 76
51 58 67
56 63 72
48 55 63
57 63 72
53 62 72
56 63 72
52 59 68
50 58 68
58 66 76
56 63 72
56 63 72
57 66 76
55 63 72
60 67 76
45 50 57
49 55 63
53 59 67
51 58 67
50 56 63
49 55 62
52 59 68
57 64 72
49 55 63
60 67 77
52 59 68
52 59 67
45 50 57
52 59 67
52 59 67
48 54 63
57 63 72
42 49 57
40 45 52
53 59 67
52 59 67
44 50 57
50 56 63
44 50 58
39 45 53
56 63 72
35 40 46
50 56 63
48 54 63
43 49 58
48 54 62
36 40 45
33 38 44
56 63 72
51 58 67
49 55 62
48 54 63
48 54 62
28 32 37
51 58 68
53 59 67
49 55 62
49 55 62
30 33 38
29 33 38
29 32 37
43 50 58
52 58 67
44 50 57
39 44 52
45 50 57
39 44 52
45 51 57
49 55 62
46 51 57
52 59 68
39 44 52
49 55 63
56 63 72
47 54 63
36 40 46
49 55 62
39 45 52
62 70 80
51 58 68
49 54 62
36 39 44
42 49 57
52 59 67
46 51 58
39 44 51
49 55 62
44 50 58
53 59 67
40 45 52
49 55 62
49 55 62
55 62 72
52 59 68
43 49 57
49 55 63
41 46 52
55 63 72
49 56 64
44 50 58
51 58 67
48 55 63
39 44 52
47 54 62
45 50 57
54 60 68
61 67 76
44 50 58
49 55 62
47 53 62
49 55 62
51 58 68
57 63 72
52 59 68
56 63 72
41 46 52
53 59 68
48 54 62
39 44 52
44 50 57
55 62 72
40 45 52
57 63 72
51 58 67
50 56 64
44 50 58
57 63 72
42 49 57
54 60 68
52 59 68
48 54 62
42 49 57
50 56 64
50 56 64
58 66 76
50 56 63
55 62 72
48 54 63
44 50 58
52 59 68
39 44 52
48 55 63
54 60 67
51 58 68
48 54 62
48 54 63
44 50 57
45 51 58
49 55 63
48 55 63
44 51 59
57 63 72
47 52 58
54 62 72
49 55 63
48 54 63
50 58 67
59 66 76
59 69 80
49 55 63
59 67 77
44 50 57
58 66 77
58 66 76
55 63 73
54 62 72
53 62 72
44 50 57
55 63 72
52 59 68
44 50 59
57 63 72
57 64 72
49 55 63
61 69 80
56 63 72
50 58 67
57 65 76
49 55 63
48 54 62
61 69 80
50 58 68
61 67 76
57 65 76
56 63 72
52 61 72
55 62 72
48 54 63
54 62 72
49 57 68
50 56 63
62 70 80
59 66 77
58 66 77
56 63 72
53 60 68
59 67 76
59 66 76
62 70 80
54 62 72
61 70 80
58 66 77
60 67 76
59 66 76
51 58 67
54 62 72
51 58 67
57 65 76
64 71 80
54 60 68
62 70 80
54 62 72
56 63 72
57 65 76
55 63 72
58 66 76
53 61 72
47 54 63
57 66 76
57 65 76
54 62 73
57 65 76
57 66 77
59 67 77
57 66 76
56 63 72
57 65 76
62 70 80
57 65 76
61 69 80
60 69 80
59 66 76
59 67 77
62 70 80
59 67 77
51 58 67
55 63 72
61 70 80
59 69 80
59 68 80
55 62 72
59 67 77
59 67 77
58 66 76
58 66 76
61 69 80
58 66 77
58 66 76
61 69 80
60 69 80
62 70 80
55 63 72
63 70 80
61 70 80
53 61 72
60 69 80
58 66 77
59 67 76
58 66 76
62 70 80
62 70 80
60 69 80
62 70 80
58 68 80
60 69 80
57 66 76
58 66 77
60 67 76
58 66 76
55 62 72
60 69 80
61 69 80
60 67 76
62 70 80
57 66 77
58 66 77
59 67 77
61 69 80
57 65 76
59 69 80
63 70 80
59 67 77
62 70 80
58 66 76
63 70 80
58 64 73
57 66 76
62 70 80
57 66 77
59 67 77
62 70 80
57 65 76
55 63 72
55 63 72
58 66 76
60 69 80
55 63 72
58 66 77
58 66 76
57 66 76
59 67 76
54 62 72
60 69 80
58 66 76
62 70 80
61 69 80
58 66 76
62 70 80
57 66 77
55 63 73
60 69 80
62 70 80
58 66 77
61 68 77
57 66 77
59 67 77
59 66 77
55 62 72
58 66 77
53 61 72
60 69 80
60 69 80
48 54 63
58 66 76
60 69 80
58 66 76
56 63 72
60 69 80
59 66 76
58 66 76
59 66 77
55 62 72
56 65 76
62 70 80
58 66 76
62 70 80
54 62 72
59 66 76
57 65 76
60 69 80
54 62 72
55 63 72
59 67 77
55 63 72
47 54 63
35 40 46
62 70 80
62 70 80
55 62 72
56 63 72
53 62 72
63 71 80
60 67 76
59 67 77
51 58 67
58 66 77
52 59 68
59 68 80
55 62 72
53 61 72
54 62 72
49 57 68
47 54 63
52 59 68
54 62 72
57 66 77
58 66 76
52 59 68
48 54 62
58 66 77
52 59 68
54 62 72
59 67 77
52 59 68
51 59 68
48 54 62
58 66 77
53 59 68
54 62 72
53 59 68
43 49 58
52 59 68
52 59 69
59 66 76
55 62 72
55 62 72
48 54 63
48 54 63
48 55 63
39 44 51
54 62 72
52 59 68
48 55 63
52 59 68
52 59 68
48 55 63
56 63 72
51 58 67
51 58 68
55 63 72
56 63 72
51 58 67
59 66 76
54 60 68
56 63 72
46 53 63
52 59 68
36 40 46
39 45 52
55 63 72
45 50 57
56 63 72
50 56 63
53 59 68
46 53 62
48 55 63
57 66 77
54 62 72
50 56 62
57 64 73
49 55 63
37 43 51
45 51 58
48 54 63
45 50 58
34 39 46
40 45 52
31 34 39
40 45 51
55 62 72
54 60 67
35 39 46
50 55 62
47 54 62
51 59 68
33 38 44
44 51 58
52 59 67
55 62 72
57 64 73
47 54 62
44 50 57
53 59 67
52 59 67
42 46 53
50 58 67
54 60 67
41 45 51
48 55 63
28 33 38
43 49 57
45 51 58
51 58 67
41 45 52
48 54 62
47 54 63
51 58 67
49 54 62
53 60 68
52 59 68
44 49 57
48 54 63
43 49 57
40 46 53
48 54 63
41 45 52
38 44 52
42 46 51
39 45 52
53 59 67
36 41 46
52 59 67
43 49 57
35 40 46
47 54 63
47 54 62
43 50 58
60 67 76
49 55 63
40 45 52
34 39 45
40 45 52
53 59 67
50 58 67
49 55 63
52 58 67
41 45 52
48 54 62
36 40 45
28 31 36
34 39 45
55 62 72
49 55 62
38 44 51
45 50 57
48 55 63
57 64 72
48 55 63
48 54 62
44 50 57
46 53 62
51 58 67
49 55 63
43 49 57
40 45 52
49 55 63
50 55 63
51 58 68
46 51 57
50 58 67
52 58 67
47 54 62
51 58 68
35 39 45
54 60 68
49 55 62
43 49 58
52 59 68
39 44 51
45 50 58
47 54 63
47 54 62
44 50 57
52 59 68
51 58 67
49 55 63
54 62 72
39 45 52
50 57 67
39 44 51
41 46 52
49 55 63
51 58 67
55 62 72
54 62 72
46 51 58
47 54 63
46 54 63
45 51 58
51 58 68
55 63 72
56 63 72
57 66 76
50 58 67
56 63 72
49 55 63
51 58 67
52 59 68
58 66 76
56 63 73
51 58 67
58 66 76
57 64 72
54 62 72
57 64 72
39 44 52
55 62 72
61 69 80
52 59 68
56 63 72
54 62 72
48 54 63
48 54 63
49 55 63
55 62 72
55 63 72
54 62 72
54 62 72
55 63 72
51 59 69
49 55 62
51 58 67
47 54 63
60 69 80
56 65 76
51 58 67
55 62 72
62 70 80
61 70 80
64 71 80
47 54 63
53 60 68
56 63 72
46 52 60
58 66 76
59 67 76
60 69 80
56 63 72
52 59 68
62 70 80
54 62 72
58 66 77
59 66 76
53 60 69
55 62 72
61 69 80
57 66 76
62 70 80
58 66 77
52 59 69
54 60 68
61 69 80
57 65 76
56 63 72
59 67 76
55 62 72
61 70 80
54 62 72
63 70 80
50 58 68
60 67 77
46 51 59
48 55 63
62 70 80
63 71 80
62 70 80
60 69 80
58 64 72
60 69 80
54 62 72
62 70 80
59 67 76
58 64 72
62 70 80
59 67 77
59 66 77
59 69 80
57 66 76
56 63 72
54 62 72
48 55 63
58 66 76
57 66 76
59 67 76
59 66 76
60 67 77
58 66 77
61 70 80
58 66 76
55 63 73
62 70 80
53 61 72
59 67 76
61 69 80
58 66 77
59 69 80
58 66 76
57 65 77
59 66 76
57 65 76
61 69 80
58 66 76
62 70 80
59 67 77
61 70 80
60 67 77
53 62 73
60 67 77
58 66 77
62 70 80
58 66 76
61 69 80
61 69 80
56 63 72
61 69 80
60 67 76
58 66 76
56 63 72
62 70 80
61 69 80
57 66 77
60 67 76
60 69 80
56 63 73
60 69 80
61 69 80
62 70 80
55 63 72
61 70 80
60 69 80
55 63 72
63 71 80
60 69 80
59 69 80
63 70 80
61 69 80
60 67 77
54 62 72
59 69 80
62 70 80
58 66 76
60 69 80
58 66 77
58 66 76
59 67 77
62 70 80
57 66 76
57 66 77
56 63 73
58 66 76
56 63 72
61 70 80
59 66 77
56 63 72
61 70 80
61 70 80
56 63 73
58 66 76
55 63 72
55 62 72
60 69 80
61 70 80
57 66 76
55 63 73
52 59 68
57 66 76
61 69 80
62 70 80
56 63 72
62 70 80
60 69 80
59 66 76
54 62 72
56 63 73
62 70 80
63 70 80
56 63 73
50 58 67
54 62 72
56 63 73
56 63 72
62 70 80
49 55 64
61 68 77
60 69 80
58 66 76
48 54 63
54 62 72
56 63 72
61 69 80
57 66 77
54 62 72
51 58 68
61 70 80
62 70 80
59 67 77
62 70 80
53 59 68
61 70 80
55 62 72
57 66 77
55 62 72
53 59 68
58 66 77
58 66 76
55 63 72
47 54 63
57 66 77
61 69 80
48 54 62
57 65 76
59 67 77
52 59 68
50 58 68
56 63 72
59 67 76
61 70 80
55 62 72
59 66 76
52 59 68
55 62 72
57 63 72
53 62 72
60 69 80
58 66 76
57 66 77
52 58 67
56 63 72
61 69 80
48 55 63
52 59 68
54 60 68
55 63 72
51 58 67
58 66 77
55 62 72
51 58 68
57 64 73
50 58 68
49 55 63
55 62 72
50 58 68
57 63 72
53 59 67
48 54 63
58 64 72
47 53 62
51 58 68
59 69 80
56 63 72
45 51 58
45 50 57
48 54 63
43 49 57
46 54 63
47 54 62
58 64 73
49 55 63
45 50 57
44 50 57
52 58 67
55 63 72
42 47 53
49 55 63
45 51 58
60 67 76
54 62 72
59 67 76
48 54 62
50 56 63
43 49 57
48 54 62
52 59 68
33 38 45
44 49 57
47 54 63
52 59 68
44 50 57
29 32 37
44 49 57
44 50 57
38 44 51
50 58 67
59 67 76
50 56 63
52 59 68
50 55 62
48 54 63
46 51 57
53 59 68
49 55 64
45 50 58
39 45 52
51 58 68
46 51 57
45 51 58
49 55 62
43 49 57
56 63 72
47 54 62
47 54 62
56 63 72
48 54 62
43 49 57
57 64 73
41 46 52
45 50 57
45 50 57
45 50 58
44 50 57
39 45 52
56 63 72
42 46 53
52 59 67
48 54 63
39 44 51
50 55 63
28 32 36
33 38 45
48 54 62
57 63 72
51 58 67
44 49 57
45 50 57
39 44 51
48 54 63
50 55 62
35 40 46
42 46 52
49 55 64
52 59 68
46 51 57
42 46 51
47 51 57
58 66 76
40 45 51
52 59 67
49 55 63
42 46 53
54 62 72
55 63 72
52 59 67
33 38 44
50 58 67
40 45 51
60 67 77
41 46 52
52 59 68
52 59 67
47 54 63
57 66 76
55 62 72
57 64 72
51 59 68
51 58 67
60 67 76
57 64 72
55 62 72
36 40 45
51 58 68
55 60 68
38 44 52
45 51 57
51 59 68
56 63 72
57 64 72
44 50 57
47 53 62
58 66 76
47 54 63
49 55 63
40 46 53
55 62 72
45 51 58
52 59 68
53 59 67
49 55 62
40 45 52
56 63 72
49 57 67
47 54 63
45 51 57
49 55 63
53 60 68
51 59 68
50 58 68
50 58 68
53 59 67
55 62 72
39 45 52
54 62 72
47 54 62
54 60 68
59 67 76
52 59 67
49 55 63
51 58 67
35 39 44
56 63 72
40 45 52
55 62 72
54 62 72
54 62 72
61 67 76
54 60 68
51 58 67
52 59 68
58 66 76
46 51 58
52 59 68
43 50 57
59 66 76
52 59 68
61 70 80
55 63 72
48 54 63
58 66 76
57 66 76
56 63 72
57 63 72
59 66 76
50 58 68
59 66 77
58 66 76
56 63 72
63 71 80
57 65 77
60 69 80
55 62 72
51 58 68
55 63 72
61 67 76
58 66 76
57 63 72
53 59 68
57 66 77
51 58 68
59 67 76
50 58 67
55 62 72
55 63 72
57 65 76
58 66 76
54 62 73
58 66 77
50 58 68
58 66 77
50 58 68
60 69 80
60 67 77
63 70 80
52 59 67
59 67 76
58 66 77
57 66 76
58 66 77
58 64 72
54 62 72
57 65 76
57 66 76
57 65 76
56 63 72
61 69 80
54 62 72
63 70 80
58 66 76
51 58 67
59 66 76
50 58 68
62 70 80
61 70 80
57 66 76
62 70 80
58 66 77
48 55 64
61 70 80
61 70 80
60 69 80
55 62 72
61 70 80
58 66 76
54 62 72
62 70 80
54 62 72
58 66 76
57 64 72
58 66 77
58 66 76
57 65 76
58 66 77
61 69 80
55 63 72
58 66 76
48 54 63
56 63 73
58 66 76
62 70 80
58 66 76
53 61 72
52 59 67
57 64 73
61 69 80
49 57 68
62 70 80
62 70 80
55 62 72
56 63 72
61 70 80
60 69 80
57 66 76
58 66 77
57 66 76
63 71 80
62 70 80
62 70 80
62 70 80
58 66 76
59 67 77
57 65 76
59 68 80
58 66 76
63 70 80
61 69 80
51 58 68
61 70 80
55 62 72
58 66 77
58 66 76
53 61 72
61 69 80
53 61 72
55 63 73
63 71 80
60 67 77
56 63 72
59 67 77
62 70 80
62 70 80
65 71 80
50 58 67
56 63 72
61 70 80
59 68 80
57 66 76
62 70 80
62 70 80
61 69 80
60 69 80
56 65 77
59 67 76
63 70 80
60 69 80
58 66 76
54 62 72
58 66 77
62 70 80
61 69 80
58 66 77
58 66 76
63 70 80
58 66 76
54 62 72
58 66 76
52 59 68
61 69 80
60 69 80
54 62 72
63 70 80
54 62 72
56 63 73
57 65 76
47 54 63
61 70 80
55 62 72
60 67 77
54 62 72
54 62 72
58 66 76
58 66 76
55 63 72
59 67 77
51 58 68
58 66 76
61 69 80
58 66 76
58 66 77
57 64 72
56 65 76
52 59 68
59 66 77
54 62 72
47 54 62
54 62 72
60 69 80
53 61 72
57 65 77
57 65 76
59 67 76
61 70 80
62 70 80
59 67 76
55 62 72
52 59 67
61 69 80
63 70 80
50 58 67
54 62 73
52 59 68
61 70 80
54 62 72
59 69 80
54 62 72
55 62 72
51 58 67
54 62 72
45 51 58
52 59 69
57 66 76
56 63 72
56 63 72
53 60 68
62 70 80
60 69 80
53 59 67
62 70 80
53 61 72
56 63 72
53 60 68
56 63 72
61 70 80
54 62 72
50 58 68
39 44 52
43 50 57
57 65 77
60 69 80
47 54 63
52 59 68
49 55 64
54 60 68
56 65 76
56 63 72
59 67 77
48 54 63
56 63 72
61 69 80
35 40 46
46 53 63
56 63 72
46 51 58
55 62 72
56 63 72
60 67 76
45 53 62
51 58 67
55 60 68
50 55 63
44 50 58
52 59 68
52 59 67
48 55 63
51 58 68
54 60 69
53 59 68
51 58 68
48 54 63
48 54 63
52 58 67
53 59 68
59 66 77
48 54 63
47 54 63
35 40 46
48 55 63
50 55 63
56 63 72
44 50 58
55 63 72
41 46 52
53 59 68
44 50 58
58 66 76
53 59 67
52 59 68
57 64 72
52 59 68
55 63 72
57 63 72
44 50 57
62 70 80
41 46 52
50 58 67
44 50 57
52 59 68
52 59 68
44 50 57
53 59 67
47 51 57
46 51 57
50 57 67
54 62 72
44 50 57
57 63 72
49 55 63
35 39 45
36 40 46
43 49 57
30 34 39
45 50 57
45 51 58
48 55 63
47 51 57
48 54 63
49 55 63
51 58 67
41 46 52
48 54 62
39 44 51
48 54 62
39 44 51
47 54 62
48 54 63
42 49 57
33 38 44
50 55 63
57 64 72
61 67 77
54 60 68
50 55 62
44 49 57
45 51 58
39 44 51
49 55 63
34 38 44
48 54 63
53 59 67
44 50 57
53 59 68
47 54 63
48 55 63
53 59 68
36 40 46
45 50 57
39 44 52
48 54 63
50 58 67
38 44 51
55 62 72
54 60 68
40 45 52
49 55 62
34 39 46
40 45 52
59 66 76
33 39 46
46 51 58
57 63 72
43 50 58
37 41 47
43 49 57
48 54 62
34 39 45
52 59 67
44 50 57
52 59 67
48 54 63
52 59 68
46 53 62
52 59 68
48 54 63
43 49 58
56 63 72
49 55 63
44 50 57
59 67 76
51 58 67
48 54 63
53 59 68
45 50 57
41 46 52
41 46 52
54 62 72
56 63 72
58 66 76
47 54 63
56 63 72
57 64 72
49 55 63
56 63 72
56 63 72
57 65 76
52 59 68
59 66 76
60 67 76
58 66 76
49 55 63
54 60 68
55 62 72
58 66 76
54 62 72
56 63 72
49 55 64
51 58 67
46 53 63
43 49 57
58 66 76
58 66 77
55 63 72
45 50 57
54 62 72
57 64 72
58 66 76
55 62 72
54 62 72
61 68 77
56 63 72
53 61 72
52 58 67
55 62 72
49 56 64
56 63 72
56 63 72
53 59 68
59 66 77
59 66 76
43 50 58
56 63 73
50 55 63
58 66 76
58 66 76
53 59 68
59 67 77
55 63 72
59 66 76
52 59 68
60 69 80
52 59 68
57 66 76
58 66 76
53 59 68
58 66 76
54 62 72
57 66 77
56 65 76
57 65 76
60 69 80
57 65 76
58 66 76
61 69 80
55 63 72
61 69 80
62 70 80
40 46 53
55 62 72
62 70 80
52 59 68
57 66 76
51 58 68
51 58 67
59 67 76
54 62 72
63 70 80
58 66 77
60 67 76
56 63 72
61 70 80
54 62 72
54 62 72
60 67 76
62 70 80
54 62 72
61 70 80
51 58 67
54 62 72
55 63 72
59 66 76
60 69 80
59 68 80
55 62 72
58 66 76
58 66 76
58 66 76
53 61 72
61 70 80
57 66 76
59 67 76
55 62 72
59 67 77
60 67 76
60 69 80
52 59 68
54 62 72
61 70 80
55 62 72
58 66 76
55 62 72
60 69 80
58 66 77
62 70 80
61 69 80
58 66 77
59 67 77
60 69 80
61 69 80
63 71 80
58 66 76
61 69 80
59 66 76
59 67 77
62 70 80
58 66 76
62 70 80
61 70 80
63 70 80
60 67 76
61 69 80
57 65 76
61 69 80
62 70 80
60 69 80
61 69 80
61 70 80
63 71 80
60 69 80
54 62 72
61 69 80
54 62 72
51 58 67
58 66 76
59 67 77
60 69 80
63 70 80
61 69 80
61 69 80
57 66 76
62 70 80
58 66 76
60 69 80
61 69 80
55 63 72
61 70 80
61 69 80
58 66 77
59 67 77
50 58 67
61 69 80
60 67 76
61 70 80
54 62 72
59 67 76
58 66 76
61 69 80
62 70 80
57 65 76
54 62 72
59 67 76
58 66 77
57 65 76
60 69 80
59 66 76
62 70 80
58 66 76
53 59 68
57 66 77
58 66 76
62 70 80
62 70 80
57 66 77
48 54 63
58 66 77
58 66 77
53 62 72
63 70 80
57 65 76
60 67 77
54 62 72
56 63 72
57 66 76
58 66 76
54 62 72
58 66 76
58 66 76
62 70 80
57 66 77
61 69 80
58 66 76
60 67 77
61 70 80
56 65 76
55 62 72
61 70 80
61 69 80
59 66 77
56 65 76
61 70 80
54 62 72
52 59 68
55 63 72
51 58 67
57 65 76
55 63 72
56 65 76
55 62 72
56 65 76
57 65 76
58 66 76
53 59 68
54 62 73
55 63 72
57 65 76
61 69 80
56 63 72
55 62 72
56 65 76
46 53 63
54 62 72
51 56 63
52 59 67
46 54 63
58 66 76
57 65 76
55 63 72
57 66 76
54 62 72
51 59 68
55 62 72
56 63 72
54 60 68
48 55 63
55 62 72
60 67 76
52 59 68
55 63 72
54 62 72
51 58 67
55 63 73
58 66 76
43 50 58
56 65 76
52 59 68
56 63 72
50 58 68
48 55 64
57 63 72
56 63 72
52 59 67
60 67 76
64 71 80
44 50 57
58 66 76
51 58 68
54 62 72
51 58 68
44 50 57
52 58 67
56 63 72
51 58 67
56 63 72
43 49 57
58 66 77
39 44 51
54 62 72
48 54 62
34 39 46
48 54 63
55 62 72
56 63 72
60 67 77
51 58 67
42 49 57
54 62 72
62 70 80
50 56 63
53 60 68
52 58 67
45 51 58
60 67 76
41 46 53
49 55 62
51 58 68
55 60 68
60 67 76
48 55 63
56 63 72
39 44 51
44 50 58
51 58 68
46 51 58
53 59 67
48 54 62
41 46 53
49 55 63
48 54 62
45 50 57
54 62 72
48 55 63
28 32 37
47 51 58
52 59 68
52 59 67
48 54 62
52 59 67
44 50 57
45 51 58
39 44 51
52 59 67
29 33 37
44 50 57
50 58 67
45 51 58
47 54 63
44 50 58
40 46 53
36 40 45
39 45 52
52 59 67
36 40 46
58 66 76
47 54 62
49 55 63
45 50 57
54 60 68
34 40 46
44 50 57
48 54 62
34 39 44
46 51 58
41 46 52
48 54 62
35 40 46
52 59 67
46 53 63
59 66 76
34 39 45
52 59 67
41 46 53
40 45 52
53 59 67
47 54 62
47 54 62
52 59 68
51 58 67
49 55 62
55 62 72
56 63 72
51 58 67
55 63 72
51 56 62
39 44 51
53 59 68
53 60 68
52 59 68
50 58 67
38 43 51
44 50 57
42 46 52
44 50 58
43 47 52
45 50 57
47 54 62
35 39 45
47 54 63
44 50 57
55 63 72
44 50 57
47 54 62
56 63 72
43 49 57
52 59 68
53 60 68
47 52 58
53 59 67
52 58 67
49 55 63
50 57 67
47 54 62
40 45 52
44 49 57
39 44 52
45 51 58
41 46 52
52 57 63
56 63 72
45 50 58
43 49 57
56 63 72
53 61 72
49 56 64
59 67 77
48 54 62
52 59 68
48 55 63
56 63 72
50 58 68
57 66 77
62 70 80
53 60 68
46 53 63
56 65 76
52 59 68
47 54 62
58 66 76
58 66 76
56 63 73
55 62 72
63 70 80
54 62 72
58 66 76
56 63 72
54 62 72
54 62 72
48 55 63
61 69 80
51 58 68
51 58 68
55 63 72
62 70 80
44 50 58
54 62 72
59 67 77
52 59 67
59 66 76
61 68 77
59 67 77
56 63 72
47 54 63
58 66 76
51 59 68
52 59 68
57 65 76
54 62 72
44 50 57
59 67 77
57 63 72
58 66 77
56 65 76
59 68 80
56 63 72
44 50 57
56 63 72
55 62 72
59 66 76
60 69 80
61 69 80
54 62 72
61 68 77
57 66 76
59 66 76
59 66 76
58 66 76
47 54 62
61 69 80
58 66 76
46 54 63
58 66 76
61 69 80
58 66 77
53 61 72
57 66 77
60 67 76
59 66 77
59 66 76
58 66 77
59 66 77
57 66 77
60 69 80
58 66 77
57 65 76
56 63 72
59 66 76
56 63 72
60 67 76
56 63 73
59 67 77
56 63 72
59 67 77
55 63 73
60 67 77
58 66 77
60 69 80
57 66 76
60 69 80
49 58 68
56 63 73
59 66 76
58 64 72
57 65 76
54 62 72
61 70 80
60 69 80
62 70 80
58 66 77
60 69 80
52 59 68
58 66 76
61 70 80
61 69 80
62 70 80
57 65 76
60 69 80
61 69 80
62 70 80
58 66 77
60 69 80
62 70 80
56 63 72
59 68 80
51 58 68
61 69 80
57 66 76
62 70 80
64 71 80
58 66 76
55 62 72
61 69 80
58 66 76
59 67 77
59 66 76
62 70 80
62 70 80
62 70 80
57 65 76
50 58 68
57 66 77
59 68 80
58 66 76
57 65 76
60 69 80
61 69 80
54 62 72
57 65 76
58 66 76
58 66 77
62 70 80
58 66 77
63 70 80
59 66 77
57 66 77
55 63 73
61 69 80
57 65 76
60 69 80
58 66 76
62 70 80
59 67 77
51 59 68
62 70 80
59 68 80
54 62 72
47 54 63
59 66 77
59 67 76
56 65 76
49 55 63
58 66 77
59 67 77
62 70 80
51 58 67
61 69 80
60 69 80
58 66 76
52 59 67
57 66 76
54 60 69
55 63 73
61 69 80
57 65 77
56 63 72
58 66 77
62 70 80
62 70 80
58 66 76
61 69 80
60 69 80
59 67 77
61 68 77
57 65 76
54 60 68
56 63 72
61 70 80
52 59 68
38 44 52
61 69 80
55 62 72
52 59 68
47 54 63
63 70 80
60 69 80
59 66 77
61 69 80
61 69 80
57 66 76
59 66 76
53 62 72
61 70 80
60 69 80
54 62 72
50 58 67
61 69 80
57 66 77
49 55 63
57 66 77
58 66 77
62 70 80
59 67 76
47 54 63
58 66 76
54 62 72
58 66 77
61 70 80
58 66 76
60 69 80
52 59 68
58 66 76
61 70 80
46 54 63
57 64 73
55 63 72
56 63 72
52 59 68
49 55 63
56 63 72
54 62 72
52 58 67
54 62 73
55 63 73
55 62 72
56 65 76
55 63 72
54 62 72
57 65 76
59 67 76
57 66 76
48 54 63
43 50 57
50 58 67
55 63 72
51 58 68
48 54 62
61 69 80
60 67 76
53 59 67
55 62 72
56 63 72
37 43 51
54 62 72
57 66 76
55 62 72
60 69 80
48 54 62
57 66 76
51 59 68
55 63 72
44 50 57
48 54 62
56 63 72
48 55 63
48 54 63
44 50 57
54 62 72
52 59 67
43 49 57
55 62 72
45 50 57
52 59 68
49 55 63
47 54 63
54 60 68
60 67 76
58 64 72
50 57 67
49 55 63
46 52 59
41 45 52
56 63 72
51 58 67
47 54 63
38 44 51
47 54 63
53 59 68
52 59 69
53 60 68
34 39 45
52 59 68
55 62 72
52 59 68
49 55 62
48 54 62
52 59 68
51 56 63
48 55 63
47 51 57
48 54 62
54 62 72
53 60 68
49 55 63
46 53 62
39 44 51
40 44 51
52 59 68
49 55 63
40 45 51
44 50 58
45 51 57
48 55 63
54 60 68
48 54 63
56 63 72
59 67 76
56 63 72
49 55 62
42 46 52
52 59 68
44 50 57
45 51 58
49 55 62
46 51 58
45 50 57
56 63 72
40 45 51
38 44 52
45 51 58
46 51 57
49 55 63
46 50 57
41 46 52
52 59 68
48 54 62
40 45 52
54 60 68
48 54 62
40 45 52
47 53 62
44 50 57
48 54 63
36 41 46
54 60 69
47 53 62
46 51 58
35 40 46
54 60 68
48 54 63
49 55 63
47 51 58
45 50 57
37 41 47
51 57 64
49 55 63
43 49 57
37 41 46
41 45 51
48 54 62
46 52 58
44 50 58
48 54 63
47 54 62
35 40 45
33 38 44
44 49 57
53 59 68
45 50 57
61 67 77
49 55 63
43 49 57
49 55 62
44 50 58
42 49 57
48 54 63
51 58 67
44 50 57
40 45 52
45 51 58
49 55 63
52 59 67
41 45 52
50 58 67
58 66 77
43 49 57
44 50 57
48 54 62
51 58 67
57 66 76
45 51 59
56 63 72
53 62 73
59 66 77
58 66 76
55 62 72
57 63 72
43 50 58
53 59 68
47 53 62
59 66 76
60 67 76
53 59 68
55 62 72
59 66 76
45 51 58
57 64 72
56 63 72
54 60 68
60 69 80
43 50 58
56 63 72
54 62 72
57 64 72
40 45 52
60 69 80
48 54 62
59 66 76
59 66 76
59 66 76
54 62 73
50 58 68
53 59 68
52 58 67
49 55 63
54 62 72
56 63 72
61 68 77
51 58 68
55 62 73
58 66 76
55 62 72
60 69 80
52 59 68
48 55 63
63 71 80
57 63 72
52 59 68
55 63 72
60 67 77
54 62 72
55 63 73
63 70 80
55 62 72
55 63 73
50 57 67
57 66 77
53 59 68
59 66 76
55 63 73
62 70 80
54 62 72
55 63 72
48 55 63
50 58 67
58 66 76
58 66 76
52 59 68
62 70 80
60 69 80
58 66 76
56 63 72
55 63 73
57 65 77
61 69 80
58 66 76
57 66 77
57 66 77
61 69 80
63 70 80
64 71 80
58 66 76
54 62 72
61 69 80
55 62 72
58 66 76
52 59 68
62 70 80
52 59 68
61 69 80
52 59 68
55 62 72
54 62 72
58 66 76
62 70 80
50 58 68
58 66 76
58 66 77
61 69 80
56 65 76
58 66 77
57 66 76
59 69 80
58 66 77
59 66 76
58 66 77
57 66 76
56 65 76
61 70 80
55 62 72
50 58 68
61 70 80
53 59 68
59 67 77
59 66 76
52 59 68
62 70 80
61 70 80
63 71 80
60 69 80
58 66 76
61 69 80
60 67 77
61 70 80
59 67 77
62 70 80
58 66 77
59 67 77
60 69 80
60 69 80
60 69 80
55 65 76
59 66 76
57 66 77
62 70 80
59 67 77
56 65 77
58 66 77
55 63 72
62 70 80
59 66 76
61 70 80
58 66 77
59 66 77
61 69 80
61 69 80
56 63 73
62 70 80
49 55 63
55 62 72
57 66 76
59 67 77
61 69 80
58 66 77
56 65 76
58 66 76
63 70 80
61 69 80
55 63 72
60 69 80
59 66 77
59 67 76
57 66 77
59 67 77
57 66 76
59 67 77
59 66 76
56 63 72
54 62 72
60 69 80
58 66 76
63 70 80
61 69 80
52 59 68
58 66 76
61 70 80
47 54 63
62 70 80
61 70 80
58 66 77
61 69 80
55 62 72
63 71 80
59 66 77
55 63 73
58 66 77
58 66 77
61 70 80
53 61 72
62 70 80
60 67 76
55 63 72
56 63 72
56 63 72
57 66 76
54 62 72
55 62 72
61 70 80
58 66 76
46 53 63
57 65 76
59 67 76
58 66 77
57 64 73
57 66 76
50 56 63
57 65 76
59 67 76
56 63 73
63 70 80
57 65 76
58 66 77
47 54 63
48 54 63
58 66 76
55 62 72
58 66 76
55 63 72
54 60 68
56 63 73
56 63 72
53 60 68
60 69 80
62 70 80
53 61 72
58 66 76
51 58 68
54 62 72
47 54 63
58 66 76
58 66 77
59 66 76
54 62 72
56 63 72
54 62 72
58 66 77
55 62 72
56 65 76
60 67 77
56 63 72
52 59 68
43 49 57
55 62 72
52 59 68
61 69 80
54 62 72
56 63 73
55 62 72
54 62 72
48 54 62
54 62 72
52 59 68
56 63 72
59 67 76
56 63 72
49 55 63
57 63 72
58 66 76
52 59 67
58 66 76
55 62 72
51 58 67
58 66 76
55 62 72
44 50 57
55 62 72
60 67 76
51 59 68
56 63 72
52 59 68
55 63 73
57 63 72
61 69 80
47 51 57
54 62 72
54 62 72
60 67 76
41 46 52
43 47 53
44 50 57
54 62 72
37 43 51
44 50 58
52 58 67
44 50 57
60 69 80
62 70 80
60 69 80
48 54 63
39 44 51
45 51 58
41 45 51
49 55 63
48 55 63
39 45 52
53 59 68
56 63 72
42 49 57
44 50 57
40 45 51
55 63 72
44 50 58
42 49 58
40 45 51
47 54 63
42 49 57
41 45 52
40 45 51
43 49 57
60 67 76
45 50 58
51 58 67
48 54 63
48 54 62
39 44 51
49 55 62
44 50 57
56 63 72
51 58 67
55 62 72
52 59 67
46 50 57
49 55 63
53 59 68
60 67 76
52 59 67
51 58 68
43 49 57
54 59 67
44 50 57
49 55 63
53 59 67
47 54 62
52 59 67
41 45 51
47 54 62
44 50 58
47 54 62
46 51 58
47 54 62
54 60 68
54 62 72
46 51 57
46 53 62
48 54 63
51 58 68
41 45 51
55 62 72
44 50 57
60 67 76
41 45 51
43 49 57
47 54 62
40 45 52
44 50 57
39 45 52
49 55 63
51 58 68
44 50 57
58 66 76
53 59 68
49 55 63
63 70 80
40 45 51
56 63 73
58 66 76
43 49 57
50 58 68
29 32 37
50 56 63
55 62 72
43 49 57
52 59 68
48 54 63
50 58 67
52 59 67
47 54 63
52 59 67
46 51 58
60 67 76
60 67 77
43 49 57
48 54 62
52 59 68
50 56 63
48 55 64
55 62 72
60 67 76
49 57 67
51 58 67
47 54 62
58 66 76
54 62 72
49 55 63
48 54 62
48 54 63
55 62 72
48 54 62
58 66 76
53 59 68
43 50 58
46 54 63
58 66 76
55 63 72
51 58 67
61 69 80
53 59 68
58 66 77
53 59 67
59 67 76
47 53 62
52 59 68
59 66 76
45 50 57
56 63 72
46 51 57
56 63 72
54 62 73
49 55 63
62 70 80
56 65 76
53 59 67
49 55 63
57 64 73
50 57 67
51 58 67
57 63 72
58 66 77
55 63 72
51 59 68
55 62 72
50 58 68
52 58 67
57 64 72
51 58 67
50 56 63
52 59 68
55 62 72
51 58 68
50 57 67
52 59 67
55 62 72
50 58 67
53 62 72
57 63 72
59 67 76
58 66 76
59 67 77
56 63 72
58 66 76
61 70 80
54 62 72
60 69 80
58 66 77
58 66 77
52 59 68
49 56 64
55 62 72
53 59 68
64 71 80
58 66 77
61 69 80
56 65 76
55 63 72
61 69 80
57 65 76
61 69 80
58 66 77
61 69 80
55 63 72
55 63 72
56 63 72
58 66 76
51 58 67
57 66 77
62 70 80
57 65 76
57 65 76
55 63 72
48 55 63
58 66 77
62 70 80
58 66 76
61 69 80
61 69 80
52 59 68
54 62 72
59 66 76
56 65 77
53 62 72
62 70 80
60 69 80
63 71 80
55 62 72
60 69 80
63 70 80
61 69 80
59 67 77
55 63 72
60 69 80
59 66 76
52 59 68
58 66 77
62 70 80
62 70 80
56 63 72
60 69 80
57 66 76
60 69 80
53 60 68
59 66 77
58 66 76
62 70 80
60 69 80
55 62 72
61 67 76
58 66 76
59 67 77
57 66 77
62 70 80
60 69 80
61 69 80
52 59 68
57 65 76
62 70 80
58 66 76
56 63 72
62 70 80
61 70 80
58 64 73
62 70 80
59 67 77
57 65 76
60 67 76
57 65 76
59 67 77
61 69 80
60 67 77
61 69 80
59 67 77
60 69 80
60 69 80
55 62 72
60 69 80
60 69 80
61 70 80
60 69 80
61 69 80
60 69 80
58 66 77
62 70 80
63 70 80
59 67 77
60 69 80
62 70 80
55 62 72
55 63 72
60 69 80
62 70 80
61 70 80
56 63 72
60 69 80
62 70 80
59 67 77
62 70 80
60 67 76
60 67 77
61 69 80
54 62 72
62 70 80
61 69 80
61 70 80
58 66 76
56 63 72
58 66 77
56 63 72
50 58 68
61 69 80
59 66 76
54 62 72
61 69 80
61 70 80
58 66 76
52 59 68
56 63 72
58 66 76
58 66 76
60 69 80
49 55 64
47 54 63
62 70 80
59 66 76
59 67 77
61 69 80
58 66 77
54 62 72
63 70 80
60 69 80
54 62 72
62 70 80
59 67 77
59 69 80
57 66 77
57 65 76
61 69 80
50 56 64
57 66 77
60 67 76
55 63 72
47 54 62
60 67 77
47 54 63
60 67 76
50 56 64
61 69 80
51 58 68
59 67 77
54 62 72
55 63 72
60 69 80
59 66 77
49 54 62
59 66 76
53 60 68
55 62 72
57 63 72
61 69 80
54 62 72
61 70 80
58 66 77
59 67 77
56 63 72
55 62 72
53 59 68
55 62 72
44 50 58
57 66 76
57 66 76
58 66 76
55 62 72
59 66 76
51 58 68
48 54 62
53 62 72
59 66 76
43 49 58
53 59 68
64 71 80
57 66 77
53 60 68
55 62 72
46 51 57
51 58 68
52 59 68
56 63 72
48 54 62
35 39 45
49 55 63
59 66 76
53 59 67
53 59 67
48 54 62
60 69 80
39 44 52
62 70 80
48 54 63
47 54 63
51 58 68
48 54 62
57 64 72
59 66 76
53 59 67
48 54 63
49 55 64
48 55 63
34 39 45
56 63 72
48 55 63
58 66 76
44 50 59
49 55 63
52 59 68
51 58 68
60 67 76
45 50 57
49 55 63
47 54 63
51 58 68
40 45 52
53 59 68
60 67 76
53 59 68
43 49 57
44 50 57
48 54 63
51 58 67
50 58 67
45 50 57
49 55 63
34 39 46
47 54 63
49 55 62
39 44 51
52 59 67
47 54 63
38 44 51
43 49 58
45 51 58
52 59 67
59 67 77
55 60 68
39 44 52
44 50 57
56 63 72
49 55 62
46 51 58
58 64 72
53 59 67
52 59 67
45 50 57
43 50 58
53 59 67
55 62 72
52 59 67
45 50 57
47 54 62
35 40 46
58 64 73
40 46 53
39 44 51
40 45 52
56 63 72
45 50 57
43 49 57
55 62 72
44 50 57
42 46 52
53 59 67
40 45 51
44 50 58
28 32 37
47 54 62
41 46 52
45 51 59
39 45 52
56 63 72
53 59 68
45 51 58
44 49 57
51 58 68
55 63 72
50 55 63
40 45 52
59 67 76
51 58 67
43 49 57
49 55 62
45 50 57
48 54 63
48 55 63
56 63 72
55 62 72
52 59 68
55 62 72
50 58 68
40 45 52
50 55 62
39 44 51
54 60 68
50 55 62
60 67 76
48 54 62
56 63 72
50 57 67
55 62 72
51 58 68
52 59 68
44 50 58
50 58 68
53 59 68
49 55 63
50 56 63
39 44 51
40 45 52
61 70 80
49 55 63
49 55 63
52 59 68
49 54 62
52 59 67
51 58 68
53 59 68
30 33 37
52 59 68
49 55 63
54 62 72
47 54 62
47 54 62
42 49 57
53 59 67
42 48 57
48 54 63
54 62 72
52 58 67
59 67 77
57 63 72
54 62 72
58 66 76
51 58 68
41 46 52
52 59 67
52 59 68
59 66 76
55 63 72
54 60 68
61 70 80
55 62 72
48 54 63
54 60 68
57 64 72
52 59 67
61 70 80
49 55 62
47 54 63
48 54 63
51 58 67
46 54 63
62 70 80
54 60 68
57 64 73
48 54 63
58 66 76
54 59 67
55 63 72
49 55 63
59 67 77
59 66 77
53 59 67
47 54 63
41 46 53
55 62 72
60 67 76
57 64 73
46 51 58
55 62 72
56 63 72
52 59 67
50 58 67
53 59 68
56 65 77
64 71 80
55 62 72
52 59 67
58 66 77
59 67 77
53 61 72
52 59 68
60 69 80
57 66 77
56 63 72
47 54 63
58 66 76
54 62 73
54 62 72
58 66 76
57 66 76
54 62 73
55 62 72
45 51 58
57 65 76
59 67 77
58 66 77
58 66 76
57 66 77
58 66 77
63 70 80
59 66 76
62 70 80
56 63 73
56 63 72
51 58 68
62 70 80
61 69 80
58 66 76
50 58 69
57 65 76
63 71 80
56 63 72
57 64 72
55 63 72
55 63 72
57 65 76
58 66 77
57 66 77
54 62 72
58 66 77
60 69 80
56 63 72
50 58 67
54 60 69
60 67 76
61 69 80
57 66 76
59 67 76
61 69 80
59 67 77
59 67 77
58 66 76
61 69 80
58 66 77
61 70 80
58 66 76
59 67 76
61 69 80
58 66 76
56 63 73
58 66 76
60 69 80
61 69 80
58 66 77
57 66 77
59 67 77
59 66 76
56 65 76
59 67 77
60 69 80
61 69 80
62 70 80
61 70 80
55 63 72
59 67 76
58 66 77
62 70 80
60 69 80
61 69 80
60 67 77
63 70 80
61 69 80
60 69 80
62 70 80
60 67 77
62 70 80
63 70 80
57 65 76
62 70 80
51 59 68
54 62 72
59 66 76
62 70 80
58 66 76
61 70 80
60 69 80
61 70 80
60 67 77
57 65 76
57 66 76
61 70 80
55 63 72
61 70 80
58 66 77
47 54 63
60 69 80
62 70 80
60 69 80
52 61 72
60 69 80
58 66 76
52 59 68
53 62 73
62 70 80
55 62 72
61 70 80
60 69 80
63 70 80
56 63 73
56 65 76
63 70 80
57 66 76
53 60 68
58 66 76
52 59 67
59 69 80
54 62 72
53 59 68
54 62 72
59 66 76
56 63 72
57 66 76
54 62 72
59 67 77
57 66 76
63 70 80
57 63 72
54 62 72
62 70 80
60 69 80
58 66 76
63 70 80
57 66 76
60 69 80
60 69 80
56 63 72
56 63 72
56 63 72
59 67 77
61 69 80
59 66 77
58 66 76
59 66 76
54 62 72
57 63 72
53 59 67
53 59 68
45 50 58
56 65 76
48 55 63
60 67 76
54 62 72
58 66 77
54 62 72
59 67 77
47 54 63
60 69 80
57 66 76
55 63 72
58 66 76
57 64 73
59 69 80
60 69 80
56 63 72
58 66 76
56 63 72
59 66 77
59 67 76
58 66 76
62 70 80
56 63 72
59 67 76
58 66 77
50 58 68
54 62 72
55 63 72
50 58 68
61 69 80
62 70 80
55 62 72
53 60 68
55 63 72
57 66 76
53 59 67
54 60 68
50 57 67
54 62 72
50 56 64
48 54 62
60 69 80
49 55 63
52 59 67
42 49 57
48 54 62
47 54 63
60 69 80
51 58 67
48 54 62
52 59 68
47 54 63
50 55 63
48 54 63
50 55 63
42 49 58
54 62 72
53 62 72
55 62 72
51 58 68
53 59 68
55 63 72
48 55 63
52 59 68
51 58 67
35 39 45
58 66 76
51 58 67
53 59 67
64 71 80
42 46 52
52 58 67
58 66 77
48 55 63
45 50 57
48 54 63
48 54 62
35 40 46
48 54 62
48 55 63
51 58 67
47 54 62
59 67 76
54 60 67
47 54 63
62 70 80
47 54 62
55 63 72
47 54 62
52 58 67
55 62 72
49 54 62
39 45 52
53 59 67
48 54 62
39 44 51
48 54 62
48 55 63
45 50 57
49 55 62
44 50 58
56 63 72
40 45 52
54 62 72
39 45 53
48 54 63
51 58 67
56 63 72
47 54 63
38 44 51
48 55 63
39 44 51
56 63 72
41 46 52
38 44 51
53 59 68
46 51 58
55 60 68
44 49 57
40 45 51
48 54 63
52 59 68
48 54 62
44 50 57
48 54 62
51 58 67
43 49 57
44 50 58
40 45 52
51 59 68
51 58 68
44 50 57
48 54 62
43 50 57
50 56 64
56 63 72
51 58 67
44 50 58
51 59 68
48 55 63
53 59 67
56 63 72
55 62 72
47 54 62
53 59 67
55 62 72
35 39 44
51 58 67
48 55 63
40 46 53
54 62 72
51 58 68
54 60 68
55 63 72
51 58 67
52 58 67
60 67 76
60 67 76
47 54 62
40 45 52
52 59 67
27 31 37
44 50 57
50 56 63
48 55 63
37 43 51
58 66 76
48 54 63
54 60 67
48 55 63
49 55 63
48 54 62
49 55 63
63 71 80
44 49 57
53 60 68
48 55 63
55 62 72
43 50 57
57 64 73
55 62 72
51 58 67
51 58 68
55 62 72
56 63 72
48 54 63
50 58 68
52 59 68
47 54 63
51 58 67
40 45 53
44 49 57
56 63 72
48 55 63
58 66 76
53 59 67
60 69 80
59 67 76
54 60 67
42 49 57
52 59 68
62 70 80
49 55 63
56 63 72
59 66 77
55 62 72
55 63 72
48 54 62
58 66 76
53 59 68
57 63 72
55 62 72
53 59 67
54 62 72
43 49 57
51 58 67
57 65 76
55 62 72
51 58 67
57 66 76
54 62 72
51 58 68
60 67 76
56 63 72
58 66 76
58 66 76
60 69 80
57 63 72
45 51 58
56 63 72
63 71 80
48 55 63
57 65 76
49 55 63
55 62 72
54 62 72
62 70 80
59 66 76
56 63 72
52 59 68
61 70 80
58 66 76
59 67 76
59 67 76
58 66 77
54 62 72
48 55 64
55 63 72
60 69 80
51 58 68
58 66 76
60 67 76
53 59 68
52 59 68
61 70 80
56 65 76
60 67 76
63 71 80
60 69 80
62 70 80
62 70 80
61 69 80
60 69 80
59 66 76
58 66 76
56 63 72
61 69 80
54 62 72
54 62 72
57 63 72
54 60 68
61 69 80
57 66 76
51 58 68
61 69 80
61 69 80
57 66 76
60 67 76
54 62 72
60 69 80
61 69 80
60 69 80
51 59 68
62 70 80
53 61 72
61 69 80
58 66 76
63 70 80
58 66 76
59 66 77
60 69 80
58 66 76
56 63 73
55 62 72
48 55 64
58 66 76
57 64 73
58 66 77
58 66 76
51 58 68
59 69 80
58 66 77
62 70 80
58 66 77
58 66 76
55 63 73
60 69 80
58 66 76
58 66 77
58 66 77
54 62 72
58 66 77
58 66 76
53 59 68
61 69 80
56 65 76
62 70 80
61 70 80
61 69 80
59 66 76
61 70 80
54 62 72
61 70 80
58 66 76
55 62 72
60 67 77
54 62 72
62 70 80
60 69 80
62 70 80
55 63 72
60 69 80
63 70 80
61 70 80
57 64 72
56 63 72
53 61 72
62 70 80
62 70 80
60 69 80
56 63 72
58 66 77
59 67 77
59 66 77
59 67 77
58 66 76
62 70 80
58 66 76
62 70 80
61 70 80
61 70 80
61 69 80
58 66 77
59 67 77
57 63 72
59 68 80
61 70 80
59 66 76
52 59 68
62 70 80
58 66 76
63 69 77
59 66 76
60 69 80
60 69 80
58 66 77
60 69 80
50 58 68
56 63 72
57 66 77
60 67 76
59 66 77
61 69 80
54 62 73
59 66 77
56 63 73
61 67 76
58 66 76
57 65 76
58 66 76
61 70 80
61 70 80
61 69 80
62 70 80
61 69 80
57 66 76
55 63 72
58 66 76
55 63 72
53 59 68
54 62 72
58 66 77
53 60 68
51 58 68
48 55 63
56 63 72
60 67 76
59 67 77
55 62 72
51 58 67
62 70 80
59 67 76
54 60 69
58 66 76
54 62 72
60 67 77
56 63 72
53 59 68
48 54 62
54 62 72
58 66 76
48 54 63
60 67 76
54 62 72
55 62 72
50 57 67
58 66 76
48 55 63
55 62 72
58 66 76
54 62 72
56 63 72
47 54 62
62 70 80
49 55 63
59 68 80
57 66 76
58 66 76
54 62 72
50 57 67
59 66 76
57 63 72
54 62 72
46 54 63
57 66 76
53 59 67
43 49 57
50 56 63
57 65 77
52 59 68
45 53 62
51 58 68
53 59 67
51 58 68
50 57 67
51 58 67
49 55 62
58 66 76
52 59 68
51 58 68
54 62 72
50 58 68
59 66 76
60 69 80
33 38 44
51 58 67
51 58 68
57 66 77
55 62 72
50 58 67
47 54 63
39 44 52
52 59 68
50 58 67
51 58 67
49 55 63
58 66 77
50 56 63
55 63 72
59 66 76
53 60 68
59 67 76
53 59 68
52 59 68
54 62 72
49 55 63
40 45 51
54 62 72
62 70 80
47 52 58
53 62 72
49 55 63
53 59 67
55 63 72
51 59 68
49 55 63
42 47 53
48 54 62
44 50 57
48 54 62
48 54 62
47 54 62
44 50 57
51 58 67
48 54 62
45 50 57
53 59 68
49 55 63
57 64 72
56 63 72
48 54 63
43 49 58
57 64 72
35 40 45
58 66 76
45 50 57
39 45 52
49 57 67
44 50 57
40 45 52
55 62 72
47 54 62
33 38 44
47 54 63
40 45 53
59 67 76
47 54 63
49 55 63
45 50 57
49 55 62
40 45 52
48 54 62
49 55 62
41 45 51
47 54 63
34 38 44
58 66 76
48 54 62
56 63 72
40 45 52
55 62 72
45 50 57
40 45 52
47 54 63
38 44 52
48 54 63
58 64 72
50 56 64
51 58 68
36 40 45
47 54 63
45 51 58
52 59 68
40 44 51
39 45 51
45 50 57
45 51 58
41 46 53
40 45 52
40 45 52
47 54 63
52 59 68
51 58 67
57 64 73
47 54 63
51 58 67
55 62 72
52 59 67
49 55 63
40 45 52
51 58 67
45 50 58
53 59 68
41 46 53
53 59 67
52 59 68
49 55 63
52 59 68
58 66 76
48 54 62
40 46 53
57 64 72
50 56 63
44 50 58
49 55 62
52 59 67
52 59 69
52 59 68
56 63 72
45 51 57
49 55 64
56 63 72
50 56 63
50 55 63
51 58 68
50 58 67
53 59 67
38 44 52
43 49 57
53 59 68
48 54 62
55 62 72
47 53 62
45 51 58
49 55 64
51 58 68
60 67 76
56 63 72
45 51 58
52 59 67
51 59 68
56 63 72
52 59 68
57 64 72
52 59 67
58 66 77
48 54 63
49 55 62
55 63 72
49 55 63
53 60 68
47 52 58
45 50 57
55 63 72
60 69 80
51 58 67
59 66 76
44 50 58
58 66 76
57 66 76
56 63 72
56 63 72
48 55 63
52 59 68
51 56 63
56 63 72
53 62 72
61 70 80
59 66 76
55 62 72
48 55 63
58 66 76
63 71 80
51 58 67
61 70 80
60 67 76
59 67 76
58 66 77
47 54 63
59 67 77
58 66 76
54 62 72
52 59 67
55 63 72
61 69 80
51 58 68
58 66 77
55 62 72
57 65 76
55 62 72
54 62 72
61 70 80
54 62 72
47 53 62
59 66 76
57 65 76
59 66 76
59 66 76
58 66 77
58 66 76
61 69 80
62 70 80
58 66 77
55 63 73
50 58 67
55 62 72
59 66 76
62 70 80
57 66 76
58 66 76
55 63 72
59 66 76
60 69 80
60 67 76
58 66 76
56 63 72
54 62 72
55 62 72
60 69 80
64 71 80
61 69 80
59 66 76
57 66 76
58 66 76
52 59 68
57 66 76
59 68 80
59 68 80
58 66 77
60 67 76
61 69 80
61 70 80
60 69 80
58 66 76
60 69 80
59 67 76
56 63 73
60 69 80
58 66 76
58 66 76
55 63 73
56 65 76
61 70 80
60 69 80
60 69 80
53 61 72
62 70 80
63 71 80
60 67 77
53 60 69
59 66 76
54 62 72
61 70 80
53 59 68
58 66 76
61 67 76
59 67 76
58 66 76
60 69 80
57 66 77
60 67 76
58 66 76
60 67 76
57 66 77
60 67 77
62 70 80
62 70 80
55 63 72
58 66 77
61 69 80
58 66 77
60 69 80
60 69 80
61 69 80
61 70 80
58 66 77
57 63 72
56 63 72
55 62 72
57 65 76
62 70 80
55 63 73
62 70 80
61 69 80
61 69 80
61 69 80
61 69 80
58 66 77
58 66 77
62 70 80
50 58 68
58 66 77
60 69 80
62 70 80
57 66 77
57 66 76
61 70 80
59 69 80
59 66 76
57 65 76
61 70 80
54 62 72
57 65 76
60 69 80
56 65 76
57 66 77
60 69 80
55 63 72
57 66 76
59 67 77
55 62 72
58 66 77
61 70 80
55 62 72
62 70 80
47 54 63
59 66 76
59 67 76
59 66 76
58 66 76
53 60 68
53 61 72
56 63 72
61 70 80
55 62 72
49 55 63
57 66 76
58 64 72
55 62 72
61 69 80
51 59 68
54 62 73
63 70 80
54 62 72
50 58 68
53 61 72
62 70 80
56 65 76
56 63 72
62 70 80
59 67 77
56 63 72
56 63 72
57 66 77
57 66 76
44 50 58
63 71 80
48 55 63
61 70 80
63 71 80
55 62 72
62 70 80
56 65 76
52 59 67
56 63 72
58 66 76
59 66 76
56 63 72
58 66 76
58 66 76
58 66 76
59 67 77
56 63 73
43 49 57
55 62 72
59 66 76
51 58 68
49 57 67
44 49 57
51 58 68
57 64 72
52 59 68
55 63 72
50 57 67
64 71 80
55 62 72
56 63 72
49 55 63
53 59 68
47 54 63
51 59 68
58 66 76
55 62 72
45 50 57
48 55 63
51 59 68
47 54 63
61 67 77
55 62 72
59 67 77
57 66 77
60 67 76
55 63 72
52 59 68
52 59 68
58 66 76
59 66 76
55 62 72
49 55 63
56 63 72
56 63 73
52 58 67
52 59 67
42 46 53
53 60 68
51 58 67
50 58 68
59 66 76
61 69 80
44 49 57
47 54 63
40 46 52
59 66 76
54 62 72
54 62 72
45 51 58
47 54 62
46 53 63
44 50 58
41 46 52
53 60 68
47 54 63
38 44 51
52 59 67
48 55 63
52 59 68
53 60 68
57 64 73
53 59 68
48 54 62
38 44 51
60 67 76
46 51 58
53 59 67
33 38 44
48 54 62
52 58 67
43 49 57
46 51 57
37 41 46
44 50 57
52 59 68
48 54 63
52 58 67
40 45 52
41 46 52
56 63 72
45 50 57
51 56 63
48 54 63
52 59 68
52 59 67
56 63 72
51 58 68
35 39 45
41 46 52
57 63 72
52 59 68
49 55 63
51 58 67
48 54 62
44 50 57
48 55 63
42 49 57
39 45 52
48 55 63
51 59 68
44 50 58
52 59 69
52 59 67
53 59 68
44 50 58
41 45 52
52 58 67
48 54 63
44 50 58
39 45 53
44 50 58
39 44 51
43 50 58
47 54 62
57 63 72
51 58 67
49 55 62
57 63 72
48 55 63
51 58 68
49 55 63
43 49 57
47 54 63
54 62 72
45 50 57
47 54 62
55 62 72
48 54 62
49 55 63
48 54 63
48 54 62
43 49 57
49 55 63
59 66 76
39 44 51
45 53 62
56 63 73
54 62 72
46 53 62
57 65 76
52 59 67
46 51 58
54 62 72
54 60 69
49 55 63
45 53 62
56 63 72
49 55 63
51 58 67
49 55 63
53 59 67
50 58 67
40 45 52
58 66 77
44 50 58
52 59 67
57 65 76
56 63 72
61 70 80
53 59 68
58 66 76
52 59 67
58 66 77
52 59 67
48 55 63
46 50 57
39 44 51
53 61 72
55 62 72
55 62 72
53 59 67
54 62 72
51 58 68
59 67 77
55 62 72
53 59 67
55 63 72
52 59 68
55 62 72
53 60 68
55 62 72
52 59 68
55 62 72
51 58 67
51 56 63
58 66 76
55 62 72
39 45 52
54 62 72
55 62 72
60 69 80
61 69 80
44 50 57
50 58 67
41 46 53
60 69 80
49 55 63
60 69 80
55 62 72
61 70 80
48 54 63
55 62 72
56 63 72
60 67 76
43 49 57
57 66 76
46 51 58
57 63 72
62 70 80
63 71 80
56 63 72
59 67 77
52 59 68
58 66 76
58 66 76
55 62 72
55 62 72
58 66 76
51 58 68
59 67 76
48 55 63
54 62 72
59 66 77
62 70 80
58 66 76
56 63 73
52 59 68
53 60 68
58 66 76
57 65 76
59 67 76
63 70 80
57 66 77
55 62 72
56 63 72
59 68 80
58 66 77
60 69 80
57 65 77
48 55 64
58 66 76
59 67 77
62 70 80
53 59 68
47 53 62
55 62 73
59 66 76
59 66 76
59 66 76
63 70 80
52 59 69
62 70 80
52 59 68
55 62 72
60 67 77
57 65 76
58 66 76
57 65 76
61 70 80
58 66 76
61 69 80
58 66 76
61 70 80
61 70 80
59 67 77
57 65 76
62 70 80
61 69 80
58 66 76
55 63 72
60 69 80
61 70 80
59 66 76
60 69 80
59 67 76
56 63 73
59 67 76
62 70 80
54 60 68
55 62 72
54 62 72
59 66 76
60 69 80
60 69 80
58 66 76
55 62 72
62 70 80
57 66 77
63 70 80
62 70 80
58 66 77
58 66 77
58 66 76
58 66 76
57 66 77
61 70 80
57 66 76
56 63 73
60 69 80
57 66 77
57 66 77
55 62 72
61 70 80
62 70 80
58 66 76
58 66 77
62 70 80
62 70 80
60 69 80
61 70 80
62 70 80
63 70 80
59 66 76
61 69 80
59 67 77
56 63 72
55 63 72
60 67 77
51 59 69
58 66 77
58 66 76
55 62 72
59 66 77
61 69 80
58 66 76
55 62 72
62 70 80
59 67 77
61 69 80
54 62 72
60 69 80
59 66 76
56 65 77
60 69 80
56 63 72
60 69 80
59 66 76
61 70 80
58 66 77
62 70 80
59 66 76
57 66 77
63 70 80
52 59 68
57 66 76
56 63 72
57 66 77
57 66 77
58 66 76
54 62 73
51 58 68
57 64 72
58 66 76
62 70 80
55 63 72
56 63 72
59 66 77
55 62 72
61 69 80
58 64 72
61 69 80
61 69 80
57 66 77
61 69 80
59 67 77
49 56 64
57 65 76
54 62 72
56 63 72
58 66 77
51 58 68
59 66 76
56 63 72
62 70 80
57 65 76
52 59 67
54 62 72
55 63 72
54 62 72
60 69 80
52 59 68
57 65 76
56 63 73
45 51 59
57 66 76
54 62 72
55 63 72
59 67 76
52 59 68
53 59 68
58 66 76
62 70 80
59 66 76
52 59 68
48 55 63
57 63 72
52 59 68
55 62 72
51 58 67
60 69 80
56 63 72
53 61 72
60 67 76
55 63 72
51 59 68
50 58 68
54 62 72
62 70 80
51 58 67
54 62 72
55 62 72
51 59 68
42 49 57
50 56 62
56 63 72
57 65 76
45 51 58
58 66 76
56 63 73
56 63 73
48 54 62
51 58 67
44 50 58
49 55 63
54 62 72
54 62 72
51 58 67
49 55 63
54 59 67
59 66 76
47 54 62
52 59 68
49 55 63
53 59 68
49 55 63
57 63 72
47 54 63
49 55 63
52 59 69
51 58 68
62 70 80
48 55 63
59 67 76
45 50 57
58 66 76
49 55 62
58 64 72
50 58 67
53 59 68
46 54 63
55 60 68
49 55 63
49 55 62
53 59 67
48 54 63
44 50 57
52 58 67
49 55 63
55 62 72
57 63 72
49 55 63
50 58 68
51 58 67
56 63 72
39 44 52
53 59 68
54 60 68
48 54 63
43 50 57
51 59 68
53 59 67
57 63 72
55 62 72
48 55 63
49 55 62
60 67 77
52 58 67
46 54 63
47 54 62
50 56 64
57 64 73
63 70 80
52 59 68
45 50 57
59 67 76
48 54 62
44 50 57
55 63 72
55 62 72
53 60 68
56 63 72
51 58 67
58 64 72
50 57 67
55 62 72
44 50 57
53 59 67
45 53 62
45 51 57
44 49 57
57 63 72
55 63 73
22 24 27
47 54 63
33 38 45
55 62 72
53 61 72
53 59 67
45 51 58
45 51 58
52 59 67
53 60 68
48 55 63
54 62 72
44 49 57
40 46 53
52 59 68
54 62 72
54 62 72
52 59 68
52 59 68
59 66 76
53 60 68
38 44 52
48 54 62
51 58 67
44 50 57
50 56 63
49 55 64
55 63 72
53 59 68
57 65 76
58 66 76
49 55 62
51 58 67
50 58 67
58 66 76
47 54 62
52 59 68
39 44 51
40 45 51
55 62 72
58 66 76
62 70 80
54 62 72
62 70 80
44 50 57
56 63 72
56 63 72
37 40 45
47 54 63
51 58 68
57 65 76
52 59 68
48 54 63
59 67 77
50 58 67
51 58 68
43 50 57
50 58 68
54 62 72
57 66 76
51 56 63
43 50 58
56 65 76
57 66 77
52 59 68
54 62 72
57 66 77
47 54 62
58 66 76
49 55 63
50 56 64
56 63 72
51 58 68
62 70 80
44 50 57
58 66 77
51 58 69
58 66 77
55 63 73
53 59 67
57 65 76
59 66 76
62 70 80
47 54 62
57 65 76
57 66 77
44 51 59
53 61 72
53 59 68
59 67 76
52 59 68
53 59 67
52 59 68
54 62 72
49 55 64
55 63 72
56 63 72
52 59 68
52 58 67
58 66 77
55 62 72
61 70 80
56 63 72
57 65 76
61 69 80
51 59 68
58 66 77
54 62 72
56 63 72
61 70 80
61 69 80
55 63 72
54 62 72
64 71 80
59 67 77
54 62 73
55 62 72
57 64 73
52 58 67
60 69 80
52 59 67
61 69 80
52 58 67
59 66 76
48 54 63
55 62 72
57 65 76
56 63 72
59 66 76
55 63 73
55 63 72
59 67 77
52 59 68
60 67 77
49 55 63
59 66 76
56 65 77
53 59 68
55 63 72
58 66 77
57 65 76
58 66 76
64 71 80
61 70 80
56 63 73
58 66 76
54 62 72
58 66 77
58 66 76
59 67 76
49 55 63
54 62 72
57 66 76
53 61 72
57 66 76
46 53 62
55 62 72
61 69 80
58 66 76
62 70 80
60 67 76
55 63 72
58 66 76
63 71 80
48 55 63
53 62 72
52 59 68
60 67 77
61 70 80
62 70 80
58 66 77
62 70 80
56 63 72
55 63 72
57 65 76
55 63 73
62 70 80
61 70 80
48 54 63
58 66 76
63 71 80
58 66 76
55 62 72
61 69 80
59 68 80
61 69 80
61 70 80
56 63 72
59 69 80
62 70 80
62 70 80
61 70 80
61 70 80
61 69 80
61 69 80
58 66 76
62 70 80
57 65 76
60 67 76
60 67 77
60 67 77
58 66 76
57 66 77
60 69 80
59 66 77
58 66 77
62 70 80
57 66 76
62 70 80
60 69 80
56 63 72
57 65 76
59 67 77
62 70 80
57 65 76
61 69 80
58 66 76
57 63 72
61 69 80
55 62 73
56 63 73
61 69 80
57 66 76
57 66 76
60 67 76
61 69 80
58 66 76
55 62 72
62 70 80
58 66 76
58 66 76
58 66 76
57 64 72
58 66 77
62 70 80
54 62 73
55 63 72
61 70 80
55 63 72
58 66 76
60 69 80
61 70 80
55 62 72
61 69 80
55 62 72
59 66 76
61 68 77
54 62 72
58 66 77
55 62 72
59 67 77
62 70 80
58 66 77
57 66 76
58 66 76
61 69 80
61 70 80
62 70 80
60 69 80
62 70 80
57 65 76
54 62 72
56 63 72
58 66 76
58 66 77
60 69 80
60 67 76
58 66 76
51 59 68
58 66 76
59 66 77
55 62 72
60 67 77
45 53 62
50 58 68
55 62 72
52 59 68
57 64 73
51 59 68
51 58 67
50 58 67
55 62 72
54 62 72
54 62 72
58 66 77
59 67 77
55 62 72
56 63 72
51 58 68
57 66 77
54 62 72
56 63 72
57 66 76
58 66 76
50 56 63
55 63 72
52 59 67
61 69 80
57 63 72
55 62 72
56 65 76
54 62 72
51 58 67
53 59 68
61 69 80
52 59 67
51 58 68
61 69 80
59 66 77
48 54 62
58 66 76
45 51 57
51 58 68
51 58 68
55 63 72
52 58 67
59 66 76
52 59 68
54 62 72
52 59 68
44 50 57
55 62 72
56 63 72
58 66 76
56 63 73
54 62 72
51 58 67
52 59 68
54 62 73
52 59 68
51 58 67
48 54 63
52 59 68
55 62 72
55 62 72
52 59 67
57 64 73
54 62 72
38 44 52
54 62 73
48 55 63
56 63 72
44 50 58
60 67 77
52 59 67
41 46 53
57 64 73
58 66 76
45 51 58
51 59 68
49 55 63
51 58 67
39 44 52
43 49 57
52 59 68
55 63 73
48 54 62
52 58 67
52 59 68
53 59 68
48 54 62
52 59 68
44 50 57
55 62 72
49 55 63
57 63 72
60 67 76
43 50 58
56 63 72
54 62 72
59 67 77
51 56 63
40 45 52
52 59 68
48 55 63
44 50 57
44 49 57
52 59 68
61 70 80
49 56 64
39 45 52
45 50 57
52 59 68
44 50 58
48 54 62
51 58 67
42 49 58
52 59 68
46 51 58
51 58 67
53 60 68
44 50 58
47 54 63
39 44 52
45 50 57
55 63 72
55 62 72
57 64 73
49 55 63
46 52 58
48 54 63
48 54 62
61 67 76
54 62 72
44 50 57
45 50 58
39 45 52
45 50 57
48 55 63
54 62 72
39 44 51
52 58 67
43 47 53
41 46 52
45 50 57
55 62 72
52 58 67
48 54 63
53 59 67
43 49 57
48 55 63
49 55 63
47 54 63
42 48 57
60 67 77
57 66 76
58 66 76
51 58 68
55 63 72
39 44 52
51 58 67
52 59 67
52 59 67
39 44 52
46 53 63
55 60 68
45 51 58
58 66 76
49 55 63
41 46 52
43 49 57
47 54 63
57 64 72
58 66 77
43 50 58
55 62 72
49 55 62
48 54 63
50 57 67
52 59 68
59 66 76
51 59 68
56 63 72
42 47 53
47 54 62
49 55 63
53 59 68
60 67 76
60 67 77
47 54 62
55 62 72
59 67 76
54 60 68
50 58 68
56 63 72
52 59 68
50 58 68
55 63 72
59 67 76
55 63 72
48 54 62
59 67 77
58 66 76
57 65 76
42 46 53
49 55 63
55 62 72
56 65 76
58 66 77
50 58 68
55 62 72
53 62 72
51 58 68
55 63 73
48 54 62
52 59 68
48 55 63
58 66 76
62 70 80
63 70 80
49 55 63
58 66 77
61 69 80
58 66 76
52 59 68
50 58 68
59 67 76
57 65 76
58 66 76
57 63 72
57 66 76
59 67 77
55 63 72
49 55 63
56 63 72
57 65 76
57 64 73
55 63 72
62 70 80
55 62 72
56 65 77
60 69 80
60 67 76
55 63 72
52 58 67
57 65 76
61 69 80
58 64 73
58 66 77
59 67 76
58 66 76
51 58 68
47 54 62
55 63 73
51 58 68
62 70 80
61 70 80
59 67 76
63 70 80
56 63 72
58 66 76
60 67 76
55 63 72
53 59 68
61 69 80
60 67 77
57 65 76
56 63 72
61 70 80
57 63 72
62 70 80
60 67 76
58 66 76
58 66 76
59 66 76
62 70 80
55 63 72
59 66 76
62 70 80
54 62 72
61 69 80
55 63 72
56 65 76
55 62 72
50 55 63
61 69 80
52 59 68
61 69 80
58 66 77
58 66 76
57 63 72
60 69 80
48 55 63
58 66 76
61 69 80
58 66 76
54 62 72
56 63 73
63 70 80
60 69 80
57 65 76
56 63 72
57 65 77
50 56 63
59 67 76
61 69 80
59 67 77
55 63 73
46 54 63
60 67 77
57 64 72
57 66 76
57 66 76
60 69 80
58 66 76
58 66 77
61 69 80
57 66 77
61 70 80
59 66 76
62 70 80
59 68 80
55 63 73
53 62 72
60 67 77
57 66 76
58 66 77
61 70 80
62 70 80
61 69 80
57 66 77
57 66 77
59 66 77
60 69 80
60 69 80
62 70 80
60 69 80
62 70 80
52 59 68
62 70 80
55 63 72
57 64 73
62 70 80
54 62 72
59 66 76
57 66 77
57 66 76
60 67 77
57 66 76
57 66 76
59 66 76
62 70 80
59 67 76
54 62 72
52 59 69
61 67 76
57 66 76
55 63 72
61 69 80
57 66 76
61 69 80
55 62 72
59 69 80
60 69 80
61 69 80
54 62 72
60 69 80
58 66 76
55 62 72
54 62 72
55 63 72
62 70 80
58 66 76
60 67 77
62 70 80
55 63 72
59 66 76
58 66 77
60 67 77
57 65 76
59 66 76
63 71 80
55 63 73
56 63 72
57 66 77
61 70 80
62 70 80
59 66 76
61 69 80
55 62 72
59 67 76
62 70 80
58 66 77
57 65 77
59 67 77
54 62 72
49 57 67
48 55 63
58 66 76
54 62 72
60 67 76
55 62 72
52 59 68
52 59 68
59 67 76
58 66 77
62 70 80
50 58 68
60 69 80
51 58 67
59 66 76
62 70 80
39 45 53
57 63 72
58 66 76
58 66 76
55 61 69
57 65 76
54 62 72
60 67 76
51 58 67
44 50 58
45 50 57
61 70 80
46 54 63
44 50 57
58 66 77
50 57 67
54 60 67
52 61 72
60 69 80
53 59 67
61 69 80
56 63 72
56 65 76
56 63 72
51 58 67
55 62 72
52 59 68
55 62 72
54 62 72
58 66 76
56 63 73
47 54 63
51 59 68
58 66 76
53 59 67
55 62 72
52 59 68
50 56 63
41 46 52
53 59 68
49 55 63
51 58 67
56 63 72
48 54 63
55 62 72
48 55 64
47 54 63
44 50 57
56 63 72
49 55 63
35 39 44
58 66 77
52 59 67
48 55 63
50 55 63
55 62 72
55 63 73
55 62 72
50 57 67
54 62 72
41 45 51
54 62 72
49 55 63
58 66 77
50 58 67
42 49 57
51 58 67
52 59 68
51 58 68
51 58 68
42 49 57
54 62 72
54 60 68
56 63 72
45 50 57
44 50 57
45 50 57
48 54 63
48 54 63
53 59 67
53 59 67
50 58 68
56 63 72
53 59 68
48 55 63
48 54 63
40 45 51
47 54 62
47 54 63
45 50 58
48 54 63
44 49 57
48 55 63
49 55 63
46 51 58
45 50 57
54 62 72
52 59 68
49 55 63
48 55 63
45 51 58
50 56 63
44 50 57
52 58 67
51 58 67
58 66 76
43 49 57
49 55 62
48 55 63
60 67 77
55 63 72
45 51 58
49 55 63
52 58 67
57 64 72
52 59 68
55 63 72
60 67 76
53 61 72
56 63 72
56 63 72
44 50 58
40 45 52
54 62 72
33 38 44
57 66 76
57 64 73
54 60 67
35 39 45
48 55 63
40 45 52
56 63 72
51 56 63
41 46 52
57 63 72
44 50 57
50 55 62
49 55 63
56 63 73
52 59 68
60 67 76
44 50 58
51 58 68
51 56 63
52 59 68
56 63 72
57 63 72
47 54 62
57 65 76
47 54 62
48 54 62
42 49 57
47 54 63
51 58 67
43 50 57
55 62 72
52 59 68
51 58 68
38 44 51
50 58 67
55 63 72
50 56 63
47 54 63
51 58 67
49 55 63
43 49 57
49 55 63
60 67 76
48 54 63
47 54 62
55 62 72
52 59 67
51 58 67
54 62 72
55 63 73
55 62 72
53 59 67
56 63 72
59 67 77
57 65 76
46 53 63
51 58 68
53 59 68
55 62 72
58 66 76
55 62 72
58 66 77
46 53 62
47 54 62
46 53 63
59 66 76
60 69 80
57 65 76
52 59 67
49 55 63
47 54 63
50 58 67
48 55 63
56 63 72
65 71 80
48 54 62
51 59 68
59 67 76
54 60 68
60 69 80
55 63 72
51 56 63
53 61 72
56 63 72
52 59 68
49 55 64
56 65 77
53 59 68
55 60 67
53 60 68
50 58 68
53 59 68
56 63 72
60 67 76
52 59 68
51 58 67
59 67 77
55 62 72
55 62 72
57 66 76
57 65 76
54 62 72
51 58 69
55 62 72
58 66 76
61 70 80
54 60 68
49 55 62
50 58 67
51 58 67
62 70 80
55 63 72
61 69 80
57 63 72
61 70 80
59 67 77
56 63 72
59 66 76
47 54 62
56 65 76
60 69 80
63 71 80
58 66 77
57 66 76
52 59 68
58 66 77
61 69 80
55 63 72
53 62 72
50 57 67
62 70 80
58 66 77
60 69 80
57 64 72
61 69 80
59 66 76
54 62 73
61 69 80
59 66 76
61 69 80
57 66 76
61 69 80
59 66 76
59 69 80
59 67 76
63 70 80
53 61 72
55 62 72
59 67 77
59 67 76
60 69 80
58 66 76
62 70 80
54 62 72
57 66 77
60 69 80
56 63 73
60 69 80
61 69 80
54 62 72
60 67 77
60 69 80
61 70 80
59 66 76
59 66 76
52 59 68
51 58 68
59 66 76
48 55 63
55 63 72
54 62 72
57 66 77
59 67 76
62 70 80
57 65 77
59 67 77
55 62 72
61 69 80
55 63 72
61 70 80
58 66 77
62 70 80
58 66 76
60 69 80
61 69 80
60 69 80
58 66 76
59 67 77
56 63 72
60 69 80
62 70 80
57 66 77
59 69 80
54 62 72
59 66 76
60 69 80
58 66 76
60 69 80
56 65 77
51 58 67
60 69 80
59 66 76
63 70 80
57 65 76
57 65 76
58 66 76
57 66 76
60 69 80
56 65 76
58 66 76
58 66 77
54 62 72
55 62 72
59 67 77
54 62 72
60 69 80
58 66 76
58 64 72
60 69 80
55 63 73
57 64 73
54 62 72
62 70 80
58 66 77
58 66 76
62 70 80
62 70 80
55 62 72
53 62 72
54 62 72
55 62 72
54 62 72
58 66 76
63 70 80
54 62 72
51 58 67
57 65 76
59 66 76
58 66 76
58 66 76
55 62 72
63 70 80
58 66 76
57 66 76
59 66 76
57 66 76
58 64 72
58 66 77
61 70 80
60 67 77
59 67 76
61 69 80
56 63 72
60 69 80
58 66 77
56 63 72
55 63 72
57 65 76
58 66 77
55 63 73
59 67 77
42 49 57
56 63 72
60 69 80
57 65 76
58 66 76
52 59 68
61 67 76
51 58 68
50 58 67
47 54 64
55 62 72
52 59 68
49 55 64
58 66 77
60 69 80
58 66 76
55 63 73
57 66 77
55 62 72
48 54 63
46 53 62
58 66 76
59 68 80
56 63 72
46 54 63
57 64 72
57 63 72
52 59 68
48 54 63
54 62 73
55 62 72
57 64 73
49 55 63
54 62 72
50 58 67
57 65 76
51 58 68
60 69 80
48 54 63
54 60 68
44 50 58
52 59 68
49 55 62
55 63 72
49 55 62
53 59 68
40 45 52
55 63 72
56 63 72
56 63 72
47 54 62
51 58 68
49 55 62
48 54 63
55 62 72
58 66 77
46 53 62
55 62 72
57 65 76
42 49 57
57 63 72
54 62 72
55 63 72
55 63 72
54 62 72
53 61 72
51 58 68
59 67 76
51 58 68
59 66 76
50 56 64
50 58 68
53 59 67
47 54 63
49 55 62
52 59 68
43 49 57
53 60 68
50 58 68
44 50 57
56 63 72
51 58 68
51 58 67
55 63 72
50 55 63
53 59 68
51 58 68
53 59 68
53 59 67
56 63 72
57 66 77
40 45 52
56 63 72
45 51 58
50 58 67
45 50 58
52 59 68
50 58 68
48 54 63
51 58 67
49 55 63
51 58 67
49 55 64
63 70 80
45 50 57
50 55 63
50 58 67
57 63 72
49 55 63
41 45 52
57 64 73
41 46 53
48 54 62
48 54 62
48 54 63
52 59 68
46 51 58
30 34 38
48 54 63
57 66 76
39 44 51
44 50 57
54 60 68
47 54 62
38 44 51
41 45 51
51 58 67
39 44 51
38 44 51
45 50 58
41 48 57
62 70 80
43 50 57
45 51 57
56 63 72
52 59 67
49 54 62
57 63 72
44 50 57
51 58 68
44 50 58
51 58 67
46 51 57
52 59 68
59 67 77
55 62 72
45 50 57
48 55 63
55 63 73
48 54 63
41 46 52
52 59 68
53 59 67
47 54 62
53 59 67
47 54 63
57 63 72
43 50 58
59 66 76
58 66 76
52 59 68
54 59 67
56 63 72
55 62 72
59 66 76
50 57 67
56 63 72
53 59 67
49 55 63
55 63 72
47 54 62
51 58 67
49 55 62
58 66 76
49 55 63
53 60 68
52 59 67
36 40 46
50 58 67
48 55 63
51 58 67
56 63 72
52 58 67
48 54 62
58 66 77
55 62 72
55 63 72
52 59 68
54 62 72
48 54 62
41 46 53
57 63 72
55 63 72
49 55 63
43 49 57
47 54 63
58 66 77
47 53 62
46 54 63
49 55 63
48 54 62
58 66 76
57 63 72
56 63 72
57 63 72
47 54 63
59 66 77
60 67 76
49 55 63
54 62 72
47 54 63
56 63 72
52 59 69
55 63 72
54 62 72
47 54 63
34 39 46
50 55 63
43 49 58
48 54 63
32 37 44
45 51 58
58 66 76
53 59 68
48 55 63
59 68 80
45 51 58
57 66 77
48 54 63
61 69 80
51 58 67
55 63 73
54 62 72
52 59 68
55 62 72
51 58 67
62 70 80
58 66 76
50 58 68
55 62 72
51 58 68
49 56 64
51 58 68
61 69 80
50 58 68
48 55 63
58 66 76
52 59 68
58 66 77
52 59 68
44 50 57
59 68 80
53 61 72
51 59 68
53 59 68
55 62 72
59 68 80
54 62 72
55 62 72
61 68 77
56 65 76
52 59 69
61 69 80
58 66 76
53 59 68
61 69 80
55 62 72
52 59 68
56 63 73
62 70 80
61 70 80
59 67 77
62 70 80
57 64 73
59 66 77
56 65 76
61 69 80
60 67 77
59 67 76
61 69 80
53 61 72
56 65 76
54 62 72
61 70 80
47 52 59
58 66 77
59 66 76
61 69 80
60 67 77
58 66 77
48 55 63
56 65 77
58 66 76
54 62 72
60 69 80
56 63 72
57 66 77
57 65 76
50 58 68
58 66 77
62 70 80
58 66 76
55 63 72
51 58 67
57 66 77
57 65 76
61 69 80
59 67 77
55 63 72
61 69 80
54 62 72
62 70 80
51 58 68
60 69 80
58 66 77
59 66 76
61 70 80
56 63 72
55 63 72
60 67 77
60 69 80
52 59 67
55 62 72
60 69 80
58 66 77
56 63 72
59 67 77
62 70 80
60 69 80
57 66 76
57 65 76
62 70 80
61 69 80
61 69 80
58 66 77
58 66 76
58 66 76
55 63 72
56 63 73
61 69 80
61 70 80
59 67 77
64 71 80
54 62 72
55 63 72
62 70 80
58 66 76
51 59 69
54 62 72
57 65 76
62 70 80
51 58 67
61 69 80
59 67 77
55 63 73
62 70 80
51 58 67
61 69 80
55 63 72
58 66 76
58 66 76
59 67 77
60 67 77
63 70 80
59 67 76
54 62 72
58 66 77
62 70 80
57 65 76
60 69 80
52 59 68
54 62 73
56 63 72
57 66 76
56 63 73
56 63 72
62 70 80
58 66 77
50 58 67
58 66 76
53 60 68
62 70 80
57 65 76
59 66 76
53 59 67
57 65 76
57 65 76
58 66 77
54 62 72
59 67 77
54 62 73
59 66 77
58 66 77
54 62 72
57 65 76
56 63 73
55 62 72
57 66 77
59 67 76
56 63 72
61 70 80
60 67 76
60 69 80
55 62 72
52 59 68
58 66 76
52 59 67
54 62 72
51 58 68
52 58 67
56 63 72
57 65 76
50 58 67
58 66 76
52 59 68
56 63 72
56 65 76
53 61 72
51 58 68
54 62 72
56 63 72
44 50 59
55 62 72
55 62 72
60 67 77
57 65 76
56 63 73
49 55 63
52 59 68
52 59 68
52 59 68
48 54 63
62 70 80
55 62 72
57 63 72
57 63 72
55 63 72
57 66 76
45 50 57
51 58 67
55 62 72
59 67 77
55 63 72
55 63 72
55 63 73
48 55 63
48 55 63
45 51 58
51 58 68
61 69 80
58 66 76
53 59 67
39 45 53
55 63 73
52 59 68
53 59 68
49 55 63
40 45 52
60 67 77
39 44 52
48 54 63
55 62 72
34 39 46
44 50 57
49 55 63
52 59 67
59 67 76
53 59 68
47 54 63
55 63 72
46 51 58
56 63 72
48 54 63
48 54 62
45 51 59
52 59 68
54 62 72
50 58 67
48 54 63
52 58 67
48 54 63
53 60 68
44 50 58
56 63 73
55 62 72
52 59 68
58 66 76
44 50 58
51 56 63
47 54 63
54 60 68
50 58 68
58 66 76
56 63 72
40 45 52
51 58 67
55 63 72
47 54 62
51 58 68
43 50 57
52 59 67
59 66 76
46 51 58
45 51 58
52 59 68
48 55 63
53 59 67
54 60 68
43 49 57
61 67 76
48 55 63
54 62 72
55 63 72
48 55 63
44 50 57
48 55 63
47 54 62
48 55 63
45 51 57
58 66 76
37 41 46
56 63 72
43 49 58
46 51 58
60 67 76
47 54 62
48 54 63
47 54 63
59 66 76
50 56 63
40 45 52
45 51 58
55 63 72
54 62 72
53 59 68
52 59 67
51 58 67
46 51 58
53 60 68
60 67 76
54 62 72
58 66 76
52 59 67
57 63 72
46 52 59
44 50 57
52 58 67
44 49 57
51 58 67
43 49 57
56 63 73
48 54 63
51 58 67
44 50 57
43 49 57
55 62 72
39 44 52
51 59 68
55 63 73
36 40 45
61 69 80
49 54 62
56 63 72
43 50 58
35 40 45
51 58 67
43 49 57
56 63 72
55 63 72
63 71 80
56 63 72
52 59 68
35 39 45
52 58 67
40 45 52
49 55 63
44 50 57
53 62 72
52 59 68
42 47 53
52 59 68
56 63 72
48 54 62
50 58 68
56 63 73
53 59 67
52 61 72
57 64 72
56 63 72
54 62 72
51 58 67
53 59 68
45 51 59
49 55 62
56 63 73
51 57 64
40 45 52
52 58 67
52 59 68
56 63 72
49 55 63
57 66 76
44 50 58
50 58 67
56 63 72
56 63 73
56 63 72
51 58 67
52 59 67
55 63 73
58 66 77
55 63 73
59 67 77
55 62 72
55 62 72
53 60 68
52 59 68
49 56 64
54 62 72
55 63 72
54 62 72
48 54 63
57 63 72
58 66 76
51 58 67
59 67 77
53 59 67
50 55 63
58 66 76
57 65 76
56 63 72
57 65 76
55 62 72
59 66 76
60 67 76
62 70 80
59 67 77
55 62 72
59 67 76
57 65 76
57 65 76
62 70 80
58 66 77
47 54 63
56 63 72
58 66 77
55 63 72
49 55 63
58 66 76
55 63 72
51 58 67
58 66 76
55 62 72
56 63 72
48 54 63
52 59 68
58 66 76
60 69 80
56 63 73
58 66 77
56 63 72
53 62 72
55 63 73
58 66 76
60 67 76
57 65 76
61 70 80
61 69 80
58 66 77
61 70 80
49 56 64
58 66 76
58 66 76
57 65 76
50 58 68
58 66 77
53 62 73
61 70 80
56 63 73
55 62 72
59 66 77
61 69 80
62 70 80
59 66 76
55 62 72
61 69 80
62 70 80
63 70 80
59 67 76
55 63 72
59 66 76
55 62 72
55 63 72
54 62 72
58 66 76
54 62 72
61 70 80
54 62 72
50 57 67
62 70 80
60 67 77
57 64 73
60 69 80
61 70 80
57 65 76
62 70 80
62 70 80
61 69 80
54 62 72
58 66 77
60 67 77
62 70 80
61 69 80
58 66 76
58 66 77
57 65 76
62 70 80
61 70 80
60 69 80
58 66 77
60 69 80
61 69 80
61 70 80
59 66 77
62 70 80
63 70 80
58 66 77
61 70 80
61 69 80
51 59 68
62 70 80
61 69 80
58 66 76
59 67 76
58 66 77
62 70 80
54 62 72
61 69 80
56 63 72
61 69 80
59 67 77
61 70 80
61 70 80
60 69 80
61 69 80
53 60 68
59 66 76
59 66 76
60 69 80
60 69 80
57 64 73
57 63 72
55 63 72
54 62 72
63 70 80
57 66 76
46 53 63
58 66 77
61 69 80
60 69 80
53 61 72
57 65 76
61 69 80
62 70 80
56 63 72
56 63 72
57 66 77
60 67 76
61 70 80
57 66 77
58 66 77
53 59 68
58 66 76
55 63 72
58 66 76
62 70 80
52 59 67
61 69 80
46 51 59
58 66 76
56 65 76
57 65 76
56 63 72
59 67 77
55 63 72
61 70 80
53 60 69
54 62 72
57 65 76
58 66 76
50 58 67
59 67 77
57 64 72
52 59 68
58 66 77
58 66 76
53 59 68
59 66 76
60 69 80
60 69 80
44 50 58
61 70 80
54 62 72
53 60 68
44 50 58
50 58 68
60 67 77
50 58 68
53 60 68
52 59 68
53 62 72
60 69 80
59 66 76
52 59 68
60 69 80
59 66 77
55 62 72
42 47 53
47 54 63
55 62 72
51 58 67
58 66 76
61 70 80
58 66 77
54 62 72
51 58 68
56 63 72
55 62 72
55 62 72
59 66 76
44 50 58
58 66 76
55 63 72
56 63 73
54 62 72
54 62 72
43 49 58
55 62 72
47 54 63
45 50 57
52 59 68
55 62 72
57 65 76
62 70 80
47 55 64
44 50 58
55 62 72
51 58 68
48 55 63
53 61 72
57 63 72
54 62 73
48 55 63
57 65 76
52 59 67
48 54 62
51 59 68
49 55 63
56 63 72
58 66 77
43 49 57
43 50 58
59 67 76
51 59 68
52 59 67
51 59 68
52 58 67
53 59 68
46 53 62
48 55 63
50 55 62
35 39 45
54 62 72
35 39 45
49 55 63
47 54 63
55 63 73
52 59 68
51 58 68
49 55 62
56 63 72
51 58 67
52 59 68
61 69 80
47 54 63
48 54 62
51 59 68
39 45 52
53 59 67
51 58 68
49 54 62
49 55 62
54 60 68
53 59 67
51 59 68
52 59 68
59 66 76
35 40 46
40 45 52
58 66 76
48 54 62
45 51 58
44 50 58
51 58 67
58 66 76
48 54 63
56 63 72
51 58 67
47 54 63
57 63 72
41 46 52
47 54 62
59 66 76
50 55 63
43 49 58
56 63 72
52 59 68
43 49 57
55 63 72
53 59 68
55 63 72
51 58 67
46 51 58
48 55 63
49 55 63
53 61 72
54 62 72
49 55 63
48 54 62
43 49 57
48 54 63
30 34 38
55 63 72
55 60 68
41 45 52
58 66 76
51 59 68
54 62 72
43 50 58
60 67 76
56 63 72
56 63 73
49 55 62
41 45 52
34 38 44
44 50 58
44 50 58
45 50 57
57 65 76
52 59 67
44 50 58
52 59 67
55 62 72
52 58 67
51 58 67
55 62 72
55 63 72
52 59 68
55 62 72
48 54 62
36 40 46
57 64 72
46 54 63
42 48 57
49 55 63
56 63 72
56 63 72
49 55 63
52 59 68
41 46 52
62 70 80
50 56 63
55 62 72
48 54 62
48 55 64
48 54 63
52 59 68
40 45 52
46 50 57
56 63 72
51 59 68
59 66 76
55 63 72
53 59 67
45 50 57
54 62 72
52 59 68
51 59 68
43 49 57
50 56 64
50 58 68
54 62 72
46 51 59
54 60 67
60 67 77
43 49 57
48 54 63
52 59 68
50 58 67
44 50 57
43 49 57
56 63 72
52 59 68
48 54 63
54 62 72
52 58 67
48 55 63
40 45 52
60 69 80
53 59 68
55 62 72
60 67 77
57 64 72
44 50 57
56 63 72
53 60 68
43 49 57
54 62 72
56 63 72
59 67 76
59 66 76
54 62 72
58 66 77
57 65 76
54 62 72
57 63 72
53 59 67
55 63 73
52 59 68
61 69 80
60 67 76
50 58 68
48 55 63
52 59 68
59 66 76
55 63 72
56 63 72
59 66 76
61 70 80
51 58 67
58 66 76
58 66 76
57 66 76
48 54 63
56 63 73
57 64 73
62 70 80
58 66 77
58 66 76
56 63 73
51 59 68
58 66 76
56 63 72
62 70 80
59 67 77
61 69 80
49 55 64
58 66 76
58 66 76
57 65 76
51 58 68
61 69 80
56 63 72
57 64 72
51 58 67
57 66 77
56 63 72
60 69 80
56 63 72
56 63 72
56 64 73
54 62 72
59 66 76
56 63 72
53 61 72
53 59 68
60 69 80
58 66 76
51 58 68
59 67 77
56 63 72
47 54 63
58 66 76
58 66 76
53 62 72
60 69 80
59 67 77
58 66 76
58 66 77
59 67 77
54 62 72
58 66 77
57 65 76
58 66 76
60 69 80
56 63 72
57 66 77
59 66 76
61 70 80
63 71 80
59 66 76
55 62 72
56 65 76
58 66 76
61 70 80
60 67 76
57 64 73
55 62 72
58 66 76
61 69 80
57 66 77
58 66 76
47 54 63
57 66 76
60 69 80
58 66 77
60 69 80
56 63 72
56 65 76
57 65 76
61 70 80
59 66 76
59 69 80
59 66 77
62 70 80
61 69 80
61 69 80
63 71 80
60 67 77
57 66 77
61 70 80
57 65 76
59 67 77
59 67 77
60 69 80
60 69 80
62 70 80
59 69 80
61 68 77
58 66 77
59 67 77
58 66 76
54 62 72
61 69 80
58 66 77
61 70 80
61 69 80
64 71 80
58 66 76
57 66 77
59 66 76
62 70 80
61 70 80
62 70 80
59 66 76
60 69 80
58 66 76
51 58 67
56 65 76
55 62 72
59 66 76
59 67 77
60 67 77
62 70 80
51 58 68
62 70 80
62 70 80
59 66 76
56 63 73
64 71 80
53 61 72
59 66 77
56 63 72
54 62 72
47 54 63
57 65 76
58 66 76
51 58 68
50 58 67
52 59 69
55 63 72
54 62 72
58 68 80
58 66 76
57 66 77
53 59 68
53 62 72
55 63 72
51 58 68
58 64 72
56 63 72
61 69 80
58 66 77
52 59 68
55 63 72
61 69 80
55 63 72
55 63 72
58 66 76
51 58 68
54 60 68
59 67 76
60 69 80
50 58 68
51 58 67
57 65 76
58 66 76
44 50 59
62 70 80
54 62 72
52 59 68
59 66 76
57 65 76
58 66 76
54 62 72
44 50 57
52 59 68
42 49 58
54 62 72
61 70 80
56 63 72
55 62 72
47 54 63
56 63 72
63 71 80
55 63 73
55 63 72
50 58 68
58 66 77
52 59 68
54 62 72
48 54 62
47 54 63
56 63 72
55 62 72
55 63 72
56 63 73
48 55 63
39 45 52
48 54 62
41 46 52
43 49 57
53 60 68
59 66 76
55 63 72
53 61 72
40 45 53
62 70 80
55 63 72
59 66 76
60 67 76
54 62 72
46 53 62
57 64 73
52 59 67
61 69 80
58 66 76
56 63 72
52 58 67
49 56 64
55 63 72
54 62 72
56 63 72
48 54 62
48 54 62
54 60 68
54 62 72
53 59 67
58 64 72
50 58 67
47 54 62
62 70 80
49 55 63
45 50 57
45 50 57
47 54 63
58 64 73
52 59 68
54 62 72
55 62 72
51 58 67
48 54 63
52 59 68
48 55 63
48 54 62
56 63 72
47 54 63
52 59 69
51 58 67
52 59 68
49 55 63
54 62 72
58 66 76
56 63 72
49 55 63
45 50 57
47 54 63
54 62 72
53 60 69
56 63 73
55 62 72
51 58 67
49 55 62
52 59 68
40 45 52
52 59 68
43 49 57
57 63 72
43 49 57
45 51 58
48 55 63
36 40 45
58 66 76
47 54 62
48 54 63
48 54 63
44 50 57
54 62 72
45 51 58
51 58 67
45 51 59
51 58 67
55 62 72
50 56 63
44 50 58
46 51 58
50 55 63
48 54 63
49 55 63
43 49 57
50 58 67
44 50 57
53 60 68
52 59 68
37 41 46
43 49 57
52 59 68
47 54 62
55 62 72
49 55 64
48 54 62
51 58 68
50 57 67
60 67 76
51 58 68
56 63 72
48 54 62
48 54 62
34 39 45
57 63 72
51 59 68
49 55 63
53 59 68
40 45 52
52 59 68
54 59 67
52 59 68
58 66 76
50 55 63
43 49 57
54 62 72
62 70 80
48 55 63
51 58 67
47 54 63
44 50 57
51 58 67
52 59 68
42 46 53
60 69 80
52 58 67
55 62 72
44 50 58
51 58 68
60 67 76
49 55 62
44 50 58
47 54 63
50 58 68
62 70 80
56 63 72
52 59 67
50 56 63
59 66 76
57 64 72
48 55 63
62 70 80
52 59 67
52 59 68
53 59 67
60 67 76
56 63 72
57 63 72
47 54 62
46 51 58
57 66 77
53 60 69
51 58 68
56 63 72
62 70 80
49 57 67
55 62 72
55 62 72
48 54 63
59 66 77
51 58 67
52 58 67
41 48 57
57 66 76
55 62 72
52 59 68
59 67 76
49 55 63
53 59 68
49 55 63
53 61 72
54 62 72
56 63 72
58 66 76
61 69 80
56 63 72
51 58 68
49 55 64
50 55 62
58 66 76
61 69 80
60 67 76
52 59 68
59 67 76
57 66 76
55 63 73
38 44 51
60 67 76
47 54 62
49 55 63
61 69 80
61 69 80
51 58 68
52 59 68
60 67 77
61 69 80
63 70 80
55 62 72
58 66 76
46 53 62
58 66 76
55 62 72
54 62 72
62 70 80
54 62 72
51 58 68
59 66 76
58 66 76
56 63 72
55 63 72
62 70 80
60 67 76
58 66 76
58 66 77
52 59 68
61 70 80
57 64 72
58 66 76
53 61 72
55 62 72
58 66 76
59 66 76
60 69 80
57 65 76
54 60 68
59 67 77
54 62 72
58 66 76
53 61 72
54 62 72
54 62 72
55 63 72
61 69 80
60 67 76
60 69 80
61 69 80
57 65 76
46 51 59
55 63 72
61 70 80
59 67 77
55 63 72
60 67 76
62 70 80
58 66 76
54 62 73
59 66 76
51 59 68
62 70 80
57 66 77
57 65 76
63 70 80
57 65 76
60 67 77
62 70 80
61 69 80
54 62 72
62 70 80
57 66 76
55 63 72
63 70 80
59 66 77
60 69 80
60 69 80
61 69 80
49 57 68
61 69 80
60 67 76
62 70 80
62 70 80
57 63 72
58 66 76
63 70 80
53 60 68
61 70 80
57 66 76
61 70 80
61 70 80
55 63 72
52 59 68
61 70 80
51 58 68
61 69 80
48 54 63
57 64 72
61 70 80
60 69 80
55 63 73
54 62 72
56 65 76
63 70 80
61 69 80
59 69 80
58 66 77
61 69 80
61 69 80
57 66 77
57 63 72
60 67 77
61 69 80
55 63 72
61 69 80
57 65 76
62 70 80
59 67 77
62 70 80
57 66 76
64 71 80
54 62 73
58 66 76
54 62 72
63 71 80
59 66 76
60 69 80
53 59 68
60 69 80
56 65 76
61 69 80
57 66 77
64 71 80
60 67 77
59 66 76
59 66 77
61 70 80
52 59 68
63 70 80
58 66 76
52 59 68
48 54 63
56 63 72
54 62 72
47 53 62
58 66 76
50 58 67
56 63 73
63 71 80
55 63 72
59 67 77
57 66 76
57 66 76
51 59 68
58 66 77
60 69 80
61 70 80
61 70 80
58 66 77
61 69 80
62 70 80
57 66 76
48 54 63
56 63 72
64 71 80
55 62 72
52 59 69
57 65 76
48 54 63
59 66 77
57 65 76
52 59 68
48 54 63
51 58 68
46 53 63
49 57 67
52 59 68
60 67 77
49 55 63
51 58 67
58 66 77
57 66 77
54 62 72
55 62 72
47 54 63
57 65 76
53 59 68
58 66 77
55 62 72
59 67 77
62 70 80
60 69 80
33 38 45
54 62 72
54 62 72
50 58 67
54 62 72
49 55 63
53 59 68
52 59 67
58 66 77
57 66 77
62 70 80
55 62 72
45 51 58
55 63 72
57 66 76
57 64 72
51 58 67
59 66 76
51 58 67
43 50 58
47 54 63
57 65 76
58 66 77
56 63 73
54 59 67
47 54 62
56 65 76
54 62 72
53 59 67
54 62 72
59 67 76
53 59 68
57 65 76
52 59 68
53 59 68
51 58 68
52 59 68
51 58 68
55 63 72
47 54 63
53 59 68
56 63 72
46 53 63
58 66 76
47 54 63
53 59 68
49 55 62
55 62 72
51 58 67
58 66 76
53 60 68
48 54 62
49 55 62
54 62 72
52 59 68
47 53 62
62 70 80
56 63 72
44 50 57
53 59 68
54 60 69
58 66 76
59 66 76
39 44 52
55 62 72
55 63 72
48 54 62
49 55 64
48 54 63
54 62 72
56 63 72
51 58 68
48 55 63
42 46 53
45 51 58
52 59 67
41 46 53
52 59 68
62 70 80
43 49 57
50 58 67
56 63 72
52 59 68
55 62 72
44 50 58
44 50 57
53 59 68
47 54 63
42 49 57
55 63 72
48 54 62
50 58 67
52 58 67
47 54 63
50 56 63
48 54 62
46 51 57
48 55 63
43 49 57
52 59 68
49 56 64
53 59 68
44 50 58
53 59 68
50 56 63
55 62 72
44 50 58
42 48 57
45 51 58
41 46 52
57 63 72
43 49 57
52 59 68
55 62 72
52 59 67
53 59 68
56 63 72
48 55 63
55 62 72
40 45 52
58 66 76
52 58 67
52 59 68
53 59 68
47 54 63
47 54 63
47 54 62
47 54 62
51 58 68
55 62 72
53 59 68
48 54 62
51 58 67
52 59 68
52 59 67
49 55 62
38 44 52
44 49 57
45 50 58
52 59 67
46 51 58
49 55 63
58 66 76
54 62 72
45 50 57
51 58 67
49 55 63
50 57 67
53 60 68
49 55 63
46 51 58
49 55 63
49 55 63
59 67 77
53 60 68
56 63 73
51 58 68
55 62 72
55 63 72
57 65 76
52 59 68
56 63 72
52 59 68
51 58 68
48 54 62
59 66 76
55 62 72
57 64 72
47 54 63
46 53 62
47 54 64
60 69 80
49 55 63
44 50 58
54 62 72
58 66 76
57 66 77
59 67 76
47 54 64
53 59 68
48 55 63
58 66 76
56 63 73
45 51 58
58 66 76
48 55 63
57 65 76
55 62 72
58 66 76
59 66 76
61 70 80
53 59 67
48 54 63
53 61 72
53 60 68
51 58 67
50 58 68
58 66 76
52 59 68
59 69 80
51 58 67
47 54 63
48 55 64
47 54 63
50 58 68
53 59 68
55 63 72
61 69 80
55 63 72
55 63 72
56 63 72
56 63 73
47 52 58
54 62 72
58 66 76
44 50 57
60 67 77
54 62 72
58 66 76
51 58 68
59 68 80
54 62 72
59 67 77
57 65 76
60 69 80
50 56 64
54 62 72
53 60 68
62 70 80
55 62 72
52 59 68
48 54 63
56 63 72
57 65 76
59 67 77
51 58 68
56 63 73
57 66 77
50 58 68
54 62 72
54 62 72
60 67 77
60 69 80
56 63 72
55 63 72
57 65 76
55 62 72
58 66 76
61 69 80
58 66 76
59 67 77
61 69 80
54 62 72
56 65 76
60 69 80
53 61 72
60 69 80
61 69 80
58 66 76
57 66 77
50 58 68
63 70 80
62 70 80
51 58 68
57 66 77
58 66 76
58 66 76
57 65 76
56 63 72
56 65 76
52 61 72
60 69 80
59 67 77
64 71 80
58 66 76
57 65 76
44 50 57
59 67 77
54 62 73
61 69 80
60 69 80
53 61 72
57 66 76
62 70 80
58 66 77
55 62 72
61 70 80
62 70 80
52 59 68
59 67 77
46 54 63
58 66 76
57 66 77
57 65 76
58 66 76
57 66 77
59 67 77
56 65 76
60 67 76
55 62 72
54 62 72
61 69 80
58 66 76
